output/AppleLog2_display/AppleLog2_to_PROVIA_33grid.cube
TITLE "AppleLog2_to_PROVIA"
# Input: Apple Log 2 (Apple Gamut primaries, D65)
# Output: BT.709 / Gamma 2.2 (display-referred)
# Use: Display LUT for iPhone 17 Pro Apple Log 2 footage
# Source: FLog2C_to_PROVIA_65grid_V.1.00.cube
# Generated from Fujifilm GFX ETERNA 55 F-Log2C LUT
LUT_3D_SIZE 33
0.000459 0.000290 0.000061
0.000459 0.000290 0.000061
0.000459 0.000290 0.000061
0.000459 0.000290 0.000061
0.000459 0.000290 0.000061
0.000459 0.000290 0.000061
0.000459 0.000290 0.000061
0.000459 0.000290 0.000061
0.045657 0.003535 0.003048
0.108383 0.004974 0.011608
0.195014 0.008069 0.019450
0.308143 0.009288 0.035366
0.435414 0.013895 0.051861
0.583306 0.016745 0.077468
0.738532 0.021300 0.116531
0.882778 0.031210 0.181998
0.999940 0.046584 0.277544
0.999124 0.076008 0.389883
0.999594 0.131479 0.449454
0.999444 0.206978 0.467720
1.000000 0.257130 0.480656
1.000000 0.257130 0.480656
1.000000 0.257130 0.480656
1.000000 0.257130 0.480656
1.000000 0.257130 0.480656
1.000000 0.257130 0.480656
0.999834 0.283110 0.458748
0.999492 0.319685 0.427540
0.999017 0.355948 0.395023
0.999594 0.393562 0.361207
0.999698 0.432620 0.322493
0.999751 0.472199 0.279700
0.999473 0.513385 0.230316
0.000459 0.000290 0.000061
0.000459 0.000290 0.000061
0.000459 0.000290 0.000061
0.000459 0.000290 0.000061
0.000459 0.000290 0.000061
0.000459 0.000290 0.000061
0.021691 0.001930 0.000610
0.061741 0.002988 0.006853
0.109775 0.005055 0.011703
0.175366 0.008592 0.015632
0.264065 0.008743 0.027373
0.368301 0.012309 0.042002
0.493203 0.015196 0.061005
0.632380 0.017699 0.087852
0.776408 0.022171 0.129569
0.909102 0.034092 0.199562
0.999939 0.050560 0.293915
0.999018 0.080503 0.402167
0.999618 0.137627 0.451001
0.999554 0.213217 0.469253
1.000000 0.257130 0.480656
1.000000 0.257130 0.480656
1.000000 0.257130 0.480656
1.000000 0.257130 0.480656
0.999733 0.263694 0.474699
0.999838 0.290995 0.451374
0.999358 0.319162 0.428705
0.999901 0.348284 0.402614
0.999435 0.379879 0.373601
0.999702 0.413059 0.342922
0.999430 0.449080 0.305459
0.999592 0.485010 0.264866
0.999235 0.523308 0.217826
0.000459 0.000290 0.000061
0.000459 0.000290 0.000061
0.000459 0.000290 0.000061
0.000459 0.000290 0.000061
0.000459 0.000290 0.000061
0.006026 0.000456 0.000209
0.047193 0.003476 0.003422
0.087407 0.003747 0.010182
0.136215 0.007248 0.012084
0.206242 0.007770 0.021632
0.293899 0.009112 0.032783
0.392869 0.013290 0.045002
0.515527 0.015804 0.064499
0.651641 0.018471 0.092257
0.790871 0.022909 0.135317
0.919624 0.035244 0.206583
0.999939 0.052162 0.300511
0.999061 0.082950 0.405886
0.999628 0.140132 0.451632
0.999720 0.189600 0.464402
0.999859 0.220032 0.473791
0.999998 0.256604 0.480548
1.000000 0.257130 0.480656
0.999579 0.261924 0.476673
0.999834 0.282772 0.457471
0.999916 0.306857 0.438453
0.999213 0.332707 0.415964
0.999879 0.359989 0.391830
0.999667 0.389293 0.364666
0.999652 0.420657 0.335542
0.999315 0.455576 0.298476
0.999431 0.490134 0.258331
0.999208 0.527466 0.212448
0.000459 0.000290 0.000061
0.000459 0.000290 0.000061
0.000459 0.000290 0.000061
0.000459 0.000290 0.000061
0.000459 0.000290 0.000061
0.024857 0.002396 0.000590
0.068195 0.003179 0.007690
0.108121 0.004959 0.011591
0.155690 0.009116 0.011809
0.228763 0.008145 0.023730
0.315459 0.009378 0.036692
0.413317 0.013581 0.048299
0.532029 0.016253 0.067082
0.665995 0.019045 0.095539
0.801283 0.023791 0.140122
0.927555 0.036112 0.211875
0.999938 0.053375 0.305503
0.999452 0.072580 0.376203
0.999895 0.096374 0.438518
0.999722 0.134281 0.451875
0.999938 0.178248 0.461765
0.999877 0.225295 0.476058
0.999789 0.256262 0.475969
0.999766 0.276637 0.464113
0.999972 0.297176 0.447790
0.999788 0.318298 0.428940
0.999178 0.342877 0.406385
0.999763 0.369225 0.383249
0.999740 0.396672 0.357594
0.999616 0.426531 0.329747
0.999231 0.460418 0.293276
0.999310 0.493977 0.253429
0.999199 0.530628 0.208341
0.000459 0.000290 0.000061
0.000459 0.000290 0.000061
0.000459 0.000290 0.000061
0.000459 0.000290 0.000061
0.000459 0.000290 0.000061
0.040789 0.003720 0.001863
0.084639 0.003665 0.009823
0.124950 0.006164 0.012250
0.177115 0.008546 0.015972
0.246716 0.008462 0.025360
0.332304 0.010096 0.038792
0.429941 0.013817 0.050979
0.537317 0.016228 0.068230
0.648331 0.018488 0.092531
0.759994 0.021570 0.124435
0.867328 0.027544 0.170089
0.960890 0.041070 0.232164
0.999915 0.055348 0.307041
0.998812 0.072985 0.389297
0.999645 0.109191 0.436166
0.999533 0.152893 0.453950
0.999773 0.210656 0.461643
0.999794 0.265262 0.462450
0.999615 0.290079 0.452497
0.999930 0.308190 0.439959
0.999488 0.328253 0.420311
0.999424 0.350777 0.399653
0.999672 0.376632 0.376357
0.999798 0.402656 0.351858
0.999587 0.431912 0.324263
0.999162 0.464408 0.288992
0.999210 0.497161 0.249369
0.999191 0.533256 0.204927
0.000021 0.005965 0.000037
0.000064 0.012778 0.000061
0.000139 0.015042 0.000189
0.000195 0.016729 0.000285
0.001589 0.015353 0.000294
0.036614 0.013299 0.000292
0.072838 0.008983 0.003443
0.110475 0.008922 0.009520
0.153045 0.009827 0.011696
0.210737 0.008770 0.021255
0.282943 0.011282 0.029340
0.361195 0.013482 0.041468
0.460621 0.013315 0.056261
0.567911 0.016350 0.073457
0.684612 0.019689 0.099154
0.800320 0.024120 0.139356
0.905407 0.031779 0.197139
0.985473 0.046396 0.267050
0.999692 0.066058 0.345592
0.999569 0.100748 0.416673
0.999525 0.149706 0.440308
0.999764 0.211619 0.445218
0.999636 0.274853 0.450788
0.999523 0.300936 0.443533
0.999704 0.317491 0.429771
0.999330 0.336376 0.413196
0.999680 0.357361 0.394183
0.999593 0.382533 0.370860
0.999847 0.407762 0.346964
0.999562 0.436540 0.319550
0.999143 0.467900 0.285115
0.999123 0.499924 0.245845
0.999185 0.535545 0.201956
0.000353 0.033016 0.000030
0.000781 0.040057 0.000303
0.000975 0.042953 0.000441
0.001121 0.045127 0.000544
0.000219 0.039920 0.000019
0.020230 0.034771 0.000065
0.052866 0.033583 0.000614
0.087607 0.031236 0.000120
0.126949 0.030608 0.000412
0.182365 0.028415 0.006171
0.248830 0.028758 0.011431
0.323687 0.027548 0.024805
0.416129 0.027158 0.037489
0.519331 0.027269 0.057295
0.636567 0.026919 0.079813
0.757037 0.031647 0.111670
0.866070 0.038926 0.163773
0.963907 0.052779 0.229561
0.999368 0.074588 0.305274
0.999799 0.112461 0.383851
0.999748 0.159415 0.420990
0.999620 0.215918 0.429283
0.999601 0.278892 0.437727
0.999577 0.309888 0.436630
0.999548 0.325430 0.421345
0.999406 0.343117 0.407113
0.999902 0.363060 0.389460
0.999522 0.387570 0.366170
0.999890 0.412250 0.342662
0.999540 0.440638 0.315381
0.999211 0.471090 0.281314
0.999045 0.502390 0.242700
0.999179 0.537592 0.199297
0.001812 0.060645 0.000313
0.001976 0.065812 0.000053
0.001937 0.068389 0.000097
0.001894 0.070402 0.000151
0.001295 0.061155 0.000227
0.009555 0.057002 0.000300
0.041187 0.053271 0.000217
0.073593 0.051131 0.000501
0.109684 0.050337 0.000283
0.161413 0.048852 0.000344
0.224896 0.048074 0.000913
0.300542 0.046964 0.005414
0.387275 0.045681 0.018509
0.488690 0.047029 0.033687
0.604642 0.046558 0.056165
0.726135 0.051061 0.088368
0.839032 0.057601 0.132156
0.943995 0.071958 0.196263
0.999594 0.092433 0.268890
0.999855 0.128281 0.347290
0.999884 0.168753 0.402007
0.999419 0.220475 0.414070
0.999569 0.281998 0.425761
0.999531 0.317709 0.428673
0.999581 0.332931 0.414631
0.999473 0.349128 0.401691
0.999932 0.368823 0.384311
0.999457 0.392143 0.361915
0.999904 0.416384 0.338671
0.999518 0.444400 0.311555
0.999272 0.474030 0.277811
0.998973 0.504669 0.239793
0.999174 0.539490 0.196834
0.001769 0.091873 0.000442
0.002001 0.098386 0.000303
0.002095 0.101011 0.000247
0.002166 0.102998 0.000204
0.001756 0.086568 0.000375
0.004585 0.079376 0.000107
0.028958 0.074668 0.000283
0.059299 0.072459 0.000137
0.093923 0.072218 0.000004
0.144492 0.070233 0.000329
0.203378 0.069026 0.000193
0.275920 0.069023 0.000270
0.360382 0.067143 0.003276
0.460809 0.068165 0.011848
0.574225 0.069822 0.031349
0.694269 0.071831 0.058330
0.810938 0.079487 0.097358
0.919174 0.092264 0.156736
0.999813 0.113472 0.229142
0.999494 0.146516 0.308970
0.999570 0.185294 0.374978
0.999791 0.229831 0.394891
0.999363 0.287192 0.410206
0.999339 0.326526 0.417120
0.999617 0.341427 0.407024
0.999558 0.356518 0.395030
0.999819 0.376014 0.377581
0.999381 0.397456 0.356977
0.999904 0.421238 0.333969
0.999493 0.448821 0.307063
0.999345 0.477495 0.273680
0.998889 0.507366 0.236353
0.999169 0.541741 0.193913
0.002453 0.131213 0.000007
0.002408 0.137254 0.000016
0.002354 0.140373 0.000034
0.002508 0.136529 0.000066
0.001122 0.115861 0.000003
0.001425 0.107487 0.000574
0.015095 0.104712 0.000461
0.044949 0.099635 0.000068
0.080759 0.098853 0.000092
0.123244 0.096989 0.000560
0.181901 0.096144 0.000572
0.253184 0.094812 0.000169
0.337242 0.093604 0.000002
0.431983 0.094037 0.000443
0.543511 0.094564 0.009785
0.662343 0.097721 0.027616
0.781138 0.104660 0.061257
0.892297 0.118048 0.115920
0.988380 0.138808 0.182369
0.999900 0.168491 0.264591
0.999631 0.203137 0.341950
0.999864 0.243055 0.372290
0.999382 0.293997 0.391222
0.999327 0.336250 0.403054
0.999743 0.352477 0.397416
0.999694 0.367315 0.385298
0.999680 0.384852 0.369299
0.999262 0.404232 0.350474
0.999905 0.427305 0.328092
0.999461 0.454382 0.301418
0.999436 0.481871 0.268460
0.998911 0.510954 0.231976
0.999162 0.544606 0.190197
0.001495 0.190617 0.000186
0.001388 0.197029 0.000180
0.001344 0.199640 0.000178
0.001789 0.173973 0.000067
0.001556 0.153911 0.000461
0.001675 0.142855 0.000377
0.003992 0.138840 0.000068
0.028203 0.134268 0.000005
0.062281 0.131064 0.000103
0.104534 0.129613 0.000111
0.162217 0.126013 0.000392
0.231047 0.125708 0.000105
0.313194 0.125165 0.000250
0.404004 0.125469 0.000079
0.511114 0.126772 0.000426
0.629903 0.130158 0.003471
0.748737 0.134853 0.023145
0.862663 0.150535 0.067423
0.965072 0.169205 0.128740
0.999209 0.197196 0.209905
0.999699 0.229233 0.298325
0.999819 0.262810 0.344658
0.999668 0.303388 0.367694
0.999598 0.346687 0.386134
0.999939 0.366017 0.385758
0.999852 0.380267 0.373630
0.999548 0.395378 0.359480
0.999065 0.412940 0.341703
0.999906 0.434835 0.320802
0.999351 0.460701 0.293947
0.999550 0.487370 0.261898
0.999051 0.515629 0.226436
0.999153 0.548239 0.185485
0.000010 0.258434 0.000030
0.000011 0.264356 0.000029
0.000180 0.256741 0.000098
0.000260 0.220595 0.000250
0.001814 0.201360 0.000091
0.001461 0.190744 0.000195
0.003987 0.183891 0.000111
0.014539 0.180082 0.000260
0.042239 0.176349 0.000367
0.086069 0.171238 0.000281
0.139179 0.168466 0.000214
0.206294 0.168120 0.000532
0.287868 0.164970 0.000006
0.379752 0.163150 0.000193
0.483737 0.165351 0.000000
0.597025 0.168621 0.000068
0.716709 0.176376 0.001482
0.833394 0.188179 0.021896
0.940374 0.207581 0.070183
0.997533 0.230498 0.147034
0.999078 0.259494 0.241604
0.999816 0.289615 0.310668
0.999207 0.318542 0.337924
0.999427 0.361420 0.364559
0.999879 0.382429 0.372840
0.999709 0.393575 0.362235
0.999436 0.407709 0.348084
0.998826 0.423538 0.331022
0.999831 0.444357 0.310880
0.999208 0.468482 0.284645
0.999692 0.494235 0.253700
0.999228 0.521504 0.219476
0.999144 0.552827 0.179535
0.000078 0.340757 0.000038
0.000086 0.346158 0.000039
0.000012 0.304830 0.000000
0.000359 0.273311 0.000000
0.000008 0.253645 0.000028
0.000023 0.246488 0.000037
0.000232 0.239562 0.000169
0.000785 0.233015 0.000518
0.027002 0.228539 0.000317
0.064196 0.224354 0.000202
0.116372 0.219396 0.000192
0.182976 0.216997 0.000459
0.261830 0.214601 0.000211
0.351766 0.213023 0.000374
0.453798 0.213748 0.000019
0.565725 0.215741 0.000200
0.683992 0.222164 0.000054
0.803417 0.230742 0.000115
0.913399 0.248474 0.017750
0.997833 0.268940 0.080003
0.998941 0.293829 0.177428
0.999766 0.320239 0.266004
0.999334 0.342658 0.303104
0.999061 0.378505 0.333786
0.999721 0.401689 0.353896
0.999725 0.410558 0.345947
0.999355 0.423312 0.332221
0.999017 0.437316 0.316404
0.999623 0.456348 0.297290
0.999030 0.478035 0.273208
0.999699 0.502845 0.243507
0.999448 0.528843 0.210790
0.999144 0.558777 0.171090
0.000035 0.434373 0.000342
0.000006 0.413028 0.000184
0.000304 0.356799 0.000026
0.000057 0.330039 0.000084
0.000036 0.316893 0.000073
0.000013 0.307697 0.000132
0.000383 0.300883 0.000235
0.001652 0.294757 0.000277
0.013030 0.289436 0.000241
0.038995 0.284204 0.000171
0.091148 0.278948 0.000136
0.155852 0.274396 0.000159
0.235281 0.272402 0.000658
0.326960 0.269108 0.000011
0.425893 0.268231 0.000176
0.537112 0.268901 0.000406
0.651204 0.274219 0.000207
0.772355 0.283027 0.000162
0.881679 0.294932 0.000454
0.982525 0.312465 0.007746
0.999499 0.333322 0.101288
0.999874 0.355779 0.202695
0.999161 0.373239 0.257675
0.999231 0.401129 0.294493
0.999615 0.424361 0.324919
0.999959 0.432192 0.322660
0.999354 0.442676 0.310915
0.999426 0.454052 0.298395
0.999423 0.470890 0.280856
0.999035 0.490175 0.257917
0.999630 0.513482 0.230971
0.999722 0.537939 0.200033
0.999150 0.566342 0.159833
0.000032 0.538331 0.000244
0.000060 0.457310 0.000004
0.000024 0.416376 0.000599
0.000140 0.395954 0.000528
0.000035 0.384011 0.000162
0.000061 0.374944 0.000242
0.000093 0.367922 0.000349
0.000052 0.362761 0.000243
0.006094 0.357539 0.000128
0.019152 0.351919 0.000006
0.063619 0.346522 0.000482
0.124739 0.342060 0.000197
0.204239 0.338243 0.000603
0.296967 0.333341 0.000176
0.395844 0.329647 0.000288
0.506703 0.331064 0.000294
0.619989 0.333980 0.000376
0.739480 0.339160 0.000026
0.852676 0.347868 0.000234
0.952901 0.362578 0.000146
0.997672 0.378983 0.025704
0.999702 0.400844 0.124349
0.999335 0.412208 0.198590
0.999556 0.430783 0.246476
0.999441 0.451055 0.285278
0.999954 0.457313 0.294949
0.999625 0.464562 0.287212
0.999595 0.475318 0.274358
0.999413 0.488865 0.260858
0.999180 0.505071 0.238705
0.999544 0.526438 0.215731
0.999616 0.549746 0.184145
0.999154 0.575722 0.145881
0.000006 0.647592 0.000991
0.000008 0.512178 0.000596
0.000023 0.482630 0.000417
0.000237 0.466480 0.000434
0.000455 0.455194 0.000816
0.000126 0.446940 0.000218
0.000187 0.441659 0.000388
0.000419 0.437937 0.000892
0.000386 0.433453 0.000840
0.000068 0.427831 0.000196
0.035560 0.421537 0.000299
0.092590 0.415445 0.000378
0.171819 0.409879 0.000259
0.266802 0.403920 0.000272
0.367359 0.400185 0.000216
0.476106 0.398559 0.000065
0.591716 0.397906 0.000067
0.710738 0.402560 0.000035
0.824240 0.410164 0.000244
0.923296 0.420539 0.000044
0.994482 0.433754 0.000002
0.999010 0.450108 0.039683
0.998974 0.461863 0.127158
0.999659 0.468081 0.185672
0.999265 0.482333 0.235132
0.999846 0.488595 0.263183
0.999619 0.491905 0.256315
0.999613 0.499504 0.247169
0.999405 0.510388 0.234829
0.999512 0.523517 0.216683
0.999298 0.542743 0.194134
0.999332 0.564308 0.163924
0.999155 0.587247 0.128749
0.000093 0.667836 0.000066
0.000105 0.577044 0.000743
0.000437 0.556481 0.000872
0.000036 0.544029 0.000390
0.000016 0.536179 0.000742
0.000014 0.529963 0.000929
0.000017 0.524909 0.000671
0.000019 0.520468 0.000438
0.000422 0.515490 0.000612
0.000977 0.509518 0.000942
0.017458 0.504090 0.000633
0.053422 0.498031 0.000204
0.134146 0.490241 0.000258
0.233304 0.484249 0.000809
0.336260 0.479795 0.000057
0.443937 0.473086 0.000449
0.563327 0.471599 0.000230
0.679352 0.471884 0.000217
0.794160 0.476895 0.000328
0.893851 0.483294 0.000112
0.982595 0.493596 0.000000
0.999439 0.503992 0.003081
0.999866 0.518079 0.042585
0.999741 0.513793 0.107445
0.999255 0.520545 0.170131
0.999021 0.522296 0.218653
0.999765 0.522693 0.219542
0.999410 0.527780 0.213389
0.999381 0.535597 0.202634
0.999891 0.545873 0.190093
0.999071 0.562233 0.167468
0.999205 0.581493 0.139172
0.999141 0.601814 0.105096
0.000051 0.702289 0.000026
0.000007 0.648591 0.000327
0.000000 0.633630 0.000034
0.000153 0.625349 0.000028
0.000238 0.619040 0.000054
0.000129 0.613553 0.000129
0.000037 0.608889 0.000195
0.000031 0.604881 0.000256
0.000096 0.600459 0.000320
0.000172 0.595118 0.000389
0.010353 0.590184 0.000203
0.030633 0.584466 0.000028
0.095970 0.577712 0.000130
0.189206 0.569971 0.000171
0.297210 0.562641 0.000375
0.412383 0.556327 0.000179
0.531148 0.550260 0.000400
0.647946 0.547043 0.000109
0.759904 0.547785 0.000016
0.865465 0.550164 0.000036
0.954036 0.557258 0.000087
0.997768 0.563452 0.000076
0.999287 0.572840 0.002240
0.999074 0.568094 0.019902
0.999841 0.565486 0.088201
0.999355 0.561138 0.155537
0.998694 0.558421 0.170961
0.999382 0.560058 0.169954
0.999270 0.564729 0.164405
0.999677 0.573457 0.152278
0.999060 0.585813 0.131236
0.999414 0.601392 0.109092
0.999123 0.619323 0.076626
0.000001 0.755935 0.000072
0.000013 0.723443 0.000436
0.000004 0.712853 0.000283
0.000082 0.705864 0.000396
0.000230 0.700799 0.000720
0.000354 0.696585 0.000989
0.000283 0.693198 0.000822
0.000187 0.690207 0.000599
0.000076 0.686780 0.000344
0.000000 0.682415 0.000288
0.000000 0.676869 0.000623
0.010966 0.670498 0.000799
0.061337 0.663834 0.000226
0.145980 0.657181 0.000007
0.255560 0.649593 0.000181
0.373137 0.640958 0.000379
0.493690 0.633674 0.000098
0.613352 0.626350 0.000169
0.727362 0.622828 0.000050
0.832355 0.621127 0.000238
0.925287 0.618736 0.000323
0.997416 0.618104 0.000043
0.999316 0.631550 0.000134
0.999561 0.628042 0.000015
0.999298 0.620237 0.013641
0.999339 0.607872 0.067175
0.999315 0.599684 0.110066
0.999451 0.596400 0.114913
0.999123 0.599896 0.110949
0.999649 0.604574 0.103122
0.999048 0.613398 0.087142
0.999623 0.625090 0.068284
0.999112 0.640835 0.039081
0.000015 0.815926 0.000185
0.000056 0.794302 0.000122
0.000030 0.787312 0.000099
0.000007 0.782320 0.000086
0.000000 0.778630 0.000114
0.000000 0.775689 0.000157
0.000000 0.773137 0.000193
0.000000 0.770834 0.000225
0.000003 0.768183 0.000242
0.000010 0.764923 0.000247
0.000018 0.760948 0.000257
0.007626 0.755850 0.000197
0.022288 0.749487 0.000057
0.095106 0.742194 0.000393
0.209714 0.733750 0.000791
0.334411 0.723441 0.000099
0.457833 0.713443 0.000004
0.577928 0.705781 0.000038
0.693549 0.696206 0.000408
0.800329 0.684715 0.000319
0.895032 0.675977 0.000389
0.976593 0.671236 0.000305
0.999472 0.674971 0.000176
0.999185 0.683532 0.000064
0.999857 0.678532 0.000122
0.999296 0.660880 0.007112
0.999064 0.643106 0.035304
0.999069 0.638247 0.042674
0.999254 0.637671 0.044875
0.999852 0.638519 0.043418
0.999154 0.644757 0.033182
0.999732 0.653209 0.026220
0.999203 0.666031 0.008536
0.000156 0.874203 0.000628
0.000063 0.860535 0.000283
0.000029 0.855656 0.000193
0.000028 0.852097 0.000170
0.000028 0.849226 0.000152
0.000027 0.846792 0.000141
0.000022 0.844778 0.000264
0.000018 0.842942 0.000375
0.000012 0.840802 0.000506
0.000006 0.838134 0.000670
0.002000 0.834839 0.000753
0.008849 0.830828 0.000579
0.016826 0.826014 0.000367
0.073350 0.819966 0.000197
0.153332 0.812433 0.000040
0.282621 0.801513 0.000056
0.409659 0.790501 0.000423
0.535958 0.775125 0.000194
0.655894 0.759607 0.000135
0.765787 0.745692 0.000035
0.865458 0.734801 0.000617
0.953817 0.725522 0.000346
0.998292 0.720465 0.000002
0.998643 0.722732 0.000008
0.999413 0.718184 0.000096
0.998762 0.710633 0.000014
0.999626 0.693826 0.000475
0.999571 0.683358 0.000084
0.999150 0.679767 0.002574
0.999917 0.678348 0.000569
0.999596 0.680727 0.003312
0.999614 0.686219 0.000088
0.999400 0.695144 0.000005
0.000012 0.928978 0.000118
0.000015 0.919685 0.000188
0.000017 0.916095 0.000283
0.000022 0.913602 0.000275
0.000027 0.911575 0.000267
0.000031 0.909841 0.000259
0.000035 0.908312 0.000252
0.000038 0.906913 0.000244
0.000040 0.905296 0.000262
0.000035 0.903359 0.000408
0.000030 0.900948 0.000588
0.000022 0.897969 0.000809
0.013804 0.893863 0.000810
0.052384 0.888175 0.000382
0.113431 0.880566 0.000028
0.231372 0.869068 0.000054
0.359419 0.854049 0.000179
0.491137 0.836632 0.000232
0.616164 0.819451 0.000113
0.730375 0.804538 0.000055
0.832736 0.791644 0.000181
0.923365 0.781047 0.000393
0.991757 0.773013 0.000024
0.998945 0.770388 0.000001
0.999582 0.762072 0.000069
0.999594 0.746019 0.000429
0.998745 0.735888 0.000002
0.999361 0.727701 0.000176
0.998578 0.724879 0.000101
0.999059 0.719438 0.000120
0.999082 0.720340 0.000053
0.999263 0.720508 0.000174
0.998991 0.728387 0.000006
0.000000 0.978616 0.000093
0.000076 0.972289 0.000373
0.000114 0.969783 0.000541
0.000143 0.967925 0.000667
0.000143 0.966473 0.000673
0.000125 0.965282 0.000597
0.000108 0.964225 0.000530
0.000093 0.963254 0.000468
0.000074 0.962111 0.000395
0.000051 0.960671 0.000303
0.000022 0.958868 0.000188
0.000011 0.956582 0.000300
0.000005 0.953720 0.000596
0.000001 0.950232 0.000950
0.067825 0.940623 0.000757
0.186452 0.926122 0.000178
0.313425 0.910048 0.000048
0.448415 0.892410 0.000075
0.577771 0.874715 0.000061
0.695176 0.860129 0.000032
0.800954 0.845517 0.000390
0.895125 0.832430 0.000500
0.972277 0.822392 0.000087
0.998971 0.816956 0.000372
0.999131 0.806835 0.000008
0.999358 0.788361 0.000012
0.999262 0.768347 0.000372
0.999514 0.755856 0.000024
0.999313 0.752492 0.000069
0.999496 0.748164 0.000162
0.999746 0.747841 0.000097
0.999044 0.746583 0.000010
0.998930 0.747500 0.000118
0.000000 0.998732 0.000406
0.000000 0.997721 0.000365
0.000000 0.997261 0.000320
0.000000 0.996923 0.000287
0.000000 0.996647 0.000260
0.000000 0.996411 0.000237
0.000000 0.996204 0.000217
0.000164 0.995957 0.000204
0.000833 0.995504 0.000204
0.001670 0.994938 0.000204
0.002709 0.994236 0.000205
0.003985 0.993377 0.000205
0.005529 0.992341 0.000206
0.026963 0.989247 0.000236
0.071944 0.983712 0.000300
0.126031 0.977064 0.000371
0.257622 0.960823 0.000207
0.400912 0.943077 0.000062
0.536110 0.926116 0.000012
0.656761 0.909406 0.000007
0.766532 0.894676 0.000146
0.867042 0.881523 0.000084
0.951256 0.869734 0.000001
0.999307 0.860225 0.000176
0.999506 0.850159 0.000187
0.998983 0.831517 0.000014
0.999140 0.809853 0.000209
0.999474 0.787186 0.000098
0.999788 0.778418 0.000052
0.999144 0.773345 0.000014
0.999159 0.769878 0.000170
0.999098 0.767293 0.000244
0.999350 0.765936 0.000177
0.000000 1.000000 0.000285
0.000000 1.000000 0.000285
0.000000 1.000000 0.000285
0.000000 1.000000 0.000285
0.000000 1.000000 0.000285
0.000000 1.000000 0.000285
0.000000 1.000000 0.000285
0.000000 1.000000 0.000285
0.000000 1.000000 0.000285
0.000000 1.000000 0.000285
0.000000 1.000000 0.000285
0.007892 1.000000 0.000334
0.021937 1.000000 0.000422
0.039197 1.000000 0.000529
0.060142 1.000000 0.000660
0.125755 0.996523 0.000656
0.228784 0.990399 0.000562
0.349619 0.982744 0.000419
0.490750 0.973265 0.000205
0.614256 0.958489 0.000058
0.730351 0.942942 0.000139
0.832142 0.928267 0.000135
0.919338 0.914104 0.000301
0.986438 0.900167 0.000139
0.999284 0.887346 0.000357
0.999078 0.869781 0.000093
0.999517 0.849809 0.000084
0.999372 0.828513 0.000001
0.999597 0.813898 0.000390
0.999367 0.807186 0.000179
0.999118 0.801869 0.000033
0.999301 0.797346 0.000017
0.999158 0.794709 0.000037
0.000000 1.000000 0.000285
0.000000 1.000000 0.000285
0.000000 1.000000 0.000285
0.000000 1.000000 0.000285
0.000000 1.000000 0.000285
0.000000 1.000000 0.000285
0.000000 1.000000 0.000285
0.000000 1.000000 0.000285
0.000000 1.000000 0.000285
0.000000 1.000000 0.000285
0.000000 1.000000 0.000285
0.000000 1.000000 0.000285
0.000000 1.000000 0.000285
0.004276 0.999987 0.000280
0.055567 0.999831 0.000220
0.118214 0.999640 0.000147
0.193702 0.999410 0.000059
0.307981 0.999361 0.000041
0.447405 0.999314 0.000026
0.567963 0.990979 0.000085
0.686571 0.980443 0.000111
0.791478 0.967173 0.000086
0.881400 0.951113 0.000010
0.955645 0.935969 0.000001
0.994671 0.920834 0.000006
0.999145 0.905047 0.000042
0.999239 0.886989 0.000001
0.999336 0.865756 0.000005
0.998881 0.847883 0.000011
0.999444 0.841493 0.000017
0.999245 0.834876 0.000011
0.999011 0.829919 0.000114
0.999242 0.825184 0.000063
0.000000 1.000000 0.000285
0.000000 1.000000 0.000285
0.000000 1.000000 0.000285
0.000000 1.000000 0.000285
0.000000 1.000000 0.000285
0.000000 1.000000 0.000285
0.000000 1.000000 0.000285
0.000000 1.000000 0.000285
0.000000 1.000000 0.000285
0.002523 0.999990 0.000270
0.005780 0.999978 0.000250
0.009839 0.999962 0.000225
0.014846 0.999943 0.000194
0.020938 0.999919 0.000154
0.028218 0.999890 0.000104
0.036700 0.999856 0.000041
0.133838 0.999881 0.000026
0.258618 0.999913 0.000012
0.395038 0.999846 0.000009
