output/AppleLog2_display/AppleLog2_to_CLASSIC-CHROME_33grid.cube
TITLE "AppleLog2_to_CLASSIC-CHROME"
# Input: Apple Log 2 (Apple Gamut primaries, D65)
# Output: BT.709 / Gamma 2.2 (display-referred)
# Use: Display LUT for iPhone 17 Pro Apple Log 2 footage
# Source: FLog2C_to_CLASSIC-CHROME_65grid_V.1.00.cube
# Generated from Fujifilm GFX ETERNA 55 F-Log2C LUT
LUT_3D_SIZE 5
0.000178 0.000085 0.000052
0.019963 0.001805 0.000024
0.920999 0.126872 0.216877
0.958776 0.374451 0.448598
0.953785 0.588231 0.353148
0.000328 0.056186 0.000688
0.068409 0.040326 0.000111
0.756255 0.105396 0.088685
0.958220 0.447121 0.422439
0.953528 0.611193 0.336005
0.008623 0.613875 0.001513
0.048016 0.471260 0.000329
0.579301 0.451221 0.017484
0.953555 0.591716 0.308172
0.952377 0.656474 0.294839
0.213628 0.933641 0.045195
0.378880 0.925443 0.066078
0.631779 0.915568 0.108094
0.957117 0.896015 0.171491
0.952825 0.815816 0.137051
0.780629 0.966155 0.158582
0.788506 0.966408 0.160254
0.807103 0.967008 0.164213
0.907927 0.971016 0.190611
0.964568 0.973038 0.212368
0.000048 0.000146 0.036727
0.000036 0.000081 0.033510
0.881861 0.106726 0.180644
0.958776 0.374451 0.448598
0.953753 0.587252 0.353826
0.000079 0.045360 0.061448
0.033267 0.034724 0.032210
0.731548 0.092634 0.090677
0.957993 0.443317 0.423487
0.953562 0.610225 0.336750
0.015452 0.677248 0.012664
0.012529 0.496584 0.000140
0.552894 0.454032 0.015838
0.953543 0.589791 0.309640
0.952383 0.655809 0.295619
0.195908 0.934153 0.043536
0.363413 0.925980 0.063815
0.624445 0.915553 0.106709
0.957097 0.896043 0.171532
0.952815 0.815626 0.136984
0.779756 0.966128 0.158385
0.787744 0.966385 0.160094
0.806374 0.966985 0.164056
0.907570 0.970989 0.190521
0.964568 0.973038 0.212368
0.001589 0.000333 0.357805
0.001496 0.000351 0.355873
0.807692 0.036133 0.345848
0.959268 0.388402 0.510736
0.953675 0.584834 0.355502
0.001066 0.000285 0.425298
0.001429 0.004057 0.436248
0.709602 0.036806 0.376481
0.958413 0.486557 0.586663
0.953648 0.607845 0.338586
0.039234 0.727491 0.753536
0.019063 0.572751 0.583005
0.488799 0.491549 0.488884
0.953343 0.618154 0.596146
0.952398 0.654176 0.297537
0.052469 0.946140 0.203372
0.091996 0.940350 0.196439
0.408052 0.927408 0.218175
0.951774 0.907251 0.333952
0.952790 0.815162 0.136820
0.777354 0.966052 0.157803
0.785880 0.966328 0.159705
0.804591 0.966930 0.163675
0.906698 0.970925 0.190304
0.964568 0.973038 0.212368
0.005054 0.000582 0.884856
0.005055 0.000578 0.884673
0.006660 0.000571 0.829432
0.959527 0.348130 0.656300
0.955077 0.627860 0.743166
0.005056 0.000575 0.884581
0.005056 0.000570 0.884398
0.235415 0.000249 0.779289
0.959879 0.311108 0.703466
0.955195 0.654561 0.752134
0.018803 0.465575 0.975038
0.019598 0.475883 0.974365
0.030563 0.352885 0.949236
0.955829 0.510861 0.836913
0.956648 0.704029 0.769209
0.076783 0.900912 0.907389
0.075923 0.896012 0.900723
0.072576 0.887050 0.888516
0.876984 0.880213 0.877965
0.966150 0.839357 0.805970
0.576512 0.963732 0.685330
0.591619 0.964282 0.685992
0.621726 0.965305 0.685328
0.757671 0.971336 0.665646
0.977305 0.983900 0.582141
0.005702 0.000000 0.997773
0.005702 0.000000 0.997773
0.005702 0.000000 0.997773
0.938365 0.014707 0.987923
0.962548 0.275487 0.740036
0.005702 0.000000 0.997773
0.005702 0.000000 0.997773
0.005702 0.000000 0.997773
0.957798 0.016128 0.985870
0.964732 0.170958 0.816709
0.005702 0.000000 0.997773
0.005702 0.000000 0.997773
0.005702 0.000000 0.997773
0.971132 0.016719 0.986279
0.961354 0.346516 0.883573
0.084772 0.913898 0.943422
0.084870 0.914396 0.943314
0.085106 0.915604 0.943051
0.436064 0.665724 0.960482
0.961946 0.743594 0.943904
0.099927 0.957239 0.933903
0.099927 0.957177 0.934222
0.099927 0.957031 0.934969
0.350949 0.958280 0.941040
0.983921 0.988952 0.986552
