output/AppleLog2_display/AppleLog2_to_CLASSIC-CHROME_33grid.cube
TITLE "AppleLog2_to_CLASSIC-CHROME"
# Input: Apple Log 2 (Apple Gamut primaries, D65)
# Output: BT.709 / Gamma 2.2 (display-referred)
# Use: Display LUT for iPhone 17 Pro Apple Log 2 footage
# Source: FLog2C_to_CLASSIC-CHROME_65grid_V.1.00.cube
# Generated from Fujifilm GFX ETERNA 55 F-Log2C LUT
LUT_3D_SIZE 9
0.000178 0.000085 0.000052
0.000178 0.000085 0.000052
0.019963 0.001805 0.000024
0.382373 0.013625 0.024310
0.920999 0.126872 0.216877
0.958776 0.374451 0.448598
0.958776 0.374451 0.448598
0.957861 0.458172 0.416468
0.953785 0.588231 0.353148
0.000178 0.000085 0.000052
0.000178 0.000085 0.000052
0.124988 0.004030 0.004563
0.491983 0.018238 0.038629
0.880443 0.105631 0.179870
0.960792 0.286933 0.394485
0.958690 0.418844 0.431489
0.957747 0.497004 0.399986
0.953774 0.604138 0.341462
0.000328 0.056186 0.000688
0.000088 0.050991 0.000230
0.068409 0.040326 0.000111
0.313498 0.046274 0.006764
0.756255 0.105396 0.088685
0.961087 0.308781 0.344326
0.958220 0.447121 0.422439
0.957069 0.512503 0.392162
0.953528 0.611193 0.336005
0.000372 0.287303 0.000054
0.000178 0.197640 0.000405
0.045901 0.175606 0.000495
0.247104 0.169877 0.000101
0.652042 0.214619 0.013437
0.955665 0.377715 0.230696
0.957306 0.496378 0.399826
0.954878 0.541017 0.377943
0.953063 0.625048 0.325019
0.008623 0.613875 0.001513
0.003602 0.491239 0.000039
0.048016 0.471260 0.000329
0.232177 0.451841 0.001948
0.579301 0.451221 0.017484
0.901632 0.523754 0.063619
0.953555 0.591716 0.308172
0.953997 0.605822 0.340251
0.952377 0.656474 0.294839
0.024790 0.782759 0.013083
0.071446 0.763491 0.015090
0.140742 0.757671 0.017928
0.295438 0.747923 0.027174
0.570852 0.735943 0.046437
0.844213 0.735075 0.086648
0.951174 0.747120 0.115206
0.950423 0.710130 0.229667
0.949681 0.719897 0.216848
0.213628 0.933641 0.045195
0.330304 0.927944 0.059251
0.378880 0.925443 0.066078
0.465557 0.921599 0.079427
0.631779 0.915568 0.108094
0.827544 0.908644 0.145521
0.957117 0.896015 0.171491
0.952727 0.832654 0.142968
0.952825 0.815816 0.137051
0.599590 0.961627 0.118847
0.626270 0.962352 0.124041
0.637413 0.962699 0.126202
0.660380 0.963410 0.130652
0.716114 0.964968 0.142240
0.814101 0.967243 0.166741
0.940355 0.972658 0.201226
0.961986 0.944818 0.191420
0.958869 0.918449 0.179429
0.780629 0.966155 0.158582
0.786100 0.966330 0.159743
0.788506 0.966408 0.160254
0.793543 0.966570 0.161325
0.807103 0.967008 0.164213
0.841796 0.968131 0.171871
0.907927 0.971016 0.190611
0.964568 0.973038 0.212368
0.964568 0.973038 0.212368
0.000178 0.000085 0.000052
0.000178 0.000085 0.000052
0.001200 0.000214 0.000046
0.338914 0.010783 0.020118
0.911169 0.120524 0.207469
0.958776 0.374451 0.448598
0.958776 0.374451 0.448598
0.958113 0.456345 0.417035
0.953763 0.587554 0.353617
0.000178 0.000085 0.000052
0.000178 0.000085 0.000052
0.085922 0.002769 0.002440
0.462945 0.016669 0.033750
0.890985 0.110701 0.191951
0.961044 0.290721 0.396767
0.958859 0.416044 0.432522
0.957785 0.495397 0.400772
0.953799 0.603442 0.341999
0.000117 0.046956 0.000739
0.000313 0.052864 0.000514
0.049179 0.035185 0.000336
0.296227 0.040283 0.006284
0.754863 0.097754 0.090047
0.961342 0.304110 0.348249
0.958065 0.444502 0.423163
0.957178 0.511114 0.392900
0.953552 0.610523 0.336520
0.000427 0.276483 0.000044
0.000417 0.203561 0.000325
0.026640 0.172738 0.001206
0.227244 0.164763 0.000030
0.644951 0.207539 0.012803
0.955841 0.373568 0.231922
0.957302 0.494320 0.401076
0.954972 0.539796 0.378490
0.953080 0.624467 0.325523
0.012048 0.638067 0.002573
0.002914 0.492983 0.000100
0.028817 0.471951 0.000347
0.214239 0.449856 0.001384
0.571062 0.447738 0.016662
0.900029 0.521018 0.062796
0.953545 0.590387 0.309183
0.954030 0.604980 0.340917
0.952381 0.656014 0.295379
0.025048 0.784658 0.013386
0.061969 0.764408 0.014524
0.123697 0.758022 0.017189
0.280114 0.748050 0.026052
0.563175 0.735361 0.045700
0.842474 0.734145 0.086074
0.951170 0.746633 0.115024
0.950428 0.709718 0.230281
0.949676 0.719590 0.217351
0.201406 0.933994 0.044051
0.319192 0.928337 0.057620
0.368187 0.925814 0.064514
0.457653 0.921701 0.078021
0.626706 0.915557 0.107136
0.825958 0.908510 0.145175
0.957101 0.896044 0.171532
0.952710 0.832537 0.142921
0.952818 0.815685 0.137005
0.596064 0.961622 0.118146
0.623803 0.962272 0.123569
0.634981 0.962620 0.125737
0.658016 0.963335 0.130202
0.714486 0.964941 0.141820
0.813104 0.967210 0.166502
0.940042 0.972650 0.201086
0.961984 0.944841 0.191435
0.958864 0.918415 0.179421
0.780058 0.966137 0.158458
0.785569 0.966314 0.159632
0.787979 0.966392 0.160144
0.793021 0.966554 0.161215
0.806598 0.966992 0.164105
0.841411 0.968119 0.171747
0.907680 0.970997 0.190549
0.964568 0.973038 0.212368
0.964568 0.973038 0.212368
0.000048 0.000146 0.036727
0.000017 0.000082 0.034341
0.000036 0.000081 0.033510
0.291895 0.007168 0.027152
0.881861 0.106726 0.180644
0.958776 0.374451 0.448598
0.958776 0.374451 0.448598
0.958227 0.455523 0.417289
0.953753 0.587252 0.353826
0.000039 0.000080 0.033401
0.000082 0.000076 0.031480
0.060458 0.000923 0.022498
0.409366 0.013269 0.032330
0.874439 0.102206 0.177440
0.961589 0.284047 0.394294
0.958702 0.414814 0.432874
0.957802 0.494677 0.401125
0.953810 0.603133 0.342238
0.000079 0.045360 0.061448
0.000003 0.056015 0.060988
0.033267 0.034724 0.032210
0.273803 0.038084 0.032710
0.731548 0.092634 0.090677
0.961489 0.300908 0.342601
0.957993 0.443317 0.423487
0.957226 0.510494 0.393231
0.953562 0.610225 0.336750
0.000027 0.309084 0.091435
0.000000 0.234520 0.046192
0.011742 0.190225 0.024118
0.206775 0.172300 0.019594
0.624490 0.207922 0.046558
0.952833 0.369846 0.220766
0.957301 0.493396 0.401640
0.955014 0.539250 0.378734
0.953087 0.624208 0.325748
0.015452 0.677248 0.012664
0.003637 0.522966 0.000535
0.012529 0.496584 0.000140
0.184956 0.466585 0.000412
0.552894 0.454032 0.015838
0.898653 0.519905 0.062637
0.953543 0.589791 0.309640
0.954044 0.604604 0.341214
0.952383 0.655809 0.295619
0.025501 0.787383 0.013891
0.055619 0.765597 0.014113
0.115087 0.758399 0.016767
0.273215 0.748110 0.025546
0.559739 0.735100 0.045378
0.841699 0.733730 0.085816
0.951168 0.746415 0.114941
0.950430 0.709534 0.230554
0.949674 0.719454 0.217575
0.195908 0.934153 0.043536
0.314229 0.928513 0.056890
0.363413 0.925980 0.063815
0.454125 0.921746 0.077392
0.624445 0.915553 0.106709
0.825252 0.908450 0.145021
0.957097 0.896043 0.171532
0.952702 0.832485 0.142899
0.952815 0.815626 0.136984
0.594495 0.961619 0.117835
0.622705 0.962236 0.123359
0.633898 0.962585 0.125530
0.656965 0.963302 0.130001
0.713761 0.964929 0.141633
0.812660 0.967196 0.166396
0.939903 0.972647 0.201023
0.961984 0.944851 0.191442
0.958862 0.918400 0.179418
0.779756 0.966128 0.158385
0.785333 0.966307 0.159583
0.787744 0.966385 0.160094
0.792789 0.966547 0.161166
0.806374 0.966985 0.164056
0.841240 0.968113 0.171692
0.907570 0.970989 0.190521
0.964568 0.973038 0.212368
0.964568 0.973038 0.212368
0.000017 0.000155 0.139821
0.000016 0.000159 0.137538
0.000015 0.000160 0.136514
0.251677 0.000826 0.103218
0.847612 0.079909 0.225292
0.959200 0.360498 0.440984
0.958776 0.374451 0.448598
0.958472 0.453768 0.417826
0.953732 0.586612 0.354269
0.000015 0.000161 0.136381
0.000013 0.000165 0.134052
0.025447 0.000072 0.109215
0.362166 0.003012 0.106455
0.865001 0.087406 0.238671
0.961336 0.264057 0.432468
0.958151 0.424326 0.447759
0.957838 0.493143 0.401875
0.953833 0.602476 0.342745
0.000251 0.033065 0.212998
0.000402 0.046720 0.222207
0.010916 0.026619 0.157584
0.258051 0.025611 0.139175
0.714948 0.077001 0.206114
0.962036 0.277661 0.404232
0.958466 0.456845 0.450191
0.957329 0.509174 0.393937
0.953585 0.609594 0.337237
0.001760 0.332612 0.366349
0.001511 0.285258 0.301631
0.000647 0.215748 0.221768
0.183152 0.183902 0.182967
0.607560 0.207821 0.199984
0.941221 0.353642 0.344773
0.956987 0.506475 0.444104
0.955105 0.538090 0.379254
0.953103 0.623660 0.326223
0.030958 0.724824 0.446571
0.011234 0.567909 0.244489
0.009708 0.538766 0.215782
0.136799 0.502886 0.188723
0.523575 0.478379 0.184763
0.869946 0.525772 0.265195
0.953444 0.603133 0.391823
0.954075 0.603808 0.341847
0.952387 0.655376 0.296128
0.030328 0.814950 0.053455
0.028067 0.794420 0.038977
0.037303 0.787659 0.035256
0.158740 0.774715 0.037713
0.485643 0.756413 0.053207
0.809788 0.746880 0.108788
0.951683 0.757477 0.213871
0.950434 0.709147 0.231134
0.949669 0.719165 0.218050
0.109892 0.943849 0.037625
0.212063 0.938610 0.047021
0.267008 0.936162 0.053050
0.371373 0.931051 0.065860
0.572533 0.921016 0.098964
0.811785 0.911582 0.142884
0.957100 0.895973 0.171437
0.952686 0.832374 0.142854
0.952809 0.815503 0.136941
0.591173 0.961614 0.117174
0.620382 0.962160 0.122915
0.631608 0.962511 0.125092
0.654740 0.963231 0.129577
0.712229 0.964904 0.141238
0.811721 0.967165 0.166173
0.939610 0.972639 0.200891
0.961982 0.944873 0.191456
0.958858 0.918368 0.179411
0.779117 0.966108 0.158230
0.784834 0.966292 0.159479
0.787248 0.966370 0.159991
0.792300 0.966532 0.161063
0.805900 0.966970 0.163955
0.840878 0.968102 0.171576
0.907338 0.970972 0.190463
0.964568 0.973038 0.212368
0.964568 0.973038 0.212368
0.001589 0.000333 0.357805
0.001524 0.000345 0.356469
0.001496 0.000351 0.355873
0.147595 0.000027 0.269276
0.807692 0.036133 0.345848
0.960194 0.348583 0.522252
0.959268 0.388402 0.510736
0.958904 0.485514 0.520152
0.953675 0.584834 0.355502
0.001492 0.000351 0.355796
0.001427 0.000364 0.354450
0.001410 0.000367 0.353859
0.274672 0.000021 0.261567
0.838691 0.051644 0.361713
0.963218 0.242715 0.532515
0.958847 0.453515 0.576620
0.955492 0.527121 0.528163
0.953897 0.600657 0.344150
0.001066 0.000285 0.425298
0.001238 0.003699 0.447268
0.001429 0.004057 0.436248
0.217613 0.002108 0.322964
0.709602 0.036806 0.376481
0.963340 0.227390 0.539531
0.958413 0.486557 0.586663
0.955257 0.543581 0.530082
0.953648 0.607845 0.338586
0.004452 0.312193 0.661088
0.004713 0.326433 0.664446
0.002947 0.237600 0.555231
0.125475 0.177456 0.453408
0.586846 0.185230 0.423412
0.931047 0.321143 0.517077
0.955708 0.527527 0.594830
0.954775 0.574026 0.532031
0.953149 0.622130 0.327534
0.039234 0.727491 0.753536
0.024170 0.609127 0.623838
0.019063 0.572751 0.583005
0.065676 0.528733 0.533750
0.488799 0.491549 0.488884
0.852341 0.519351 0.510004
0.953343 0.618154 0.596146
0.953751 0.636072 0.534017
0.952398 0.654176 0.297537
0.048611 0.833398 0.576621
0.044248 0.810462 0.537332
0.042847 0.802758 0.524910
0.073596 0.790038 0.504735
0.415901 0.771117 0.484898
0.786895 0.758950 0.496421
0.956609 0.776303 0.564327
0.954258 0.733365 0.509868
0.949656 0.718366 0.219362
0.052469 0.946140 0.203372
0.058450 0.941987 0.196350
0.091996 0.940350 0.196439
0.157376 0.937120 0.196453
0.408052 0.927408 0.218175
0.733257 0.917252 0.264403
0.951774 0.907251 0.333952
0.956465 0.846840 0.337542
0.952790 0.815162 0.136820
0.421029 0.962273 0.084312
0.462490 0.961883 0.091850
0.478333 0.961920 0.094962
0.510906 0.962020 0.101302
0.593534 0.962240 0.117217
0.735891 0.964923 0.147782
0.908765 0.971228 0.190591
0.961977 0.944933 0.191496
0.958847 0.918279 0.179392
0.777354 0.966052 0.157803
0.783458 0.966250 0.159192
0.785880 0.966328 0.159705
0.790948 0.966491 0.160778
0.804591 0.966930 0.163675
0.839881 0.968071 0.171255
0.906698 0.970925 0.190304
0.964568 0.973038 0.212368
0.964568 0.973038 0.212368
0.003538 0.000029 0.655659
0.003528 0.000029 0.655149
0.003523 0.000029 0.654922
0.003513 0.000028 0.654442
0.702751 0.001779 0.512306
0.962752 0.260343 0.609197
0.959606 0.390047 0.575310
0.957396 0.493867 0.644096
0.952848 0.634279 0.623106
0.003522 0.000029 0.654892
0.003512 0.000028 0.654380
0.003508 0.000028 0.654153
0.003056 0.000300 0.621683
0.749561 0.002670 0.519465
0.962494 0.273265 0.607874
0.959346 0.403402 0.643943
0.954735 0.547151 0.662368
0.953699 0.648888 0.626974
0.003516 0.000028 0.654551
0.003505 0.000028 0.654038
0.003501 0.000028 0.653810
0.015486 0.000038 0.578134
0.743255 0.002872 0.531853
0.966507 0.134521 0.675269
0.958578 0.446650 0.663230
0.954162 0.566702 0.669823
0.953785 0.654972 0.627281
0.003909 0.148881 0.851900
0.003838 0.167273 0.856284
0.003849 0.175534 0.858094
0.004611 0.106832 0.759301
0.539699 0.099220 0.658658
0.924724 0.234427 0.684387
0.957666 0.493228 0.690707
0.954703 0.600177 0.682163
0.953899 0.667031 0.627304
0.039453 0.687796 0.923602
0.039944 0.691610 0.923793
0.032040 0.617876 0.867961
0.020700 0.532942 0.805782
0.394631 0.470279 0.741234
0.832056 0.485113 0.719241
0.953949 0.606646 0.732638
0.954750 0.660281 0.700308
0.954091 0.696238 0.631139
0.059495 0.839634 0.850967
0.055219 0.819582 0.825359
0.054321 0.812064 0.817307
0.051540 0.798559 0.801354
0.281870 0.775146 0.775997
0.757121 0.761203 0.758626
0.960447 0.771165 0.764853
0.958075 0.747488 0.719837
0.956149 0.753130 0.630244
0.073234 0.928564 0.721487
0.071945 0.925051 0.715412
0.071736 0.923516 0.712652
0.079812 0.920974 0.708200
0.234280 0.913461 0.702853
0.658894 0.908042 0.711402
0.924454 0.904319 0.720406
0.966828 0.859957 0.706147
0.961114 0.838281 0.589395
0.259642 0.960066 0.453840
0.303831 0.959659 0.458562
0.322610 0.959501 0.460445
0.354830 0.959543 0.460848
0.437690 0.959606 0.461410
0.610021 0.963291 0.463694
0.834796 0.972042 0.463031
0.972283 0.967467 0.484516
0.963721 0.928454 0.320600
0.630737 0.962385 0.125324
0.641162 0.962550 0.127434
0.645243 0.962630 0.128258
0.652763 0.962802 0.129798
0.672967 0.963250 0.133959
0.725084 0.964291 0.144846
0.819636 0.967516 0.169314
0.953582 0.973114 0.207447
0.964568 0.973038 0.212368
0.005054 0.000582 0.884856
0.005055 0.000579 0.884729
0.005055 0.000578 0.884673
0.005056 0.000574 0.884554
0.006660 0.000571 0.829432
0.969511 0.084659 0.756792
0.959527 0.348130 0.656300
0.959861 0.395198 0.706774
0.955077 0.627860 0.743166
0.005055 0.000577 0.884666
0.005056 0.000574 0.884539
0.005056 0.000573 0.884482
0.005056 0.000569 0.884363
0.158254 0.000322 0.789848
0.968799 0.096218 0.755789
0.959473 0.348517 0.655710
0.958692 0.464148 0.729895
0.955020 0.646821 0.749668
0.005056 0.000575 0.884581
0.005056 0.000572 0.884454
0.005056 0.000570 0.884398
0.005057 0.000567 0.884279
0.235415 0.000249 0.779289
0.968481 0.101303 0.755202
0.959879 0.311108 0.703466
0.957169 0.489911 0.737459
0.955195 0.654561 0.752134
0.005056 0.000570 0.884402
0.005057 0.000567 0.884275
0.005057 0.000566 0.884219
0.005057 0.000563 0.884099
0.295561 0.000164 0.803365
0.951386 0.023300 0.802082
0.960369 0.374690 0.761493
0.955676 0.535900 0.750867
0.955633 0.669574 0.757218
0.018803 0.465575 0.975038
0.019355 0.472739 0.974572
0.019598 0.475883 0.974365
0.020211 0.482146 0.973718
0.030563 0.352885 0.949236
0.789630 0.352958 0.869453
0.955829 0.510861 0.836913
0.954223 0.623002 0.775442
0.956648 0.704029 0.769209
0.058099 0.808403 0.956255
0.057311 0.804602 0.956170
0.055029 0.790140 0.957327
0.052242 0.771291 0.956702
0.047308 0.740412 0.940752
0.663051 0.722249 0.904441
0.956922 0.727720 0.882877
0.958809 0.740608 0.808924
0.960056 0.764053 0.791112
0.076783 0.900912 0.907389
0.076117 0.897611 0.902894
0.075923 0.896012 0.900723
0.074490 0.893343 0.897541
0.072576 0.887050 0.888516
0.485770 0.877576 0.878556
0.876984 0.880213 0.877965
0.970462 0.857894 0.849478
0.966150 0.839357 0.805970
0.088900 0.959062 0.783654
0.092878 0.958951 0.783015
0.094596 0.958904 0.782737
0.098128 0.958809 0.782165
0.157442 0.958344 0.782150
0.413584 0.959646 0.789837
0.767807 0.968958 0.806333
0.977523 0.966820 0.814356
0.977463 0.931076 0.782207
0.576512 0.963732 0.685330
0.587009 0.964115 0.685793
0.591619 0.964282 0.685992
0.601250 0.964631 0.686402
0.621726 0.965305 0.685328
0.666465 0.966679 0.679089
0.757671 0.971336 0.665646
0.901814 0.980861 0.656799
0.977305 0.983900 0.582141
0.005702 0.000000 0.997773
0.005702 0.000000 0.997773
0.005702 0.000000 0.997773
0.005702 0.000000 0.997773
0.005702 0.000000 0.997773
0.557228 0.000366 0.921095
0.962526 0.263360 0.751894
0.959131 0.319001 0.695017
0.955312 0.517173 0.806478
0.005702 0.000000 0.997773
0.005702 0.000000 0.997773
0.005702 0.000000 0.997773
0.005702 0.000000 0.997773
0.005702 0.000000 0.997773
0.636304 0.001695 0.909253
0.962560 0.264166 0.751218
0.959971 0.311554 0.703073
0.955233 0.546029 0.813764
0.005702 0.000000 0.997773
0.005702 0.000000 0.997773
0.005702 0.000000 0.997773
0.005702 0.000000 0.997773
0.005702 0.000000 0.997773
0.663559 0.002724 0.905127
0.962575 0.264521 0.750920
0.962409 0.258297 0.755816
0.955174 0.557620 0.816347
0.005702 0.000000 0.997773
0.005702 0.000000 0.997773
0.005702 0.000000 0.997773
0.005702 0.000000 0.997773
0.005702 0.000000 0.997773
0.712448 0.004924 0.897902
0.962608 0.265262 0.750298
0.960888 0.320249 0.796007
0.954385 0.580338 0.821493
0.005702 0.000000 0.997773
0.005702 0.000000 0.997773
0.005702 0.000000 0.997773
0.005702 0.000000 0.997773
0.005702 0.000000 0.997773
0.608890 0.001839 0.989197
0.964175 0.191506 0.909393
0.956806 0.476859 0.834608
0.955176 0.629750 0.831613
0.037319 0.648920 0.962235
0.037573 0.651456 0.962053
0.037685 0.652577 0.961972
0.037921 0.654935 0.961803
0.038565 0.661361 0.961342
0.232342 0.557430 0.964565
0.910284 0.586629 0.960216
0.956607 0.665134 0.874134
0.958152 0.715136 0.853187
0.093108 0.943974 0.934815
0.080666 0.899476 0.947371
0.072044 0.874338 0.952079
0.063560 0.845389 0.955904
0.061368 0.830815 0.956356
0.127548 0.816089 0.956331
0.776306 0.822979 0.961501
0.968538 0.822290 0.936308
0.967668 0.821349 0.882637
0.093177 0.942780 0.937872
0.093080 0.942125 0.938493
0.093046 0.941844 0.938755
0.092978 0.941278 0.939286
0.091249 0.939378 0.937357
0.098774 0.934786 0.934629
0.608513 0.933675 0.933340
0.937088 0.939688 0.937808
0.980018 0.918772 0.908284
0.289622 0.958165 0.875559
0.306893 0.958411 0.875397
0.314479 0.958519 0.875326
0.330329 0.958745 0.875176
0.372852 0.959352 0.874770
0.473385 0.961695 0.873639
0.656629 0.969474 0.874109
0.861541 0.983242 0.883151
0.991067 0.994013 0.872554
0.005702 0.000000 0.997773
0.005702 0.000000 0.997773
0.005702 0.000000 0.997773
0.005702 0.000000 0.997773
0.005702 0.000000 0.997773
0.005702 0.000000 0.997773
0.938365 0.014707 0.987923
0.964190 0.202351 0.796059
0.962548 0.275487 0.740036
0.005702 0.000000 0.997773
0.005702 0.000000 0.997773
0.005702 0.000000 0.997773
0.005702 0.000000 0.997773
0.005702 0.000000 0.997773
0.005702 0.000000 0.997773
0.951987 0.015703 0.986484
0.964186 0.202741 0.795805
0.963815 0.221987 0.782010
0.005702 0.000000 0.997773
0.005702 0.000000 0.997773
0.005702 0.000000 0.997773
0.005702 0.000000 0.997773
0.005702 0.000000 0.997773
0.005702 0.000000 0.997773
0.957798 0.016128 0.985870
0.964184 0.202914 0.795692
0.964732 0.170958 0.816709
0.005702 0.000000 0.997773
0.005702 0.000000 0.997773
0.005702 0.000000 0.997773
0.005702 0.000000 0.997773
0.005702 0.000000 0.997773
0.005702 0.000000 0.997773
0.965997 0.016678 0.985237
0.964180 0.203278 0.795456
0.963860 0.209554 0.848795
0.005702 0.000000 0.997773
0.005702 0.000000 0.997773
0.005702 0.000000 0.997773
0.005702 0.000000 0.997773
0.005702 0.000000 0.997773
0.005702 0.000000 0.997773
0.971132 0.016719 0.986279
0.964170 0.204272 0.794809
0.961354 0.346516 0.883573
0.005702 0.000000 0.997773
0.005702 0.000000 0.997773
0.005702 0.000000 0.997773
0.005702 0.000000 0.997773
0.005702 0.000000 0.997773
0.005702 0.000000 0.997773
0.768978 0.007514 0.993356
0.961275 0.361696 0.931224
0.956139 0.547527 0.911291
0.084772 0.913898 0.943422
0.084840 0.914243 0.943347
0.084870 0.914396 0.943314
0.084933 0.914719 0.943244
0.085106 0.915604 0.943051
0.085580 0.918018 0.942527
0.436064 0.665724 0.960482
0.949102 0.721911 0.964306
0.961946 0.743594 0.943904
0.100321 0.955962 0.930879
0.100321 0.955962 0.930879
0.100321 0.955962 0.930879
0.100321 0.955962 0.930879
0.098536 0.954178 0.931128
0.089361 0.926508 0.942187
0.306131 0.882390 0.950844
0.853676 0.882285 0.971016
0.976910 0.883836 0.972072
0.099927 0.957239 0.933903
0.099927 0.957195 0.934125
0.099927 0.957177 0.934222
0.099927 0.957137 0.934426
0.099927 0.957031 0.934969
0.108898 0.957144 0.935624
0.350949 0.958280 0.941040
0.744562 0.975436 0.964364
0.983921 0.988952 0.986552
