output/AppleLog2_display/AppleLog2_to_ETERNA-BB_33grid.cube
TITLE "AppleLog2_to_ETERNA-BB"
# Input: Apple Log 2 (Apple Gamut primaries, D65)
# Output: BT.709 / Gamma 2.2 (display-referred)
# Use: Display LUT for iPhone 17 Pro Apple Log 2 footage
# Source: FLog2C_to_ETERNA-BB_65grid_V.1.00.cube
# Generated from Fujifilm GFX ETERNA 55 F-Log2C LUT
LUT_3D_SIZE 5
0.000282 0.000191 0.000111
0.034521 0.005256 0.005604
0.595342 0.134861 0.178632
0.753503 0.376840 0.375047
0.873991 0.632926 0.436599
0.015058 0.076728 0.024289
0.079835 0.073263 0.028686
0.485112 0.111462 0.116330
0.800536 0.466474 0.405005
0.882721 0.659101 0.438051
0.144018 0.526611 0.161874
0.174386 0.399245 0.130747
0.457964 0.412323 0.198358
0.871886 0.637683 0.421257
0.896999 0.708685 0.436994
0.509385 0.876185 0.331766
0.581237 0.888764 0.347522
0.713194 0.911162 0.372060
0.941042 0.928443 0.415432
0.932285 0.871536 0.414144
0.826442 0.959445 0.392362
0.831576 0.959956 0.393660
0.843693 0.961161 0.396726
0.902120 0.966610 0.410883
0.939180 0.969303 0.418121
0.006404 0.003441 0.044175
0.006081 0.003648 0.042625
0.567959 0.117786 0.160091
0.753503 0.376840 0.375047
0.873622 0.631701 0.436573
0.021462 0.073737 0.074984
0.069848 0.071174 0.069471
0.467642 0.104937 0.121465
0.798497 0.461840 0.404259
0.882349 0.658060 0.437968
0.185871 0.603700 0.260946
0.173327 0.422837 0.151008
0.439768 0.413056 0.196889
0.871050 0.635589 0.421051
0.896778 0.707957 0.437037
0.501516 0.874327 0.330408
0.574396 0.887521 0.345874
0.708851 0.910335 0.371469
0.940999 0.928460 0.415393
0.932283 0.871380 0.414166
0.825890 0.959379 0.392241
0.831078 0.959906 0.393532
0.843217 0.961114 0.396603
0.901916 0.966599 0.410831
0.939182 0.969301 0.418121
0.049731 0.017079 0.205845
0.049447 0.016975 0.204631
0.519462 0.073679 0.221671
0.774505 0.403545 0.437144
0.872709 0.628682 0.436506
0.063671 0.020755 0.250368
0.066941 0.041361 0.261806
0.460303 0.085681 0.250104
0.848207 0.531470 0.564752
0.881431 0.655492 0.437768
0.288585 0.708233 0.673996
0.248249 0.541976 0.521182
0.495021 0.496392 0.494192
0.918644 0.674666 0.622173
0.896236 0.706163 0.437147
0.436377 0.879508 0.528708
0.502172 0.890889 0.533337
0.638001 0.912112 0.542481
0.926494 0.931915 0.524582
0.932280 0.870997 0.414218
0.824414 0.959173 0.391972
0.829859 0.959784 0.393219
0.842051 0.960997 0.396302
0.901418 0.966571 0.410702
0.939188 0.969298 0.418121
0.136815 0.036041 0.551983
0.136766 0.036033 0.551884
0.147883 0.037046 0.526826
0.781626 0.378725 0.556577
0.928559 0.688078 0.769808
0.136742 0.036029 0.551835
0.136693 0.036020 0.551737
0.239969 0.042589 0.511923
0.772845 0.346266 0.587943
0.938510 0.714711 0.784465
0.335056 0.481017 0.700439
0.337757 0.490593 0.703738
0.359194 0.384150 0.668536
0.900011 0.582166 0.819030
0.954409 0.763347 0.810848
0.394484 0.871937 0.815446
0.433410 0.877211 0.824473
0.551798 0.893108 0.853194
0.921586 0.922808 0.921166
0.971770 0.889345 0.853534
0.783205 0.965680 0.820536
0.789636 0.966425 0.821126
0.802366 0.967782 0.821434
0.862499 0.974589 0.809491
0.964282 0.981591 0.717531
0.195518 0.037927 0.610641
0.195518 0.037927 0.610641
0.195518 0.037927 0.610641
0.661877 0.106845 0.659205
0.764310 0.318929 0.606590
0.195518 0.037927 0.610641
0.195518 0.037927 0.610641
0.195518 0.037927 0.610641
0.668980 0.109359 0.660013
0.741959 0.250874 0.637615
0.195518 0.037927 0.610641
0.195518 0.037927 0.610641
0.195518 0.037927 0.610641
0.685978 0.113014 0.660149
0.828460 0.420211 0.767947
0.373436 0.882045 0.826260
0.373239 0.882330 0.826340
0.372760 0.883022 0.826533
0.689379 0.729742 0.867971
0.964439 0.808207 0.945280
0.622718 0.951470 0.905825
0.632037 0.952679 0.908174
0.653654 0.955485 0.913625
0.780016 0.971757 0.944798
0.993139 0.995444 0.993696
