output/AppleLog2_display/AppleLog2_to_REALA-ACE_33grid.cube
TITLE "AppleLog2_to_REALA-ACE"
# Input: Apple Log 2 (Apple Gamut primaries, D65)
# Output: BT.709 / Gamma 2.2 (display-referred)
# Use: Display LUT for iPhone 17 Pro Apple Log 2 footage
# Source: FLog2C_to_REALA-ACE_65grid_V.1.00.cube
# Generated from Fujifilm GFX ETERNA 55 F-Log2C LUT
LUT_3D_SIZE 5
0.000200 0.000111 0.000001
0.025105 0.000096 0.000190
0.890008 0.146243 0.251822
0.940825 0.327148 0.473700
0.981585 0.550061 0.232962
0.000091 0.088601 0.000130
0.096993 0.068147 0.000368
0.741948 0.034705 0.052856
0.957086 0.397365 0.416624
0.982418 0.576144 0.187906
0.253714 0.629539 0.196669
0.165793 0.496606 0.114763
0.553443 0.449258 0.000368
0.978484 0.558602 0.168634
0.982454 0.629048 0.078822
0.666587 0.929793 0.593265
0.685594 0.932496 0.593294
0.770462 0.946528 0.585682
0.988422 0.914141 0.000024
0.986636 0.814392 0.000100
0.850119 0.961063 0.573335
0.856284 0.962236 0.571131
0.870834 0.965006 0.565947
0.955299 0.980036 0.507425
0.996976 0.986641 0.425675
0.000069 0.000187 0.060504
0.000138 0.000216 0.056759
0.854654 0.094080 0.197023
0.940825 0.327148 0.473700
0.981535 0.548943 0.234856
0.000275 0.073383 0.096848
0.067852 0.070551 0.067307
0.716281 0.017356 0.060371
0.956107 0.393189 0.419534
0.982393 0.575059 0.189809
0.339699 0.705917 0.274900
0.173109 0.514865 0.126948
0.522362 0.454447 0.000212
0.978344 0.556414 0.172324
0.982518 0.628140 0.080541
0.666147 0.929702 0.593298
0.683329 0.932191 0.593279
0.766954 0.945988 0.586065
0.988430 0.914172 0.000103
0.986645 0.814170 0.000100
0.849481 0.960945 0.573514
0.855687 0.962123 0.571352
0.870263 0.964897 0.566153
0.954996 0.979978 0.507832
0.996976 0.986641 0.425675
0.000052 0.000053 0.493440
0.000037 0.000032 0.491608
0.782176 0.002972 0.405424
0.943514 0.345447 0.551607
0.981412 0.546183 0.239530
0.000078 0.000026 0.551478
0.000696 0.000020 0.550677
0.685370 0.000130 0.449259
0.962508 0.443656 0.622228
0.982331 0.572389 0.194506
0.327456 0.728203 0.743013
0.028919 0.528235 0.526048
0.483107 0.486395 0.483983
0.991853 0.578402 0.582870
0.982675 0.625908 0.084765
0.663487 0.929321 0.594748
0.663604 0.929258 0.594394
0.694038 0.934101 0.592276
0.996546 0.976429 0.344249
0.986666 0.813627 0.000098
0.847836 0.960650 0.573820
0.854226 0.961845 0.571894
0.868868 0.964632 0.566658
0.954257 0.979836 0.508829
0.996976 0.986641 0.425675
0.114016 0.015290 0.685325
0.113984 0.015270 0.685301
0.142402 0.027893 0.692767
0.891757 0.383130 0.723353
0.961199 0.597169 0.785920
0.113968 0.015260 0.685289
0.113936 0.015240 0.685265
0.306600 0.105906 0.741369
0.870476 0.389254 0.773416
0.968309 0.620366 0.791270
0.170811 0.429941 0.827809
0.172719 0.439032 0.828647
0.198056 0.332778 0.818621
0.892630 0.547106 0.878301
0.984668 0.665548 0.796917
0.591014 0.892622 0.901174
0.584856 0.889085 0.897752
0.572905 0.881820 0.886958
0.895806 0.897242 0.895528
0.998959 0.825186 0.775210
0.738192 0.948251 0.743826
0.743412 0.949233 0.743751
0.754551 0.951166 0.741794
0.820180 0.961327 0.715266
0.995380 0.989865 0.540215
0.128319 0.032232 0.695519
0.128319 0.032232 0.695519
0.128319 0.032232 0.695519
0.841020 0.372832 0.825754
0.856935 0.392829 0.807081
0.128319 0.032232 0.695519
0.128319 0.032232 0.695519
0.128319 0.032232 0.695520
0.841020 0.372832 0.825754
0.843264 0.379345 0.827697
0.128319 0.032232 0.695520
0.128320 0.032232 0.695520
0.128320 0.032233 0.695520
0.841020 0.372832 0.825754
0.859670 0.439223 0.846984
0.602324 0.899286 0.909699
0.603215 0.899855 0.909992
0.605376 0.901234 0.910703
0.485007 0.623208 0.896913
0.939653 0.728316 0.936109
0.646627 0.926964 0.922541
0.646321 0.926914 0.922733
0.645579 0.926785 0.923171
0.680948 0.938549 0.932031
0.988743 0.993988 0.991786
