output/AppleLog2_display/AppleLog2_to_CLASSIC-Neg._33grid.cube
TITLE "AppleLog2_to_CLASSIC-Neg."
# Input: Apple Log 2 (Apple Gamut primaries, D65)
# Output: BT.709 / Gamma 2.2 (display-referred)
# Use: Display LUT for iPhone 17 Pro Apple Log 2 footage
# Source: FLog2C_to_CLASSIC-Neg._65grid_V.1.00.cube
# Generated from Fujifilm GFX ETERNA 55 F-Log2C LUT
LUT_3D_SIZE 9
0.000129 0.000120 0.000052
0.000129 0.000120 0.000052
0.029791 0.002169 0.000350
0.327085 0.026846 0.000086
0.903508 0.110902 0.043922
0.951060 0.281893 0.277250
0.951060 0.281893 0.277250
0.952751 0.366574 0.264296
0.955843 0.520570 0.232908
0.000129 0.000120 0.000052
0.000129 0.000120 0.000052
0.115986 0.009424 0.000042
0.451256 0.036962 0.000701
0.876883 0.101531 0.020825
0.946468 0.201507 0.200611
0.952084 0.325086 0.271706
0.953305 0.410175 0.256498
0.956542 0.541591 0.226700
0.001385 0.077424 0.017870
0.001232 0.071334 0.011597
0.068024 0.059140 0.001117
0.249481 0.065988 0.000098
0.776010 0.120893 0.000016
0.944629 0.216751 0.156473
0.952642 0.353819 0.266641
0.953775 0.427957 0.254040
0.956389 0.550751 0.224234
0.007964 0.253180 0.051890
0.005738 0.185572 0.029671
0.024458 0.167953 0.024687
0.172036 0.165217 0.004060
0.636725 0.201904 0.000018
0.939538 0.291984 0.087017
0.953688 0.409576 0.257388
0.954952 0.461742 0.247023
0.956373 0.568872 0.219101
0.017868 0.576812 0.095548
0.013389 0.431903 0.071365
0.014149 0.409177 0.067339
0.116070 0.391454 0.049323
0.494569 0.399779 0.003225
0.903539 0.466737 0.010893
0.954221 0.521165 0.193457
0.955655 0.543292 0.226923
0.957786 0.612814 0.204565
0.024977 0.777547 0.129719
0.024101 0.756300 0.126028
0.024023 0.748823 0.124758
0.055745 0.737685 0.118239
0.375226 0.737345 0.073225
0.860715 0.752242 0.008951
0.956032 0.739704 0.077215
0.958151 0.692465 0.171817
0.958448 0.706470 0.165027
0.029659 0.917533 0.152676
0.029357 0.914084 0.152188
0.029298 0.912678 0.152342
0.057192 0.911344 0.148525
0.256697 0.915791 0.120861
0.776146 0.934748 0.052025
0.953884 0.921642 0.025175
0.957201 0.854528 0.045146
0.957173 0.835136 0.058893
0.106137 0.948227 0.148245
0.154332 0.951202 0.141649
0.176589 0.952579 0.138597
0.222356 0.955412 0.132320
0.349235 0.962937 0.115194
0.667543 0.980933 0.074344
0.908699 0.994349 0.041989
0.943858 0.968417 0.034106
0.950686 0.945112 0.029454
0.542824 0.973597 0.090761
0.561080 0.974652 0.088336
0.569115 0.975116 0.087268
0.585933 0.976088 0.085034
0.631259 0.978706 0.079011
0.744044 0.985233 0.064049
0.866476 0.992226 0.048266
0.933367 0.995531 0.039436
0.934068 0.994879 0.038811
0.000129 0.000120 0.000052
0.000129 0.000120 0.000052
0.002029 0.000209 0.000000
0.283152 0.023075 0.000257
0.897424 0.108089 0.038135
0.951060 0.281893 0.277250
0.951060 0.281893 0.277250
0.952634 0.364785 0.264743
0.955771 0.519661 0.233199
0.000129 0.000120 0.000052
0.000129 0.000120 0.000052
0.088942 0.007239 0.000413
0.416985 0.033861 0.000686
0.884648 0.103281 0.027145
0.946342 0.205278 0.204318
0.952108 0.322294 0.272299
0.953331 0.408331 0.256692
0.956560 0.540687 0.226947
0.001221 0.067567 0.015444
0.001422 0.074575 0.015885
0.051159 0.053279 0.001794
0.236199 0.059527 0.000196
0.773972 0.114753 0.000052
0.944623 0.212688 0.158643
0.952468 0.350987 0.266901
0.953627 0.426369 0.254332
0.956407 0.549884 0.224471
0.007731 0.245054 0.050772
0.005859 0.190556 0.030125
0.006448 0.165534 0.026116
0.158940 0.161631 0.005048
0.627531 0.197427 0.000015
0.939070 0.288016 0.087033
0.953672 0.407292 0.257780
0.954986 0.460245 0.247387
0.956329 0.568093 0.219367
0.019308 0.607930 0.100824
0.013372 0.434426 0.071955
0.012833 0.409604 0.067838
0.103177 0.389369 0.050837
0.481388 0.395979 0.003455
0.902475 0.463676 0.010133
0.954208 0.519436 0.193912
0.955634 0.542071 0.227274
0.957804 0.612122 0.204790
0.024915 0.779500 0.129993
0.024066 0.757338 0.126180
0.024021 0.749433 0.124875
0.052517 0.737795 0.118761
0.363486 0.736087 0.074707
0.859227 0.751245 0.008876
0.956043 0.739059 0.077369
0.958128 0.691872 0.172117
0.958436 0.706044 0.165294
0.029708 0.917764 0.152835
0.029357 0.914263 0.152115
0.029297 0.912840 0.152271
0.051749 0.911200 0.149270
0.247690 0.915350 0.122087
0.773017 0.934543 0.052457
0.953875 0.921639 0.025150
0.957205 0.854386 0.045229
0.957164 0.834980 0.059045
0.104307 0.948120 0.148484
0.149264 0.950889 0.142344
0.171633 0.952273 0.139278
0.217623 0.955118 0.132971
0.343792 0.962646 0.115904
0.664298 0.980733 0.074745
0.908378 0.994333 0.042000
0.943849 0.968435 0.034105
0.950690 0.945079 0.029450
0.540952 0.973489 0.091009
0.559337 0.974550 0.088567
0.567379 0.975015 0.087498
0.584213 0.975987 0.085262
0.629582 0.978608 0.079234
0.743296 0.985187 0.064144
0.866157 0.992211 0.048309
0.933365 0.995531 0.039436
0.934069 0.994877 0.038810
0.006552 0.003385 0.044810
0.005938 0.003367 0.042547
0.005735 0.003303 0.041624
0.242866 0.018873 0.000391
0.878502 0.100508 0.023318
0.951060 0.281893 0.277250
0.951060 0.281893 0.277250
0.952582 0.363982 0.264944
0.955739 0.519256 0.233328
0.005709 0.003295 0.041503
0.005240 0.003149 0.039367
0.078542 0.004924 0.017426
0.355559 0.028866 0.000165
0.873713 0.099117 0.019694
0.945964 0.199187 0.199959
0.952025 0.320827 0.272279
0.953344 0.407503 0.256777
0.956567 0.540285 0.227058
0.004812 0.074633 0.086593
0.005238 0.084983 0.089206
0.051300 0.060683 0.047825
0.223328 0.061267 0.019015
0.748610 0.114022 0.000000
0.943951 0.210317 0.152017
0.952393 0.349706 0.267018
0.953560 0.425658 0.254463
0.956415 0.549497 0.224577
0.012601 0.276514 0.170998
0.008870 0.218077 0.117793
0.011671 0.183440 0.086460
0.157352 0.171524 0.053256
0.605804 0.200737 0.005368
0.936403 0.286302 0.079192
0.953666 0.406262 0.257963
0.955002 0.459575 0.247549
0.956309 0.567745 0.219486
0.025845 0.665536 0.236072
0.016287 0.473878 0.116719
0.014324 0.442852 0.102459
0.093208 0.411208 0.077063
0.458327 0.405221 0.021149
0.901696 0.462642 0.010052
0.954203 0.518661 0.194117
0.955625 0.541526 0.227431
0.957811 0.611813 0.204890
0.024866 0.781507 0.130276
0.023871 0.758465 0.126431
0.024026 0.749950 0.125032
0.050845 0.737835 0.119018
0.358198 0.735526 0.075376
0.858566 0.750801 0.008829
0.956048 0.738771 0.077434
0.958117 0.691608 0.172250
0.958430 0.705855 0.165413
0.029730 0.917868 0.152907
0.029357 0.914344 0.152082
0.029296 0.912913 0.152239
0.049248 0.911132 0.149611
0.243661 0.915153 0.122635
0.771632 0.934453 0.052649
0.953844 0.921630 0.025142
0.957207 0.854323 0.045266
0.957159 0.834910 0.059113
0.103484 0.948072 0.148592
0.147003 0.950749 0.142654
0.169421 0.952136 0.139581
0.215512 0.954987 0.133261
0.341367 0.962516 0.116220
0.662856 0.980644 0.074924
0.908236 0.994325 0.042006
0.943845 0.968443 0.034104
0.950691 0.945064 0.029449
0.539954 0.973434 0.091140
0.558562 0.974505 0.088670
0.566608 0.974970 0.087601
0.583449 0.975943 0.085363
0.628836 0.978565 0.079332
0.742965 0.985167 0.064186
0.866015 0.992204 0.048328
0.933365 0.995530 0.039437
0.934069 0.994876 0.038809
0.036843 0.011407 0.127647
0.036283 0.011232 0.126124
0.036033 0.011154 0.125441
0.225747 0.014136 0.065595
0.858770 0.089719 0.056537
0.950819 0.267804 0.264043
0.951060 0.281893 0.277250
0.952470 0.362267 0.265376
0.955670 0.518398 0.233601
0.036000 0.011143 0.125352
0.035429 0.010965 0.123798
0.068469 0.009827 0.099186
0.320463 0.021235 0.054730
0.870868 0.092514 0.063646
0.947226 0.186988 0.238644
0.953417 0.332596 0.289592
0.953370 0.405740 0.256956
0.956583 0.539432 0.227291
0.034102 0.077594 0.194182
0.031600 0.090712 0.204851
0.059189 0.065608 0.148433
0.230518 0.060762 0.102702
0.742372 0.110234 0.073966
0.947115 0.205599 0.217309
0.954269 0.367828 0.300728
0.953417 0.424147 0.254741
0.956432 0.548679 0.224801
0.022860 0.316585 0.391292
0.019014 0.270810 0.319366
0.019853 0.213032 0.239740
0.169395 0.190636 0.179585
0.606725 0.211641 0.122846
0.933376 0.291795 0.190486
0.956348 0.424951 0.307794
0.955036 0.458153 0.247896
0.956268 0.567010 0.219738
0.043304 0.739887 0.630990
0.027999 0.547688 0.370853
0.025384 0.511036 0.334798
0.108015 0.470184 0.283924
0.462565 0.451112 0.206980
0.896134 0.490838 0.189732
0.958056 0.541154 0.276987
0.955606 0.540370 0.227764
0.957827 0.611161 0.205102
0.034659 0.819788 0.361545
0.032597 0.798113 0.329826
0.032248 0.790700 0.319744
0.044817 0.777053 0.301157
0.301269 0.767741 0.245143
0.839176 0.773868 0.164886
0.960076 0.756723 0.178199
0.958095 0.691050 0.172533
0.958419 0.705454 0.165665
0.029991 0.925480 0.154378
0.029734 0.921293 0.153946
0.029285 0.919677 0.154006
0.035525 0.916870 0.152979
0.161127 0.916481 0.134257
0.737431 0.935680 0.057663
0.953639 0.921573 0.025146
0.957210 0.854190 0.045345
0.957151 0.834764 0.059256
0.101725 0.947969 0.148822
0.142208 0.950453 0.143311
0.164731 0.951845 0.140224
0.211034 0.954710 0.133877
0.336230 0.962241 0.116890
0.659812 0.980457 0.075300
0.907936 0.994310 0.042016
0.943837 0.968460 0.034104
0.950694 0.945033 0.029446
0.537843 0.973317 0.091419
0.556925 0.974410 0.088887
0.564979 0.974875 0.087817
0.581835 0.975849 0.085577
0.627262 0.978473 0.079541
0.742264 0.985124 0.064275
0.865716 0.992190 0.048368
0.933363 0.995530 0.039437
0.934070 0.994874 0.038808
0.087199 0.033449 0.292939
0.086879 0.033259 0.291592
0.086737 0.033174 0.290992
0.183260 0.023268 0.197152
0.836191 0.069689 0.155855
0.954128 0.268073 0.358343
0.954301 0.303758 0.351553
0.959125 0.410291 0.389617
0.955481 0.516012 0.234357
0.086718 0.033163 0.290914
0.086396 0.032971 0.289558
0.086251 0.032887 0.288981
0.272180 0.023379 0.175337
0.861211 0.077933 0.166321
0.951799 0.184574 0.350417
0.959704 0.382815 0.450030
0.960986 0.458877 0.407716
0.956627 0.537067 0.227940
0.105459 0.051451 0.357770
0.109157 0.069866 0.383057
0.104641 0.070472 0.373728
0.242813 0.044002 0.237904
0.756279 0.091392 0.205123
0.951749 0.188985 0.366109
0.962399 0.420003 0.471657
0.961854 0.478686 0.413929
0.956477 0.546410 0.225423
0.107937 0.349170 0.690235
0.105525 0.362247 0.698510
0.077842 0.266204 0.552813
0.196361 0.209480 0.410480
0.628572 0.218281 0.315832
0.936458 0.287534 0.374246
0.964343 0.465419 0.489760
0.963034 0.516889 0.425697
0.956169 0.564964 0.220426
0.055501 0.761711 0.927297
0.044796 0.631829 0.760102
0.042364 0.585641 0.700338
0.147688 0.535665 0.613209
0.505400 0.497080 0.491355
0.901752 0.509967 0.439484
0.968450 0.576161 0.513172
0.965401 0.598852 0.444964
0.957870 0.609354 0.205689
0.052607 0.844407 0.803763
0.050355 0.823310 0.758146
0.049236 0.815691 0.742042
0.058239 0.803008 0.713548
0.321390 0.794440 0.630615
0.841839 0.795070 0.519219
0.973487 0.782506 0.518904
0.969870 0.731441 0.450392
0.958386 0.704347 0.166360
0.046752 0.929422 0.607924
0.046900 0.926133 0.596683
0.046350 0.925057 0.592158
0.045209 0.922950 0.583070
0.114768 0.920577 0.557214
0.626023 0.938672 0.460042
0.949580 0.934822 0.394868
0.969285 0.870183 0.335233
0.957126 0.834359 0.059649
0.029334 0.944487 0.157133
0.037213 0.944892 0.156123
0.046812 0.945436 0.154965
0.066601 0.946556 0.152624
0.123062 0.949762 0.145965
0.434876 0.967689 0.105323
0.873036 0.992804 0.047277
0.943814 0.968509 0.034101
0.950703 0.944947 0.029437
0.532009 0.972993 0.092188
0.552412 0.974146 0.089485
0.560486 0.974613 0.088412
0.577384 0.975590 0.086167
0.622920 0.978221 0.080118
0.740337 0.985006 0.064519
0.864891 0.992152 0.048479
0.933360 0.995529 0.039438
0.934071 0.994869 0.038805
0.175282 0.082233 0.594722
0.175062 0.082113 0.594135
0.174965 0.082060 0.593874
0.174758 0.081948 0.593321
0.767122 0.052031 0.330005
0.955278 0.210441 0.451305
0.957410 0.315168 0.432940
0.965744 0.440283 0.546774
0.970870 0.604358 0.555733
0.174952 0.082053 0.593840
0.174732 0.081933 0.593251
0.174634 0.081880 0.592989
0.161850 0.074919 0.555846
0.808597 0.051141 0.331035
0.955576 0.220405 0.451611
0.962321 0.342700 0.527374
0.969075 0.502911 0.585606
0.971676 0.623114 0.563638
0.174805 0.081973 0.593447
0.174584 0.081853 0.592857
0.174486 0.081800 0.592595
0.180583 0.067009 0.505387
0.806134 0.052350 0.344762
0.956835 0.137441 0.521532
0.965893 0.392385 0.562184
0.970546 0.527752 0.599368
0.972084 0.631485 0.566023
0.290502 0.307814 0.852950
0.291714 0.324442 0.860574
0.292226 0.331845 0.863813
0.225187 0.228165 0.748438
0.657924 0.198011 0.562224
0.944881 0.256832 0.573943
0.969041 0.447067 0.608662
0.972237 0.571075 0.622197
0.972958 0.648388 0.570428
0.208006 0.766401 0.999663
0.205150 0.769048 0.999632
0.173114 0.697451 0.989384
0.203106 0.605273 0.909523
0.559521 0.533363 0.775803
0.912264 0.516732 0.687522
0.974971 0.583179 0.686858
0.976038 0.649404 0.661968
0.973031 0.687801 0.583070
0.061859 0.863704 0.999968
0.059562 0.843020 0.998881
0.060144 0.835442 0.996091
0.109330 0.825533 0.977480
0.378908 0.815763 0.908974
0.852380 0.809239 0.802173
0.982913 0.789003 0.758743
0.980619 0.760616 0.706653
0.976340 0.760384 0.595791
0.060954 0.923959 0.964349
0.060478 0.921276 0.958279
0.060137 0.920193 0.955763
0.059685 0.917719 0.950509
0.142127 0.917425 0.927675
0.614933 0.933909 0.841336
0.948603 0.930673 0.762040
0.984418 0.882220 0.716899
0.977981 0.857986 0.577859
0.054522 0.941093 0.786514
0.054420 0.940822 0.786658
0.055226 0.940764 0.786502
0.075282 0.941983 0.781668
0.125863 0.945109 0.769030
0.339545 0.958311 0.725512
0.812441 0.986025 0.627683
0.966819 0.982492 0.561443
0.966074 0.952643 0.391357
0.194217 0.953634 0.207744
0.209592 0.954541 0.203660
0.217289 0.954998 0.201748
0.235258 0.956067 0.197568
0.283689 0.958944 0.186203
0.409729 0.966409 0.155946
0.698910 0.983610 0.093336
0.918431 0.994923 0.041654
0.934074 0.994854 0.038796
0.369541 0.165681 0.838384
0.369359 0.165607 0.838282
0.369278 0.165575 0.838237
0.369107 0.165506 0.838141
0.342242 0.138731 0.782265
0.960295 0.116137 0.618736
0.961514 0.291389 0.529623
0.965968 0.351678 0.610598
0.976492 0.619279 0.708811
0.369268 0.165570 0.838231
0.369086 0.165497 0.838129
0.369005 0.165464 0.838084
0.368834 0.165395 0.837988
0.429597 0.125383 0.725546
0.960216 0.122755 0.617748
0.961496 0.291533 0.529025
0.969632 0.431031 0.656932
0.977370 0.643592 0.720835
0.369146 0.165521 0.838163
0.368964 0.165448 0.838061
0.368883 0.165415 0.838016
0.368712 0.165346 0.837920
0.473205 0.122377 0.704653
0.960180 0.125697 0.617183
0.963206 0.271886 0.590588
0.970901 0.460131 0.672471
0.977876 0.653453 0.725625
0.368889 0.165418 0.838019
0.368707 0.165344 0.837917
0.368626 0.165312 0.837872
0.368455 0.165243 0.837776
0.547502 0.133127 0.723672
0.958104 0.125171 0.676217
0.968365 0.348755 0.676481
0.973871 0.514391 0.699234
0.978884 0.672287 0.734951
0.524790 0.662542 0.999297
0.521411 0.666894 0.999697
0.519927 0.668804 0.999871
0.516802 0.672611 0.999936
0.571645 0.542048 0.946247
0.915484 0.467275 0.830136
0.977295 0.517611 0.794420
0.978498 0.621274 0.745754
0.980987 0.715352 0.755471
0.193783 0.860041 0.999931
0.194307 0.858636 0.999824
0.200627 0.849731 0.999951
0.211088 0.838639 0.999913
0.430204 0.822424 0.999870
0.856321 0.806812 0.938971
0.988014 0.773023 0.885976
0.985273 0.764853 0.808218
0.984702 0.786303 0.790789
0.065410 0.913446 0.999604
0.065184 0.910862 0.999826
0.064708 0.910151 0.999990
0.083893 0.908582 0.999576
0.217506 0.911114 0.999829
0.624001 0.923730 0.985106
0.942202 0.920809 0.919218
0.990145 0.885763 0.868317
0.987634 0.863398 0.816896
0.062974 0.941840 0.999951
0.062963 0.941837 0.999952
0.062958 0.941836 0.999953
0.062948 0.941832 0.999954
0.095945 0.944053 0.999579
0.271421 0.954707 0.983140
0.772319 0.981087 0.904656
0.979011 0.976142 0.848788
0.989243 0.945606 0.804976
0.349592 0.958132 0.880825
0.363371 0.958869 0.878468
0.369418 0.959193 0.877430
0.382040 0.959871 0.875257
0.413475 0.961868 0.868518
0.491125 0.967265 0.849591
0.679986 0.978422 0.805508
0.905993 0.991362 0.745945
0.966961 0.993294 0.657061
0.652398 0.290431 0.922894
0.652373 0.290417 0.922898
0.652362 0.290410 0.922900
0.652339 0.290397 0.922905
0.652275 0.290361 0.922916
0.820522 0.194386 0.813165
0.965000 0.249789 0.644277
0.962528 0.276086 0.580901
0.976597 0.515805 0.763642
0.652361 0.290410 0.922901
0.652336 0.290395 0.922905
0.652325 0.290389 0.922907
0.652302 0.290376 0.922912
0.652238 0.290340 0.922923
0.848848 0.186102 0.800535
0.965045 0.250064 0.643630
0.963664 0.272180 0.590220
0.977858 0.549073 0.777055
0.652344 0.290400 0.922904
0.652320 0.290386 0.922908
0.652309 0.290380 0.922910
0.652286 0.290367 0.922915
0.652222 0.290330 0.922926
0.859055 0.183156 0.795878
0.965065 0.250185 0.643345
0.964823 0.247483 0.648513
0.978333 0.562700 0.782342
0.652310 0.290380 0.922910
0.652285 0.290366 0.922915
0.652274 0.290360 0.922917
0.652251 0.290347 0.922921
0.652187 0.290311 0.922933
0.877718 0.177647 0.787572
0.965106 0.250438 0.642749
0.969073 0.316609 0.710519
0.979428 0.588836 0.791964
0.660941 0.292848 0.922854
0.661933 0.293775 0.923120
0.662582 0.293727 0.922839
0.664100 0.293708 0.922423
0.668854 0.293613 0.922314
0.874183 0.242586 0.864974
0.972646 0.287186 0.812514
0.976615 0.487167 0.787097
0.981824 0.646745 0.813194
0.446648 0.770502 0.999894
0.444220 0.771983 0.999887
0.443146 0.772637 0.999884
0.440889 0.774014 0.999878
0.434735 0.777766 0.999860
0.769558 0.730269 0.982950
0.985609 0.709076 0.947658
0.984849 0.698787 0.864078
0.985608 0.745113 0.850079
0.067091 0.938094 0.999992
0.065560 0.913921 0.999735
0.074891 0.896594 0.999862
0.129520 0.880546 0.999959
0.220277 0.876342 0.999794
0.591886 0.888769 0.999669
0.928033 0.895567 0.988752
0.992208 0.862818 0.940309
0.990482 0.851631 0.891916
0.066426 0.938251 0.999991
0.075783 0.938372 0.999999
0.079967 0.938443 0.999998
0.088382 0.938587 0.999998
0.147570 0.940899 0.999884
0.316561 0.948302 0.999854
0.751560 0.966826 0.999110
0.971622 0.962914 0.961226
0.993136 0.938577 0.924409
0.313329 0.957824 0.999521
0.325686 0.958482 0.999573
0.331113 0.958771 0.999596
0.342447 0.959374 0.999644
0.372836 0.960991 0.999770
0.457298 0.965882 0.999554
0.669993 0.979596 0.981581
0.901422 0.992764 0.942451
0.986309 0.995598 0.904253
0.658415 0.293294 0.922544
0.658414 0.293294 0.922544
0.658414 0.293293 0.922544
0.658413 0.293293 0.922543
0.658410 0.293293 0.922542
0.658401 0.293292 0.922538
0.972044 0.217757 0.857719
0.966049 0.223811 0.688833
0.964341 0.255242 0.631224
0.658414 0.293293 0.922544
0.658412 0.293293 0.922543
0.658412 0.293293 0.922543
0.658411 0.293293 0.922542
0.658408 0.293293 0.922541
0.658399 0.293292 0.922537
0.972134 0.211799 0.856052
0.966020 0.223992 0.688610
0.965530 0.232834 0.676242
0.658413 0.293293 0.922543
0.658412 0.293293 0.922543
0.658411 0.293293 0.922542
0.658410 0.293293 0.922542
0.658407 0.293293 0.922540
0.658398 0.293291 0.922536
0.972172 0.209257 0.855341
0.966007 0.224072 0.688511
0.966409 0.210601 0.708706
0.658411 0.293293 0.922542
0.658410 0.293293 0.922542
0.658409 0.293293 0.922542
0.658408 0.293293 0.922541
0.658405 0.293292 0.922540
0.658397 0.293291 0.922536
0.972053 0.203747 0.853626
0.965980 0.224241 0.688303
0.968992 0.258627 0.752600
0.658407 0.293293 0.922540
0.658405 0.293292 0.922540
0.658405 0.293292 0.922539
0.658404 0.293292 0.922539
0.658401 0.293292 0.922537
0.658392 0.293291 0.922533
0.970910 0.188396 0.848147
0.965907 0.224701 0.687734
0.975204 0.393623 0.811903
0.672241 0.293882 0.921483
0.673082 0.294091 0.921218
0.673443 0.294180 0.921104
0.674179 0.294361 0.920872
0.675869 0.294277 0.921100
0.680003 0.294038 0.920647
0.935377 0.277538 0.881730
0.977812 0.444921 0.861953
0.982733 0.599851 0.879013
0.065118 0.922985 0.999896
0.065112 0.923205 0.999893
0.065109 0.923302 0.999892
0.065103 0.923507 0.999890
0.065087 0.924070 0.999883
0.065042 0.925603 0.999865
0.825114 0.794907 0.986217
0.991312 0.806152 0.965340
0.989889 0.793866 0.935812
0.067279 0.942593 1.000000
0.067279 0.942593 1.000000
0.067279 0.942593 1.000000
0.067279 0.942593 1.000000
0.067279 0.942593 1.000000
0.072001 0.930763 0.999866
0.627378 0.934429 0.999775
0.951547 0.932848 0.992430
0.994977 0.916678 0.974437
0.167928 0.948000 0.999753
0.178686 0.948662 0.999723
0.183393 0.948952 0.999710
0.193191 0.949556 0.999683
0.219244 0.951162 0.999610
0.297101 0.956408 0.999828
0.521020 0.969963 0.999508
0.857113 0.990180 0.999768
0.992715 0.994593 0.993164
