output/AppleLog2_display/AppleLog2_to_ACROS_33grid.cube
TITLE "AppleLog2_to_ACROS"
# Input: Apple Log 2 (Apple Gamut primaries, D65)
# Output: BT.709 / Gamma 2.2 (display-referred)
# Use: Display LUT for iPhone 17 Pro Apple Log 2 footage
# Source: FLog2C_to_ACROS_65grid_V.1.00.cube
# Generated from Fujifilm GFX ETERNA 55 F-Log2C LUT
LUT_3D_SIZE 33
0.000105 0.000105 0.000105
0.000105 0.000105 0.000105
0.000105 0.000105 0.000105
0.000105 0.000105 0.000105
0.000105 0.000105 0.000105
0.000105 0.000105 0.000105
0.000105 0.000105 0.000105
0.000105 0.000105 0.000105
0.008964 0.008964 0.008964
0.021966 0.021966 0.021966
0.039342 0.039342 0.039342
0.067254 0.067254 0.067254
0.106830 0.106830 0.106830
0.150202 0.150202 0.150202
0.202079 0.202079 0.202079
0.260680 0.260680 0.260680
0.327607 0.327607 0.327607
0.406012 0.406012 0.406012
0.470786 0.470786 0.470786
0.527079 0.527079 0.527079
0.558594 0.558594 0.558594
0.558594 0.558594 0.558594
0.558594 0.558594 0.558594
0.558594 0.558594 0.558594
0.558594 0.558594 0.558594
0.558594 0.558594 0.558594
0.574022 0.574022 0.574022
0.593673 0.593673 0.593673
0.612239 0.612239 0.612239
0.630321 0.630321 0.630321
0.647921 0.647921 0.647921
0.665803 0.665803 0.665803
0.682450 0.682450 0.682450
0.000105 0.000105 0.000105
0.000105 0.000105 0.000105
0.000105 0.000105 0.000105
0.000105 0.000105 0.000105
0.000105 0.000105 0.000105
0.000105 0.000105 0.000105
0.003996 0.003996 0.003996
0.012012 0.012012 0.012012
0.022305 0.022305 0.022305
0.035903 0.035903 0.035903
0.055550 0.055550 0.055550
0.086840 0.086840 0.086840
0.123706 0.123706 0.123706
0.165299 0.165299 0.165299
0.215844 0.215844 0.215844
0.272908 0.272908 0.272908
0.339465 0.339465 0.339465
0.414769 0.414769 0.414769
0.476127 0.476127 0.476127
0.530870 0.530870 0.530870
0.558594 0.558594 0.558594
0.558594 0.558594 0.558594
0.558594 0.558594 0.558594
0.558594 0.558594 0.558594
0.563253 0.563253 0.563253
0.577985 0.577985 0.577985
0.593306 0.593306 0.593306
0.608777 0.608777 0.608777
0.623984 0.623984 0.623984
0.639244 0.639244 0.639244
0.655180 0.655180 0.655180
0.671344 0.671344 0.671344
0.686421 0.686421 0.686421
0.000105 0.000105 0.000105
0.000105 0.000105 0.000105
0.000105 0.000105 0.000105
0.000105 0.000105 0.000105
0.000105 0.000105 0.000105
0.001036 0.001036 0.001036
0.009255 0.009255 0.009255
0.016864 0.016864 0.016864
0.028264 0.028264 0.028264
0.041308 0.041308 0.041308
0.063472 0.063472 0.063472
0.094640 0.094640 0.094640
0.130295 0.130295 0.130295
0.171790 0.171790 0.171790
0.221444 0.221444 0.221444
0.277796 0.277796 0.277796
0.344243 0.344243 0.344243
0.417951 0.417951 0.417951
0.478303 0.478303 0.478303
0.515339 0.515339 0.515339
0.536410 0.536410 0.536410
0.558276 0.558276 0.558276
0.558594 0.558594 0.558594
0.561958 0.561958 0.561958
0.573670 0.573670 0.573670
0.587127 0.587127 0.587127
0.600253 0.600253 0.600253
0.614443 0.614443 0.614443
0.628496 0.628496 0.628496
0.642758 0.642758 0.642758
0.658054 0.658054 0.658054
0.673514 0.673514 0.673514
0.688109 0.688109 0.688109
0.000105 0.000105 0.000105
0.000105 0.000105 0.000105
0.000105 0.000105 0.000105
0.000105 0.000105 0.000105
0.000105 0.000105 0.000105
0.004695 0.004695 0.004695
0.013232 0.013232 0.013232
0.021902 0.021902 0.021902
0.032458 0.032458 0.032458
0.046794 0.046794 0.046794
0.069197 0.069197 0.069197
0.100499 0.100499 0.100499
0.135166 0.135166 0.135166
0.176627 0.176627 0.176627
0.225775 0.225775 0.225775
0.281479 0.281479 0.281479
0.347858 0.347858 0.347858
0.397746 0.397746 0.397746
0.440042 0.440042 0.440042
0.474482 0.474482 0.474482
0.506959 0.506959 0.506959
0.539616 0.539616 0.539616
0.558448 0.558448 0.558448
0.570685 0.570685 0.570685
0.581629 0.581629 0.581629
0.593421 0.593421 0.593421
0.605287 0.605287 0.605287
0.618562 0.618562 0.618562
0.631781 0.631781 0.631781
0.645383 0.645383 0.645383
0.660195 0.660195 0.660195
0.675142 0.675142 0.675142
0.689396 0.689396 0.689396
0.000105 0.000105 0.000105
0.000105 0.000105 0.000105
0.000105 0.000105 0.000105
0.000105 0.000105 0.000105
0.000105 0.000105 0.000105
0.008041 0.008041 0.008041
0.016340 0.016340 0.016340
0.025836 0.025836 0.025836
0.036209 0.036209 0.036209
0.051197 0.051197 0.051197
0.074477 0.074477 0.074477
0.105262 0.105262 0.105262
0.136430 0.136430 0.136430
0.170583 0.170583 0.170583
0.209143 0.209143 0.209143
0.251711 0.251711 0.251711
0.298885 0.298885 0.298885
0.349664 0.349664 0.349664
0.403812 0.403812 0.403812
0.450341 0.450341 0.450341
0.488498 0.488498 0.488498
0.528935 0.528935 0.528935
0.564042 0.564042 0.564042
0.578055 0.578055 0.578055
0.587857 0.587857 0.587857
0.598128 0.598128 0.598128
0.609296 0.609296 0.609296
0.621868 0.621868 0.621868
0.634447 0.634447 0.634447
0.647600 0.647600 0.647600
0.661960 0.661960 0.661960
0.676490 0.676490 0.676490
0.690466 0.690466 0.690466
0.002462 0.002462 0.002462
0.005417 0.005417 0.005417
0.006568 0.006568 0.006568
0.007425 0.007425 0.007425
0.007107 0.007107 0.007107
0.011661 0.011661 0.011661
0.017802 0.017802 0.017802
0.024804 0.024804 0.024804
0.031913 0.031913 0.031913
0.042929 0.042929 0.042929
0.061760 0.061760 0.061760
0.085376 0.085376 0.085376
0.112859 0.112859 0.112859
0.144601 0.144601 0.144601
0.182829 0.182829 0.182829
0.225157 0.225157 0.225157
0.270254 0.270254 0.270254
0.320683 0.320683 0.320683
0.378922 0.378922 0.378922
0.435212 0.435212 0.435212
0.482174 0.482174 0.482174
0.527077 0.527077 0.527077
0.567869 0.567869 0.567869
0.583979 0.583979 0.583979
0.592636 0.592636 0.592636
0.602190 0.602190 0.602190
0.612656 0.612656 0.612656
0.624633 0.624633 0.624633
0.636721 0.636721 0.636721
0.649506 0.649506 0.649506
0.663468 0.663468 0.663468
0.677660 0.677660 0.677660
0.691398 0.691398 0.691398
0.015363 0.015363 0.015363
0.018600 0.018600 0.018600
0.019926 0.019926 0.019926
0.020921 0.020921 0.020921
0.018550 0.018550 0.018550
0.021242 0.021242 0.021242
0.026310 0.026310 0.026310
0.031170 0.031170 0.031170
0.037956 0.037956 0.037956
0.046385 0.046385 0.046385
0.061078 0.061078 0.061078
0.081159 0.081159 0.081159
0.106565 0.106565 0.106565
0.136060 0.136060 0.136060
0.171351 0.171351 0.171351
0.212860 0.212860 0.212860
0.256969 0.256969 0.256969
0.307564 0.307564 0.307564
0.368949 0.368949 0.368949
0.431628 0.431628 0.431628
0.482704 0.482704 0.482704
0.527082 0.527082 0.527082
0.568177 0.568177 0.568177
0.588921 0.588921 0.588921
0.596735 0.596735 0.596735
0.606075 0.606075 0.606075
0.615566 0.615566 0.615566
0.627040 0.627040 0.627040
0.638722 0.638722 0.638722
0.651193 0.651193 0.651193
0.664774 0.664774 0.664774
0.678703 0.678703 0.678703
0.692231 0.692231 0.692231
0.029220 0.029220 0.029220
0.032209 0.032209 0.032209
0.033399 0.033399 0.033399
0.034295 0.034295 0.034295
0.029100 0.029100 0.029100
0.031557 0.031557 0.031557
0.035380 0.035380 0.035380
0.039801 0.039801 0.039801
0.045533 0.045533 0.045533
0.053286 0.053286 0.053286
0.065807 0.065807 0.065807
0.084459 0.084459 0.084459
0.109179 0.109179 0.109179
0.138040 0.138040 0.138040
0.171363 0.171363 0.171363
0.210372 0.210372 0.210372
0.253391 0.253391 0.253391
0.305831 0.305831 0.305831
0.365967 0.365967 0.365967
0.431126 0.431126 0.431126
0.483700 0.483700 0.483700
0.527337 0.527337 0.527337
0.568134 0.568134 0.568134
0.592551 0.592551 0.592551
0.600663 0.600663 0.600663
0.609545 0.609545 0.609545
0.618314 0.618314 0.618314
0.629224 0.629224 0.629224
0.640560 0.640560 0.640560
0.652742 0.652742 0.652742
0.665978 0.665978 0.665978
0.679668 0.679668 0.679668
0.693004 0.693004 0.693004
0.044258 0.044258 0.044258
0.047605 0.047605 0.047605
0.048954 0.048954 0.048954
0.049975 0.049975 0.049975
0.041713 0.041713 0.041713
0.043496 0.043496 0.043496
0.045919 0.045919 0.045919
0.049826 0.049826 0.049826
0.055465 0.055465 0.055465
0.062587 0.062587 0.062587
0.073891 0.073891 0.073891
0.091005 0.091005 0.091005
0.113117 0.113117 0.113117
0.140971 0.140971 0.140971
0.172646 0.172646 0.172646
0.209260 0.209260 0.209260
0.251915 0.251915 0.251915
0.303239 0.303239 0.303239
0.364282 0.364282 0.364282
0.430705 0.430705 0.430705
0.485481 0.485481 0.485481
0.527830 0.527830 0.527830
0.568996 0.568996 0.568996
0.595681 0.595681 0.595681
0.605104 0.605104 0.605104
0.613442 0.613442 0.613442
0.621590 0.621590 0.621590
0.631763 0.631763 0.631763
0.642715 0.642715 0.642715
0.654562 0.654562 0.654562
0.667396 0.667396 0.667396
0.680809 0.680809 0.680809
0.693921 0.693921 0.693921
0.064058 0.064058 0.064058
0.067010 0.067010 0.067010
0.068516 0.068516 0.068516
0.064577 0.064577 0.064577
0.056459 0.056459 0.056459
0.056838 0.056838 0.056838
0.059845 0.059845 0.059845
0.063011 0.063011 0.063011
0.067330 0.067330 0.067330
0.073698 0.073698 0.073698
0.084021 0.084021 0.084021
0.099053 0.099053 0.099053
0.119894 0.119894 0.119894
0.145714 0.145714 0.145714
0.175929 0.175929 0.175929
0.211438 0.211438 0.211438
0.253236 0.253236 0.253236
0.304776 0.304776 0.304776
0.364201 0.364201 0.364201
0.429795 0.429795 0.429795
0.487045 0.487045 0.487045
0.529664 0.529664 0.529664
0.569880 0.569880 0.569880
0.599491 0.599491 0.599491
0.610717 0.610717 0.610717
0.617946 0.617946 0.617946
0.625619 0.625619 0.625619
0.634969 0.634969 0.634969
0.645410 0.645410 0.645410
0.656851 0.656851 0.656851
0.669188 0.669188 0.669188
0.682223 0.682223 0.682223
0.695088 0.695088 0.695088
0.093777 0.093777 0.093777
0.097200 0.097200 0.097200
0.098594 0.098594 0.098594
0.083598 0.083598 0.083598
0.073351 0.073351 0.073351
0.073436 0.073436 0.073436
0.076323 0.076323 0.076323
0.079220 0.079220 0.079220
0.082356 0.082356 0.082356
0.087836 0.087836 0.087836
0.096646 0.096646 0.096646
0.110800 0.110800 0.110800
0.130101 0.130101 0.130101
0.154427 0.154427 0.154427
0.182929 0.182929 0.182929
0.217856 0.217856 0.217856
0.257769 0.257769 0.257769
0.308617 0.308617 0.308617
0.366004 0.366004 0.366004
0.431464 0.431464 0.431464
0.490569 0.490569 0.490569
0.533309 0.533309 0.533309
0.570999 0.570999 0.570999
0.604134 0.604134 0.604134
0.617516 0.617516 0.617516
0.623381 0.623381 0.623381
0.630530 0.630530 0.630530
0.639028 0.639028 0.639028
0.648754 0.648754 0.648754
0.659762 0.659762 0.659762
0.671439 0.671439 0.671439
0.683982 0.683982 0.683982
0.696568 0.696568 0.696568
0.133368 0.133368 0.133368
0.137065 0.137065 0.137065
0.132148 0.132148 0.132148
0.109411 0.109411 0.109411
0.099810 0.099810 0.099810
0.099342 0.099342 0.099342
0.100065 0.100065 0.100065
0.101949 0.101949 0.101949
0.104845 0.104845 0.104845
0.108562 0.108562 0.108562
0.117357 0.117357 0.117357
0.129777 0.129777 0.129777
0.147411 0.147411 0.147411
0.169741 0.169741 0.169741
0.196310 0.196310 0.196310
0.229024 0.229024 0.229024
0.269171 0.269171 0.269171
0.316207 0.316207 0.316207
0.372903 0.372903 0.372903
0.434757 0.434757 0.434757
0.495003 0.495003 0.495003
0.538846 0.538846 0.538846
0.574495 0.574495 0.574495
0.608917 0.608917 0.608917
0.624992 0.624992 0.624992
0.630368 0.630368 0.630368
0.636446 0.636446 0.636446
0.643968 0.643968 0.643968
0.652996 0.652996 0.652996
0.663377 0.663377 0.663377
0.674250 0.674250 0.674250
0.686193 0.686193 0.686193
0.698439 0.698439 0.698439
0.183296 0.183296 0.183296
0.186492 0.186492 0.186492
0.160096 0.160096 0.160096
0.140192 0.140192 0.140192
0.131960 0.131960 0.131960
0.132144 0.132144 0.132144
0.133067 0.133067 0.133067
0.133398 0.133398 0.133398
0.135185 0.135185 0.135185
0.139037 0.139037 0.139037
0.145798 0.145798 0.145798
0.157264 0.157264 0.157264
0.172828 0.172828 0.172828
0.193176 0.193176 0.193176
0.218056 0.218056 0.218056
0.247945 0.247945 0.247945
0.284636 0.284636 0.284636
0.329127 0.329127 0.329127
0.382407 0.382407 0.382407
0.440768 0.440768 0.440768
0.499523 0.499523 0.499523
0.546280 0.546280 0.546280
0.580097 0.580097 0.580097
0.613383 0.613383 0.613383
0.633696 0.633696 0.633696
0.638558 0.638558 0.638558
0.643575 0.643575 0.643575
0.650173 0.650173 0.650173
0.658353 0.658353 0.658353
0.667820 0.667820 0.667820
0.677838 0.677838 0.677838
0.688957 0.688957 0.688957
0.700789 0.700789 0.700789
0.236086 0.236086 0.236086
0.223759 0.223759 0.223759
0.190203 0.190203 0.190203
0.175211 0.175211 0.175211
0.172044 0.172044 0.172044
0.171496 0.171496 0.171496
0.171583 0.171583 0.171583
0.171728 0.171728 0.171728
0.173169 0.173169 0.173169
0.176368 0.176368 0.176368
0.182543 0.182543 0.182543
0.191882 0.191882 0.191882
0.206834 0.206834 0.206834
0.224954 0.224954 0.224954
0.247607 0.247607 0.247607
0.273304 0.273304 0.273304
0.307011 0.307011 0.307011
0.346947 0.346947 0.346947
0.395250 0.395250 0.395250
0.449158 0.449158 0.449158
0.506280 0.506280 0.506280
0.553910 0.553910 0.553910
0.586852 0.586852 0.586852
0.618944 0.618944 0.618944
0.642568 0.642568 0.642568
0.648101 0.648101 0.648101
0.652026 0.652026 0.652026
0.657617 0.657617 0.657617
0.664791 0.664791 0.664791
0.673011 0.673011 0.673011
0.682300 0.682300 0.682300
0.692386 0.692386 0.692386
0.703726 0.703726 0.703726
0.293038 0.293038 0.293038
0.246592 0.246592 0.246592
0.223530 0.223530 0.223530
0.215881 0.215881 0.215881
0.215029 0.215029 0.215029
0.214323 0.214323 0.214323
0.214079 0.214079 0.214079
0.214739 0.214739 0.214739
0.216483 0.216483 0.216483
0.219653 0.219653 0.219653
0.224914 0.224914 0.224914
0.234010 0.234010 0.234010
0.246332 0.246332 0.246332
0.262069 0.262069 0.262069
0.280660 0.280660 0.280660
0.306240 0.306240 0.306240
0.335112 0.335112 0.335112
0.371378 0.371378 0.371378
0.413353 0.413353 0.413353
0.462732 0.462732 0.462732
0.514995 0.514995 0.514995
0.563325 0.563325 0.563325
0.596731 0.596731 0.596731
0.626068 0.626068 0.626068
0.651061 0.651061 0.651061
0.659565 0.659565 0.659565
0.661996 0.661996 0.661996
0.666916 0.666916 0.666916
0.672466 0.672466 0.672466
0.679111 0.679111 0.679111
0.687737 0.687737 0.687737
0.696797 0.696797 0.696797
0.707366 0.707366 0.707366
0.355625 0.355625 0.355625
0.275106 0.275106 0.275106
0.261933 0.261933 0.261933
0.259332 0.259332 0.259332
0.257855 0.257855 0.257855
0.257589 0.257589 0.257589
0.258875 0.258875 0.258875
0.260823 0.260823 0.260823
0.263323 0.263323 0.263323
0.266645 0.266645 0.266645
0.272212 0.272212 0.272212
0.280207 0.280207 0.280207
0.291017 0.291017 0.291017
0.304399 0.304399 0.304399
0.321152 0.321152 0.321152
0.342289 0.342289 0.342289
0.367148 0.367148 0.367148
0.400498 0.400498 0.400498
0.437456 0.437456 0.437456
0.479679 0.479679 0.479679
0.528012 0.528012 0.528012
0.575021 0.575021 0.575021
0.609232 0.609232 0.609232
0.636040 0.636040 0.636040
0.660627 0.660627 0.660627
0.671616 0.671616 0.671616
0.673561 0.673561 0.673561
0.677053 0.677053 0.677053
0.681433 0.681433 0.681433
0.686893 0.686893 0.686893
0.694209 0.694209 0.694209
0.702226 0.702226 0.702226
0.711838 0.711838 0.711838
0.363571 0.363571 0.363571
0.312834 0.312834 0.312834
0.308033 0.308033 0.308033
0.306228 0.306228 0.306228
0.307037 0.307037 0.307037
0.308087 0.308087 0.308087
0.309834 0.309834 0.309834
0.311376 0.311376 0.311376
0.314024 0.314024 0.314024
0.317453 0.317453 0.317453
0.322964 0.322964 0.322964
0.330072 0.330072 0.330072
0.338883 0.338883 0.338883
0.349796 0.349796 0.349796
0.364905 0.364905 0.364905
0.382377 0.382377 0.382377
0.405332 0.405332 0.405332
0.432907 0.432907 0.432907
0.466239 0.466239 0.466239
0.503345 0.503345 0.503345
0.545242 0.545242 0.545242
0.588777 0.588777 0.588777
0.625111 0.625111 0.625111
0.648134 0.648134 0.648134
0.670915 0.670915 0.670915
0.685362 0.685362 0.685362
0.686469 0.686469 0.686469
0.688446 0.688446 0.688446
0.691702 0.691702 0.691702
0.696161 0.696161 0.696161
0.701812 0.701812 0.701812
0.708747 0.708747 0.708747
0.716890 0.716890 0.716890
0.379563 0.379563 0.379563
0.359256 0.359256 0.359256
0.360135 0.360135 0.360135
0.361511 0.361511 0.361511
0.362897 0.362897 0.362897
0.365108 0.365108 0.365108
0.367007 0.367007 0.367007
0.368883 0.368883 0.368883
0.371204 0.371204 0.371204
0.374040 0.374040 0.374040
0.378913 0.378913 0.378913
0.384922 0.384922 0.384922
0.392565 0.392565 0.392565
0.402036 0.402036 0.402036
0.413839 0.413839 0.413839
0.429125 0.429125 0.429125
0.448007 0.448007 0.448007
0.472134 0.472134 0.472134
0.500384 0.500384 0.500384
0.532699 0.532699 0.532699
0.568942 0.568942 0.568942
0.606381 0.606381 0.606381
0.641177 0.641177 0.641177
0.663573 0.663573 0.663573
0.683025 0.683025 0.683025
0.698010 0.698010 0.698010
0.700647 0.700647 0.700647
0.701192 0.701192 0.701192
0.703206 0.703206 0.703206
0.705816 0.705816 0.705816
0.710514 0.710514 0.710514
0.716476 0.716476 0.716476
0.722941 0.722941 0.722941
0.417197 0.417197 0.417197
0.417472 0.417472 0.417472
0.419890 0.419890 0.419890
0.422240 0.422240 0.422240
0.424748 0.424748 0.424748
0.426847 0.426847 0.426847
0.428696 0.428696 0.428696
0.430370 0.430370 0.430370
0.432302 0.432302 0.432302
0.435079 0.435079 0.435079
0.439078 0.439078 0.439078
0.443920 0.443920 0.443920
0.449814 0.449814 0.449814
0.457551 0.457551 0.457551
0.467368 0.467368 0.467368
0.479779 0.479779 0.479779
0.495508 0.495508 0.495508
0.515558 0.515558 0.515558
0.539318 0.539318 0.539318
0.566245 0.566245 0.566245
0.596889 0.596889 0.596889
0.629596 0.629596 0.629596
0.660611 0.660611 0.660611
0.680672 0.680672 0.680672
0.697989 0.697989 0.697989
0.711759 0.711759 0.711759
0.715935 0.715935 0.715935
0.714910 0.714910 0.714910
0.716068 0.716068 0.716068
0.717467 0.717467 0.717467
0.720805 0.720805 0.720805
0.725501 0.725501 0.725501
0.731135 0.731135 0.731135
0.474605 0.474605 0.474605
0.480359 0.480359 0.480359
0.483283 0.483283 0.483283
0.485424 0.485424 0.485424
0.487492 0.487492 0.487492
0.489435 0.489435 0.489435
0.491133 0.491133 0.491133
0.492674 0.492674 0.492674
0.494604 0.494604 0.494604
0.497123 0.497123 0.497123
0.500222 0.500222 0.500222
0.503819 0.503819 0.503819
0.507981 0.507981 0.507981
0.514143 0.514143 0.514143
0.522300 0.522300 0.522300
0.532845 0.532845 0.532845
0.545052 0.545052 0.545052
0.561467 0.561467 0.561467
0.580710 0.580710 0.580710
0.602770 0.602770 0.602770
0.628664 0.628664 0.628664
0.656685 0.656685 0.656685
0.683215 0.683215 0.683215
0.701747 0.701747 0.701747
0.714348 0.714348 0.714348
0.726108 0.726108 0.726108
0.732134 0.732134 0.732134
0.730041 0.730041 0.730041
0.729822 0.729822 0.729822
0.730538 0.730538 0.730538
0.732523 0.732523 0.732523
0.735874 0.735874 0.735874
0.740554 0.740554 0.740554
0.536907 0.536907 0.536907
0.542214 0.542214 0.542214
0.544696 0.544696 0.544696
0.546743 0.546743 0.546743
0.548402 0.548402 0.548402
0.549818 0.549818 0.549818
0.551067 0.551067 0.551067
0.552206 0.552206 0.552206
0.553537 0.553537 0.553537
0.555198 0.555198 0.555198
0.557467 0.557467 0.557467
0.560731 0.560731 0.560731
0.564696 0.564696 0.564696
0.570139 0.570139 0.570139
0.576752 0.576752 0.576752
0.584644 0.584644 0.584644
0.595202 0.595202 0.595202
0.608137 0.608137 0.608137
0.623044 0.623044 0.623044
0.641611 0.641611 0.641611
0.662915 0.662915 0.662915
0.685991 0.685991 0.685991
0.709169 0.709169 0.709169
0.725989 0.725989 0.725989
0.733572 0.733572 0.733572
0.741780 0.741780 0.741780
0.747990 0.747990 0.747990
0.746656 0.746656 0.746656
0.745241 0.745241 0.745241
0.744767 0.744767 0.744767
0.745566 0.745566 0.745566
0.747601 0.747601 0.747601
0.750828 0.750828 0.750828
0.595615 0.595615 0.595615
0.601134 0.601134 0.601134
0.603346 0.603346 0.603346
0.604851 0.604851 0.604851
0.606079 0.606079 0.606079
0.607135 0.607135 0.607135
0.608069 0.608069 0.608069
0.608927 0.608927 0.608927
0.609987 0.609987 0.609987
0.611573 0.611573 0.611573
0.613553 0.613553 0.613553
0.616005 0.616005 0.616005
0.619167 0.619167 0.619167
0.623258 0.623258 0.623258
0.628473 0.628473 0.628473
0.635534 0.635534 0.635534
0.643766 0.643766 0.643766
0.653860 0.653860 0.653860
0.666383 0.666383 0.666383
0.681079 0.681079 0.681079
0.698063 0.698063 0.698063
0.716139 0.716139 0.716139
0.735882 0.735882 0.735882
0.751377 0.751377 0.751377
0.757106 0.757106 0.757106
0.760554 0.760554 0.760554
0.763809 0.763809 0.763809
0.763537 0.763537 0.763537
0.761494 0.761494 0.761494
0.760181 0.760181 0.760181
0.759350 0.759350 0.759350
0.760455 0.760455 0.760455
0.761736 0.761736 0.761736
0.650676 0.650676 0.650676
0.655545 0.655545 0.655545
0.657549 0.657549 0.657549
0.659041 0.659041 0.659041
0.660206 0.660206 0.660206
0.661159 0.661159 0.661159
0.662005 0.662005 0.662005
0.662784 0.662784 0.662784
0.663702 0.663702 0.663702
0.664861 0.664861 0.664861
0.666316 0.666316 0.666316
0.668446 0.668446 0.668446
0.671267 0.671267 0.671267
0.674725 0.674725 0.674725
0.678919 0.678919 0.678919
0.683945 0.683945 0.683945
0.690417 0.690417 0.690417
0.698375 0.698375 0.698375
0.707974 0.707974 0.707974
0.719142 0.719142 0.719142
0.733305 0.733305 0.733305
0.748616 0.748616 0.748616
0.764750 0.764750 0.764750
0.779523 0.779523 0.779523
0.782164 0.782164 0.782164
0.781609 0.781609 0.781609
0.781288 0.781288 0.781288
0.780522 0.780522 0.780522
0.778364 0.778364 0.778364
0.776012 0.776012 0.776012
0.774350 0.774350 0.774350
0.774028 0.774028 0.774028
0.774734 0.774734 0.774734
0.700453 0.700453 0.700453
0.704324 0.704324 0.704324
0.705880 0.705880 0.705880
0.707046 0.707046 0.707046
0.708011 0.708011 0.708011
0.708848 0.708848 0.708848
0.709594 0.709594 0.709594
0.710299 0.710299 0.710299
0.711178 0.711178 0.711178
0.712292 0.712292 0.712292
0.713699 0.713699 0.713699
0.715468 0.715468 0.715468
0.717677 0.717677 0.717677
0.720551 0.720551 0.720551
0.724207 0.724207 0.724207
0.728630 0.728630 0.728630
0.733703 0.733703 0.733703
0.739945 0.739945 0.739945
0.747807 0.747807 0.747807
0.757614 0.757614 0.757614
0.768718 0.768718 0.768718
0.781033 0.781033 0.781033
0.794397 0.794397 0.794397
0.805611 0.805611 0.805611
0.807181 0.807181 0.807181
0.805336 0.805336 0.805336
0.801403 0.801403 0.801403
0.798557 0.798557 0.798557
0.794919 0.794919 0.794919
0.791926 0.791926 0.791926
0.789452 0.789452 0.789452
0.787930 0.787930 0.787930
0.787970 0.787970 0.787970
0.744296 0.744296 0.744296
0.747573 0.747573 0.747573
0.748905 0.748905 0.748905
0.749908 0.749908 0.749908
0.750742 0.750742 0.750742
0.751467 0.751467 0.751467
0.752116 0.752116 0.752116
0.752717 0.752717 0.752717
0.753429 0.753429 0.753429
0.754335 0.754335 0.754335
0.755484 0.755484 0.755484
0.756976 0.756976 0.756976
0.758872 0.758872 0.758872
0.761240 0.761240 0.761240
0.764173 0.764173 0.764173
0.767681 0.767681 0.767681
0.771884 0.771884 0.771884
0.777161 0.777161 0.777161
0.783704 0.783704 0.783704
0.791673 0.791673 0.791673
0.800844 0.800844 0.800844
0.810674 0.810674 0.810674
0.820831 0.820831 0.820831
0.830010 0.830010 0.830010
0.831798 0.831798 0.831798
0.827491 0.827491 0.827491
0.822838 0.822838 0.822838
0.816822 0.816822 0.816822
0.812291 0.812291 0.812291
0.808915 0.808915 0.808915
0.806075 0.806075 0.806075
0.803535 0.803535 0.803535
0.802641 0.802641 0.802641
0.777575 0.777575 0.777575
0.780674 0.780674 0.780674
0.781921 0.781921 0.781921
0.782833 0.782833 0.782833
0.783569 0.783569 0.783569
0.784212 0.784212 0.784212
0.784788 0.784788 0.784788
0.785323 0.785323 0.785323
0.785959 0.785959 0.785959
0.786770 0.786770 0.786770
0.787803 0.787803 0.787803
0.789112 0.789112 0.789112
0.790766 0.790766 0.790766
0.792838 0.792838 0.792838
0.795351 0.795351 0.795351
0.798461 0.798461 0.798461
0.802275 0.802275 0.802275
0.806834 0.806834 0.806834
0.812285 0.812285 0.812285
0.818838 0.818838 0.818838
0.826126 0.826126 0.826126
0.834042 0.834042 0.834042
0.842289 0.842289 0.842289
0.848937 0.848937 0.848937
0.851509 0.851509 0.851509
0.848090 0.848090 0.848090
0.843121 0.843121 0.843121
0.836225 0.836225 0.836225
0.830495 0.830495 0.830495
0.827435 0.827435 0.827435
0.823190 0.823190 0.823190
0.821090 0.821090 0.821090
0.818958 0.818958 0.818958
0.796515 0.796515 0.796515
0.799220 0.799220 0.799220
0.800316 0.800316 0.800316
0.801148 0.801148 0.801148
0.801843 0.801843 0.801843
0.802450 0.802450 0.802450
0.802996 0.802996 0.802996
0.803504 0.803504 0.803504
0.804108 0.804108 0.804108
0.804874 0.804874 0.804874
0.805851 0.805851 0.805851
0.807093 0.807093 0.807093
0.808669 0.808669 0.808669
0.810657 0.810657 0.810657
0.813155 0.813155 0.813155
0.816274 0.816274 0.816274
0.820164 0.820164 0.820164
0.824939 0.824939 0.824939
0.830468 0.830468 0.830468
0.836363 0.836363 0.836363
