output/AppleLog2_display/AppleLog2_to_ASTIA_33grid.cube
TITLE "AppleLog2_to_ASTIA"
# Input: Apple Log 2 (Apple Gamut primaries, D65)
# Output: BT.709 / Gamma 2.2 (display-referred)
# Use: Display LUT for iPhone 17 Pro Apple Log 2 footage
# Source: FLog2C_to_ASTIA_65grid_V.1.00.cube
# Generated from Fujifilm GFX ETERNA 55 F-Log2C LUT
LUT_3D_SIZE 33
0.000334 0.000257 0.000073
0.000334 0.000257 0.000073
0.000334 0.000257 0.000073
0.000334 0.000257 0.000073
0.000334 0.000257 0.000073
0.000334 0.000257 0.000073
0.000334 0.000257 0.000073
0.000334 0.000257 0.000073
0.036121 0.001443 0.000865
0.086894 0.002780 0.002941
0.168677 0.003817 0.006794
0.287118 0.004351 0.005502
0.422312 0.002947 0.009873
0.572103 0.000477 0.027366
0.715758 0.000273 0.065989
0.855380 0.000097 0.140301
0.979986 0.000576 0.269675
0.999471 0.000000 0.418647
0.999366 0.000000 0.509339
0.999815 0.037738 0.529268
0.999461 0.099723 0.540077
0.999461 0.099723 0.540077
0.999461 0.099723 0.540077
0.999461 0.099723 0.540077
0.999461 0.099723 0.540077
0.999461 0.099723 0.540077
0.999848 0.136070 0.516341
0.999956 0.190931 0.481072
0.999718 0.248205 0.445362
0.999378 0.303482 0.403896
0.999512 0.356864 0.361776
0.999706 0.410257 0.316688
0.999933 0.463116 0.266135
0.000334 0.000257 0.000073
0.000334 0.000257 0.000073
0.000334 0.000257 0.000073
0.000334 0.000257 0.000073
0.000334 0.000257 0.000073
0.000334 0.000257 0.000073
0.018134 0.000956 0.000038
0.048268 0.002273 0.001950
0.088045 0.002798 0.002907
0.150070 0.003461 0.004948
0.241529 0.004688 0.002928
0.353051 0.003658 0.007944
0.481437 0.002000 0.014259
0.619238 0.000008 0.037187
0.750504 0.000508 0.078033
0.880311 0.000220 0.162599
0.985782 0.000409 0.291117
0.999365 0.000000 0.435702
0.999455 0.000000 0.511869
0.999852 0.044897 0.530597
0.999461 0.099723 0.540077
0.999461 0.099723 0.540077
0.999461 0.099723 0.540077
0.999461 0.099723 0.540077
0.999676 0.108811 0.532947
0.999884 0.147949 0.509841
0.999664 0.190740 0.481593
0.999356 0.237163 0.451785
0.999959 0.282708 0.420167
0.999218 0.330539 0.382954
0.999655 0.378130 0.343832
0.999657 0.427083 0.301313
0.999956 0.475853 0.252919
0.000334 0.000257 0.000073
0.000334 0.000257 0.000073
0.000334 0.000257 0.000073
0.000334 0.000257 0.000073
0.000334 0.000257 0.000073
0.005122 0.000330 0.000008
0.037274 0.001526 0.000969
0.069556 0.002507 0.003447
0.112443 0.003006 0.002873
0.179310 0.004020 0.007849
0.272386 0.004460 0.004670
0.379276 0.003376 0.008720
0.504426 0.001554 0.016577
0.636665 0.000016 0.041910
0.764336 0.000510 0.084107
0.890276 0.000269 0.171512
0.988117 0.000342 0.299756
0.999334 0.000000 0.441451
0.999492 0.000000 0.512900
0.999521 0.022558 0.525151
0.999504 0.052748 0.535455
0.999464 0.099042 0.540031
0.999461 0.099723 0.540077
0.999278 0.106420 0.535815
0.999921 0.135894 0.514451
0.999634 0.171125 0.493916
0.999806 0.212175 0.467383
0.999269 0.254894 0.439662
0.999913 0.296027 0.409718
0.999201 0.341097 0.374550
0.999710 0.386486 0.336547
0.999680 0.433835 0.294734
0.999954 0.481555 0.247148
0.000334 0.000257 0.000073
0.000334 0.000257 0.000073
0.000334 0.000257 0.000073
0.000334 0.000257 0.000073
0.000334 0.000257 0.000073
0.020510 0.000938 0.000067
0.053621 0.002332 0.002326
0.086678 0.002776 0.002947
0.131436 0.003105 0.003100
0.203588 0.004321 0.005696
0.294684 0.004294 0.005929
0.399960 0.003170 0.009274
0.521420 0.001224 0.018290
0.649651 0.000022 0.045429
0.774782 0.000435 0.089759
0.897786 0.000306 0.178230
0.989885 0.000291 0.306293
0.999475 0.000357 0.400657
0.999733 0.000075 0.487268
0.999886 0.000024 0.512058
0.999907 0.011802 0.525799
0.999697 0.058267 0.535455
0.999661 0.098773 0.536176
0.999675 0.126132 0.521233
0.999855 0.157140 0.502721
0.999525 0.188516 0.482442
0.999957 0.228205 0.456724
0.999380 0.268146 0.430252
0.999773 0.307104 0.401157
0.999200 0.349065 0.368237
0.999750 0.392713 0.331118
0.999697 0.438901 0.289801
0.999951 0.485941 0.242728
0.000334 0.000257 0.000073
0.000334 0.000257 0.000073
0.000334 0.000257 0.000073
0.000334 0.000257 0.000073
0.000334 0.000257 0.000073
0.032468 0.001178 0.000534
0.067260 0.002482 0.003285
0.101456 0.002949 0.002745
0.151726 0.003493 0.005113
0.222999 0.004560 0.003898
0.312937 0.004114 0.006673
0.416776 0.003002 0.009724
0.526195 0.001156 0.020023
0.633778 0.000045 0.039965
0.734558 0.000152 0.073754
0.838238 0.000389 0.128222
0.929026 0.000284 0.208633
0.999392 0.000005 0.307784
0.999765 0.000023 0.415834
0.999852 0.000040 0.491713
0.999573 0.003084 0.516300
0.999991 0.040708 0.523880
0.999993 0.111872 0.521018
0.999905 0.146334 0.508774
0.999799 0.173940 0.493198
0.999584 0.204005 0.473070
0.999866 0.240486 0.448756
0.999468 0.278773 0.422706
0.999661 0.316087 0.394213
0.999227 0.355948 0.362860
0.999782 0.397843 0.326643
0.999711 0.443096 0.285715
0.999949 0.489589 0.239053
0.000006 0.005477 0.000057
0.000068 0.011731 0.000043
0.000228 0.013866 0.000032
0.000348 0.015454 0.000024
0.001011 0.014570 0.000000
0.029657 0.011725 0.000216
0.059273 0.006878 0.000744
0.089069 0.006204 0.001793
0.127474 0.005642 0.002249
0.183169 0.005365 0.004838
0.259019 0.005230 0.005206
0.346194 0.004478 0.008096
0.447602 0.001875 0.014844
0.556164 0.000544 0.025590
0.665680 0.000097 0.045602
0.771414 0.000005 0.087204
0.875496 0.000012 0.158975
0.965092 0.000040 0.252485
0.999370 0.000310 0.360009
0.999521 0.000049 0.464609
0.999612 0.000080 0.503137
0.999998 0.041580 0.508282
0.999968 0.124368 0.507847
0.999972 0.162981 0.498541
0.999902 0.188820 0.482677
0.999628 0.216769 0.464939
0.999750 0.250698 0.442178
0.999560 0.287162 0.416385
0.999566 0.323750 0.388290
0.999250 0.361865 0.358243
0.999774 0.402391 0.322594
0.999722 0.446738 0.282171
0.999946 0.492765 0.235852
0.000055 0.031565 0.000025
0.000038 0.037610 0.000038
0.000046 0.040051 0.000044
0.000053 0.041883 0.000048
0.000541 0.037662 0.000115
0.022642 0.030950 0.000154
0.046928 0.030341 0.000257
0.074530 0.026575 0.000086
0.111833 0.025980 0.000996
0.159820 0.022192 0.000214
0.227604 0.020346 0.000296
0.308842 0.015740 0.001882
0.403548 0.012578 0.002109
0.510449 0.007151 0.014109
0.622453 0.004791 0.029188
0.732090 0.000300 0.062383
0.837953 0.000549 0.123186
0.938842 0.000163 0.209086
0.999545 0.000143 0.316585
0.999736 0.000051 0.429507
0.999604 0.001194 0.484654
0.999738 0.046945 0.491393
0.999751 0.130526 0.494772
0.999913 0.176694 0.489700
0.999980 0.201544 0.473826
0.999652 0.227676 0.457092
0.999648 0.259541 0.436491
0.999645 0.294301 0.410879
0.999483 0.330486 0.383082
0.999271 0.367101 0.354160
0.999693 0.406662 0.318628
0.999733 0.449987 0.279009
0.999944 0.495608 0.232987
0.000356 0.056220 0.000039
0.000506 0.061231 0.000030
0.000458 0.063538 0.000027
0.000408 0.065320 0.000025
0.000125 0.056492 0.000000
0.015362 0.050997 0.000221
0.040283 0.047566 0.000000
0.065572 0.044334 0.000173
0.098696 0.042994 0.000471
0.144452 0.040759 0.000201
0.206144 0.038371 0.000379
0.285587 0.035286 0.000130
0.376759 0.031363 0.000421
0.479548 0.028880 0.000331
0.593784 0.021258 0.009813
0.705300 0.014258 0.038892
0.811860 0.007325 0.090611
0.911723 0.002113 0.170854
0.999587 0.000281 0.274735
0.999592 0.001819 0.387320
0.999650 0.004658 0.466403
0.999350 0.053139 0.474856
0.999561 0.135431 0.482985
0.999847 0.188357 0.481069
0.999976 0.213693 0.466097
0.999674 0.237415 0.450090
0.999590 0.267821 0.430532
0.999723 0.300786 0.405876
0.999512 0.336147 0.378773
0.999291 0.371907 0.350415
0.999619 0.410597 0.314971
0.999742 0.452991 0.276086
0.999942 0.498244 0.230332
0.000017 0.085425 0.000008
0.000017 0.092408 0.000006
0.000017 0.095223 0.000005
0.000017 0.097353 0.000004
0.000358 0.079505 0.000120
0.011016 0.072474 0.000080
0.036038 0.067119 0.000000
0.059675 0.063914 0.000309
0.088929 0.062591 0.000194
0.134436 0.060896 0.000195
0.188020 0.058743 0.000076
0.264137 0.056463 0.000111
0.352809 0.051322 0.000170
0.454089 0.048214 0.000120
0.566333 0.043207 0.000726
0.676361 0.037087 0.010526
0.784988 0.028305 0.053220
0.886750 0.021581 0.126179
0.984958 0.014835 0.226825
0.999952 0.010388 0.340887
0.999729 0.018709 0.436091
0.999383 0.064787 0.456908
0.999655 0.142426 0.467899
0.999753 0.201090 0.470212
0.999972 0.227458 0.457366
0.999713 0.248887 0.441850
0.999554 0.277632 0.422932
0.999812 0.308325 0.400062
0.999612 0.342459 0.374017
0.999314 0.377551 0.346022
0.999532 0.415238 0.310658
0.999752 0.456545 0.272629
0.999940 0.501370 0.227182
0.000002 0.127368 0.000026
0.000004 0.133710 0.000031
0.000008 0.136948 0.000032
0.000101 0.131632 0.000601
0.000134 0.110232 0.000273
0.007712 0.101619 0.000027
0.031179 0.097362 0.000163
0.052166 0.092562 0.000389
0.080714 0.088699 0.000221
0.121757 0.086616 0.000311
0.174287 0.084421 0.000308
0.245209 0.080811 0.000308
0.331698 0.077658 0.000267
0.428756 0.074035 0.000060
0.539163 0.069064 0.000588
0.650419 0.064282 0.001100
0.758541 0.057002 0.016251
0.858227 0.052716 0.081470
0.957038 0.046788 0.174042
0.999452 0.041998 0.288954
0.999497 0.043410 0.396682
0.999682 0.081835 0.434982
0.999797 0.152166 0.449092
0.999603 0.216442 0.455066
0.999961 0.244203 0.446361
0.999804 0.264024 0.430974
0.999512 0.289681 0.413591
0.999889 0.318022 0.392491
0.999737 0.350348 0.368073
0.999344 0.384646 0.340506
0.999421 0.421100 0.305206
0.999680 0.461195 0.267958
0.999937 0.505350 0.223173
0.000024 0.189915 0.000127
0.000016 0.196838 0.000152
0.000013 0.199657 0.000163
0.000024 0.171182 0.000569
0.000465 0.150571 0.000247
0.005279 0.138932 0.000005
0.023114 0.134270 0.000005
0.045227 0.129414 0.000061
0.073126 0.125268 0.000497
0.110675 0.121528 0.000457
0.161791 0.117351 0.000044
0.229559 0.114210 0.000039
0.312863 0.111187 0.000288
0.405541 0.107240 0.000283
0.510828 0.103424 0.000015
0.625009 0.098303 0.000258
0.730612 0.091921 0.000723
0.830645 0.090580 0.035572
0.929914 0.086997 0.114696
0.995083 0.084921 0.226533
0.999767 0.080666 0.348422
0.999987 0.107532 0.405749
0.999904 0.166442 0.425039
0.999361 0.234746 0.434319
0.999940 0.264142 0.432992
0.999903 0.282220 0.417879
0.999518 0.304693 0.402496
0.999914 0.330627 0.382476
0.999892 0.360138 0.360700
0.999457 0.393389 0.332194
0.999283 0.428469 0.298350
0.999514 0.467192 0.261811
0.999932 0.510400 0.218086
0.000271 0.270053 0.000045
0.000228 0.277264 0.000038
0.000304 0.267327 0.000184
0.000307 0.224293 0.000251
0.000224 0.201496 0.000298
0.005453 0.188185 0.000181
0.020363 0.180848 0.000142
0.039219 0.176169 0.000000
0.064422 0.171306 0.000001
0.102809 0.166013 0.000016
0.150053 0.160379 0.000035
0.212749 0.158072 0.000118
0.295616 0.151842 0.000326
0.386976 0.148574 0.000036
0.489574 0.143704 0.000010
0.598612 0.140403 0.000027
0.702157 0.139326 0.000066
0.802017 0.136477 0.005026
0.900198 0.137541 0.051158
0.990567 0.135694 0.153632
0.999618 0.130229 0.281901
0.999908 0.144028 0.367607
0.999257 0.190411 0.392221
0.999681 0.255854 0.411358
0.999357 0.287844 0.416199
0.999353 0.303198 0.403356
0.999606 0.323297 0.389544
0.999944 0.345955 0.370304
0.999868 0.372705 0.349947
0.999604 0.404225 0.321775
0.999111 0.437673 0.289780
0.999308 0.474731 0.254086
0.999927 0.516781 0.211659
0.000531 0.366221 0.000025
0.000594 0.372308 0.000028
0.000001 0.325025 0.000371
0.000294 0.285772 0.000030
0.000369 0.263509 0.000758
0.002913 0.253061 0.000030
0.014044 0.244511 0.000052
0.034311 0.236796 0.000048
0.059590 0.230470 0.000017
0.093668 0.223861 0.000028
0.140524 0.216497 0.000247
0.202189 0.211979 0.000533
0.278751 0.206841 0.000346
0.367867 0.202163 0.000006
0.467314 0.197663 0.000079
0.572640 0.194907 0.000044
0.674666 0.192439 0.000238
0.772049 0.191904 0.000090
0.870878 0.193448 0.011074
0.970959 0.195088 0.075367
0.999542 0.190694 0.201833
0.999865 0.193730 0.317581
0.999481 0.228122 0.350849
0.999901 0.280563 0.378284
0.999383 0.315582 0.394224
0.999289 0.327595 0.385386
0.999674 0.344885 0.372252
0.999689 0.364635 0.355440
0.999499 0.388833 0.334204
0.999789 0.417548 0.308966
0.999160 0.449111 0.278481
0.999054 0.484149 0.244437
0.999924 0.524377 0.203031
0.000011 0.470567 0.000498
0.000115 0.447658 0.000185
0.000156 0.385791 0.000455
0.000320 0.353561 0.000019
0.000263 0.337284 0.000352
0.002481 0.325768 0.000617
0.010412 0.317443 0.000531
0.029578 0.310048 0.000168
0.053813 0.303175 0.000022
0.086269 0.296299 0.000174
0.131659 0.289255 0.000699
0.190835 0.280610 0.000085
0.265832 0.275705 0.000051
0.352623 0.271410 0.000017
0.447034 0.265516 0.000009
0.548831 0.260342 0.000006
0.648586 0.259694 0.000093
0.744885 0.260696 0.000210
0.840966 0.261228 0.000071
0.937129 0.263590 0.006970
0.997008 0.260908 0.112313
0.999842 0.257676 0.242791
0.999849 0.273398 0.305205
0.999546 0.314062 0.336118
0.999547 0.346167 0.364244
0.999888 0.355809 0.362988
0.999710 0.369516 0.349816
0.999287 0.386889 0.337778
0.999193 0.408230 0.315477
0.999746 0.434112 0.293266
0.999336 0.463181 0.264322
0.998744 0.495826 0.232477
0.999925 0.533552 0.191858
0.000003 0.579735 0.000131
0.000000 0.496538 0.000055
0.000046 0.451887 0.000024
0.000003 0.428910 0.000398
0.000000 0.414700 0.000137
0.002395 0.403904 0.000287
0.009678 0.395754 0.000393
0.025189 0.390097 0.000155
0.047527 0.383687 0.000151
0.079599 0.376063 0.000425
0.123791 0.368396 0.000268
0.181001 0.362155 0.000214
0.254916 0.354004 0.000210
0.338894 0.346695 0.000362
0.427276 0.340417 0.000019
0.527170 0.337545 0.000044
0.626335 0.336864 0.000023
0.719068 0.335393 0.000034
0.811953 0.335999 0.000031
0.906501 0.336160 0.000127
0.988897 0.333704 0.024821
0.999802 0.329112 0.152250
0.999420 0.329419 0.241344
0.999373 0.355081 0.285348
0.999315 0.380443 0.323216
0.999435 0.390179 0.335387
0.999588 0.399802 0.325167
0.999454 0.413863 0.313125
0.999543 0.431255 0.294196
0.999522 0.454223 0.274332
0.999549 0.480293 0.247143
0.999013 0.510310 0.216839
0.999928 0.544920 0.178016
0.000011 0.684815 0.000130
0.000003 0.554041 0.000000
0.000197 0.522095 0.000014
0.000200 0.504461 0.000031
0.000090 0.493071 0.000207
0.000412 0.484707 0.000694
0.009507 0.478132 0.000656
0.022119 0.472621 0.000383
0.043035 0.466701 0.000266
0.074793 0.459916 0.000307
0.119542 0.453016 0.000208
0.177105 0.445154 0.000473
0.248416 0.436447 0.000685
0.328660 0.428275 0.000039
0.415032 0.421377 0.000172
0.510079 0.417327 0.000218
0.606525 0.414048 0.000023
0.697343 0.412939 0.000068
0.787648 0.413203 0.000022
0.876981 0.413250 0.000219
0.973681 0.410703 0.000183
0.999629 0.403668 0.051853
0.999935 0.397330 0.166133
0.999580 0.403693 0.221350
0.999433 0.423052 0.270983
0.999922 0.429232 0.298134
0.999113 0.434953 0.293902
0.999495 0.445316 0.283531
0.999390 0.459336 0.268314
0.999199 0.478379 0.249954
0.999694 0.501479 0.225175
0.999553 0.527967 0.197525
0.999935 0.558877 0.161029
0.000158 0.701746 0.000294
0.000003 0.618507 0.000117
0.000029 0.597460 0.000475
0.000211 0.585115 0.000574
0.000183 0.576301 0.000484
0.002927 0.569141 0.000440
0.013518 0.562866 0.000515
0.022639 0.557349 0.000584
0.046534 0.551953 0.000400
0.078794 0.545721 0.000107
0.122102 0.538830 0.000070
0.176425 0.531181 0.000091
0.245577 0.522992 0.000020
0.324582 0.513021 0.000678
0.406868 0.507310 0.000038
0.495765 0.499306 0.000013
0.590179 0.494882 0.000001
0.678886 0.492586 0.000154
0.765826 0.491993 0.000088
0.851226 0.489552 0.000012
0.941518 0.486618 0.000082
0.996573 0.479780 0.006028
0.999839 0.470807 0.076889
0.999379 0.463721 0.142346
0.999212 0.473412 0.202877
0.999629 0.473670 0.253572
0.999158 0.476371 0.254177
0.999695 0.482365 0.246914
0.999084 0.492431 0.236010
0.998907 0.506990 0.219976
0.999772 0.526626 0.198319
0.999794 0.549412 0.172434
0.999751 0.577046 0.137248
0.000256 0.732106 0.000870
0.000000 0.683470 0.000215
0.000002 0.671183 0.000517
0.000092 0.662494 0.000480
0.001980 0.655727 0.000435
0.010713 0.650115 0.000352
0.017993 0.645353 0.000277
0.032563 0.641288 0.000215
0.057222 0.636837 0.000152
0.087072 0.631480 0.000074
0.128899 0.625279 0.000040
0.180485 0.618263 0.000018
0.248913 0.611634 0.000058
0.322101 0.603788 0.000388
0.401087 0.595183 0.000265
0.488377 0.587636 0.000030
0.577955 0.580963 0.000561
0.662701 0.576370 0.000346
0.744919 0.573229 0.000056
0.829349 0.569985 0.000001
0.912071 0.566078 0.000100
0.989003 0.558594 0.000219
0.999422 0.548661 0.008431
0.999420 0.534428 0.046735
0.999188 0.531830 0.118305
0.999726 0.525208 0.188103
0.999403 0.522583 0.204477
0.999624 0.524459 0.201454
0.999368 0.529766 0.194252
0.999191 0.541044 0.183401
0.999416 0.556103 0.163211
0.999458 0.575184 0.139742
0.999519 0.598928 0.108621
0.000003 0.776422 0.000414
0.000000 0.747872 0.000020
0.000101 0.739084 0.000826
0.003362 0.732944 0.000926
0.009145 0.728124 0.000534
0.013906 0.724117 0.000212
0.032669 0.720664 0.000353
0.052151 0.717570 0.000554
0.074445 0.714028 0.000782
0.105107 0.709626 0.000815
0.147653 0.704185 0.000483
0.198696 0.698018 0.000177
0.259519 0.691908 0.000088
0.326958 0.685127 0.000034
0.401800 0.677780 0.000080
0.484121 0.669978 0.000208
0.568751 0.662368 0.000134
0.648828 0.655632 0.000129
0.729235 0.647681 0.000192
0.808378 0.637556 0.000060
0.888151 0.630460 0.000196
0.975988 0.626010 0.000032
0.999187 0.626163 0.000242
0.999521 0.610534 0.000045
0.999076 0.597881 0.027421
0.999357 0.582420 0.099543
0.999932 0.572430 0.142571
0.999399 0.570284 0.144393
0.998812 0.572958 0.143567
0.998995 0.578249 0.135710
0.999547 0.589861 0.119420
0.999467 0.603744 0.098953
0.999750 0.622818 0.070155
0.000096 0.825984 0.000076
0.000018 0.807298 0.000716
0.003825 0.801329 0.000409
0.006708 0.797137 0.000123
0.022976 0.793540 0.000092
0.044366 0.790376 0.000174
0.062982 0.787625 0.000246
0.079820 0.785141 0.000311
0.102856 0.782299 0.000347
0.134540 0.778814 0.000359
0.173387 0.774551 0.000378
0.219972 0.770000 0.000295
0.275358 0.765113 0.000094
0.338150 0.758658 0.000043
0.408966 0.751180 0.000062
0.486757 0.744164 0.000028
0.564192 0.732867 0.000002
0.640021 0.720089 0.000000
0.714668 0.708029 0.000001
0.789675 0.696574 0.000184
0.864842 0.685815 0.000081
0.947447 0.678818 0.000126
0.996475 0.679891 0.000015
0.998782 0.678812 0.000055
0.999211 0.667206 0.000073
0.998959 0.645758 0.015899
0.999643 0.624460 0.067575
0.999429 0.619736 0.074799
0.999232 0.617958 0.076202
0.999854 0.619813 0.076108
0.999236 0.626878 0.063762
0.999259 0.636249 0.048058
0.999562 0.650451 0.030703
0.000082 0.876602 0.000240
0.005624 0.863535 0.000528
0.024019 0.858830 0.000541
0.045574 0.855428 0.000419
0.062900 0.852681 0.000321
0.077861 0.850345 0.000244
0.098915 0.848228 0.000328
0.118105 0.846298 0.000403
0.140477 0.844049 0.000491
0.168365 0.841247 0.000600
0.203093 0.837936 0.000667
0.246244 0.834244 0.000597
0.298662 0.829799 0.000518
0.354943 0.822039 0.000277
0.419455 0.812251 0.000018
0.489757 0.799818 0.000005
0.561415 0.788206 0.000001
0.632381 0.776205 0.000000
0.703812 0.764084 0.000000
0.775050 0.752801 0.000004
0.847339 0.740989 0.000011
0.927569 0.729159 0.000016
0.995279 0.721976 0.000066
0.999058 0.725286 0.000157
0.999703 0.718596 0.000157
0.999137 0.705418 0.000000
0.999862 0.680052 0.006135
0.999679 0.670484 0.003338
0.999564 0.665916 0.014640
0.999323 0.665475 0.001621
0.999078 0.666133 0.014292
0.998973 0.672859 0.004802
0.998659 0.682222 0.000075
0.000000 0.925761 0.000018
0.041815 0.916120 0.000193
0.061504 0.912459 0.000280
0.091012 0.909347 0.000231
0.115372 0.906799 0.000188
0.136266 0.904614 0.000151
0.154720 0.902684 0.000117
0.171628 0.900915 0.000085
0.191385 0.898663 0.000063
0.215884 0.894986 0.000111
0.246447 0.890403 0.000170
0.284279 0.884736 0.000244
0.328292 0.878093 0.000251
0.377819 0.870529 0.000121
0.435597 0.861384 0.000086
0.499151 0.850362 0.000404
0.563315 0.839601 0.000228
0.629313 0.828421 0.000093
0.696686 0.817065 0.000220
0.764491 0.806083 0.000298
0.833400 0.793980 0.000134
0.907536 0.782401 0.000258
0.979241 0.770283 0.000009
0.999154 0.767457 0.000090
0.999916 0.760604 0.000436
0.999185 0.748087 0.000232
0.999493 0.735028 0.000001
0.998788 0.722007 0.000001
0.999253 0.715237 0.000020
0.999806 0.711868 0.000000
0.999339 0.709520 0.000320
0.999411 0.712202 0.000010
0.999885 0.717991 0.000724
0.028805 0.973292 0.000474
0.102626 0.960815 0.000349
0.137398 0.955497 0.000335
0.163246 0.951546 0.000325
0.184539 0.948391 0.000297
0.202946 0.945748 0.000257
0.219294 0.943401 0.000222
0.234347 0.941242 0.000190
0.252082 0.938699 0.000152
0.274467 0.935492 0.000104
0.302574 0.931468 0.000045
0.333160 0.927079 0.000022
0.368146 0.922047 0.000027
0.411059 0.915872 0.000034
0.460050 0.907950 0.000033
0.516985 0.898246 0.000020
0.573646 0.888758 0.000166
0.633347 0.878290 0.000233
0.694641 0.866494 0.000001
0.756447 0.856199 0.000021
0.820461 0.844430 0.000084
0.890526 0.832668 0.000002
0.966051 0.820361 0.000056
0.998722 0.813248 0.000018
0.998866 0.801371 0.000105
0.998982 0.783698 0.000185
0.999401 0.768256 0.000199
0.999161 0.757994 0.000001
0.999205 0.753623 0.000002
0.999367 0.750147 0.000063
0.999079 0.748595 0.000212
0.999354 0.746543 0.000001
0.999643 0.748899 0.000031
0.125175 0.992648 0.000087
0.193941 0.988156 0.000085
0.223049 0.986096 0.000103
0.244858 0.984567 0.000116
0.262906 0.983310 0.000127
0.278558 0.982227 0.000136
0.292515 0.981267 0.000144
0.304761 0.980149 0.000149
0.317336 0.978141 0.000149
0.333273 0.975597 0.000148
0.353382 0.972388 0.000147
0.378619 0.968362 0.000148
0.410087 0.963344 0.000149
0.446331 0.957689 0.000172
0.488126 0.951308 0.000218
0.538694 0.943587 0.000273
0.586501 0.934688 0.000124
0.640136 0.924648 0.000010
0.695321 0.914171 0.000045
0.752225 0.903904 0.000068
0.812185 0.893194 0.000017
0.877286 0.881111 0.000043
0.951978 0.868920 0.000016
0.998533 0.858636 0.000097
0.999244 0.845157 0.000101
0.999400 0.825301 0.000023
0.999123 0.804126 0.000195
0.998760 0.785308 0.000005
0.999536 0.778733 0.000020
0.999661 0.775016 0.000289
0.999462 0.771235 0.000274
0.999660 0.769505 0.000136
0.999724 0.767862 0.000317
0.234434 0.999722 0.000130
0.295303 0.999555 0.000072
0.315995 0.999080 0.000074
0.331579 0.998723 0.000076
0.344525 0.998428 0.000077
0.355790 0.998172 0.000078
0.365864 0.997944 0.000079
0.375196 0.997733 0.000080
0.386260 0.997484 0.000081
0.400332 0.997169 0.000082
0.418167 0.996770 0.000084
0.437843 0.995539 0.000124
0.461016 0.993617 0.000195
0.489928 0.991259 0.000281
0.525727 0.988403 0.000386
0.563308 0.985107 0.000342
0.605125 0.981320 0.000194
0.651318 0.974978 0.000209
0.700871 0.965033 0.000473
0.752160 0.954686 0.000380
0.807561 0.943784 0.000216
0.868198 0.931225 0.000176
0.933200 0.915814 0.000185
0.984728 0.901762 0.000039
0.994444 0.886858 0.000000
0.996384 0.868509 0.000019
0.998493 0.846600 0.000470
0.998861 0.821098 0.000047
0.998794 0.807417 0.000145
0.999032 0.800981 0.000001
0.999310 0.796451 0.000010
0.998940 0.791140 0.000014
0.999013 0.790535 0.000150
0.341670 0.999687 0.000489
0.385204 0.999859 0.000734
0.402728 0.999927 0.000832
0.414686 0.999940 0.000830
0.423640 0.999921 0.000769
0.431454 0.999904 0.000715
0.438458 0.999888 0.000667
0.444961 0.999874 0.000622
0.452688 0.999857 0.000570
0.462543 0.999836 0.000502
0.475078 0.999808 0.000416
0.490966 0.999773 0.000308
0.511019 0.999729 0.000171
0.535583 0.999685 0.000017
0.559614 0.999762 0.000016
0.589359 0.999859 0.000016
0.625847 0.999980 0.000015
0.662905 0.999884 0.000227
0.706584 0.999741 0.000500
0.751746 0.991745 0.000195
0.800824 0.982870 0.000178
0.853143 0.972682 0.000358
0.911035 0.958616 0.000146
0.966961 0.942432 0.000479
0.990981 0.926414 0.000186
0.992484 0.908113 0.000071
0.994525 0.886992 0.000002
0.997339 0.863160 0.000010
0.999302 0.843283 0.000011
0.998869 0.835951 0.000005
0.999431 0.828877 0.000055
0.999484 0.823845 0.000150
0.998939 0.819292 0.000075
0.434503 0.999606 0.000019
0.463147 0.999731 0.000016
0.474755 0.999782 0.000015
0.483563 0.999820 0.000014
0.490924 0.999852 0.000013
0.497360 0.999880 0.000013
0.503141 0.999905 0.000012
0.508517 0.999929 0.000011
0.514916 0.999957 0.000011
0.521204 0.999922 0.000025
0.529154 0.999876 0.000043
0.539264 0.999818 0.000067
0.552076 0.999743 0.000097
0.568242 0.999650 0.000134
0.588531 0.999532 0.000181
0.613830 0.999386 0.000238
0.640407 0.999549 0.000343
0.672673 0.999773 0.000477
0.709512 0.999875 0.000570
0.747361 0.999544 0.000465
