output/AppleLog2_display/AppleLog2_to_ETERNA-BB_33grid.cube
TITLE "AppleLog2_to_ETERNA-BB"
# Input: Apple Log 2 (Apple Gamut primaries, D65)
# Output: BT.709 / Gamma 2.2 (display-referred)
# Use: Display LUT for iPhone 17 Pro Apple Log 2 footage
# Source: FLog2C_to_ETERNA-BB_65grid_V.1.00.cube
# Generated from Fujifilm GFX ETERNA 55 F-Log2C LUT
LUT_3D_SIZE 33
0.000282 0.000191 0.000111
0.000282 0.000191 0.000111
0.000282 0.000191 0.000111
0.000282 0.000191 0.000111
0.000282 0.000191 0.000111
0.000282 0.000191 0.000111
0.000282 0.000191 0.000111
0.000282 0.000191 0.000111
0.034521 0.005256 0.005604
0.066861 0.010501 0.015111
0.101751 0.018239 0.022869
0.152127 0.028124 0.037373
0.234349 0.042093 0.056841
0.335589 0.055274 0.077966
0.434719 0.070255 0.101538
0.522483 0.094746 0.135866
0.595342 0.134861 0.178632
0.656149 0.195685 0.230715
0.688994 0.254420 0.279914
0.726347 0.327119 0.337903
0.753503 0.376840 0.375047
0.753503 0.376840 0.375047
0.753503 0.376840 0.375047
0.753503 0.376840 0.375047
0.753503 0.376840 0.375047
0.753503 0.376840 0.375047
0.768604 0.404300 0.385603
0.788476 0.442770 0.399420
0.806528 0.481058 0.410883
0.825509 0.519219 0.420847
0.842056 0.557175 0.430002
0.861206 0.594533 0.434171
0.873991 0.632926 0.436599
0.000282 0.000191 0.000111
0.000282 0.000191 0.000111
0.000282 0.000191 0.000111
0.000282 0.000191 0.000111
0.000282 0.000191 0.000111
0.000282 0.000191 0.000111
0.015879 0.002781 0.000956
0.045301 0.007265 0.008372
0.067512 0.010708 0.015310
0.094803 0.017658 0.020307
0.131273 0.024433 0.030866
0.188467 0.035654 0.047452
0.274694 0.046620 0.064713
0.367769 0.060553 0.085095
0.457011 0.073396 0.109188
0.537976 0.101970 0.143764
0.604137 0.143355 0.186117
0.662309 0.203053 0.236847
0.692148 0.259982 0.284645
0.729352 0.332964 0.342530
0.753503 0.376840 0.375047
0.753503 0.376840 0.375047
0.753503 0.376840 0.375047
0.753503 0.376840 0.375047
0.757997 0.384940 0.378874
0.772453 0.413158 0.388693
0.788570 0.442396 0.398432
0.804130 0.474338 0.408478
0.817843 0.506005 0.417260
0.833596 0.538529 0.425410
0.849454 0.572636 0.432037
0.866207 0.606514 0.435311
0.876873 0.642515 0.436804
0.000282 0.000191 0.000111
0.000282 0.000191 0.000111
0.000282 0.000191 0.000111
0.000282 0.000191 0.000111
0.000282 0.000191 0.000111
0.004189 0.000833 0.000025
0.035570 0.005460 0.005871
0.057067 0.007388 0.012111
0.079343 0.014429 0.017156
0.105721 0.018571 0.024333
0.145388 0.026931 0.035270
0.204834 0.038451 0.051244
0.290336 0.048275 0.067814
0.380372 0.062404 0.087570
0.465766 0.075319 0.112376
0.544169 0.104857 0.146921
0.607681 0.146777 0.189132
0.663613 0.205740 0.239076
0.693433 0.262247 0.286573
0.717694 0.309706 0.324306
0.733736 0.340271 0.348084
0.753217 0.376323 0.374671
0.753503 0.376840 0.375047
0.757683 0.383181 0.378144
0.768839 0.404782 0.384940
0.781828 0.430024 0.394867
0.795190 0.456697 0.402312
0.809880 0.485953 0.411434
0.822161 0.516050 0.419538
0.836686 0.546046 0.426985
0.852279 0.578806 0.432661
0.868033 0.611288 0.435413
0.878178 0.646290 0.437059
0.000282 0.000191 0.000111
0.000282 0.000191 0.000111
0.000282 0.000191 0.000111
0.000282 0.000191 0.000111
0.000282 0.000191 0.000111
0.018569 0.003038 0.001619
0.048260 0.007296 0.009312
0.066739 0.010462 0.015073
0.087845 0.017076 0.017742
0.115583 0.020868 0.026813
0.155589 0.028737 0.038453
0.219020 0.040201 0.053934
0.301899 0.049499 0.070106
0.389763 0.063784 0.089415
0.472277 0.077328 0.114902
0.548836 0.107033 0.149300
0.610363 0.149366 0.191414
0.647261 0.187121 0.223646
0.671219 0.223222 0.253472
0.690699 0.259396 0.283855
0.711393 0.299262 0.315227
0.736655 0.345589 0.352468
0.753088 0.376081 0.373382
0.764838 0.397146 0.383296
0.776275 0.419707 0.389961
0.787922 0.441832 0.398977
0.799921 0.467473 0.405110
0.813847 0.494253 0.413587
0.825116 0.523095 0.421356
0.839227 0.551688 0.427992
0.854387 0.583403 0.433122
0.869402 0.614869 0.435490
0.879184 0.649128 0.437278
0.000282 0.000191 0.000111
0.000282 0.000191 0.000111
0.000282 0.000191 0.000111
0.000282 0.000191 0.000111
0.000282 0.000191 0.000111
0.031192 0.004611 0.004758
0.055798 0.007375 0.011707
0.074422 0.012894 0.016820
0.095422 0.017710 0.020535
0.123480 0.022730 0.028780
0.165319 0.030705 0.041208
0.230552 0.041625 0.056121
0.304851 0.050000 0.071310
0.378594 0.061380 0.086777
0.445621 0.071709 0.105497
0.509733 0.088967 0.129707
0.566442 0.116370 0.159682
0.612472 0.150466 0.193369
0.654069 0.193042 0.229625
0.677031 0.233208 0.261892
0.699401 0.275632 0.296351
0.727534 0.331345 0.335691
0.758060 0.385128 0.375526
0.772032 0.412357 0.388249
0.782294 0.431401 0.394628
0.792307 0.452013 0.401753
0.804007 0.475799 0.407962
0.817034 0.500914 0.415319
0.827516 0.528810 0.422829
0.841866 0.556500 0.428490
0.856126 0.587190 0.433499
0.870534 0.617836 0.435554
0.880020 0.651487 0.437460
0.000678 0.005357 0.000935
0.001527 0.011577 0.002031
0.001976 0.013652 0.002611
0.002310 0.015196 0.003043
0.002849 0.013947 0.002523
0.031968 0.014209 0.007669
0.054466 0.014195 0.012421
0.070529 0.015628 0.015365
0.087172 0.017425 0.017727
0.109111 0.020698 0.025743
0.141120 0.027719 0.034915
0.185159 0.036608 0.047748
0.250410 0.044013 0.061471
0.325131 0.051007 0.075155
0.400195 0.064749 0.092178
0.471196 0.076798 0.113431
0.533706 0.099371 0.142325
0.587417 0.131627 0.174243
0.633039 0.172753 0.210981
0.670159 0.222676 0.250793
0.695841 0.270304 0.286249
0.726920 0.331402 0.330170
0.763445 0.394653 0.376406
0.778408 0.424372 0.392584
0.788218 0.440986 0.398989
0.796053 0.460399 0.404039
0.807488 0.482726 0.410462
0.819899 0.506939 0.417159
0.829566 0.533685 0.424084
0.844136 0.560636 0.428919
0.857605 0.590477 0.433791
0.871515 0.620410 0.435609
0.880748 0.653540 0.437619
0.005643 0.034324 0.010865
0.007541 0.041290 0.013012
0.008340 0.044067 0.013814
0.008939 0.046152 0.014417
0.007632 0.041594 0.010858
0.028948 0.038383 0.011610
0.052548 0.039391 0.013995
0.066160 0.039519 0.017113
0.083358 0.040242 0.020689
0.102810 0.039487 0.024352
0.130323 0.043469 0.030167
0.167493 0.047146 0.040402
0.225491 0.052559 0.053833
0.296845 0.060186 0.069463
0.371028 0.066347 0.084123
0.445083 0.076423 0.103551
0.512448 0.096639 0.132979
0.573532 0.127679 0.164990
0.622792 0.170620 0.202301
0.668135 0.224462 0.246220
0.697577 0.276891 0.283521
0.728309 0.335523 0.328211
0.765156 0.398790 0.373053
0.784125 0.433393 0.396462
0.793059 0.449232 0.402316
0.799593 0.467541 0.406032
0.810500 0.488717 0.412625
0.822454 0.512332 0.418886
0.831371 0.537971 0.425186
0.846145 0.564296 0.429300
0.858867 0.593433 0.433988
0.872390 0.622708 0.435659
0.881400 0.655378 0.437761
0.012184 0.057803 0.018182
0.013068 0.061072 0.019334
0.013264 0.062634 0.019874
0.013390 0.063847 0.020292
0.011454 0.058371 0.014075
0.028746 0.057360 0.016992
0.051818 0.058361 0.021345
0.066175 0.058531 0.022000
0.080933 0.058679 0.023319
0.099882 0.059989 0.027555
0.124511 0.062330 0.033539
0.159531 0.063475 0.038765
0.210449 0.068104 0.048576
0.278676 0.071717 0.060368
0.354168 0.076673 0.076995
0.428590 0.085972 0.097666
0.498256 0.103612 0.125445
0.563209 0.134011 0.160566
0.617271 0.175311 0.198191
0.668102 0.229163 0.243425
0.700090 0.284642 0.282877
0.729874 0.340624 0.327137
0.766281 0.402064 0.369712
0.788160 0.441075 0.398488
0.796556 0.457321 0.403555
0.802769 0.473918 0.407816
0.813113 0.494405 0.414389
0.824770 0.517227 0.420450
0.833265 0.541833 0.425855
0.847990 0.567655 0.429651
0.860030 0.596157 0.434171
0.873198 0.624832 0.435705
0.882004 0.657081 0.437894
0.015058 0.076728 0.024289
0.015825 0.080592 0.025133
0.016135 0.082149 0.025473
0.016368 0.083328 0.025730
0.014568 0.073773 0.017448
0.029858 0.072160 0.019780
0.052008 0.071977 0.025317
0.066036 0.071714 0.027575
0.079835 0.073263 0.028686
0.098896 0.073738 0.031463
0.121645 0.075971 0.032537
0.152052 0.077873 0.039527
0.198737 0.080110 0.047142
0.263023 0.083915 0.055902
0.337506 0.089807 0.070183
0.412770 0.094771 0.091598
0.485112 0.111462 0.116330
0.552314 0.141577 0.155491
0.611030 0.182451 0.195098
0.665127 0.237257 0.240626
0.705892 0.296071 0.283569
0.733006 0.347860 0.325197
0.768241 0.408015 0.367539
0.791405 0.449509 0.398929
0.800536 0.466474 0.405005
0.806595 0.481585 0.410016
0.816042 0.501229 0.416264
0.827454 0.522909 0.422263
0.835631 0.546315 0.426429
0.850158 0.571598 0.430064
0.861403 0.599370 0.434386
0.874153 0.627345 0.435760
0.882721 0.659101 0.438051
0.020178 0.098554 0.031120
0.021044 0.101721 0.032192
0.021499 0.103370 0.032620
0.021434 0.100169 0.029061
0.018891 0.090917 0.023042
0.033340 0.088821 0.024020
0.053447 0.089529 0.029435
0.068173 0.088205 0.030941
0.081347 0.088336 0.034038
0.096837 0.090859 0.033734
0.118181 0.092027 0.036018
0.147081 0.093460 0.040737
0.190067 0.095623 0.047073
0.251201 0.099244 0.053850
0.322867 0.100831 0.065686
0.396311 0.108274 0.083656
0.471994 0.120457 0.105394
0.541104 0.149300 0.146605
0.603308 0.190719 0.190412
0.660469 0.245933 0.237181
0.710978 0.309817 0.285796
0.737929 0.359758 0.324070
0.771313 0.415559 0.365968
0.795754 0.459517 0.399616
0.805434 0.477543 0.408301
0.811878 0.492203 0.413215
0.819652 0.509642 0.418578
0.830532 0.529881 0.424247
0.838585 0.551917 0.427153
0.852885 0.576555 0.430584
0.863137 0.603429 0.434660
0.875291 0.630626 0.436010
0.883634 0.661671 0.438252
0.028035 0.129897 0.039450
0.028713 0.133277 0.040309
0.028988 0.134653 0.040658
0.024951 0.120217 0.031254
0.023001 0.109448 0.025772
0.036266 0.106678 0.029456
0.056775 0.107884 0.033616
0.071297 0.107021 0.035618
0.083998 0.106817 0.037714
0.097501 0.107828 0.039755
0.116942 0.108195 0.039872
0.144227 0.109384 0.042828
0.182854 0.112211 0.049631
0.240529 0.114900 0.057030
0.307511 0.118250 0.066019
0.381233 0.122814 0.079113
0.456327 0.134097 0.100241
0.530281 0.161238 0.135468
0.595758 0.201980 0.181818
0.657954 0.260489 0.236567
0.715426 0.328595 0.286834
0.746584 0.378630 0.325568
0.776111 0.425516 0.365399
0.801493 0.471230 0.400649
0.811244 0.490695 0.412973
0.818204 0.504954 0.417037
0.824537 0.520357 0.421487
0.833813 0.538297 0.426156
0.842244 0.558868 0.428063
0.855762 0.582774 0.431841
0.865319 0.608533 0.435007
0.876664 0.634849 0.436480
0.884791 0.664931 0.438508
0.035840 0.168682 0.049883
0.036684 0.172908 0.050683
0.035016 0.167563 0.046335
0.029581 0.145023 0.035020
0.029181 0.134148 0.033203
0.043642 0.131791 0.035453
0.061870 0.130784 0.038871
0.074879 0.129418 0.041168
0.086646 0.129076 0.043195
0.102147 0.128811 0.046940
0.119370 0.130028 0.049481
0.142631 0.131285 0.049925
0.180002 0.132359 0.052678
0.232098 0.134693 0.058751
0.297732 0.138237 0.069760
0.367880 0.143936 0.082530
0.443772 0.155203 0.101032
0.519395 0.177620 0.128705
0.589664 0.220754 0.174226
0.656397 0.279649 0.231494
0.722259 0.350479 0.288310
0.760382 0.404579 0.330771
0.784088 0.440942 0.364410
0.808848 0.486474 0.401169
0.819712 0.508329 0.418204
0.824393 0.519764 0.420795
0.831104 0.533880 0.425110
0.837805 0.548539 0.428478
0.846671 0.567871 0.429413
0.859286 0.590489 0.433458
0.868046 0.614909 0.435445
0.878389 0.640155 0.437071
0.886254 0.669048 0.438833
0.047069 0.230837 0.062111
0.047778 0.235100 0.062974
0.040523 0.200826 0.047306
0.036280 0.176773 0.042543
0.037143 0.165536 0.040044
0.052029 0.162717 0.042781
0.068952 0.161257 0.045180
0.081748 0.158474 0.047284
0.094275 0.157745 0.049774
0.107049 0.157342 0.052901
0.123906 0.156854 0.056675
0.146349 0.157985 0.059805
0.176451 0.159869 0.059886
0.223845 0.163013 0.061684
0.288560 0.164876 0.072520
0.359222 0.169092 0.086301
0.433883 0.180551 0.104940
0.511424 0.202170 0.132304
0.586897 0.247420 0.173037
0.658473 0.306364 0.224570
0.730173 0.376112 0.287014
0.777108 0.436430 0.337211
0.795098 0.467102 0.367958
0.815627 0.502942 0.402304
0.828353 0.528046 0.423257
0.831757 0.536721 0.424848
0.838522 0.549381 0.428028
0.844449 0.562085 0.429798
0.851958 0.579542 0.431386
0.863617 0.599976 0.435461
0.870710 0.622510 0.435920
0.880543 0.646778 0.437809
0.887728 0.674088 0.438838
0.065290 0.313090 0.080461
0.060015 0.294240 0.072188
0.049232 0.245497 0.058075
0.045052 0.221643 0.052539
0.052127 0.212533 0.052535
0.068525 0.207057 0.055164
0.083492 0.203223 0.057200
0.093780 0.200929 0.059161
0.104182 0.198700 0.061458
0.116309 0.196645 0.063756
0.132295 0.195337 0.065149
0.153009 0.193085 0.069358
0.181870 0.195546 0.073915
0.225153 0.198900 0.074765
0.286187 0.200724 0.081352
0.355009 0.205540 0.095793
0.430269 0.217362 0.116333
0.508851 0.241206 0.143880
0.587728 0.284178 0.184266
0.663905 0.338808 0.226354
0.735452 0.404974 0.282023
0.792714 0.470810 0.339171
0.808998 0.497323 0.370396
0.824289 0.525756 0.401153
0.837500 0.549033 0.424909
0.840750 0.556037 0.429033
0.846791 0.566949 0.429791
0.853048 0.578623 0.430867
0.858488 0.593652 0.433526
0.868146 0.611498 0.436353
0.873662 0.631712 0.436463
0.883211 0.654983 0.438724
0.889299 0.680289 0.438548
0.094320 0.407111 0.110121
0.070760 0.334249 0.084863
0.060931 0.297772 0.072695
0.055419 0.280044 0.067557
0.068363 0.272480 0.067760
0.086250 0.266722 0.071170
0.100746 0.262220 0.074152
0.110014 0.258950 0.075475
0.120104 0.255493 0.076877
0.131818 0.251653 0.078553
0.146300 0.248219 0.080749
0.166533 0.246858 0.085371
0.192823 0.246825 0.090589
0.233286 0.248308 0.096696
0.287661 0.251258 0.099157
0.356482 0.258502 0.111531
0.431825 0.270561 0.133810
0.513123 0.293940 0.162155
0.594581 0.333236 0.200512
0.676254 0.384271 0.242745
0.745713 0.445728 0.287444
0.804324 0.509979 0.335489
0.825659 0.537686 0.373494
0.836576 0.555062 0.402518
0.848729 0.573425 0.423531
0.853375 0.580635 0.433380
0.857873 0.588369 0.433536
0.862879 0.597925 0.434089
0.867101 0.610806 0.434976
0.873166 0.625311 0.436451
0.877242 0.642899 0.437107
0.885623 0.665255 0.438813
0.891245 0.687978 0.438184
0.135494 0.508384 0.153048
0.084227 0.384135 0.101708
0.075855 0.356714 0.092965
0.082089 0.344732 0.090286
0.099611 0.337246 0.092219
0.115221 0.333671 0.095030
0.126176 0.330628 0.097121
0.134556 0.327931 0.098765
0.143366 0.324580 0.099805
0.153314 0.320300 0.100340
0.168521 0.316866 0.102900
0.187637 0.314564 0.107295
0.213441 0.312940 0.114181
0.251422 0.312257 0.123618
0.301646 0.316156 0.131894
0.365972 0.324113 0.140554
0.440386 0.334552 0.157307
0.522987 0.360240 0.190509
0.608903 0.395650 0.225581
0.689812 0.441759 0.266120
0.761664 0.498161 0.308805
0.814828 0.553816 0.345153
0.841487 0.583943 0.369950
0.852706 0.591523 0.401435
0.860147 0.603477 0.424272
0.867538 0.609781 0.434376
0.867891 0.613093 0.436326
0.870566 0.620651 0.435975
0.874600 0.630000 0.435893
0.878665 0.641968 0.438005
0.882689 0.658268 0.437737
0.888288 0.677817 0.438574
0.893630 0.697429 0.437733
0.144018 0.526611 0.161874
0.106723 0.442678 0.124345
0.105832 0.425090 0.119099
0.123647 0.416285 0.121754
0.139384 0.411884 0.124121
0.151566 0.408363 0.126193
0.159555 0.405100 0.128209
0.166609 0.402243 0.129993
0.174386 0.399245 0.130747
0.183685 0.395693 0.131306
0.197915 0.392238 0.133330
0.216713 0.389064 0.137314
0.241899 0.387262 0.145361
0.278738 0.387311 0.154012
0.327310 0.391356 0.166324
0.385803 0.398391 0.183328
0.457964 0.412323 0.198358
0.539843 0.434411 0.221766
0.627778 0.468399 0.258308
0.706256 0.509861 0.296718
0.773518 0.554592 0.332979
0.828135 0.601143 0.362004
0.862123 0.635097 0.379075
0.864386 0.632699 0.394450
0.871886 0.637683 0.421257
0.876509 0.639825 0.436396
0.877735 0.641091 0.437344
0.878599 0.646031 0.437614
0.881228 0.651854 0.436737
0.884911 0.661764 0.439934
0.888676 0.676149 0.438214
0.892018 0.692406 0.438067
0.896999 0.708685 0.436994
0.157461 0.557231 0.175807
0.135738 0.508269 0.152974
0.159514 0.500670 0.157654
0.175901 0.494911 0.160446
0.188002 0.490545 0.162456
0.195181 0.487545 0.163552
0.201337 0.485017 0.164514
0.207639 0.482730 0.165629
0.215610 0.480075 0.167139
0.225279 0.476867 0.168972
0.238656 0.474460 0.171781
0.255644 0.472222 0.175579
0.280713 0.472008 0.182147
0.317029 0.472114 0.191796
0.364312 0.474770 0.206132
0.421740 0.482499 0.222240
0.487606 0.495884 0.238942
0.566586 0.517428 0.261219
0.649324 0.548069 0.293003
0.726284 0.581877 0.328811
0.787968 0.616892 0.353724
0.840707 0.651818 0.377827
0.879220 0.681950 0.393298
0.881199 0.680036 0.394878
0.883867 0.677544 0.411108
0.887176 0.673180 0.432394
0.888264 0.672331 0.437349
0.888222 0.673831 0.438409
0.889268 0.677706 0.438555
0.892746 0.685298 0.437954
0.893391 0.695222 0.437401
0.897203 0.708888 0.437142
0.901072 0.722163 0.436158
0.177588 0.605194 0.196348
0.197679 0.582104 0.194478
0.216323 0.576806 0.198304
0.228167 0.573232 0.200645
0.236171 0.570503 0.202082
0.242864 0.568231 0.203276
0.249653 0.566580 0.204446
0.255938 0.565163 0.205525
0.263165 0.563546 0.206770
0.272963 0.561865 0.208551
0.286310 0.560297 0.211118
0.303890 0.559013 0.214841
0.330213 0.559478 0.221436
0.365140 0.561992 0.230761
0.409381 0.566621 0.243535
0.463437 0.574141 0.260632
0.527054 0.586393 0.281145
0.598764 0.604118 0.304469
0.673580 0.627914 0.329483
0.746686 0.654857 0.353621
0.804791 0.679869 0.371539
0.853047 0.704630 0.389397
0.890229 0.729810 0.403709
0.896452 0.731227 0.405426
0.894648 0.721879 0.405752
0.896020 0.712017 0.422574
0.897900 0.706817 0.436741
0.895893 0.705812 0.435918
0.897717 0.706752 0.437567
0.897909 0.712115 0.436995
0.899174 0.717571 0.435356
0.901930 0.727727 0.433096
0.904603 0.739205 0.428177
0.212207 0.661982 0.220861
0.252927 0.654504 0.229213
0.265756 0.651728 0.231584
0.274820 0.649747 0.233237
0.283166 0.648485 0.234838
0.290810 0.647600 0.236339
0.297473 0.646835 0.237647
0.303510 0.646148 0.238831
0.311813 0.645759 0.240843
0.323258 0.645649 0.243910
0.337290 0.645534 0.247675
0.356653 0.645630 0.253079
0.381868 0.645932 0.260289
0.415854 0.648522 0.269555
0.458178 0.653156 0.281269
0.508199 0.659789 0.297046
0.566235 0.670355 0.319198
0.631460 0.685133 0.336117
0.698981 0.703094 0.353874
0.763626 0.722040 0.371150
0.818007 0.740163 0.386740
0.861051 0.757650 0.399633
0.898408 0.775696 0.409883
0.912204 0.780883 0.412971
0.908407 0.767919 0.411853
0.905510 0.753819 0.413328
0.902836 0.741369 0.427541
0.902913 0.738468 0.428896
0.902783 0.737395 0.428759
0.903970 0.738282 0.430577
0.904683 0.741562 0.426699
0.906117 0.749285 0.424557
0.908056 0.758305 0.419702
0.268511 0.715819 0.250673
0.301975 0.712711 0.257602
0.314598 0.712023 0.260577
0.324132 0.711940 0.263121
0.331852 0.711876 0.265182
0.338509 0.711833 0.266963
0.346484 0.712033 0.269199
0.353751 0.712216 0.271239
0.362220 0.712432 0.273618
0.372774 0.712703 0.276586
0.387363 0.713494 0.280777
0.408746 0.715494 0.287090
0.434666 0.717930 0.294746
0.466039 0.721675 0.303624
0.503471 0.726744 0.313616
0.548911 0.734957 0.323369
0.600224 0.744798 0.336356
0.659599 0.756524 0.352268
0.721231 0.769072 0.369215
0.778696 0.782150 0.380819
0.829886 0.794619 0.395042
0.869399 0.806203 0.403848
0.901652 0.817440 0.412155
0.922111 0.821878 0.415457
0.919942 0.811521 0.415928
0.915710 0.794951 0.414738
0.910860 0.777198 0.415474
0.909222 0.770240 0.414647
0.908948 0.768082 0.417149
0.907723 0.766637 0.413033
0.909424 0.768340 0.416073
0.910541 0.773210 0.415048
0.911538 0.778619 0.413796
0.321158 0.760571 0.275314
0.351541 0.761389 0.283121
0.363457 0.761823 0.286162
0.375781 0.763158 0.289988
0.385901 0.764269 0.293135
0.394577 0.765223 0.295828
0.402236 0.766067 0.298204
0.409252 0.766841 0.300377
0.417664 0.767873 0.302743
0.429136 0.769756 0.304858
0.443441 0.772109 0.307503
0.461139 0.775031 0.310786
0.483300 0.778887 0.315568
0.510936 0.784003 0.322578
0.544205 0.789923 0.330773
0.583995 0.796341 0.339891
0.630694 0.804556 0.350092
0.682952 0.813733 0.361725
0.737973 0.823211 0.374638
0.789689 0.832635 0.386379
0.835034 0.840484 0.396636
0.873625 0.847575 0.404337
0.903732 0.853978 0.410471
0.925884 0.858346 0.414241
0.927563 0.851225 0.415278
0.923805 0.834404 0.415553
0.920359 0.816498 0.414532
0.917992 0.804216 0.415455
0.916805 0.800464 0.414552
0.916388 0.797331 0.414110
0.916497 0.796862 0.414954
0.916797 0.798323 0.414291
0.918781 0.802026 0.415589
0.373896 0.800726 0.298299
0.408344 0.806179 0.305901
0.422799 0.808554 0.308966
0.433541 0.810320 0.311243
0.442875 0.811991 0.313270
0.451342 0.813613 0.315147
0.458860 0.815054 0.316814
0.465780 0.816382 0.318348
0.473931 0.817948 0.320155
0.484216 0.819925 0.322434
0.497123 0.822409 0.325295
0.512753 0.825262 0.328844
0.531748 0.828603 0.333210
0.555024 0.832708 0.338557
0.584039 0.837402 0.344530
0.619252 0.842885 0.351375
0.660456 0.850060 0.359958
0.705975 0.858207 0.369967
0.752258 0.866020 0.380487
0.797879 0.870851 0.388942
0.840211 0.877125 0.397020
0.874725 0.881553 0.403062
0.903474 0.885032 0.408565
0.929779 0.888679 0.412937
0.933046 0.882827 0.413600
0.931028 0.868551 0.414342
0.927990 0.851315 0.415436
0.927719 0.836915 0.415631
0.924158 0.830794 0.415508
0.922767 0.827375 0.414864
0.922985 0.824831 0.415283
0.922237 0.823700 0.414943
0.923365 0.824138 0.415457
0.439981 0.838591 0.315991
0.471114 0.844140 0.322572
0.483704 0.846666 0.325248
0.493131 0.848558 0.327251
0.500926 0.850124 0.328907
0.507683 0.851482 0.330342
0.513704 0.852693 0.331621
0.519326 0.853823 0.332768
0.526143 0.855189 0.334025
0.534780 0.856922 0.335617
0.545674 0.859109 0.337626
0.559339 0.861856 0.340147
0.576367 0.865285 0.343290
0.596977 0.869094 0.347797
0.621786 0.873333 0.353929
0.651829 0.878475 0.361313
0.686776 0.884314 0.367622
0.725924 0.890559 0.374550
0.766053 0.896121 0.381288
0.805878 0.901194 0.389732
0.841649 0.905627 0.396658
0.875050 0.908240 0.402620
0.902126 0.911851 0.407181
0.927579 0.912551 0.411172
0.937957 0.908313 0.413651
0.937473 0.896750 0.414531
0.933544 0.882026 0.413754
0.930447 0.865985 0.414398
0.929509 0.859403 0.415600
0.929981 0.855047 0.415075
0.928583 0.851793 0.415130
0.928060 0.850361 0.415792
0.928574 0.848987 0.414920
0.509385 0.876185 0.331766
0.535318 0.881445 0.336598
0.545769 0.883111 0.339086
0.553638 0.884366 0.340959
0.560174 0.885407 0.342514
0.565861 0.886314 0.343866
0.570945 0.887124 0.345075
0.575654 0.887874 0.346195
0.581237 0.888764 0.347522
0.588336 0.889895 0.349209
0.597331 0.891327 0.351345
0.608460 0.893283 0.353706
0.622304 0.895819 0.356487
0.639554 0.898982 0.359954
0.660877 0.902897 0.364242
0.685050 0.906855 0.368141
0.713194 0.911162 0.372060
0.744690 0.915693 0.377822
0.779109 0.920228 0.385997
0.812700 0.924075 0.391242
0.844938 0.927598 0.396314
0.874734 0.930106 0.401392
0.900224 0.930395 0.406634
0.921984 0.930505 0.410873
0.941042 0.928443 0.415432
0.939575 0.918988 0.415479
0.938271 0.907664 0.413787
0.935213 0.894100 0.413367
0.935378 0.885007 0.414218
0.933630 0.879577 0.413564
0.932603 0.877056 0.413392
0.932001 0.874105 0.413881
0.932285 0.871536 0.414144
0.575458 0.906674 0.345990
0.596660 0.910403 0.350020
0.605188 0.911907 0.351642
0.611391 0.913018 0.352832
0.616370 0.913924 0.353794
0.620713 0.914715 0.354633
0.624605 0.915423 0.355385
0.628219 0.916082 0.356082
0.632512 0.916865 0.356911
0.637986 0.917863 0.357968
0.644947 0.919134 0.359310
0.653766 0.920746 0.361011
0.664891 0.922783 0.363154
0.678721 0.925242 0.365836
0.694553 0.927211 0.369133
0.714132 0.929654 0.373223
0.738120 0.932660 0.378255
0.762345 0.935474 0.382431
0.790888 0.938779 0.387207
0.818896 0.940770 0.390989
0.846915 0.943188 0.395381
0.872642 0.945427 0.400963
0.896413 0.945611 0.407365
0.918059 0.944638 0.411490
0.935158 0.942791 0.415282
0.940861 0.936720 0.416149
0.940113 0.927248 0.416149
0.938915 0.915499 0.414927
0.938381 0.905935 0.413139
0.936785 0.902186 0.414362
0.935675 0.898021 0.413285
0.935867 0.894954 0.414394
0.935615 0.892821 0.414185
0.629992 0.923973 0.357098
0.646154 0.927210 0.359939
0.652702 0.928522 0.361087
0.657669 0.929519 0.361957
0.661820 0.930352 0.362683
0.665449 0.931081 0.363318
0.668708 0.931736 0.363887
0.671739 0.932345 0.364417
0.675346 0.933070 0.365046
0.679403 0.933774 0.365791
0.684558 0.934664 0.366739
0.691113 0.935798 0.367946
0.699420 0.937235 0.369477
0.709901 0.939051 0.371411
0.723056 0.941335 0.373844
0.739459 0.944189 0.376886
0.756122 0.946797 0.379885
0.776312 0.949956 0.383527
0.799331 0.953197 0.387966
