output/AppleLog2_display/AppleLog2_to_ACROS_33grid.cube
TITLE "AppleLog2_to_ACROS"
# Input: Apple Log 2 (Apple Gamut primaries, D65)
# Output: BT.709 / Gamma 2.2 (display-referred)
# Use: Display LUT for iPhone 17 Pro Apple Log 2 footage
# Source: FLog2C_to_ACROS_65grid_V.1.00.cube
# Generated from Fujifilm GFX ETERNA 55 F-Log2C LUT
LUT_3D_SIZE 5
0.000105 0.000105 0.000105
0.008964 0.008964 0.008964
0.327607 0.327607 0.327607
0.558594 0.558594 0.558594
0.682450 0.682450 0.682450
0.044258 0.044258 0.044258
0.055465 0.055465 0.055465
0.251915 0.251915 0.251915
0.605104 0.605104 0.605104
0.693921 0.693921 0.693921
0.363571 0.363571 0.363571
0.314024 0.314024 0.314024
0.405332 0.405332 0.405332
0.670915 0.670915 0.670915
0.716890 0.716890 0.716890
0.744296 0.744296 0.744296
0.753429 0.753429 0.753429
0.771884 0.771884 0.771884
0.831798 0.831798 0.831798
0.802641 0.802641 0.802641
0.851959 0.851959 0.851959
0.853505 0.853505 0.853505
0.857153 0.857153 0.857153
0.877121 0.877121 0.877121
0.884766 0.884766 0.884766
0.005936 0.005936 0.005936
0.005611 0.005611 0.005611
0.299467 0.299467 0.299467
0.558594 0.558594 0.558594
0.681943 0.681943 0.681943
0.047933 0.047933 0.047933
0.051666 0.051666 0.051666
0.239478 0.239478 0.239478
0.602859 0.602859 0.602859
0.693449 0.693449 0.693449
0.431840 0.431840 0.431840
0.329970 0.329970 0.329970
0.404339 0.404339 0.404339
0.669922 0.669922 0.669922
0.716564 0.716564 0.716564
0.743084 0.743084 0.743084
0.752330 0.752330 0.752330
0.771001 0.771001 0.771001
0.831695 0.831695 0.831695
0.802529 0.802529 0.802529
0.851808 0.851808 0.851808
0.853353 0.853353 0.853353
0.857009 0.857009 0.857009
0.877048 0.877048 0.877048
0.884766 0.884766 0.884766
0.037484 0.037484 0.037484
0.037294 0.037294 0.037294
0.258186 0.258186 0.258186
0.563349 0.563349 0.563349
0.680692 0.680692 0.680692
0.049672 0.049672 0.049672
0.060224 0.060224 0.060224
0.234354 0.234354 0.234354
0.622935 0.622935 0.622935
0.692287 0.692287 0.692287
0.550995 0.550995 0.550995
0.430577 0.430577 0.430577
0.479032 0.479032 0.479032
0.697879 0.697879 0.697879
0.715759 0.715759 0.715759
0.798084 0.798084 0.798084
0.806529 0.806529 0.806529
0.823104 0.823104 0.823104
0.878392 0.878392 0.878392
0.802256 0.802256 0.802256
0.851452 0.851452 0.851452
0.852981 0.852981 0.852981
0.856654 0.856654 0.856654
0.876870 0.876870 0.876870
0.884766 0.884766 0.884766
0.097764 0.097764 0.097764
0.097739 0.097739 0.097739
0.101509 0.101509 0.101509
0.560045 0.560045 0.560045
0.720228 0.720228 0.720228
0.097726 0.097726 0.097726
0.097700 0.097700 0.097700
0.142898 0.142898 0.142898
0.550087 0.550087 0.550087
0.736322 0.736322 0.736322
0.455585 0.455585 0.455585
0.460975 0.460975 0.460975
0.415057 0.415057 0.415057
0.673799 0.673799 0.673799
0.767249 0.767249 0.767249
0.772394 0.772394 0.772394
0.783268 0.783268 0.783268
0.806123 0.806123 0.806123
0.884621 0.884621 0.884621
0.872692 0.872692 0.872692
0.897093 0.897093 0.897093
0.898287 0.898287 0.898287
0.901270 0.901270 0.901270
0.921245 0.921245 0.921245
0.956117 0.956117 0.956117
0.122616 0.122616 0.122616
0.122615 0.122615 0.122615
0.122613 0.122613 0.122613
0.376107 0.376107 0.376107
0.538518 0.538518 0.538518
0.122615 0.122615 0.122615
0.122614 0.122614 0.122614
0.122612 0.122612 0.122612
0.383637 0.383637 0.383637
0.497216 0.497216 0.497216
0.122612 0.122612 0.122612
0.122611 0.122611 0.122611
0.122609 0.122609 0.122609
0.397518 0.397518 0.397518
0.607123 0.607123 0.607123
0.765938 0.765938 0.765938
0.766343 0.766343 0.766343
0.767326 0.767326 0.767326
0.674799 0.674799 0.674799
0.818443 0.818443 0.818443
0.873941 0.873941 0.873941
0.875821 0.875821 0.875821
0.880177 0.880177 0.880177
0.908464 0.908464 0.908464
0.993304 0.993304 0.993304
