output/AppleLog2_display/AppleLog2_to_CLASSIC-CHROME_33grid.cube
TITLE "AppleLog2_to_CLASSIC-CHROME"
# Input: Apple Log 2 (Apple Gamut primaries, D65)
# Output: BT.709 / Gamma 2.2 (display-referred)
# Use: Display LUT for iPhone 17 Pro Apple Log 2 footage
# Source: FLog2C_to_CLASSIC-CHROME_65grid_V.1.00.cube
# Generated from Fujifilm GFX ETERNA 55 F-Log2C LUT
LUT_3D_SIZE 33
0.000178 0.000085 0.000052
0.000178 0.000085 0.000052
0.000178 0.000085 0.000052
0.000178 0.000085 0.000052
0.000178 0.000085 0.000052
0.000178 0.000085 0.000052
0.000178 0.000085 0.000052
0.000178 0.000085 0.000052
0.019963 0.001805 0.000024
0.068475 0.002152 0.002310
0.140341 0.004150 0.005647
0.246417 0.007107 0.012673
0.382373 0.013625 0.024310
0.541997 0.022631 0.046850
0.694247 0.043574 0.082646
0.820994 0.077875 0.137466
0.920999 0.126872 0.216877
0.964267 0.197931 0.321436
0.961725 0.267783 0.384357
0.958668 0.333162 0.422237
0.958776 0.374451 0.448598
0.958776 0.374451 0.448598
0.958776 0.374451 0.448598
0.958776 0.374451 0.448598
0.958776 0.374451 0.448598
0.958776 0.374451 0.448598
0.957733 0.397647 0.439327
0.957532 0.427829 0.429582
0.957861 0.458172 0.416468
0.957839 0.489429 0.404048
0.955516 0.521841 0.388446
0.955302 0.555019 0.372623
0.953785 0.588231 0.353148
0.000178 0.000085 0.000052
0.000178 0.000085 0.000052
0.000178 0.000085 0.000052
0.000178 0.000085 0.000052
0.000178 0.000085 0.000052
0.000178 0.000085 0.000052
0.007040 0.001050 0.000167
0.030156 0.001986 0.000105
0.069613 0.002171 0.002282
0.123488 0.004018 0.004458
0.202669 0.006640 0.008733
0.312884 0.009444 0.017918
0.444069 0.016143 0.031399
0.593240 0.028164 0.057152
0.728405 0.050105 0.092189
0.840734 0.086345 0.152502
0.933198 0.138043 0.232634
0.964327 0.206193 0.332687
0.961634 0.273200 0.387302
0.958544 0.338222 0.425318
0.958776 0.374451 0.448598
0.958776 0.374451 0.448598
0.958776 0.374451 0.448598
0.958776 0.374451 0.448598
0.958974 0.380003 0.446125
0.957804 0.402813 0.437107
0.957574 0.426647 0.428685
0.957405 0.452258 0.419139
0.957699 0.478001 0.408831
0.956827 0.506258 0.395592
0.954855 0.535636 0.381851
0.954951 0.565767 0.367227
0.954029 0.595912 0.347790
0.000178 0.000085 0.000052
0.000178 0.000085 0.000052
0.000178 0.000085 0.000052
0.000178 0.000085 0.000052
0.000178 0.000085 0.000052
0.001725 0.000303 0.000069
0.020918 0.001824 0.000022
0.051326 0.001864 0.002722
0.090975 0.003042 0.002641
0.149972 0.004226 0.006326
0.232280 0.006956 0.011400
0.339409 0.010816 0.020166
0.468641 0.016828 0.034460
0.612104 0.030666 0.061651
0.741432 0.053133 0.096834
0.848624 0.089730 0.158511
0.938113 0.142544 0.238983
0.964124 0.209851 0.336313
0.961597 0.275407 0.388502
0.960026 0.317576 0.413293
0.959140 0.344336 0.430656
0.958787 0.374021 0.448334
0.958776 0.374451 0.448598
0.959076 0.378352 0.446147
0.957620 0.397646 0.438399
0.957975 0.416307 0.432358
0.957973 0.438250 0.424405
0.957412 0.461835 0.415293
0.958007 0.485662 0.405513
0.956267 0.513074 0.392145
0.954773 0.541135 0.378901
0.954616 0.569903 0.364736
0.953942 0.599329 0.345183
0.000178 0.000085 0.000052
0.000178 0.000085 0.000052
0.000178 0.000085 0.000052
0.000178 0.000085 0.000052
0.000178 0.000085 0.000052
0.008548 0.001197 0.000137
0.035480 0.001955 0.000763
0.068261 0.002148 0.002315
0.106610 0.003886 0.003267
0.170315 0.005218 0.007172
0.253678 0.007185 0.013327
0.360059 0.012166 0.022158
0.486805 0.017334 0.036723
0.626161 0.032531 0.065003
0.750797 0.055777 0.101045
0.854571 0.092281 0.163041
0.941832 0.145950 0.243787
0.966082 0.190871 0.310638
0.964145 0.233532 0.365143
0.962623 0.270273 0.386986
0.959935 0.309237 0.407662
0.959056 0.349339 0.433070
0.958584 0.374243 0.445238
0.957911 0.390674 0.442062
0.958118 0.409955 0.434263
0.958162 0.426249 0.429118
0.958875 0.447003 0.421182
0.957405 0.468835 0.412559
0.957863 0.491924 0.402462
0.955972 0.518108 0.389691
0.954711 0.545235 0.376702
0.954365 0.573006 0.362867
0.953850 0.601955 0.343151
0.000178 0.000085 0.000052
0.000178 0.000085 0.000052
0.000178 0.000085 0.000052
0.000178 0.000085 0.000052
0.000178 0.000085 0.000052
0.016937 0.001746 0.000030
0.049043 0.001877 0.002440
0.081932 0.002553 0.002280
0.124988 0.004030 0.004563
0.186552 0.006026 0.007837
0.271908 0.007743 0.014803
0.376846 0.013264 0.023777
0.491983 0.018238 0.038629
0.606623 0.030091 0.059847
0.713895 0.046517 0.088852
0.804403 0.073230 0.128308
0.880443 0.105631 0.179870
0.940827 0.146884 0.247399
0.964161 0.196165 0.318564
0.962760 0.244683 0.369606
0.960792 0.286933 0.394485
0.959922 0.336787 0.418741
0.958503 0.382305 0.437675
0.958160 0.402472 0.437166
0.958690 0.418844 0.431489
0.958247 0.434634 0.426361
0.958626 0.453649 0.418508
0.957400 0.474453 0.410358
0.957747 0.497004 0.399986
0.955985 0.522228 0.387888
0.954658 0.548613 0.374890
0.954157 0.575577 0.361318
0.953774 0.604138 0.341462
0.000033 0.001880 0.000131
0.000081 0.004176 0.000189
0.000251 0.005182 0.000140
0.000378 0.005930 0.000103
0.000358 0.005859 0.000241
0.015177 0.004591 0.000015
0.041701 0.003469 0.000727
0.070386 0.003928 0.002304
0.104363 0.003990 0.003178
0.153964 0.004487 0.006238
0.221230 0.006705 0.010183
0.304957 0.009316 0.017879
0.408852 0.012832 0.028618
0.522286 0.020891 0.043992
0.642047 0.034462 0.066989
0.748585 0.055925 0.099523
0.836656 0.084894 0.147392
0.909963 0.123189 0.209921
0.965259 0.173728 0.283927
0.962897 0.232612 0.350988
0.960863 0.283447 0.382938
0.960325 0.336123 0.405869
0.957526 0.390027 0.429877
0.958231 0.411949 0.433710
0.957931 0.426279 0.428681
0.958216 0.441480 0.423952
0.958238 0.459162 0.416250
0.957510 0.479354 0.407948
0.957648 0.501339 0.397874
0.955997 0.525770 0.386340
0.954555 0.551501 0.373340
0.953976 0.577807 0.359975
0.953708 0.606040 0.339990
0.000524 0.014283 0.000122
0.000320 0.017568 0.000081
0.000234 0.018897 0.000059
0.000168 0.019894 0.000042
0.000444 0.017434 0.000097
0.009505 0.013835 0.000207
0.029957 0.012863 0.000200
0.055533 0.012648 0.000178
0.087664 0.012969 0.000498
0.132027 0.012065 0.002982
0.189843 0.013922 0.004793
0.267663 0.015347 0.011423
0.363145 0.018830 0.018813
0.474878 0.025311 0.034403
0.595884 0.035322 0.053606
0.710149 0.054683 0.081729
0.805860 0.081233 0.124495
0.885976 0.118185 0.182823
0.954649 0.171514 0.254184
0.963224 0.236684 0.330409
0.961323 0.291010 0.370706
0.960606 0.339196 0.395266
0.957539 0.393417 0.421980
0.957912 0.419591 0.431698
0.957450 0.432758 0.426359
0.957960 0.447149 0.421596
0.957896 0.463935 0.414296
0.957642 0.483684 0.405668
0.957562 0.505151 0.396015
0.956008 0.528906 0.384970
0.954347 0.554006 0.371993
0.953814 0.579798 0.358776
0.953648 0.607742 0.338673
0.000006 0.031630 0.000446
0.000009 0.036409 0.000678
0.000027 0.038383 0.000700
0.000043 0.039879 0.000707
0.000050 0.030978 0.000301
0.006007 0.027689 0.000013
0.023531 0.025879 0.000118
0.048008 0.024442 0.000355
0.077530 0.024000 0.000486
0.118444 0.023932 0.000645
0.170534 0.025196 0.001250
0.246529 0.027037 0.005168
0.336858 0.030355 0.012473
0.443214 0.038241 0.021108
0.564070 0.048387 0.040890
0.682812 0.066775 0.068692
0.781756 0.091465 0.106541
0.865211 0.130301 0.159382
0.937260 0.178948 0.226976
0.962511 0.243583 0.306651
0.961587 0.298581 0.359742
0.960910 0.343158 0.386203
0.957684 0.395947 0.414718
0.957763 0.425956 0.428681
0.957814 0.439502 0.424522
0.957733 0.452202 0.419502
0.957730 0.468573 0.412314
0.957760 0.487614 0.403603
0.957368 0.508562 0.394256
0.956019 0.531784 0.383713
0.954155 0.556314 0.370751
0.953665 0.581638 0.357668
0.953593 0.609321 0.337453
0.000328 0.056186 0.000688
0.000509 0.061410 0.000608
0.000582 0.063515 0.000576
0.000637 0.065108 0.000551
0.000088 0.050991 0.000230
0.003873 0.046411 0.000471
0.019755 0.042819 0.000229
0.042003 0.040864 0.000166
0.068409 0.040326 0.000111
0.106476 0.039272 0.000031
0.157734 0.040499 0.000029
0.226117 0.043440 0.001689
0.313498 0.046274 0.006764
0.414648 0.053610 0.014564
0.533546 0.063847 0.028111
0.653004 0.079805 0.053105
0.756255 0.105396 0.088685
0.843907 0.140736 0.138131
0.919670 0.189505 0.200896
0.959742 0.252808 0.280492
0.961087 0.308781 0.344326
0.959807 0.350324 0.376420
0.957712 0.399110 0.403803
0.957750 0.432681 0.423543
0.958220 0.447121 0.422439
0.957499 0.458410 0.416966
0.957665 0.474217 0.409837
0.957895 0.492176 0.401211
0.957069 0.512503 0.392162
0.956032 0.535164 0.382237
0.953929 0.559035 0.369287
0.953489 0.583815 0.356356
0.953528 0.611193 0.336005
0.000114 0.086680 0.000062
0.000007 0.091555 0.000000
0.000013 0.094272 0.000001
0.000485 0.089930 0.000003
0.000664 0.074559 0.000523
0.001994 0.068017 0.000088
0.014139 0.066015 0.000179
0.034056 0.062523 0.000011
0.061272 0.061353 0.000239
0.096904 0.061883 0.000316
0.146251 0.061887 0.000192
0.210733 0.064040 0.000232
0.292770 0.066775 0.000989
0.392675 0.073435 0.007062
0.504847 0.082209 0.018166
0.623765 0.098143 0.037251
0.732271 0.122801 0.069344
0.821878 0.158343 0.117182
0.900153 0.204060 0.175771
0.955466 0.263728 0.252418
0.960049 0.320484 0.326069
0.958923 0.360359 0.362832
0.957883 0.404168 0.391590
0.957785 0.440697 0.416710
0.958319 0.456215 0.418947
0.957292 0.467486 0.413347
0.957584 0.481156 0.406796
0.957858 0.498025 0.398423
0.956696 0.517430 0.389550
0.956049 0.539415 0.380383
0.953643 0.562474 0.367437
0.953420 0.586674 0.354343
0.953444 0.613576 0.334161
0.000043 0.136757 0.000335
0.000033 0.141928 0.000441
0.000030 0.144034 0.000485
0.000385 0.122608 0.000032
0.000092 0.105054 0.000050
0.001605 0.096610 0.000297
0.011346 0.094348 0.000127
0.030252 0.091740 0.000016
0.054996 0.089776 0.000265
0.088974 0.088429 0.000261
0.135755 0.088110 0.000006
0.196608 0.089648 0.000589
0.276835 0.092063 0.000041
0.369823 0.097861 0.001830
0.476637 0.106783 0.006725
0.595825 0.122903 0.021827
0.705174 0.144872 0.050572
0.798807 0.179360 0.091549
0.879068 0.222904 0.147940
0.950329 0.280726 0.221976
0.959491 0.337279 0.302207
0.958220 0.375194 0.345950
0.958222 0.412238 0.378017
0.957912 0.450193 0.407861
0.958215 0.466991 0.414251
0.957062 0.478401 0.408933
0.957538 0.490100 0.403015
0.957404 0.505596 0.395337
0.956231 0.523544 0.386317
0.955638 0.544745 0.377753
0.953283 0.566796 0.365112
0.953468 0.590368 0.351501
0.953338 0.616601 0.331822
0.000152 0.200976 0.000036
0.000224 0.207423 0.000032
0.000343 0.199828 0.000103
0.000282 0.164329 0.000077
0.000390 0.147698 0.000133
0.001544 0.138424 0.000278
0.009776 0.132685 0.000007
0.024619 0.129825 0.000043
0.047621 0.127762 0.000153
0.081641 0.124378 0.000035
0.125938 0.123587 0.000016
0.182997 0.123840 0.000563
0.260908 0.125787 0.000390
0.352380 0.130517 0.000008
0.453161 0.138654 0.000745
0.566316 0.153333 0.009667
0.677880 0.176280 0.029882
0.774032 0.207026 0.066230
0.857474 0.249953 0.116520
0.930364 0.301959 0.184534
0.959507 0.356127 0.267998
0.957968 0.395650 0.327856
0.958584 0.424292 0.361285
0.957525 0.462001 0.395240
0.957627 0.480155 0.408539
0.957650 0.490219 0.402956
0.957566 0.501593 0.398353
0.956862 0.514799 0.391555
0.955635 0.531277 0.382460
0.955095 0.551353 0.374475
0.952833 0.572196 0.362206
0.953527 0.595010 0.347931
0.953204 0.620423 0.328867
0.000372 0.287303 0.000054
0.000344 0.292787 0.000059
0.000616 0.250086 0.000614
0.000366 0.215299 0.000335
0.000178 0.197640 0.000405
0.001497 0.189517 0.000368
0.007982 0.183810 0.000382
0.022263 0.179824 0.001048
0.045901 0.175606 0.000495
0.076789 0.172910 0.000116
0.118501 0.169478 0.000024
0.174980 0.168803 0.000024
0.247104 0.169877 0.000101
0.333327 0.173011 0.000049
0.432466 0.179618 0.000501
0.542271 0.194035 0.003014
0.652042 0.214619 0.013437
0.749815 0.241509 0.043805
0.834774 0.281023 0.089242
0.910005 0.327172 0.150035
0.955665 0.377715 0.230696
0.958152 0.420737 0.305530
0.957981 0.444227 0.341564
0.957275 0.475345 0.378208
0.957306 0.496378 0.399826
0.957135 0.504516 0.396442
0.957069 0.514994 0.392208
0.956606 0.526083 0.385870
0.954878 0.541017 0.377943
0.954428 0.559472 0.370458
0.952765 0.579112 0.357941
0.953602 0.600809 0.343476
0.953063 0.625048 0.325019
0.000139 0.385966 0.000480
0.000429 0.363754 0.000388
0.000414 0.303921 0.000426
0.000300 0.275180 0.000223
0.000371 0.262347 0.000109
0.001407 0.253256 0.000092
0.006396 0.246715 0.000077
0.020980 0.242198 0.000201
0.042973 0.238025 0.000206
0.073629 0.233254 0.000121
0.114011 0.227240 0.000017
0.169747 0.224385 0.000025
0.236283 0.225761 0.000057
0.322556 0.227821 0.000163
0.417235 0.233125 0.000306
0.522444 0.244848 0.002811
0.627861 0.262575 0.008102
0.726015 0.287424 0.022221
0.812708 0.318152 0.058376
0.889637 0.358292 0.112092
0.948144 0.404044 0.188278
0.958252 0.447058 0.269349
0.959011 0.468537 0.315204
0.957118 0.493974 0.354765
0.956970 0.515321 0.385806
0.955280 0.521768 0.389128
0.955871 0.530366 0.384265
0.956408 0.539562 0.378744
0.954114 0.552946 0.372333
0.954015 0.569469 0.364416
0.952898 0.587708 0.352411
0.953694 0.607996 0.337960
0.952907 0.630691 0.320114
0.001363 0.491136 0.000520
0.000167 0.410048 0.000833
0.000098 0.366526 0.000397
0.000408 0.345022 0.000257
0.000355 0.333547 0.000845
0.002215 0.324523 0.000525
0.008462 0.317700 0.000192
0.022133 0.313186 0.000302
0.041719 0.308905 0.000264
0.069775 0.304701 0.000022
0.110643 0.298847 0.000250
0.163872 0.295079 0.000094
0.231019 0.293840 0.000080
0.313182 0.293840 0.000293
0.402375 0.296420 0.000852
0.503929 0.306812 0.003663
0.607873 0.319637 0.009966
0.705329 0.338275 0.016280
0.789849 0.362832 0.033732
0.867015 0.397266 0.076808
0.938144 0.438240 0.146068
0.956467 0.479548 0.227477
0.956929 0.499996 0.286277
0.957652 0.517045 0.328742
0.955893 0.536643 0.367184
0.955884 0.541901 0.377824
0.955121 0.549434 0.375692
0.954599 0.557059 0.371772
0.953922 0.568308 0.364699
0.953755 0.581550 0.356433
0.953059 0.598159 0.345698
0.953487 0.616826 0.331703
0.952714 0.637683 0.314031
0.009636 0.594539 0.000478
0.000576 0.466406 0.000814
0.000041 0.436513 0.000852
0.000270 0.420904 0.000503
0.000578 0.409423 0.000069
0.000582 0.402771 0.000054
0.009442 0.397774 0.000314
0.021912 0.393711 0.000685
0.041487 0.389588 0.000715
0.070388 0.385126 0.000385
0.110877 0.379744 0.000654
0.163197 0.374536 0.000941
0.230156 0.370382 0.000706
0.309613 0.368116 0.001064
0.396225 0.368680 0.004101
0.492964 0.373825 0.007996
0.591699 0.381683 0.013248
0.686032 0.396661 0.018866
0.771761 0.415863 0.026316
0.847474 0.443717 0.047659
0.917889 0.478763 0.101667
0.956211 0.515176 0.178294
0.955730 0.539897 0.251062
0.955441 0.547383 0.298318
0.954345 0.561867 0.344106
0.954867 0.566677 0.365859
0.953635 0.571656 0.363752
0.953644 0.576394 0.360541
0.953959 0.585911 0.354201
0.953707 0.596465 0.345920
0.952975 0.610807 0.335635
0.953130 0.627553 0.324254
0.952479 0.646266 0.306553
0.008623 0.613875 0.001513
0.004880 0.529266 0.000387
0.001753 0.510112 0.000343
0.002975 0.498156 0.000099
0.003602 0.491239 0.000039
0.006641 0.485642 0.000048
0.017007 0.480514 0.000213
0.025991 0.475993 0.000362
0.048016 0.471260 0.000329
0.077592 0.465680 0.000222
0.117672 0.460949 0.000096
0.168041 0.456347 0.000373
0.232177 0.451841 0.001948
0.308887 0.447581 0.002987
0.392495 0.445598 0.007764
0.483361 0.446256 0.012711
0.579301 0.451221 0.017484
0.670949 0.460636 0.024720
0.755191 0.476753 0.032309
0.830378 0.497250 0.040745
0.901632 0.523754 0.063619
0.948595 0.554426 0.128725
0.954984 0.583237 0.211943
0.954315 0.583609 0.255926
0.953555 0.591716 0.308172
0.953572 0.594498 0.347448
0.953334 0.596064 0.348148
0.953086 0.599000 0.345339
0.953997 0.605822 0.340251
0.953703 0.614246 0.333095
0.952777 0.625856 0.323573
0.952793 0.640219 0.313784
0.952377 0.656474 0.294839
0.012097 0.642530 0.002002
0.007821 0.596457 0.000397
0.007472 0.584566 0.000372
0.007135 0.576301 0.000163
0.008868 0.569957 0.000053
0.018356 0.564968 0.000232
0.026302 0.560731 0.000390
0.039883 0.557274 0.000471
0.061846 0.553646 0.000498
0.088431 0.549265 0.000521
0.126953 0.544826 0.001253
0.174656 0.539795 0.002552
0.238498 0.534469 0.006021
0.310644 0.530208 0.009344
0.391491 0.526196 0.013267
0.479209 0.525106 0.018146
0.571781 0.526397 0.024929
0.661355 0.531843 0.029871
0.741578 0.542502 0.038250
0.815922 0.556809 0.045390
0.883712 0.575813 0.054155
0.942365 0.598201 0.086556
0.952319 0.621577 0.157705
0.952518 0.624399 0.213428
0.952566 0.625745 0.265803
0.952728 0.624291 0.314577
0.952757 0.623490 0.326000
0.952531 0.624749 0.326292
0.953166 0.628301 0.322461
0.952965 0.634824 0.318924
0.952153 0.643797 0.308953
0.952524 0.654934 0.299097
0.952258 0.668727 0.280727
0.015644 0.687647 0.004588
0.014359 0.662341 0.004712
0.013134 0.653416 0.002608
0.016159 0.647641 0.001898
0.022457 0.643566 0.002088
0.027638 0.640179 0.002238
0.043901 0.637282 0.002856
0.060620 0.634689 0.003500
0.079750 0.631717 0.004239
0.106840 0.628275 0.005364
0.145533 0.624409 0.007067
0.192928 0.619819 0.009211
0.252633 0.614543 0.012181
0.319629 0.610769 0.015457
0.394906 0.607145 0.020052
0.478741 0.603192 0.025496
0.567306 0.602169 0.030910
0.652389 0.604374 0.038653
0.731857 0.609752 0.044752
0.803131 0.618552 0.051571
0.867990 0.630614 0.061132
0.928499 0.645348 0.076250
0.950748 0.664584 0.112472
0.951760 0.668181 0.161773
0.951705 0.664305 0.213070
0.951989 0.658249 0.270496
0.952026 0.652922 0.299413
0.951978 0.652124 0.299756
0.951789 0.653659 0.299362
0.952523 0.657930 0.296433
0.952238 0.664004 0.287020
0.952298 0.672299 0.277958
0.952125 0.683199 0.264073
0.020230 0.737161 0.009444
0.017853 0.721499 0.008247
0.020952 0.715718 0.007615
0.023409 0.711539 0.007166
0.037299 0.708232 0.007898
0.055548 0.705462 0.009121
0.071412 0.703054 0.010193
0.085746 0.700877 0.011169
0.106252 0.698725 0.012206
0.135143 0.696397 0.013400
0.170557 0.693558 0.014858
0.215767 0.690090 0.017347
0.271968 0.685909 0.020964
0.335692 0.681817 0.024087
0.407738 0.678122 0.027493
0.487506 0.676110 0.032967
0.569909 0.673192 0.041395
0.651811 0.672325 0.045365
0.723755 0.674246 0.052949
0.792953 0.677825 0.064144
0.855467 0.683653 0.074279
0.913611 0.693970 0.086444
0.948211 0.706675 0.099886
0.950098 0.712740 0.121394
0.951629 0.705054 0.154380
0.951140 0.696152 0.212884
0.951787 0.683911 0.261663
0.951476 0.682278 0.265129
0.951438 0.680959 0.267288
0.951538 0.682219 0.264870
0.951568 0.686058 0.261038
0.951651 0.692228 0.252957
0.951380 0.700199 0.243420
0.024790 0.782759 0.013083
0.028329 0.772315 0.012984
0.042181 0.768540 0.013688
0.058424 0.765746 0.014468
0.071446 0.763491 0.015090
0.082797 0.761587 0.015625
0.102284 0.760266 0.016402
0.120042 0.759066 0.017108
0.140742 0.757671 0.017928
0.166540 0.755939 0.018946
0.199630 0.753792 0.020608
0.242916 0.751134 0.023575
0.295438 0.747923 0.027174
0.353481 0.745199 0.030902
0.420362 0.742229 0.035228
0.493291 0.738650 0.040358
0.570852 0.735943 0.046437
0.647228 0.733568 0.055158
0.718597 0.732237 0.066985
0.783136 0.731812 0.076518
0.844213 0.735075 0.086648
0.899581 0.741261 0.099908
0.947528 0.750582 0.110668
0.950458 0.754879 0.114317
0.951174 0.747120 0.115206
0.950150 0.733938 0.152108
0.951401 0.718612 0.211496
0.950307 0.712740 0.226503
0.950423 0.710130 0.229667
0.950986 0.708870 0.233157
0.950985 0.710446 0.229544
0.950525 0.714182 0.223893
0.949681 0.719897 0.216848
0.030697 0.824292 0.018632
0.057894 0.816989 0.018824
0.070688 0.814318 0.018870
0.096460 0.812749 0.020376
0.117762 0.811475 0.021633
0.136009 0.810383 0.022712
0.152106 0.809419 0.023666
0.166838 0.808536 0.024540
0.184633 0.807475 0.025679
0.209564 0.806019 0.027648
0.240644 0.804210 0.030093
0.279086 0.801983 0.033099
0.324762 0.799593 0.036593
0.377857 0.797246 0.040580
0.439413 0.794527 0.045101
0.506046 0.791515 0.049617
0.576354 0.788628 0.058284
0.647889 0.786010 0.068798
0.715460 0.784120 0.079181
0.777264 0.783063 0.089991
0.834758 0.783229 0.101093
0.889438 0.785853 0.113130
0.938279 0.790467 0.124379
0.952212 0.795463 0.129250
0.952031 0.788626 0.126364
0.950981 0.773897 0.121249
0.950445 0.756230 0.147097
0.951492 0.744037 0.176292
0.950216 0.740563 0.184118
0.950120 0.738117 0.188877
0.950544 0.736574 0.190165
0.950270 0.737956 0.187814
0.949847 0.741994 0.181263
0.040862 0.862792 0.022328
0.101775 0.857462 0.026223
0.132033 0.855344 0.028206
0.154511 0.853770 0.029682
0.174563 0.852758 0.031037
0.193162 0.852119 0.032319
0.209677 0.851553 0.033455
0.224882 0.851033 0.034501
0.242793 0.850421 0.035730
0.265396 0.849651 0.037279
0.293767 0.848688 0.039218
0.326557 0.847397 0.041986
0.365420 0.845750 0.045632
0.413108 0.843740 0.050105
0.466357 0.841300 0.057012
0.527515 0.838366 0.066158
0.589574 0.835726 0.074871
0.654140 0.833051 0.084402
0.716907 0.830440 0.095217
0.775008 0.829567 0.104998
0.829521 0.828037 0.114725
0.881197 0.828745 0.127384
0.931443 0.832182 0.138707
0.952101 0.835697 0.144539
0.952517 0.827415 0.141311
0.951773 0.811620 0.135620
0.951568 0.792501 0.129727
0.950725 0.777703 0.128330
0.951329 0.770660 0.137503
0.950634 0.767256 0.143175
0.950582 0.764952 0.144042
0.951359 0.763786 0.147216
0.950430 0.764954 0.143781
0.117239 0.899549 0.032957
0.178162 0.896423 0.037308
0.207548 0.895272 0.039345
0.229548 0.894411 0.040867
0.247741 0.893700 0.042124
0.263511 0.893085 0.043213
0.277566 0.892537 0.044181
0.290289 0.891980 0.045258
0.304576 0.891175 0.047062
0.322685 0.890155 0.049347
0.345538 0.888871 0.052229
0.374228 0.887262 0.055844
0.410012 0.885261 0.060346
0.450694 0.883253 0.065702
0.497024 0.881249 0.072069
0.553092 0.878822 0.079819
0.606968 0.876513 0.089709
0.666254 0.874032 0.100423
0.724226 0.871713 0.110253
0.776256 0.870588 0.121407
0.827118 0.869678 0.129859
0.877837 0.869669 0.139725
0.925648 0.871154 0.151543
0.955967 0.871369 0.159577
0.955049 0.863711 0.155160
0.954235 0.848340 0.148914
0.952987 0.828805 0.142115
0.952581 0.809127 0.134238
0.951513 0.801828 0.130823
0.951857 0.796908 0.130583
0.951745 0.792847 0.129123
0.951499 0.790236 0.129029
0.951405 0.790160 0.127230
0.213628 0.933641 0.045195
0.273043 0.930897 0.051196
0.297111 0.929655 0.054583
0.315240 0.928720 0.057133
0.330304 0.927944 0.059251
0.343413 0.927269 0.061094
0.355137 0.926665 0.062742
0.366000 0.926106 0.064269
0.378880 0.925443 0.066078
0.395263 0.924601 0.068380
0.416031 0.923534 0.071296
0.438814 0.922581 0.074916
0.465557 0.921599 0.079427
0.498917 0.920375 0.085054
0.540212 0.918861 0.092018
0.583544 0.917288 0.099553
0.631779 0.915568 0.108094
0.682155 0.913746 0.116968
0.732293 0.911878 0.125759
0.780076 0.910227 0.135829
0.827544 0.908644 0.145521
0.874094 0.907221 0.155142
0.918751 0.906182 0.164915
0.952490 0.903125 0.170483
0.957117 0.896015 0.171491
0.956550 0.880668 0.162747
0.954969 0.863759 0.156019
0.954165 0.844720 0.147889
0.952727 0.832654 0.142968
0.952646 0.826732 0.141489
0.952744 0.822033 0.139757
0.952496 0.818493 0.137275
0.952825 0.815816 0.137051
0.321791 0.957655 0.067512
0.373957 0.955211 0.074914
0.394938 0.954233 0.077887
0.409155 0.953640 0.080031
0.419722 0.953259 0.081737
0.428943 0.952927 0.083225
0.437210 0.952630 0.084560
0.444886 0.952354 0.085799
0.454008 0.952027 0.087272
0.465644 0.951612 0.089151
0.480446 0.951084 0.091542
0.499212 0.950418 0.094572
0.522902 0.949580 0.098399
0.551907 0.948589 0.103157
0.580003 0.947949 0.108561
0.614809 0.947162 0.115253
0.657546 0.946205 0.123469
0.696495 0.944601 0.132347
0.741978 0.942663 0.142916
0.783276 0.940732 0.150303
0.826015 0.938531 0.157822
0.867766 0.936243 0.165668
0.908321 0.933951 0.174553
0.943567 0.930507 0.181438
0.959198 0.924088 0.181868
0.958364 0.911436 0.176420
0.956799 0.895459 0.170081
0.955987 0.876712 0.161158
0.955158 0.861131 0.155371
0.954220 0.855916 0.151230
0.954529 0.850396 0.149220
0.954239 0.845925 0.148094
0.953717 0.842452 0.147922
0.428030 0.962002 0.086026
0.461431 0.961867 0.091910
0.474963 0.961814 0.094294
0.485230 0.961773 0.096102
0.493808 0.961740 0.097613
0.501309 0.961711 0.098933
0.508044 0.961685 0.100119
0.514308 0.961661 0.101222
0.521764 0.961632 0.102534
0.529444 0.961624 0.104098
0.539172 0.961615 0.106088
0.551547 0.961605 0.108618
0.567232 0.961593 0.111824
0.587031 0.961581 0.115867
0.611890 0.961571 0.120939
0.642907 0.961564 0.127260
0.671905 0.962063 0.133707
0.706903 0.962734 0.141553
0.745886 0.963331 0.150288
