output/AppleLog2_display/AppleLog2_to_ETERNA_33grid.cube
TITLE "AppleLog2_to_ETERNA"
# Input: Apple Log 2 (Apple Gamut primaries, D65)
# Output: BT.709 / Gamma 2.2 (display-referred)
# Use: Display LUT for iPhone 17 Pro Apple Log 2 footage
# Source: FLog2C_to_ETERNA_65grid_V.1.00.cube
# Generated from Fujifilm GFX ETERNA 55 F-Log2C LUT
LUT_3D_SIZE 9
0.006510 0.006095 0.006119
0.006510 0.006095 0.006119
0.073306 0.010037 0.015201
0.367601 0.040728 0.052467
0.852505 0.154025 0.111158
0.943984 0.328397 0.270514
0.943984 0.328397 0.270514
0.939100 0.406487 0.215366
0.928897 0.534454 0.067551
0.006510 0.006095 0.006119
0.006510 0.006095 0.006119
0.183394 0.018472 0.028555
0.446517 0.053652 0.064378
0.802167 0.140234 0.100264
0.941374 0.260482 0.193164
0.941458 0.368796 0.243764
0.936204 0.444299 0.178506
0.927896 0.550668 0.064981
0.005969 0.133278 0.000037
0.006518 0.128343 0.000300
0.136667 0.112752 0.006579
0.315589 0.112099 0.032464
0.668699 0.155134 0.078164
0.935757 0.282176 0.098182
0.939880 0.394647 0.224419
0.934586 0.459595 0.161864
0.927745 0.557585 0.064710
0.007398 0.325469 0.000697
0.006952 0.260665 0.000013
0.115128 0.243107 0.000423
0.267768 0.233674 0.006106
0.573064 0.252038 0.046584
0.924921 0.350471 0.082770
0.936093 0.443689 0.180766
0.931753 0.487853 0.123287
0.927478 0.571353 0.063999
0.008352 0.604204 0.000210
0.024542 0.487120 0.000073
0.127283 0.470008 0.000255
0.258972 0.451737 0.000031
0.518878 0.445968 0.006755
0.847985 0.497070 0.053102
0.928581 0.539848 0.065890
0.928101 0.552612 0.063797
0.926854 0.605062 0.062502
0.009398 0.789919 0.000122
0.158555 0.767647 0.000105
0.218231 0.760741 0.000110
0.320486 0.747794 0.000201
0.523831 0.728110 0.000036
0.786549 0.719802 0.026789
0.925758 0.713052 0.056908
0.926032 0.665143 0.059908
0.926105 0.676900 0.058262
0.305550 0.964506 0.000398
0.379623 0.958541 0.000320
0.409363 0.956270 0.000157
0.465069 0.951583 0.000028
0.583365 0.940864 0.000378
0.763715 0.924918 0.014520
0.928718 0.896958 0.053961
0.927128 0.812307 0.055119
0.927251 0.791405 0.054805
0.562419 0.999509 0.000245
0.583259 0.999571 0.000202
0.592115 0.999604 0.000183
0.610361 0.999670 0.000146
0.655958 0.999781 0.000592
0.748945 0.999826 0.012712
0.893764 0.999537 0.063575
0.931715 0.960649 0.055360
0.930376 0.925157 0.054244
0.716919 0.999992 0.003127
0.722652 0.999953 0.004813
0.725174 0.999936 0.005554
0.730450 0.999899 0.007102
0.744652 0.999802 0.011260
0.781072 0.999562 0.022117
0.854960 0.999617 0.050599
0.932505 0.999629 0.082445
0.932505 0.999759 0.081778
0.006510 0.006095 0.006119
0.006510 0.006095 0.006119
0.012114 0.006172 0.006752
0.334236 0.036283 0.049496
0.840110 0.149615 0.109787
0.943984 0.328397 0.270514
0.943984 0.328397 0.270514
0.939278 0.404810 0.216944
0.928969 0.533741 0.067736
0.006510 0.006095 0.006119
0.006510 0.006095 0.006119
0.152100 0.014938 0.025055
0.425584 0.049960 0.060240
0.816122 0.142194 0.103664
0.941589 0.263733 0.200126
0.941669 0.366313 0.245764
0.936377 0.442683 0.180264
0.927913 0.549988 0.065003
0.006160 0.121028 0.000200
0.005535 0.130794 0.000260
0.115182 0.105037 0.004759
0.304188 0.104044 0.032157
0.667594 0.147361 0.079496
0.935803 0.277835 0.103182
0.940043 0.392081 0.226023
0.934722 0.458283 0.163288
0.927760 0.556934 0.064731
0.007540 0.317624 0.000706
0.006314 0.266187 0.000003
0.092438 0.240272 0.000067
0.254999 0.229723 0.005042
0.566605 0.247257 0.046464
0.924553 0.346530 0.083251
0.936290 0.441705 0.182940
0.931866 0.486602 0.125386
0.927485 0.570750 0.064055
0.007759 0.629448 0.000346
0.011578 0.489075 0.000179
0.107841 0.470200 0.000019
0.247812 0.450383 0.000063
0.511807 0.443110 0.006050
0.846357 0.494468 0.052920
0.928626 0.538587 0.066044
0.928124 0.551739 0.063752
0.926868 0.604547 0.062465
0.009363 0.791838 0.000119
0.140964 0.768627 0.000104
0.206528 0.761170 0.000114
0.310421 0.748184 0.000180
0.517681 0.727709 0.000033
0.784462 0.718944 0.026381
0.925750 0.712553 0.056895
0.926031 0.664683 0.059910
0.926115 0.676551 0.058287
0.297392 0.965012 0.000356
0.372788 0.958860 0.000364
0.402819 0.956567 0.000197
0.459710 0.951872 0.000023
0.579530 0.940980 0.000361
0.762036 0.924891 0.014087
0.928711 0.896983 0.053960
0.927137 0.812151 0.055109
0.927248 0.791237 0.054814
0.559989 0.999515 0.000251
0.581285 0.999564 0.000207
0.590172 0.999597 0.000188
0.608480 0.999664 0.000150
0.654481 0.999784 0.000520
0.747905 0.999822 0.012424
0.893324 0.999535 0.063451
0.931716 0.960672 0.055393
0.930379 0.925108 0.054239
0.716340 0.999995 0.002983
0.722092 0.999957 0.004638
0.724617 0.999940 0.005380
0.729900 0.999904 0.006932
0.744121 0.999806 0.011098
0.780652 0.999564 0.021953
0.854664 0.999614 0.050483
0.932505 0.999629 0.082445
0.932505 0.999758 0.081778
0.011530 0.003164 0.118960
0.011525 0.003194 0.115637
0.011427 0.003351 0.114095
0.302060 0.025079 0.074175
0.805562 0.138820 0.104063
0.943984 0.328397 0.270514
0.943984 0.328397 0.270514
0.939357 0.404056 0.217653
0.929001 0.533423 0.067819
0.011415 0.003372 0.113893
0.011189 0.003736 0.110325
0.130408 0.005061 0.094762
0.386622 0.042023 0.066147
0.795648 0.135797 0.103701
0.941238 0.258140 0.195471
0.941837 0.365032 0.246318
0.936455 0.441956 0.181054
0.927920 0.549685 0.065012
0.013748 0.120095 0.134335
0.014454 0.133103 0.131906
0.102663 0.104842 0.101980
0.289677 0.100914 0.088697
0.643787 0.146000 0.079932
0.936094 0.275777 0.102390
0.940113 0.390923 0.226755
0.934783 0.457696 0.163925
0.927767 0.556644 0.064741
0.017561 0.335129 0.144891
0.015020 0.283325 0.103564
0.070436 0.252511 0.076973
0.245246 0.235299 0.059081
0.549200 0.249125 0.043377
0.919910 0.343470 0.082602
0.936378 0.440814 0.183914
0.931917 0.486043 0.126324
0.927488 0.570482 0.064080
0.017208 0.668946 0.045342
0.007854 0.518024 0.000692
0.079846 0.494385 0.000241
0.232369 0.466220 0.000018
0.497304 0.449949 0.002521
0.844872 0.493573 0.052753
0.928647 0.538020 0.066114
0.928134 0.551349 0.063732
0.926875 0.604317 0.062449
0.008669 0.794839 0.000126
0.130168 0.769768 0.000225
0.200611 0.761627 0.000135
0.305885 0.748360 0.000172
0.514927 0.727532 0.000032
0.783531 0.718561 0.026201
0.925746 0.712332 0.056888
0.926031 0.664478 0.059911
0.926119 0.676395 0.058299
0.293739 0.965240 0.000337
0.369729 0.959003 0.000383
0.399893 0.956701 0.000215
0.457317 0.952004 0.000021
0.577819 0.941032 0.000353
0.761288 0.924879 0.013894
0.928688 0.896977 0.053958
0.927141 0.812082 0.055105
0.927247 0.791162 0.054819
0.558906 0.999518 0.000254
0.580407 0.999561 0.000209
0.589308 0.999594 0.000190
0.607642 0.999661 0.000152
0.653824 0.999785 0.000488
0.747442 0.999821 0.012296
0.893129 0.999534 0.063397
0.931717 0.960682 0.055408
0.930380 0.925086 0.054237
0.716067 0.999995 0.002972
0.721842 0.999959 0.004560
0.724369 0.999942 0.005303
0.729656 0.999906 0.006856
0.743885 0.999808 0.011027
0.780465 0.999564 0.021880
0.854532 0.999613 0.050432
0.932505 0.999629 0.082445
0.932505 0.999758 0.081779
0.018116 0.003093 0.226455
0.018176 0.003114 0.224570
0.018203 0.003123 0.223725
0.280034 0.003045 0.202665
0.772883 0.112913 0.221951
0.945847 0.315809 0.263109
0.943984 0.328397 0.270514
0.939527 0.402449 0.219169
0.929068 0.532750 0.067993
0.018207 0.003124 0.223615
0.018268 0.003144 0.221692
0.094995 0.001867 0.207327
0.356077 0.010569 0.202916
0.791425 0.118712 0.224431
0.945220 0.240345 0.265658
0.942771 0.373413 0.264389
0.936623 0.440407 0.182738
0.927936 0.549044 0.065033
0.020987 0.105446 0.267906
0.022035 0.122205 0.272161
0.070000 0.093648 0.230377
0.283474 0.085518 0.223781
0.636249 0.127634 0.251125
0.945345 0.257335 0.259405
0.940696 0.403695 0.264957
0.934912 0.456449 0.165282
0.927781 0.556029 0.064761
0.029695 0.353598 0.358893
0.027052 0.315792 0.308333
0.030596 0.265783 0.251203
0.239272 0.240185 0.239250
0.545439 0.246595 0.244611
0.907719 0.333035 0.247711
0.938376 0.452291 0.250631
0.932024 0.484856 0.128317
0.927494 0.569913 0.064133
0.038490 0.720330 0.411828
0.027384 0.558838 0.249222
0.044870 0.531820 0.225682
0.222097 0.499017 0.218973
0.490646 0.472936 0.211463
0.819553 0.501169 0.197526
0.931415 0.551649 0.146980
0.928156 0.550522 0.063689
0.926888 0.603832 0.062414
0.022794 0.827374 0.089427
0.054308 0.802589 0.063852
0.128050 0.794059 0.063571
0.253323 0.779272 0.063149
0.472219 0.754846 0.049736
0.751046 0.736121 0.019010
0.926054 0.724225 0.055501
0.926030 0.664045 0.059912
0.926128 0.676067 0.058323
0.223948 0.976126 0.000166
0.310038 0.970147 0.000296
0.342829 0.967211 0.000273
0.406406 0.961533 0.000303
0.540446 0.950100 0.000374
0.746790 0.928474 0.010544
0.928529 0.896878 0.053947
0.927150 0.811935 0.055096
0.927245 0.791004 0.054827
0.556614 0.999524 0.000260
0.578547 0.999554 0.000214
0.587477 0.999587 0.000195
0.605870 0.999655 0.000156
0.652432 0.999788 0.000419
0.746464 0.999818 0.012023
0.892716 0.999532 0.063282
0.931718 0.960703 0.055439
0.930383 0.925039 0.054232
0.715490 0.999994 0.002949
0.721316 0.999963 0.004395
0.723846 0.999946 0.005139
0.729140 0.999909 0.006696
0.743387 0.999812 0.010875
0.780070 0.999566 0.021725
0.854254 0.999611 0.050323
0.932505 0.999629 0.082445
0.932505 0.999758 0.081779
0.026167 0.003468 0.396924
0.026094 0.003448 0.395766
0.026061 0.003439 0.395250
0.215628 0.000080 0.340358
0.732742 0.060739 0.369183
0.950523 0.307022 0.381445
0.947922 0.339876 0.353951
0.944153 0.430169 0.358316
0.929255 0.530879 0.068473
0.026056 0.003437 0.395183
0.025982 0.003417 0.394017
0.025952 0.003410 0.393513
0.299837 0.000240 0.338205
0.771325 0.077719 0.371994
0.953133 0.223541 0.411838
0.949017 0.399414 0.441976
0.944070 0.468400 0.363855
0.927981 0.547264 0.065091
0.029927 0.020188 0.448855
0.031517 0.051596 0.462890
0.030949 0.056643 0.455097
0.265649 0.025226 0.381475
0.637291 0.081312 0.410299
0.956015 0.219641 0.456921
0.949210 0.428778 0.454622
0.944465 0.483234 0.364325
0.927822 0.554324 0.064815
0.044767 0.346056 0.617630
0.045008 0.357325 0.620405
0.038555 0.285426 0.524235
0.215859 0.236396 0.457338
0.542474 0.232833 0.445792
0.904792 0.307189 0.471612
0.948712 0.468009 0.461493
0.942158 0.513940 0.362123
0.927513 0.568337 0.064269
0.056372 0.719179 0.681701
0.046215 0.602215 0.570061
0.043518 0.566865 0.532330
0.190542 0.525419 0.505516
0.484942 0.486164 0.484882
0.815356 0.496513 0.472743
0.946720 0.558423 0.451768
0.941089 0.575643 0.356057
0.926926 0.602486 0.062320
0.054608 0.834245 0.508199
0.049177 0.809650 0.474042
0.078430 0.801373 0.466175
0.212592 0.787192 0.464795
0.450862 0.762088 0.458776
0.745701 0.737359 0.442055
0.944606 0.731900 0.384727
0.939713 0.682064 0.311222
0.926152 0.675157 0.058392
0.111059 0.966495 0.234628
0.205621 0.961402 0.238430
0.240556 0.959740 0.239889
0.309450 0.956470 0.242650
0.455247 0.948302 0.247825
0.683749 0.931969 0.237689
0.908130 0.907847 0.155452
0.927204 0.828943 0.058356
0.927238 0.790567 0.054852
0.444113 0.999789 0.000482
0.470749 0.999768 0.000504
0.481370 0.999756 0.000509
0.503222 0.999742 0.000548
0.559407 0.999706 0.000531
0.674038 0.999804 0.001192
0.853222 0.999616 0.049061
0.931721 0.960762 0.055524
0.930391 0.924912 0.054219
0.713897 0.999992 0.002883
0.719862 0.999974 0.003938
0.722402 0.999957 0.004687
0.727714 0.999920 0.006252
0.742010 0.999823 0.010454
0.778979 0.999570 0.021297
0.853487 0.999604 0.050022
0.932505 0.999629 0.082445
0.932505 0.999758 0.081779
0.041709 0.009771 0.648175
0.041676 0.009741 0.647687
0.041662 0.009727 0.647471
0.041632 0.009699 0.647012
0.637710 0.000329 0.555169
0.959720 0.236343 0.523581
0.951320 0.339834 0.450394
0.953092 0.436496 0.542166
0.948506 0.570303 0.486322
0.041660 0.009726 0.647442
0.041628 0.009695 0.646954
0.041613 0.009682 0.646736
0.039265 0.007508 0.617473
0.683530 0.000062 0.559509
0.959238 0.246384 0.519999
0.956178 0.352208 0.556080
0.953809 0.484653 0.564609
0.948395 0.585608 0.488775
0.041638 0.009705 0.647116
0.041606 0.009675 0.646627
0.041592 0.009661 0.646409
0.115394 0.006097 0.589927
0.678342 0.000089 0.572667
0.965566 0.138765 0.657343
0.955657 0.392396 0.579841
0.954338 0.502913 0.572108
0.948495 0.591708 0.488807
0.054755 0.247480 0.826927
0.055131 0.261807 0.830299
0.055354 0.268102 0.831729
0.055509 0.201281 0.730366
0.522659 0.173822 0.681562
0.909930 0.246194 0.703724
0.956873 0.436275 0.617930
0.953823 0.535788 0.585261
0.948712 0.603727 0.488434
0.066978 0.679182 0.877094
0.067210 0.682624 0.876620
0.060270 0.618257 0.825309
0.055859 0.542170 0.760514
0.442265 0.479135 0.742447
0.808507 0.471382 0.726999
0.957746 0.543714 0.669230
0.955063 0.595245 0.605835
0.947449 0.635205 0.487839
0.075061 0.832381 0.770403
0.069664 0.810125 0.744166
0.068890 0.801316 0.734834
0.079360 0.787060 0.720821
0.388376 0.759697 0.728733
0.728005 0.730588 0.728257
0.960867 0.717403 0.689431
0.956082 0.690056 0.617532
0.948295 0.699142 0.474587
0.076177 0.939926 0.620610
0.113595 0.935813 0.619461
0.140769 0.934232 0.620749
0.212665 0.930461 0.626090
0.377745 0.921910 0.636895
0.639736 0.908415 0.647853
0.892855 0.885594 0.627723
0.958139 0.825552 0.577395
0.947000 0.803694 0.407717
0.378636 0.997127 0.427258
0.403572 0.997344 0.429764
0.414246 0.997429 0.430731
0.434282 0.997414 0.430353
0.485811 0.997369 0.428969
0.600985 0.999786 0.420949
0.788227 0.999586 0.381365
0.947718 0.980078 0.306867
0.933141 0.937814 0.082515
0.590752 0.999956 0.000256
0.598179 0.999959 0.000195
0.601331 0.999954 0.000183
0.607657 0.999935 0.000178
0.624656 0.999895 0.000158
0.668505 0.999850 0.000058
0.759285 0.999830 0.014871
0.911154 0.999935 0.072552
0.932505 0.999758 0.081781
0.055110 0.036779 0.892710
0.055106 0.036750 0.892566
0.055103 0.036738 0.892502
0.055099 0.036711 0.892367
0.127121 0.024466 0.841072
0.971581 0.083813 0.784759
0.959996 0.304090 0.581159
0.961072 0.346950 0.658370
0.958515 0.562576 0.680143
0.055103 0.036736 0.892494
0.055098 0.036707 0.892349
0.055096 0.036695 0.892285
0.055091 0.036668 0.892150
0.267470 0.013772 0.814368
0.971322 0.096814 0.777127
0.959867 0.304459 0.580100
0.960573 0.410545 0.685860
0.958644 0.581402 0.686708
0.055100 0.036717 0.892397
0.055095 0.036688 0.892253
0.055093 0.036675 0.892189
0.055088 0.036649 0.892053
0.313722 0.010272 0.807386
0.971200 0.102467 0.773701
0.963811 0.274786 0.665848
0.961350 0.433064 0.695292
0.959092 0.589180 0.689657
0.055093 0.036676 0.892194
0.055088 0.036648 0.892050
0.055086 0.036635 0.891985
0.055081 0.036608 0.891850
0.356983 0.011288 0.839945
0.940302 0.028173 0.886923
0.965923 0.332478 0.749454
0.960913 0.475551 0.710097
0.959723 0.604455 0.694861
0.064854 0.509660 0.942641
0.064761 0.514924 0.941643
0.064719 0.517234 0.941206
0.064708 0.521862 0.940415
0.224320 0.413616 0.951266
0.776720 0.376804 0.931767
0.967796 0.460805 0.853529
0.961296 0.557890 0.734129
0.961123 0.640043 0.706048
0.080528 0.804454 0.883497
0.079982 0.800063 0.885354
0.078153 0.783692 0.888492
0.076355 0.764048 0.892477
0.173562 0.728286 0.896456
0.657241 0.694633 0.914561
0.957362 0.673875 0.890440
0.965016 0.680442 0.767003
0.962701 0.706643 0.727485
0.087953 0.906423 0.828750
0.087526 0.901652 0.822383
0.087376 0.899651 0.820133
0.084503 0.897080 0.816198
0.223534 0.888545 0.823390
0.542725 0.874254 0.847092
0.851432 0.854252 0.851593
0.971481 0.817142 0.799139
0.966660 0.795042 0.731813
0.207905 0.985763 0.701964
0.239028 0.985642 0.705670
0.252431 0.985590 0.707261
0.279930 0.985481 0.710516
0.347233 0.986063 0.717954
0.503137 0.985936 0.732774
0.740141 0.981234 0.746855
0.961249 0.960138 0.726975
0.969692 0.915166 0.679074
0.596172 0.994432 0.626615
0.602745 0.994614 0.626658
0.605632 0.994694 0.626675
0.611664 0.994862 0.626704
0.625510 0.995254 0.625174
0.657685 0.996207 0.618568
0.728773 0.997984 0.597593
0.870413 0.999743 0.564001
0.959410 0.999529 0.436615
0.062506 0.070187 0.999689
0.062506 0.070180 0.999688
0.062505 0.070177 0.999687
0.062505 0.070170 0.999686
0.062505 0.070151 0.999682
0.568969 0.019978 0.995690
0.968961 0.240191 0.746791
0.962902 0.279989 0.651799
0.965225 0.462032 0.803360
0.062505 0.070176 0.999687
0.062505 0.070169 0.999686
0.062505 0.070166 0.999685
0.062505 0.070159 0.999684
0.062504 0.070140 0.999680
0.629754 0.011601 0.994996
0.968757 0.240710 0.745626
0.964164 0.274907 0.665540
0.965637 0.488384 0.810160
0.062505 0.070171 0.999686
0.062505 0.070164 0.999685
0.062505 0.070161 0.999684
0.062505 0.070154 0.999683
0.062504 0.070135 0.999679
0.652989 0.008326 0.995043
0.968667 0.240937 0.745114
0.969759 0.236500 0.754245
0.965598 0.499528 0.812433
0.062505 0.070161 0.999684
0.062505 0.070154 0.999683
0.062505 0.070150 0.999682
0.062504 0.070143 0.999681
0.062504 0.070124 0.999677
0.696651 0.002816 0.995233
0.968481 0.241413 0.744042
0.970423 0.289714 0.811217
0.965603 0.519959 0.816860
0.062535 0.071686 1.000000
0.062535 0.071686 1.000000
0.062535 0.071686 1.000000
0.062575 0.071516 0.999925
0.062907 0.070099 0.999300
0.619525 0.035997 0.999455
0.980749 0.213331 0.989748
0.969071 0.428615 0.852279
0.966486 0.567140 0.826192
0.067290 0.654391 0.917180
0.067323 0.656610 0.916732
0.067337 0.657591 0.916534
0.067368 0.659655 0.916117
0.067454 0.665277 0.914983
0.381797 0.574131 0.971148
0.912315 0.562672 0.999078
0.970561 0.604273 0.887459
0.968528 0.654455 0.842347
0.098561 0.967587 0.854670
0.091495 0.914201 0.863935
0.088608 0.882285 0.869115
0.084085 0.847827 0.875518
0.082933 0.829169 0.879363
0.333717 0.811592 0.916014
0.764859 0.798652 0.981045
0.979193 0.775329 0.950202
0.974168 0.771881 0.863872
0.099145 0.962303 0.856168
0.099177 0.961129 0.855787
0.099204 0.960631 0.855592
0.099261 0.959626 0.855198
0.118288 0.957870 0.857744
0.327061 0.952226 0.884467
0.643494 0.942607 0.917200
0.923843 0.925938 0.923650
0.981172 0.896270 0.878539
0.467257 0.984236 0.839586
0.476063 0.984496 0.839805
0.479931 0.984611 0.839901
0.488011 0.984850 0.840101
0.509686 0.985493 0.840636
0.564041 0.986954 0.841837
0.676431 0.989886 0.840959
0.843348 0.996536 0.846709
0.983818 0.999449 0.813767
0.062535 0.071686 1.000000
0.062535 0.071686 1.000000
0.062535 0.071686 1.000000
0.062535 0.071686 1.000000
0.062535 0.071686 1.000000
0.062535 0.071686 1.000000
0.934348 0.000034 0.999180
0.975146 0.196878 0.825580
0.967025 0.249582 0.727321
0.062535 0.071686 1.000000
0.062535 0.071686 1.000000
0.062535 0.071686 1.000000
0.062535 0.071686 1.000000
0.062535 0.071686 1.000000
0.062535 0.071686 1.000000
0.950186 0.000035 0.999141
0.975059 0.197194 0.825135
0.972182 0.211590 0.800908
0.062535 0.071686 1.000000
0.062535 0.071686 1.000000
0.062535 0.071686 1.000000
0.062535 0.071686 1.000000
0.062535 0.071686 1.000000
0.062535 0.071686 1.000000
0.956942 0.000035 0.999124
0.975020 0.197335 0.824938
0.977171 0.174568 0.860556
0.062535 0.071686 1.000000
0.062535 0.071686 1.000000
0.062535 0.071686 1.000000
0.062535 0.071686 1.000000
0.062535 0.071686 1.000000
0.062535 0.071686 1.000000
0.968698 0.000031 0.999076
0.974939 0.197630 0.824523
0.977292 0.212471 0.905614
0.062535 0.071686 1.000000
0.062535 0.071686 1.000000
0.062535 0.071686 1.000000
0.062535 0.071686 1.000000
0.062535 0.071686 1.000000
0.062535 0.071686 1.000000
0.989805 0.000001 0.998894
0.974717 0.198436 0.823390
0.974859 0.325962 0.939799
0.062927 0.070012 0.999261
0.062927 0.070012 0.999261
0.062927 0.070012 0.999261
0.062927 0.070012 0.999261
0.063012 0.070022 0.999288
0.074839 0.070113 0.999660
0.757789 0.041318 0.999934
0.976591 0.350817 0.999138
0.973672 0.502641 0.963326
0.094876 0.931442 0.859957
0.094948 0.931859 0.859888
0.094980 0.932043 0.859857
0.095047 0.932433 0.859791
0.095232 0.933501 0.859612
0.095736 0.936413 0.859127
0.514320 0.660477 0.970034
0.960077 0.679743 0.999501
0.977533 0.691465 0.980956
0.099725 0.979766 0.852699
0.099725 0.979766 0.852699
0.099725 0.979766 0.852699
0.099725 0.979766 0.852699
0.099919 0.978834 0.852777
0.096252 0.946837 0.857786
0.465184 0.892491 0.920359
0.844393 0.868326 0.985076
0.986081 0.854564 0.989796
0.215383 0.980254 0.868732
0.229247 0.980277 0.870970
0.235316 0.980288 0.871949
0.247953 0.980309 0.873989
0.281588 0.980368 0.879419
0.357090 0.981266 0.891111
0.517769 0.983690 0.914026
0.754651 0.989669 0.954047
0.984256 0.988980 0.986792
