output/AppleLog2_display/AppleLog2_to_CLASSIC-Neg._33grid.cube
TITLE "AppleLog2_to_CLASSIC-Neg."
# Input: Apple Log 2 (Apple Gamut primaries, D65)
# Output: BT.709 / Gamma 2.2 (display-referred)
# Use: Display LUT for iPhone 17 Pro Apple Log 2 footage
# Source: FLog2C_to_CLASSIC-Neg._65grid_V.1.00.cube
# Generated from Fujifilm GFX ETERNA 55 F-Log2C LUT
LUT_3D_SIZE 33
0.000129 0.000120 0.000052
0.000129 0.000120 0.000052
0.000129 0.000120 0.000052
0.000129 0.000120 0.000052
0.000129 0.000120 0.000052
0.000129 0.000120 0.000052
0.000129 0.000120 0.000052
0.000129 0.000120 0.000052
0.029791 0.002169 0.000350
0.075901 0.005857 0.000609
0.125835 0.009702 0.000042
0.205019 0.015230 0.000005
0.327085 0.026846 0.000086
0.513710 0.042706 0.000407
0.707288 0.063882 0.000025
0.832495 0.085632 0.004161
0.903508 0.110902 0.043922
0.939678 0.141873 0.118430
0.945303 0.184900 0.185452
0.948392 0.242579 0.238887
0.951060 0.281893 0.277250
0.951060 0.281893 0.277250
0.951060 0.281893 0.277250
0.951060 0.281893 0.277250
0.951060 0.281893 0.277250
0.951060 0.281893 0.277250
0.952587 0.303214 0.273705
0.952210 0.334304 0.270666
0.952751 0.366574 0.264296
0.953764 0.402128 0.258947
0.954475 0.438911 0.251965
0.955135 0.479473 0.243919
0.955843 0.520570 0.232908
0.000129 0.000120 0.000052
0.000129 0.000120 0.000052
0.000129 0.000120 0.000052
0.000129 0.000120 0.000052
0.000129 0.000120 0.000052
0.000129 0.000120 0.000052
0.011722 0.000940 0.000015
0.043248 0.003478 0.000770
0.076763 0.005935 0.000604
0.115024 0.009397 0.000042
0.171230 0.012410 0.000021
0.259545 0.020789 0.000233
0.395216 0.032216 0.000469
0.579130 0.049385 0.000033
0.746949 0.068579 0.000050
0.849240 0.090994 0.009393
0.911214 0.115748 0.053971
0.941524 0.145676 0.127756
0.945476 0.189731 0.190564
0.948619 0.247216 0.243228
0.951060 0.281893 0.277250
0.951060 0.281893 0.277250
0.951060 0.281893 0.277250
0.951060 0.281893 0.277250
0.950610 0.287707 0.275733
0.952011 0.309033 0.272804
0.951919 0.333276 0.269718
0.953541 0.360584 0.266916
0.953408 0.388318 0.259559
0.953588 0.420155 0.254683
0.954622 0.454603 0.248519
0.955326 0.492661 0.241082
0.956657 0.530883 0.229616
0.000129 0.000120 0.000052
0.000129 0.000120 0.000052
0.000129 0.000120 0.000052
0.000129 0.000120 0.000052
0.000129 0.000120 0.000052
0.002964 0.000294 0.000000
0.031082 0.002298 0.000393
0.062908 0.004677 0.000688
0.092669 0.007692 0.000322
0.132014 0.009876 0.000042
0.194101 0.014319 0.000010
0.283653 0.023118 0.000255
0.423555 0.034358 0.000752
0.604113 0.052151 0.000024
0.760632 0.070559 0.000054
0.855932 0.093137 0.011484
0.914318 0.117700 0.058019
0.941804 0.147524 0.131169
0.945547 0.191699 0.192646
0.947370 0.229139 0.228127
0.949424 0.253364 0.252260
0.951043 0.281478 0.276882
0.951060 0.281893 0.277250
0.950898 0.285788 0.276273
0.950975 0.302374 0.272744
0.951713 0.322652 0.271296
0.952350 0.345175 0.267911
0.953815 0.371166 0.265109
0.953496 0.397153 0.257927
0.953440 0.427176 0.252975
0.954593 0.460940 0.246985
0.955540 0.497754 0.239674
0.956645 0.535343 0.228382
0.000129 0.000120 0.000052
0.000129 0.000120 0.000052
0.000129 0.000120 0.000052
0.000129 0.000120 0.000052
0.000129 0.000120 0.000052
0.013898 0.001024 0.000025
0.048192 0.003779 0.000749
0.075740 0.005842 0.000610
0.104197 0.009091 0.000041
0.147069 0.010814 0.000034
0.210628 0.015698 0.000002
0.304528 0.024910 0.000174
0.444504 0.035941 0.000961
0.622730 0.054213 0.000017
0.769215 0.072146 0.000052
0.860977 0.094752 0.013060
0.916667 0.119178 0.061083
0.940074 0.138190 0.108829
0.943312 0.156993 0.157481
0.945279 0.187853 0.188355
0.947955 0.220250 0.220891
0.949655 0.257079 0.256142
0.951001 0.281219 0.273163
0.951847 0.297259 0.274357
0.951725 0.315105 0.272252
0.951741 0.332788 0.269920
0.952798 0.354266 0.266729
0.953667 0.379210 0.263539
0.953390 0.404343 0.257141
0.953478 0.432658 0.251836
0.954573 0.465663 0.245843
0.955700 0.501576 0.238617
0.956589 0.538754 0.227464
0.000129 0.000120 0.000052
0.000129 0.000120 0.000052
0.000129 0.000120 0.000052
0.000129 0.000120 0.000052
0.000129 0.000120 0.000052
0.025696 0.001763 0.000214
0.060787 0.004547 0.000696
0.085999 0.006881 0.000485
0.115986 0.009424 0.000042
0.159122 0.011572 0.000027
0.225420 0.017157 0.000052
0.321498 0.026366 0.000108
0.451256 0.036962 0.000701
0.600785 0.051562 0.000313
0.730272 0.065289 0.000235
0.821158 0.081782 0.000030
0.876883 0.101531 0.020825
0.917508 0.120520 0.062130
0.939859 0.140596 0.117237
0.943498 0.167027 0.165584
0.946468 0.201507 0.200611
0.948203 0.245116 0.238891
0.951133 0.288290 0.267934
0.952182 0.308998 0.272790
0.952084 0.325086 0.271706
0.952306 0.341542 0.268497
0.953167 0.361722 0.265363
0.953552 0.385664 0.262279
0.953305 0.410175 0.256498
0.953831 0.437785 0.251175
0.954557 0.469553 0.244901
0.955832 0.504742 0.237741
0.956542 0.541591 0.226700
0.000091 0.002547 0.000086
0.000163 0.005703 0.000286
0.000121 0.007218 0.000692
0.000089 0.008346 0.000994
0.000175 0.007694 0.000476
0.021392 0.006270 0.000308
0.052315 0.007125 0.000084
0.078781 0.008116 0.000161
0.103270 0.009464 0.000040
0.135757 0.011057 0.000120
0.185647 0.015391 0.000280
0.252688 0.019829 0.000133
0.355049 0.028082 0.000003
0.492357 0.040156 0.000001
0.646417 0.055769 0.000056
0.769002 0.071921 0.000172
0.846215 0.089407 0.007985
0.897411 0.108602 0.039269
0.935647 0.132783 0.087655
0.942505 0.159433 0.146515
0.945785 0.196555 0.187361
0.948174 0.244474 0.224664
0.951064 0.294921 0.262307
0.952159 0.318438 0.271552
0.951897 0.332149 0.269758
0.952757 0.348763 0.267293
0.953487 0.368007 0.264142
0.953637 0.390985 0.261053
0.953233 0.415152 0.255944
0.954136 0.442193 0.250609
0.954573 0.472996 0.244074
0.955946 0.507490 0.236980
0.956501 0.544061 0.226035
0.000000 0.022024 0.004903
0.000389 0.028927 0.006397
0.000565 0.031788 0.006996
0.000698 0.033935 0.007445
0.000079 0.029301 0.004994
0.010810 0.023143 0.000567
0.036471 0.021222 0.000196
0.062004 0.022706 0.000015
0.088724 0.023046 0.000001
0.119771 0.022754 0.000047
0.160405 0.024707 0.000108
0.219649 0.027903 0.000704
0.304208 0.034234 0.000072
0.427334 0.044395 0.000009
0.584190 0.056623 0.000091
0.725485 0.075694 0.000039
0.820642 0.091360 0.000252
0.882617 0.112804 0.025221
0.924838 0.138557 0.069658
0.941786 0.165849 0.129968
0.945026 0.201640 0.176585
0.947785 0.246696 0.213521
0.950420 0.296967 0.252986
0.951884 0.325947 0.270524
0.951824 0.338441 0.268237
0.953120 0.354924 0.266214
0.953771 0.373446 0.263084
0.953769 0.395589 0.259930
0.953171 0.419527 0.255453
0.954407 0.446096 0.250108
0.954644 0.476218 0.243311
0.956047 0.509942 0.236301
0.956464 0.546271 0.225440
0.001194 0.049792 0.010590
0.001274 0.055171 0.011625
0.001269 0.057478 0.012304
0.001261 0.059239 0.012852
0.000479 0.050031 0.007670
0.004697 0.044331 0.005535
0.026773 0.041912 0.002896
0.052118 0.040444 0.000737
0.077713 0.040416 0.000030
0.107466 0.040483 0.000132
0.144571 0.040535 0.000099
0.198390 0.044417 0.000051
0.275262 0.048923 0.000381
0.387002 0.059287 0.000012
0.539476 0.071678 0.000213
0.691342 0.088658 0.000006
0.799681 0.105420 0.000022
0.869678 0.127654 0.017327
0.916241 0.149242 0.057824
0.940322 0.176071 0.114342
0.944839 0.207691 0.167145
0.947002 0.249299 0.204479
0.949816 0.298464 0.244380
0.951873 0.332117 0.268118
0.952204 0.345660 0.267488
0.953449 0.360420 0.265256
0.953857 0.378548 0.262102
0.953889 0.399770 0.258912
0.953375 0.423439 0.254847
0.954657 0.449679 0.249650
0.954709 0.479186 0.242608
0.956140 0.512210 0.235673
0.956430 0.548320 0.224888
0.001385 0.077424 0.017870
0.001595 0.082459 0.018726
0.001679 0.084487 0.019071
0.001743 0.086023 0.019332
0.001232 0.071334 0.011597
0.003535 0.066455 0.009339
0.019936 0.061446 0.005933
0.042692 0.059719 0.003169
0.068024 0.059140 0.001117
0.099068 0.059883 0.000635
0.131955 0.060533 0.000065
0.180108 0.062397 0.000202
0.249481 0.065988 0.000098
0.350233 0.075759 0.000443
0.496473 0.088859 0.000225
0.651899 0.104380 0.000037
0.776010 0.120893 0.000016
0.854425 0.139006 0.009629
0.906690 0.161594 0.045576
0.938382 0.187076 0.098932
0.944629 0.216751 0.156473
0.947400 0.253709 0.194660
0.949822 0.302476 0.235635
0.952174 0.338566 0.263361
0.952642 0.353819 0.266641
0.953759 0.367051 0.264196
0.953802 0.384606 0.260946
0.954028 0.404627 0.257731
0.953775 0.427957 0.254040
0.954951 0.453887 0.249113
0.954786 0.482686 0.241778
0.956251 0.514893 0.234929
0.956389 0.550751 0.224234
0.002862 0.106470 0.024918
0.003076 0.110561 0.025968
0.003161 0.112567 0.026342
0.002699 0.108936 0.020435
0.002824 0.095310 0.015220
0.002049 0.088567 0.013696
0.009667 0.085892 0.012590
0.031279 0.083086 0.008281
0.058996 0.082230 0.004674
0.087550 0.082217 0.001774
0.121588 0.082160 0.000190
0.164212 0.083979 0.000453
0.227040 0.088428 0.000715
0.319181 0.095447 0.000571
0.453471 0.106593 0.000136
0.610191 0.121211 0.000002
0.749751 0.137084 0.000000
0.838172 0.155302 0.005295
0.894989 0.175817 0.032836
0.934998 0.200250 0.081833
0.944485 0.227942 0.142266
0.947097 0.261879 0.184201
0.949714 0.307784 0.224727
0.952376 0.346452 0.258129
0.953027 0.363777 0.264952
0.953898 0.376325 0.262998
0.953731 0.392051 0.259527
0.954202 0.411023 0.256386
0.954274 0.433604 0.253031
0.955323 0.459180 0.248439
0.954882 0.487108 0.240729
0.956256 0.518522 0.233921
0.956336 0.553845 0.223401
0.003825 0.144640 0.032127
0.003770 0.148689 0.032821
0.003747 0.150337 0.033103
0.003183 0.133123 0.024968
0.002392 0.120043 0.018489
0.002903 0.113420 0.018038
0.005706 0.109736 0.017677
0.021674 0.107896 0.014207
0.046664 0.107017 0.010554
0.076742 0.106477 0.006397
0.109698 0.105934 0.002033
0.149965 0.107764 0.000438
0.206326 0.110088 0.000116
0.288738 0.115633 0.000126
0.410991 0.125616 0.000390
0.567929 0.139630 0.000251
0.716298 0.154003 0.000141
0.817306 0.172727 0.000243
0.882258 0.192123 0.020233
0.926551 0.217802 0.066851
0.944448 0.244901 0.125900
0.946750 0.275025 0.171785
0.949338 0.315175 0.211417
0.952513 0.355964 0.252630
0.953390 0.375667 0.262570
0.954045 0.387499 0.261554
0.953570 0.402047 0.258198
0.954417 0.419638 0.254973
0.954889 0.440609 0.251780
0.955226 0.465759 0.246962
0.955002 0.492666 0.239409
0.956149 0.523301 0.232594
0.956269 0.557770 0.222344
0.005223 0.190695 0.042230
0.005502 0.195164 0.043014
0.005764 0.189458 0.039139
0.004191 0.164111 0.027189
0.004238 0.150055 0.023667
0.003824 0.143316 0.022927
0.005680 0.138853 0.022157
0.012568 0.135672 0.020551
0.032111 0.134403 0.017410
0.064484 0.132729 0.012308
0.097968 0.132274 0.007559
0.136376 0.133451 0.002844
0.189987 0.135003 0.000042
0.263783 0.138758 0.000054
0.374664 0.146897 0.000003
0.522290 0.160022 0.000065
0.677404 0.175905 0.000002
0.793919 0.193032 0.000008
0.868024 0.215011 0.008402
0.916146 0.238699 0.049290
0.942541 0.266273 0.106739
0.946981 0.294006 0.157395
0.948850 0.327091 0.198014
0.952339 0.368635 0.242303
0.953550 0.391079 0.260378
0.953333 0.402021 0.259448
0.953272 0.415455 0.257187
0.954673 0.430113 0.253259
0.955218 0.449761 0.249885
0.955060 0.473912 0.245078
0.955151 0.499607 0.237758
0.956018 0.529307 0.230929
0.956183 0.562729 0.221009
0.007964 0.253180 0.051890
0.008082 0.257299 0.052457
0.006527 0.222763 0.037817
0.005969 0.198965 0.031551
0.005738 0.185572 0.029671
0.005033 0.179512 0.029173
0.005136 0.174477 0.028450
0.005302 0.170454 0.027072
0.024458 0.167953 0.024687
0.051879 0.165731 0.020634
0.085595 0.164413 0.014934
0.123322 0.164722 0.009728
0.172036 0.165217 0.004060
0.239462 0.169028 0.000074
0.342080 0.175522 0.000264
0.480401 0.187155 0.000003
0.636725 0.201904 0.000018
0.768182 0.219302 0.000008
0.850388 0.239946 0.003831
0.905216 0.264123 0.034024
0.939538 0.291984 0.087017
0.947008 0.320185 0.144357
0.949492 0.345920 0.183928
0.951172 0.382529 0.227744
0.953688 0.409576 0.257388
0.953254 0.418850 0.256373
0.953580 0.430673 0.254866
0.954953 0.443685 0.250750
0.954952 0.461742 0.247023
0.954853 0.483929 0.242759
0.955395 0.508553 0.235544
0.955860 0.536809 0.228857
0.956373 0.568872 0.219101
0.011005 0.336058 0.064407
0.009338 0.315815 0.056367
0.008210 0.265424 0.044180
0.007060 0.242908 0.039254
0.006576 0.231389 0.037330
0.006394 0.223516 0.036434
0.006551 0.218088 0.036047
0.007934 0.213115 0.034791
0.016367 0.209492 0.032719
0.035748 0.206868 0.029290
0.074800 0.205346 0.023431
0.112620 0.203250 0.017113
0.157687 0.203712 0.011980
0.222559 0.206412 0.004535
0.313283 0.211069 0.000514
0.441225 0.219928 0.000002
0.597427 0.234695 0.000080
0.739540 0.251626 0.000023
0.832667 0.270977 0.000690
0.893848 0.295756 0.017926
0.934211 0.323612 0.066570
0.947092 0.351648 0.125872
0.949321 0.371343 0.166688
0.951479 0.402241 0.210126
0.953674 0.430159 0.249204
0.954162 0.438351 0.252079
0.954692 0.447666 0.250841
0.955279 0.460136 0.247611
0.954791 0.476339 0.243607
0.955109 0.496464 0.239163
0.955723 0.519692 0.232746
0.955673 0.546106 0.226298
0.956835 0.576473 0.216553
0.013941 0.436969 0.077645
0.010477 0.357005 0.059458
0.009312 0.317035 0.052266
0.008900 0.297612 0.048356
0.008304 0.286664 0.046366
0.008433 0.278775 0.045337
0.008463 0.272858 0.044713
0.007939 0.268559 0.044516
0.012761 0.263996 0.042731
0.023739 0.258856 0.039116
0.059738 0.255580 0.033607
0.098607 0.254278 0.028698
0.143103 0.253312 0.022012
0.203564 0.253209 0.013565
0.285090 0.255939 0.004023
0.409624 0.265082 0.000544
0.561339 0.276947 0.000119
0.707682 0.294948 0.000122
0.811094 0.311632 0.000000
0.879981 0.334957 0.006115
0.924296 0.362163 0.048143
0.946924 0.390598 0.104645
0.949253 0.406304 0.149294
0.951188 0.428143 0.192207
0.953762 0.453487 0.233022
0.954614 0.463288 0.247165
0.954848 0.471365 0.245668
0.955233 0.481599 0.243140
0.955395 0.494756 0.239610
0.955744 0.511725 0.234378
0.956126 0.533225 0.229337
0.955782 0.558144 0.222640
0.957416 0.585887 0.213400
0.017400 0.556816 0.093521
0.012781 0.409815 0.067475
0.011987 0.378601 0.061867
0.011525 0.363538 0.059607
0.011256 0.352438 0.057558
0.010685 0.345283 0.056081
0.010498 0.339706 0.055110
0.010495 0.335071 0.054385
0.011743 0.330159 0.053665
0.014382 0.324588 0.052928
0.044986 0.320746 0.048497
0.085172 0.317752 0.041661
0.131136 0.315215 0.033805
0.187931 0.313356 0.026712
0.265842 0.314911 0.015939
0.378492 0.322089 0.004797
0.525602 0.332143 0.000000
0.677803 0.348161 0.000036
0.792828 0.364599 0.000000
0.864405 0.385176 0.001390
0.913079 0.410986 0.030347
0.944676 0.437746 0.082113
0.950274 0.453308 0.131415
0.951605 0.464043 0.171019
0.954173 0.483649 0.215991
0.954937 0.493266 0.240883
0.955869 0.498304 0.239217
0.955538 0.506177 0.237081
0.955619 0.516794 0.234157
0.955910 0.531245 0.229406
0.956403 0.550692 0.224495
0.956030 0.572976 0.218028
0.958141 0.597439 0.209536
0.017868 0.576812 0.095548
0.014462 0.475393 0.078951
0.014231 0.453528 0.074347
0.013575 0.440193 0.072822
0.013389 0.431903 0.071365
0.013241 0.425176 0.070223
0.013106 0.419179 0.069329
0.012992 0.413898 0.068534
0.014149 0.409177 0.067339
0.015692 0.403838 0.065850
0.035623 0.399441 0.062387
0.067828 0.395228 0.057250
0.116070 0.391454 0.049323
0.170384 0.388573 0.041581
0.244625 0.388520 0.031817
0.349199 0.391785 0.017796
0.494569 0.399779 0.003225
0.647133 0.412545 0.000071
0.773149 0.430099 0.000660
0.850682 0.446576 0.000055
0.903539 0.466737 0.010893
0.940299 0.490286 0.058707
0.951443 0.508369 0.114526
0.951589 0.509601 0.149078
0.954221 0.521165 0.193457
0.956147 0.528473 0.229816
0.956073 0.530228 0.229693
0.955972 0.534910 0.229439
0.955655 0.543292 0.226923
0.955945 0.554935 0.223885
0.956732 0.571433 0.218569
0.956424 0.590823 0.212465
0.957786 0.612814 0.204565
0.019328 0.611087 0.101730
0.017792 0.550748 0.091310
0.017175 0.536328 0.089600
0.016224 0.526711 0.087527
0.015580 0.519338 0.085969
0.015511 0.513521 0.085117
0.015443 0.508570 0.084389
0.015328 0.504344 0.083636
0.015149 0.499713 0.082683
0.014932 0.494117 0.081542
0.029236 0.489328 0.078821
0.051138 0.484228 0.075200
0.101115 0.480589 0.068929
0.155866 0.476893 0.059249
0.227706 0.474615 0.048270
0.327841 0.476610 0.035160
0.464578 0.481679 0.016307
0.620263 0.491884 0.000443
0.749653 0.504601 0.000023
0.837937 0.517438 0.000000
0.893625 0.533056 0.005503
0.932230 0.551232 0.036953
0.951010 0.567474 0.087387
0.953198 0.565084 0.126632
0.954081 0.565415 0.166977
0.956626 0.568540 0.211290
0.955474 0.567511 0.219299
0.956918 0.568979 0.219529
0.956240 0.575037 0.217847
0.957249 0.582540 0.216912
0.957157 0.595646 0.210679
0.957009 0.612067 0.205772
0.957308 0.631322 0.198589
0.020879 0.665763 0.110758
0.020376 0.632917 0.104938
0.019567 0.621528 0.102388
0.019115 0.614069 0.100950
0.018875 0.608700 0.100149
0.018671 0.604232 0.099474
0.018550 0.600503 0.099045
0.018456 0.597188 0.098694
0.018355 0.593394 0.098298
0.020010 0.588946 0.097424
0.024712 0.583847 0.095744
0.038992 0.578432 0.092679
0.086154 0.574438 0.085462
0.140274 0.571109 0.077625
0.209094 0.568664 0.067840
0.304693 0.568137 0.054524
0.435466 0.571396 0.037287
0.588302 0.578277 0.016704
0.727079 0.587335 0.003099
0.824089 0.597572 0.000070
0.882861 0.606641 0.005160
0.925374 0.617911 0.027341
0.949938 0.632023 0.065230
0.953679 0.628025 0.101146
0.954699 0.621109 0.139092
0.956314 0.614446 0.184073
0.957870 0.610134 0.205892
0.957626 0.608397 0.206476
0.956917 0.609749 0.206059
0.957534 0.615335 0.205167
0.957255 0.624023 0.200978
0.957537 0.637133 0.196907
0.957450 0.653271 0.189656
0.022703 0.725232 0.120212
0.022284 0.705547 0.118150
0.022006 0.699138 0.117087
0.021765 0.694632 0.116292
0.021707 0.690841 0.115523
0.021739 0.687546 0.114808
0.021770 0.684684 0.114190
0.021802 0.682102 0.113634
0.022440 0.679322 0.112980
0.023679 0.676068 0.112167
0.025031 0.672085 0.111185
0.041540 0.668355 0.108238
0.074221 0.664864 0.103211
0.124096 0.661620 0.095885
0.191330 0.659024 0.085976
0.279559 0.658679 0.072348
0.404499 0.661089 0.056243
0.560382 0.665221 0.035654
0.704000 0.670894 0.015161
0.806776 0.675333 0.003733
0.872508 0.682271 0.003322
0.916122 0.688522 0.020445
0.946987 0.696182 0.050409
0.954586 0.693872 0.080009
0.955173 0.680228 0.107453
0.956495 0.667088 0.152049
0.957550 0.655357 0.187879
0.957439 0.651381 0.188976
0.957052 0.650052 0.190424
0.957880 0.651880 0.191461
0.957456 0.656907 0.188102
0.957658 0.666032 0.184613
0.957810 0.678446 0.178705
0.024977 0.777547 0.129719
0.024252 0.766416 0.127625
0.024091 0.762169 0.126895
0.024096 0.758922 0.126416
0.024101 0.756300 0.126028
0.024103 0.754078 0.125697
0.024077 0.752306 0.125378
0.024052 0.750696 0.125090
0.024023 0.748823 0.124758
0.023987 0.746495 0.124350
0.027737 0.743842 0.123351
0.040676 0.741069 0.121013
0.055745 0.737685 0.118239
0.106083 0.736637 0.111543
0.172600 0.736010 0.102650
0.256569 0.735399 0.089984
0.375226 0.737345 0.073225
0.524829 0.741540 0.053095
0.674509 0.745419 0.033846
0.791350 0.748767 0.017359
0.860715 0.752242 0.008951
0.906550 0.754666 0.013061
0.941537 0.757274 0.037717
0.955653 0.755401 0.065046
0.956032 0.739704 0.077215
0.956521 0.722239 0.113953
0.957330 0.704844 0.159450
0.957990 0.696317 0.170123
0.958151 0.692465 0.171817
0.957401 0.691300 0.173443
0.958374 0.692773 0.171632
0.957495 0.698225 0.168205
0.958448 0.706470 0.165027
0.025507 0.822690 0.136702
0.025718 0.815611 0.135533
0.025827 0.812953 0.135149
0.026021 0.810749 0.134947
0.026181 0.808950 0.134784
0.026318 0.807411 0.134643
0.026439 0.806054 0.134519
0.026549 0.804813 0.134405
0.026725 0.803442 0.134198
0.027165 0.802113 0.133591
0.027702 0.800462 0.132840
0.028349 0.798429 0.131920
0.045076 0.796732 0.129079
0.090942 0.795946 0.122886
0.149489 0.795390 0.114851
0.231573 0.795941 0.103226
0.344149 0.798094 0.087998
0.485924 0.801735 0.069093
0.639244 0.806347 0.048375
0.763040 0.810078 0.031132
0.844991 0.811100 0.020473
0.897289 0.811036 0.013487
0.932403 0.811285 0.024168
0.953861 0.808765 0.051512
0.955482 0.797127 0.060723
0.957166 0.777221 0.076868
0.957121 0.755698 0.116214
0.958796 0.741127 0.141863
0.958553 0.735674 0.146661
0.957615 0.732255 0.149158
0.958443 0.730814 0.150133
0.958275 0.732520 0.149081
0.959288 0.737324 0.145974
0.026971 0.860146 0.143393
0.026903 0.855963 0.142966
0.026928 0.854400 0.142855
0.026950 0.853241 0.142773
0.027057 0.852198 0.142511
0.027205 0.851224 0.142124
0.027321 0.850360 0.141782
0.027414 0.849564 0.141469
0.027505 0.848627 0.141100
0.027592 0.847445 0.140638
0.027656 0.845962 0.140062
0.038385 0.844919 0.138554
0.058307 0.844111 0.136203
0.082399 0.843113 0.133352
0.134437 0.843407 0.126359
0.209694 0.844625 0.115999
0.314383 0.846816 0.101709
0.446909 0.850193 0.083767
0.606263 0.855182 0.062292
0.740830 0.858905 0.043279
0.830533 0.859888 0.031227
0.885363 0.859255 0.024052
0.923668 0.858295 0.020440
0.952417 0.857277 0.034800
0.957444 0.844701 0.046498
0.956834 0.826887 0.052940
0.957014 0.805211 0.075850
0.958186 0.786105 0.109116
0.958515 0.778004 0.117311
0.958809 0.772823 0.121120
0.958666 0.770167 0.123720
0.958763 0.768216 0.124682
0.958732 0.769480 0.122993
0.028201 0.891400 0.148766
0.028224 0.888349 0.148148
0.028253 0.887162 0.147987
0.028275 0.886275 0.147868
0.028294 0.885542 0.147771
0.028310 0.884907 0.147687
0.028324 0.884342 0.147613
0.029020 0.883863 0.147445
0.031819 0.883422 0.146956
0.035321 0.882862 0.146341
0.039668 0.882153 0.145572
0.045006 0.881259 0.144620
0.051470 0.880137 0.143453
0.077262 0.879940 0.139690
0.126600 0.880890 0.132771
0.186499 0.882067 0.124379
0.284433 0.884719 0.111504
0.405524 0.888434 0.095513
0.561740 0.894394 0.074667
0.703377 0.899675 0.056629
0.807948 0.901790 0.041635
0.873936 0.900988 0.032238
0.916917 0.899742 0.024803
0.944353 0.896916 0.023003
0.956426 0.887028 0.029960
0.957249 0.869982 0.037072
0.957468 0.849509 0.046532
0.957372 0.827694 0.073042
0.957112 0.818140 0.080198
0.957181 0.812349 0.084143
0.957526 0.807143 0.089384
0.957614 0.804068 0.091923
0.957770 0.802860 0.093573
0.029659 0.917533 0.152676
0.029427 0.915750 0.152006
0.029397 0.915049 0.152083
0.029375 0.914522 0.152140
0.029357 0.914084 0.152188
0.029341 0.913704 0.152229
0.029326 0.913364 0.152267
0.029313 0.913050 0.152301
0.029298 0.912678 0.152342
0.029278 0.912205 0.152394
0.029253 0.911606 0.152460
0.039298 0.911369 0.151062
0.057192 0.911344 0.148525
0.079182 0.911297 0.145400
0.105869 0.911215 0.141597
0.166456 0.912815 0.133230
0.256697 0.915791 0.120861
0.372197 0.920111 0.105580
0.518090 0.926156 0.086956
0.659213 0.931531 0.068344
0.776146 0.934748 0.052025
0.853880 0.935432 0.040653
0.901728 0.933277 0.033690
0.935422 0.929825 0.028603
0.953884 0.921642 0.025175
0.955324 0.907174 0.023607
0.955759 0.889437 0.027711
0.956550 0.868818 0.038664
0.957201 0.854528 0.045146
0.957313 0.847842 0.048025
0.957265 0.842853 0.051174
0.956918 0.837946 0.051675
0.957173 0.835136 0.058893
0.030165 0.937371 0.156303
0.030114 0.936191 0.156412
0.030094 0.935720 0.156456
0.031521 0.935456 0.156283
0.033832 0.935308 0.155979
0.035843 0.935179 0.155714
0.037642 0.935064 0.155478
0.039309 0.934957 0.155259
0.041285 0.934830 0.155000
0.043799 0.934668 0.154670
0.046984 0.934463 0.154254
0.051002 0.934205 0.153729
0.056042 0.933881 0.153073
0.065460 0.933670 0.151798
0.110978 0.935493 0.145252
0.166829 0.937721 0.137215
0.234546 0.940411 0.127463
0.343523 0.944852 0.113492
0.476073 0.950287 0.096627
0.614460 0.956022 0.078280
0.740448 0.959890 0.061475
0.831568 0.960665 0.048504
0.886224 0.959302 0.039406
0.924285 0.955747 0.034444
0.945397 0.949641 0.030131
0.951003 0.937790 0.027364
0.953944 0.922777 0.024621
0.955139 0.904070 0.024812
0.956300 0.887520 0.029079
0.956700 0.881931 0.032489
0.957162 0.875755 0.034713
0.957482 0.870344 0.035939
0.957050 0.866634 0.038304
0.033640 0.943943 0.157283
0.035874 0.943744 0.157284
0.036751 0.943663 0.157290
0.037405 0.943602 0.157297
0.037945 0.943551 0.157303
0.038411 0.943505 0.157310
0.038824 0.943465 0.157317
0.039205 0.943427 0.157325
0.039654 0.943382 0.157334
0.047542 0.943798 0.156252
0.057841 0.944344 0.154835
0.070907 0.945038 0.153036
0.087411 0.945915 0.150763
0.108149 0.947019 0.147906
0.134035 0.948399 0.144336
0.166081 0.950113 0.139912
0.234757 0.954081 0.130967
0.320416 0.959066 0.119827
0.427801 0.964875 0.105654
