output/AppleLog2_display/AppleLog2_to_REALA-ACE_33grid.cube
TITLE "AppleLog2_to_REALA-ACE"
# Input: Apple Log 2 (Apple Gamut primaries, D65)
# Output: BT.709 / Gamma 2.2 (display-referred)
# Use: Display LUT for iPhone 17 Pro Apple Log 2 footage
# Source: FLog2C_to_REALA-ACE_65grid_V.1.00.cube
# Generated from Fujifilm GFX ETERNA 55 F-Log2C LUT
LUT_3D_SIZE 33
0.000200 0.000111 0.000001
0.000200 0.000111 0.000001
0.000200 0.000111 0.000001
0.000200 0.000111 0.000001
0.000200 0.000111 0.000001
0.000200 0.000111 0.000001
0.000200 0.000111 0.000001
0.000200 0.000111 0.000001
0.025105 0.000096 0.000190
0.068184 0.000015 0.001150
0.142823 0.000049 0.003883
0.288339 0.000138 0.008281
0.433802 0.000050 0.022144
0.558619 0.000115 0.038798
0.678288 0.000230 0.063806
0.795999 0.018491 0.129038
0.890008 0.146243 0.251822
0.909236 0.185205 0.371109
0.919118 0.227903 0.424924
0.932322 0.288023 0.455766
0.940825 0.327148 0.473700
0.940825 0.327148 0.473700
0.940825 0.327148 0.473700
0.940825 0.327148 0.473700
0.940825 0.327148 0.473700
0.940825 0.327148 0.473700
0.945196 0.348418 0.456691
0.951468 0.378302 0.431640
0.959077 0.409866 0.401792
0.966741 0.444027 0.370429
0.973467 0.478879 0.334999
0.979878 0.516110 0.290885
0.981585 0.550061 0.232962
0.000200 0.000111 0.000001
0.000200 0.000111 0.000001
0.000200 0.000111 0.000001
0.000200 0.000111 0.000001
0.000200 0.000111 0.000001
0.000200 0.000111 0.000001
0.011534 0.001304 0.000338
0.036324 0.000191 0.000572
0.069268 0.000013 0.001003
0.123945 0.000048 0.002903
0.231025 0.000555 0.005831
0.363923 0.000125 0.016208
0.485119 0.000023 0.026609
0.597130 0.000214 0.046254
0.708708 0.000040 0.074605
0.815521 0.041219 0.151267
0.894587 0.153996 0.268788
0.910177 0.188742 0.383691
0.920065 0.232417 0.426974
0.933511 0.293282 0.458241
0.940825 0.327148 0.473700
0.940825 0.327148 0.473700
0.940825 0.327148 0.473700
0.940825 0.327148 0.473700
0.942172 0.333024 0.470798
0.946251 0.354103 0.453036
0.952330 0.376903 0.433477
0.958601 0.404173 0.410066
0.963808 0.430972 0.383732
0.970303 0.461331 0.351822
0.976058 0.493882 0.317683
0.981015 0.527833 0.274498
0.981990 0.558900 0.218136
0.000200 0.000111 0.000001
0.000200 0.000111 0.000001
0.000200 0.000111 0.000001
0.000200 0.000111 0.000001
0.000200 0.000111 0.000001
0.003275 0.000562 0.000146
0.026185 0.000106 0.000219
0.051866 0.000042 0.003332
0.089860 0.000023 0.000911
0.153612 0.000049 0.004442
0.269818 0.000273 0.007489
0.391639 0.000136 0.019078
0.503627 0.000033 0.028401
0.611439 0.000272 0.048146
0.720588 0.000050 0.079785
0.823323 0.050303 0.160152
0.896431 0.157120 0.275624
0.910652 0.190695 0.386690
0.920450 0.234256 0.427809
0.929196 0.275130 0.448934
0.934679 0.298972 0.463276
0.940458 0.327990 0.474271
0.940825 0.327148 0.473700
0.942117 0.331380 0.470225
0.945354 0.347877 0.456177
0.949070 0.366663 0.440662
0.955022 0.388940 0.422004
0.960981 0.414120 0.400892
0.965737 0.439356 0.376308
0.971787 0.468156 0.344419
0.977125 0.499993 0.310433
0.980995 0.532131 0.266873
0.982095 0.562765 0.211387
0.000200 0.000111 0.000001
0.000200 0.000111 0.000001
0.000200 0.000111 0.000001
0.000200 0.000111 0.000001
0.000200 0.000111 0.000001
0.012995 0.001007 0.000259
0.040232 0.000154 0.001266
0.067981 0.000015 0.001177
0.105039 0.000048 0.001921
0.183725 0.000280 0.004927
0.297852 0.000069 0.008688
0.411904 0.000095 0.020552
0.517308 0.000040 0.029725
0.622103 0.000316 0.049557
0.729371 0.000129 0.084429
0.829204 0.057150 0.166849
0.897827 0.159484 0.280797
0.908939 0.182168 0.354527
0.913930 0.201211 0.408068
0.920059 0.231413 0.427450
0.927131 0.264419 0.444659
0.935337 0.304736 0.463879
0.940567 0.326850 0.471087
0.944526 0.343300 0.462274
0.948284 0.359944 0.446799
0.951696 0.376352 0.432010
0.956903 0.398019 0.412943
0.962568 0.421439 0.393475
0.967237 0.446490 0.369055
0.972829 0.473397 0.338675
0.977921 0.504547 0.305032
0.980982 0.535357 0.261156
0.982166 0.565727 0.206185
0.000200 0.000111 0.000001
0.000200 0.000111 0.000001
0.000200 0.000111 0.000001
0.000200 0.000111 0.000001
0.000200 0.000111 0.000001
0.021681 0.000064 0.000101
0.050190 0.000058 0.003035
0.081085 0.000009 0.000326
0.125625 0.000048 0.002990
0.207892 0.000469 0.005301
0.319166 0.000034 0.010648
0.428378 0.000061 0.021750
0.521335 0.000021 0.031879
0.607857 0.000301 0.047051
0.696071 0.000004 0.069015
0.780742 0.000000 0.116027
0.852895 0.090802 0.195301
0.904463 0.169255 0.285489
0.910028 0.184002 0.366814
0.915380 0.209968 0.415812
0.922831 0.244428 0.432593
0.931240 0.289372 0.448841
0.941223 0.333331 0.460677
0.946917 0.353401 0.453333
0.950583 0.369211 0.440206
0.954113 0.385079 0.425660
0.958270 0.404844 0.406071
0.963839 0.427307 0.387510
0.968451 0.452275 0.363173
0.973569 0.478122 0.333378
0.978578 0.508299 0.300583
0.980972 0.538030 0.256421
0.982226 0.568189 0.201861
0.000001 0.003403 0.000207
0.000000 0.007470 0.000379
0.000000 0.009117 0.000282
0.000000 0.010343 0.000210
0.000083 0.009733 0.000067
0.021661 0.007107 0.000023
0.047430 0.003482 0.000133
0.073211 0.001096 0.000071
0.104295 0.000507 0.000252
0.158715 0.000135 0.003539
0.256515 0.000246 0.008370
0.356588 0.000172 0.017988
0.455027 0.000006 0.025874
0.546024 0.000025 0.036584
0.637112 0.000030 0.052801
0.728378 0.000283 0.081335
0.810442 0.036219 0.146483
0.878026 0.130553 0.233690
0.906374 0.175957 0.323434
0.913571 0.201324 0.394532
0.921836 0.238781 0.417990
0.931707 0.287329 0.434351
0.943186 0.340231 0.447842
0.948720 0.361641 0.445494
0.952070 0.375873 0.433279
0.956012 0.392220 0.419900
0.959392 0.410482 0.400391
0.964779 0.432284 0.382316
0.969483 0.457209 0.358155
0.974205 0.482186 0.328825
0.979056 0.511479 0.296507
0.980964 0.540350 0.252314
0.982277 0.570334 0.198096
0.000050 0.022047 0.000035
0.000037 0.027290 0.000023
0.000029 0.029455 0.000017
0.000023 0.031080 0.000012
0.000579 0.028178 0.000098
0.016017 0.023342 0.000165
0.037927 0.022068 0.000084
0.063707 0.020304 0.000105
0.098904 0.019499 0.000196
0.150475 0.013154 0.000083
0.233435 0.009427 0.001590
0.324596 0.004955 0.005702
0.416498 0.000224 0.009727
0.509842 0.000120 0.023164
0.601573 0.000103 0.037108
0.694221 0.000015 0.057683
0.782148 0.010513 0.110285
0.859502 0.104978 0.195386
0.905791 0.177112 0.284646
0.913575 0.203679 0.368092
0.921930 0.241983 0.399372
0.932488 0.289234 0.418545
0.944051 0.342859 0.435992
0.950010 0.368658 0.438641
0.953437 0.381896 0.427427
0.957405 0.398184 0.413826
0.960362 0.415352 0.395489
0.965559 0.436638 0.377741
0.970389 0.461546 0.353744
0.974768 0.485783 0.324796
0.979302 0.514184 0.292420
0.980958 0.542421 0.248649
0.982324 0.572254 0.194729
0.000109 0.045867 0.000509
0.000161 0.051392 0.000775
0.000150 0.054982 0.000720
0.000137 0.057877 0.000657
0.000721 0.046851 0.000284
0.008083 0.041970 0.000050
0.035020 0.040471 0.000063
0.060337 0.039491 0.000194
0.095004 0.039835 0.000086
0.149954 0.039469 0.000215
0.223116 0.036076 0.000024
0.308943 0.028172 0.000194
0.396410 0.019405 0.000003
0.486550 0.010070 0.005213
0.579645 0.005950 0.017410
0.672635 0.000068 0.039689
0.760833 0.012651 0.080401
0.843090 0.090058 0.155055
0.906658 0.183285 0.252476
0.914116 0.210096 0.338626
0.922137 0.246800 0.383382
0.932897 0.291708 0.402669
0.944675 0.344834 0.425328
0.951355 0.375013 0.431282
0.955152 0.389160 0.422350
0.958651 0.403510 0.408415
0.961416 0.420174 0.390952
0.966269 0.440591 0.373595
0.971074 0.465157 0.349549
0.975284 0.489085 0.321099
0.979529 0.516676 0.288655
0.980952 0.544336 0.245262
0.982367 0.574033 0.191608
0.000091 0.088601 0.000130
0.000151 0.097794 0.000089
0.000176 0.101498 0.000072
0.000194 0.104302 0.000059
0.000348 0.075416 0.000554
0.006307 0.069149 0.000242
0.032094 0.066043 0.000293
0.061539 0.065882 0.000007
0.096993 0.068147 0.000368
0.150149 0.067652 0.000448
0.217530 0.066452 0.000020
0.295013 0.060952 0.000207
0.378505 0.053446 0.000029
0.464166 0.042484 0.000680
0.556901 0.031727 0.001586
0.650688 0.024899 0.017604
0.741948 0.034705 0.052856
0.826195 0.083875 0.115170
0.898632 0.180699 0.214076
0.915583 0.217787 0.301270
0.924245 0.255346 0.365243
0.934163 0.296785 0.386054
0.945079 0.348260 0.410300
0.953189 0.382547 0.421116
0.957086 0.397365 0.416624
0.960118 0.410057 0.402207
0.962790 0.426121 0.385598
0.967096 0.445182 0.368790
0.971786 0.469162 0.344543
0.975889 0.492964 0.316759
0.979795 0.519615 0.284217
0.980947 0.546603 0.241256
0.982418 0.576144 0.187906
0.000039 0.144483 0.000312
0.000033 0.152246 0.000372
0.000066 0.155744 0.000387
0.000010 0.147587 0.000604
0.000113 0.117945 0.000233
0.000447 0.110543 0.000471
0.025396 0.106986 0.000036
0.055017 0.102826 0.000220
0.093576 0.104622 0.000470
0.144412 0.103851 0.000383
0.207787 0.099820 0.000054
0.279552 0.095696 0.000269
0.359870 0.089326 0.000053
0.444685 0.081078 0.000194
0.535287 0.069192 0.000099
0.628253 0.062582 0.003716
0.720744 0.068087 0.024851
0.808298 0.095645 0.080864
0.883778 0.174196 0.167483
0.916490 0.227787 0.260162
0.926768 0.265712 0.337258
0.935474 0.304546 0.365986
0.946177 0.353552 0.392675
0.955457 0.391474 0.409015
0.959100 0.407346 0.406593
0.962039 0.419598 0.394526
0.964480 0.433438 0.378993
0.968310 0.451430 0.362360
0.972679 0.474173 0.338290
0.976650 0.497841 0.311304
0.980132 0.523329 0.278614
0.981078 0.549692 0.235895
0.982483 0.578831 0.183197
0.000187 0.210671 0.000273
0.000123 0.217403 0.000188
0.000097 0.220144 0.000153
0.000037 0.192368 0.000102
0.000121 0.169774 0.000056
0.000807 0.158420 0.000172
0.012940 0.153631 0.000075
0.042842 0.149885 0.000000
0.081961 0.147537 0.000001
0.133245 0.147582 0.000000
0.194109 0.143199 0.000000
0.263803 0.137545 0.000697
0.338566 0.128768 0.000535
0.422804 0.122725 0.000008
0.512828 0.113346 0.000020
0.605730 0.106024 0.000000
0.700301 0.109254 0.000030
0.789564 0.126728 0.041010
0.869136 0.177706 0.117232
0.918175 0.243501 0.214367
0.929854 0.280694 0.299782
0.937894 0.317206 0.340940
0.948357 0.361482 0.371640
0.958209 0.401868 0.394819
0.961317 0.419218 0.393014
0.964341 0.431068 0.385242
0.966676 0.443128 0.370067
0.970175 0.460240 0.353466
0.973790 0.480398 0.330537
0.977519 0.503992 0.303630
0.980556 0.527997 0.271577
0.981362 0.553779 0.228883
0.982566 0.582241 0.177225
0.002374 0.276031 0.000177
0.004128 0.281408 0.000282
0.001736 0.274287 0.000276
0.000067 0.241617 0.000058
0.000134 0.222730 0.000115
0.000016 0.211058 0.000118
0.008252 0.203822 0.000437
0.027901 0.199278 0.000835
0.064583 0.196113 0.000131
0.114622 0.193219 0.000038
0.174283 0.190654 0.000008
0.243142 0.185976 0.000271
0.317147 0.175114 0.000111
0.398341 0.167397 0.000115
0.490336 0.160396 0.000000
0.582945 0.155007 0.000004
0.677289 0.156739 0.000464
0.767716 0.170370 0.011595
0.852238 0.201415 0.069445
0.921816 0.267049 0.167947
0.934374 0.303911 0.258686
0.942551 0.336698 0.310240
0.950743 0.371438 0.343051
0.960150 0.414289 0.373380
0.964791 0.433646 0.381049
0.967228 0.444018 0.372571
0.969537 0.455931 0.358106
0.972446 0.470964 0.342622
0.975197 0.488812 0.320650
0.978595 0.511632 0.294056
0.981084 0.533831 0.262794
0.981717 0.558914 0.220073
0.982672 0.586549 0.169684
0.051771 0.346727 0.026422
0.056369 0.351145 0.029490
0.020528 0.316360 0.006181
0.001686 0.289893 0.001356
0.001019 0.274728 0.000359
0.000839 0.266798 0.000298
0.005224 0.258909 0.000592
0.018308 0.252977 0.000215
0.050443 0.249818 0.000125
0.093837 0.245006 0.000502
0.150947 0.240023 0.000385
0.220470 0.236040 0.000005
0.294122 0.228698 0.000454
0.371612 0.218502 0.000517
0.460968 0.210259 0.000142
0.554968 0.206404 0.000006
0.653807 0.204814 0.000156
0.747088 0.213090 0.000000
0.832883 0.237047 0.029062
0.917535 0.289472 0.115468
0.939836 0.331985 0.206921
0.948374 0.362925 0.274464
0.956117 0.392269 0.309717
0.963390 0.430254 0.342895
0.968282 0.451496 0.363726
0.970229 0.459643 0.356172
0.972212 0.470491 0.342748
0.974891 0.484166 0.327914
0.976968 0.500231 0.308044
0.979924 0.521037 0.282302
0.981501 0.541294 0.250580
0.982160 0.565326 0.209073
0.982793 0.591699 0.158953
0.112881 0.428609 0.076918
0.100957 0.411441 0.066305
0.064034 0.363311 0.036914
0.045387 0.341530 0.022652
0.033418 0.328752 0.015529
0.024616 0.318725 0.010697
0.022143 0.311223 0.006792
0.027695 0.305429 0.001989
0.045775 0.301377 0.000396
0.077939 0.297309 0.000632
0.127709 0.290698 0.000320
0.194985 0.286060 0.000533
0.267693 0.282672 0.000641
0.350169 0.277065 0.000020
0.435740 0.267270 0.000184
0.527254 0.262298 0.000468
0.626734 0.258591 0.000032
0.724550 0.258388 0.000197
0.813859 0.275696 0.009513
0.904416 0.313542 0.059481
0.944759 0.362616 0.151125
0.954615 0.395895 0.227455
0.960456 0.417813 0.265416
0.967414 0.451471 0.304865
0.971813 0.472636 0.335900
0.973472 0.478915 0.334313
0.974461 0.486761 0.323368
0.977658 0.499918 0.309926
0.978829 0.513816 0.291863
0.980574 0.532043 0.265718
0.981908 0.550565 0.234982
0.982706 0.573271 0.195446
0.982936 0.597934 0.144624
0.175963 0.518075 0.129195
0.129518 0.451542 0.090789
0.103448 0.415666 0.069051
0.090632 0.397628 0.058240
0.083140 0.386614 0.051444
0.077178 0.378100 0.046748
0.073961 0.371347 0.042367
0.074556 0.366080 0.037306
0.081399 0.360983 0.030971
0.096068 0.355824 0.022735
0.127950 0.349179 0.013153
0.175491 0.343788 0.003403
0.242882 0.340469 0.000242
0.324745 0.335687 0.000055
0.411948 0.329385 0.000000
0.503733 0.322809 0.000006
0.599510 0.316133 0.000019
0.695814 0.314947 0.000139
0.791380 0.320732 0.000235
0.884152 0.350824 0.031159
0.945575 0.397881 0.099281
0.960276 0.435061 0.162706
0.965926 0.453665 0.212705
0.971273 0.477920 0.257142
0.975825 0.496795 0.295720
0.978876 0.503999 0.305046
0.978282 0.509307 0.298257
0.979482 0.518643 0.285627
0.979579 0.529224 0.267186
0.980753 0.544975 0.244366
0.982401 0.561839 0.216016
0.982985 0.582714 0.175739
0.983113 0.605658 0.126851
0.238746 0.608290 0.183354
0.161805 0.498694 0.117337
0.144790 0.473586 0.102637
0.134339 0.458817 0.094520
0.127455 0.449583 0.088952
0.122301 0.441595 0.084186
0.119483 0.436541 0.081175
0.117825 0.433016 0.079085
0.120179 0.427934 0.074337
0.126973 0.420790 0.066386
0.146653 0.414300 0.053705
0.179109 0.408584 0.033874
0.230626 0.402966 0.012088
0.302488 0.396741 0.002400
0.387150 0.392392 0.000298
0.479241 0.387281 0.000218
0.573575 0.379281 0.000010
0.670963 0.375244 0.000036
0.768295 0.379078 0.000037
0.863694 0.397777 0.011274
0.949876 0.442437 0.076511
0.962161 0.476887 0.103030
0.967260 0.492717 0.146164
0.973395 0.508983 0.194033
0.978053 0.524854 0.243777
0.980206 0.529016 0.269734
0.980043 0.533426 0.261542
0.981071 0.539215 0.254576
0.980818 0.548176 0.236405
0.981438 0.561232 0.216267
0.983287 0.576579 0.188691
0.983191 0.594100 0.150780
0.983328 0.615139 0.105000
0.253714 0.629539 0.196669
0.199489 0.552962 0.149541
0.186795 0.534412 0.139014
0.178454 0.523417 0.131984
0.174503 0.517038 0.128731
0.171262 0.511726 0.125863
0.167984 0.506509 0.122435
0.165066 0.501934 0.119436
0.165793 0.496606 0.114763
0.167601 0.490159 0.108856
0.179216 0.484276 0.101006
0.199926 0.478202 0.088957
0.237178 0.471917 0.066942
0.290922 0.463838 0.031048
0.360040 0.459944 0.000376
0.453397 0.452693 0.000454
0.553443 0.449258 0.000368
0.647604 0.444112 0.000000
0.747516 0.446090 0.000111
0.845084 0.460593 0.000618
0.940079 0.493032 0.041997
0.967320 0.524691 0.065546
0.970821 0.540359 0.073960
0.974159 0.546140 0.113599
0.978484 0.558602 0.168634
0.981757 0.558637 0.219853
0.982538 0.559529 0.221350
0.982162 0.563457 0.213304
0.982511 0.570865 0.198850
0.982539 0.580708 0.180929
0.984038 0.594011 0.155251
0.983215 0.609059 0.120525
0.982454 0.629048 0.078822
0.285222 0.659841 0.224667
0.241201 0.612092 0.185774
0.231513 0.599855 0.177907
0.225774 0.591337 0.172717
0.221484 0.584798 0.168779
0.218278 0.579706 0.165833
0.215538 0.575358 0.163312
0.214219 0.571403 0.160515
0.213807 0.566843 0.156816
0.213265 0.561367 0.152385
0.221631 0.556631 0.146462
0.234443 0.551035 0.138212
0.261827 0.543843 0.122156
0.302546 0.537929 0.095381
0.359415 0.531827 0.057366
0.434802 0.526218 0.014477
0.529775 0.522327 0.000053
0.629712 0.521759 0.000022
0.730035 0.522857 0.000289
0.829029 0.532094 0.000001
0.924375 0.552449 0.010324
0.972901 0.579710 0.034268
0.975064 0.597266 0.024771
0.976468 0.594726 0.034516
0.979252 0.597361 0.072274
0.983440 0.593607 0.143193
0.983706 0.590081 0.162757
0.983227 0.591749 0.157386
0.983873 0.596881 0.151859
0.984186 0.603073 0.135027
0.983451 0.614059 0.111413
0.982925 0.628711 0.084244
0.981380 0.645801 0.047403
0.345585 0.710344 0.279750
0.305181 0.681071 0.242548
0.291222 0.670091 0.230396
0.283469 0.663107 0.223451
0.279404 0.658316 0.219555
0.275995 0.654324 0.216287
0.273532 0.650561 0.213043
0.271402 0.647136 0.210060
0.268945 0.643221 0.206643
0.268951 0.638818 0.202230
0.273563 0.634062 0.196480
0.281789 0.628642 0.188902
0.301512 0.623226 0.177700
0.331457 0.618604 0.160854
0.375784 0.614184 0.133621
0.438866 0.609397 0.087191
0.518963 0.604565 0.031112
0.614865 0.603096 0.004743
0.716654 0.605585 0.000221
0.816165 0.611846 0.000000
0.908237 0.620276 0.001482
0.976163 0.631703 0.005054
0.978727 0.653059 0.000894
0.980373 0.652433 0.000652
0.979323 0.649215 0.006847
0.980429 0.634470 0.042013
0.983715 0.626949 0.088852
0.982112 0.624327 0.088988
0.982259 0.626530 0.086213
0.983367 0.633806 0.079139
0.981816 0.638496 0.060750
0.982842 0.651759 0.039490
0.980972 0.666310 0.019624
0.434357 0.775201 0.363482
0.402528 0.752755 0.334085
0.393832 0.746440 0.326122
0.387850 0.742080 0.320620
0.383000 0.738371 0.315807
0.378868 0.735125 0.311538
0.375271 0.732308 0.307838
0.372016 0.729765 0.304503
0.369867 0.726978 0.300104
0.368632 0.723670 0.294186
0.367065 0.719629 0.286971
0.369949 0.715040 0.276677
0.377435 0.709831 0.262988
0.395253 0.704690 0.243994
0.423786 0.699926 0.218486
0.468499 0.697260 0.182289
0.533476 0.696069 0.127720
0.610343 0.691946 0.030484
0.707172 0.688886 0.002255
0.803536 0.684681 0.000000
0.893099 0.684911 0.000090
0.970819 0.686098 0.000000
0.980338 0.697334 0.000000
0.980831 0.698540 0.000059
0.981565 0.701862 0.000000
0.981207 0.688959 0.000185
0.980013 0.667477 0.019203
0.980631 0.663053 0.016161
0.980406 0.662618 0.025641
0.982194 0.665235 0.013557
0.979997 0.668434 0.016403
0.982491 0.679367 0.007158
0.980682 0.691123 0.000056
0.526968 0.840718 0.455054
0.507579 0.827476 0.436241
0.500321 0.822533 0.429106
0.494975 0.818901 0.423762
0.490654 0.815968 0.419445
0.487027 0.813477 0.415763
0.485168 0.811355 0.412213
0.483467 0.809422 0.408984
0.481477 0.807171 0.405225
0.478985 0.804368 0.400551
0.477777 0.801171 0.394398
0.480553 0.797862 0.386025
0.483833 0.793865 0.375965
0.494865 0.789663 0.359493
0.510696 0.784881 0.337451
0.538390 0.779806 0.301139
0.578696 0.775418 0.249716
0.634383 0.769731 0.164669
0.707341 0.761328 0.064824
0.792846 0.753421 0.004200
0.880372 0.750089 0.000061
0.958089 0.746826 0.000011
0.983977 0.749341 0.000002
0.983296 0.747084 0.000023
0.981047 0.739517 0.000017
0.982438 0.732260 0.000137
0.981200 0.720794 0.000055
0.981782 0.709279 0.000022
0.980411 0.705496 0.000000
0.982948 0.702767 0.000002
0.981007 0.705995 0.000015
0.982227 0.712440 0.000103
0.980882 0.720526 0.000133
0.610162 0.895889 0.538244
0.597194 0.887749 0.525318
0.592213 0.884673 0.520409
0.588731 0.882004 0.515940
0.585897 0.879823 0.512287
0.583471 0.877957 0.509162
0.581331 0.876313 0.506409
0.579374 0.874809 0.503893
0.577311 0.872945 0.500601
0.575801 0.870108 0.494810
0.573889 0.866569 0.487596
0.571475 0.862192 0.478684
0.571661 0.857150 0.466998
0.577087 0.851583 0.451620
0.586670 0.845706 0.432410
0.606931 0.840962 0.407284
0.635446 0.836619 0.365443
0.673775 0.831960 0.299019
0.725367 0.826621 0.200044
0.791003 0.819427 0.084477
0.866504 0.810094 0.011256
0.946300 0.802942 0.000165
0.985918 0.800467 0.000017
0.985888 0.797896 0.000047
0.985426 0.787505 0.000075
0.984029 0.769508 0.000022
0.984448 0.755272 0.000005
0.982899 0.749725 0.000015
0.983646 0.745316 0.000166
0.982932 0.745600 0.000023
0.983829 0.741187 0.000231
0.983086 0.743527 0.000000
0.983901 0.748197 0.000039
0.662361 0.928368 0.592120
0.660088 0.927295 0.589578
0.658998 0.926799 0.588372
0.658214 0.926450 0.587509
0.656539 0.924918 0.584734
0.654230 0.922563 0.580627
0.652171 0.920471 0.576982
0.650269 0.918544 0.573628
0.648020 0.916273 0.569680
0.645168 0.913405 0.564700
0.641566 0.909803 0.558454
0.641365 0.906600 0.550708
0.643743 0.903400 0.541070
0.646685 0.899534 0.529387
0.655763 0.895472 0.513440
0.669710 0.890937 0.493338
0.692055 0.887515 0.466282
0.721079 0.884184 0.426852
0.757390 0.880420 0.359406
0.802885 0.876253 0.229005
0.858541 0.865910 0.052790
0.930341 0.857106 0.014246
0.980467 0.851846 0.001381
0.986787 0.847012 0.000256
0.986511 0.834352 0.000130
0.984372 0.813535 0.000034
0.985327 0.790174 0.000007
0.985253 0.771973 0.000015
0.985355 0.768254 0.000064
0.984542 0.764790 0.000000
0.982930 0.763832 0.000000
0.984443 0.761848 0.000000
0.982665 0.763313 0.000047
0.663689 0.929191 0.593498
0.665214 0.929231 0.592593
0.666198 0.929259 0.592007
0.666928 0.929281 0.591574
0.667528 0.929300 0.591220
0.668044 0.929317 0.590916
0.668502 0.929332 0.590647
0.669316 0.929331 0.590229
0.671428 0.929287 0.589244
0.674110 0.929239 0.588010
0.677501 0.929189 0.586478
0.681771 0.929146 0.584595
0.687116 0.929123 0.582314
0.696147 0.929458 0.578904
0.709625 0.930241 0.574192
0.726000 0.931212 0.568485
0.743528 0.927714 0.546142
0.765440 0.923969 0.517547
0.794063 0.920569 0.478691
0.829399 0.918661 0.411762
0.873149 0.916903 0.302647
0.923545 0.910100 0.133087
0.986101 0.899555 0.000458
0.987675 0.891410 0.000081
0.987931 0.876884 0.000014
0.987645 0.857116 0.000194
0.987253 0.833069 0.000118
0.984554 0.806593 0.000065
0.986009 0.797778 0.000152
0.984832 0.792272 0.000009
0.985690 0.787986 0.000005
0.985547 0.785297 0.000108
0.985864 0.784233 0.000127
0.666587 0.929793 0.593265
0.669634 0.930296 0.593188
0.673290 0.930800 0.593213
0.676034 0.931178 0.593232
0.678307 0.931492 0.593247
0.680280 0.931764 0.593260
0.682041 0.932006 0.593272
0.683668 0.932230 0.593282
0.685594 0.932496 0.593294
0.688036 0.932832 0.593310
0.691121 0.933257 0.593329
0.697001 0.934266 0.592949
0.705453 0.935788 0.592255
0.715971 0.937682 0.591398
0.728949 0.940021 0.590348
0.747102 0.942945 0.588405
0.770462 0.946528 0.585682
0.796393 0.949276 0.575997
0.824605 0.950755 0.556977
0.857887 0.953149 0.527788
0.892989 0.953524 0.464541
0.931384 0.949908 0.331405
0.972313 0.942476 0.159328
0.989939 0.930580 0.050168
0.988422 0.914141 0.000024
0.987407 0.895105 0.000139
0.988073 0.873825 0.000021
0.988571 0.848968 0.000035
0.986196 0.832392 0.000131
0.986349 0.826529 0.000052
0.986361 0.821584 0.000553
0.985496 0.816875 0.000021
0.986636 0.814392 0.000100
0.677155 0.931385 0.593496
0.682929 0.932371 0.593074
0.685241 0.932766 0.592905
0.687997 0.933222 0.592792
0.691081 0.933726 0.592708
0.693769 0.934165 0.592636
0.696176 0.934559 0.592571
0.698410 0.934924 0.592511
0.701062 0.935357 0.592439
0.704441 0.935909 0.592349
0.708733 0.936611 0.592235
0.714164 0.937499 0.592091
0.721004 0.938617 0.591911
0.729720 0.940040 0.591612
0.742244 0.942063 0.590423
0.757705 0.944560 0.588954
0.776602 0.947611 0.587156
0.800960 0.951855 0.583553
0.830237 0.956977 0.579152
0.861771 0.963266 0.569613
0.895805 0.969111 0.552231
0.930718 0.972324 0.506095
0.965667 0.970260 0.392517
0.992378 0.963701 0.248653
0.994076 0.949852 0.137295
0.990741 0.930983 0.053608
0.988186 0.909972 0.000120
0.987948 0.886071 0.000181
0.988557 0.866341 0.000327
0.987624 0.860005 0.000015
0.988028 0.853975 0.000510
0.987503 0.848168 0.000227
0.987333 0.845276 0.000038
0.697474 0.934303 0.592907
0.705937 0.935677 0.592278
0.709361 0.936233 0.592024
0.711956 0.936655 0.591831
0.714124 0.937007 0.591671
0.716018 0.937314 0.591531
0.717718 0.937590 0.591405
0.719298 0.937847 0.591289
0.721179 0.938153 0.591150
0.724273 0.938679 0.590950
0.728241 0.939356 0.590695
0.733284 0.940216 0.590372
0.739669 0.941304 0.589962
0.747715 0.942677 0.589447
0.757799 0.944397 0.588803
0.770347 0.946538 0.588004
0.786655 0.949441 0.585283
0.806672 0.953009 0.581856
0.830522 0.957318 0.577304
