output/AppleLog2_display/AppleLog2_to_ASTIA_33grid.cube
TITLE "AppleLog2_to_ASTIA"
# Input: Apple Log 2 (Apple Gamut primaries, D65)
# Output: BT.709 / Gamma 2.2 (display-referred)
# Use: Display LUT for iPhone 17 Pro Apple Log 2 footage
# Source: FLog2C_to_ASTIA_65grid_V.1.00.cube
# Generated from Fujifilm GFX ETERNA 55 F-Log2C LUT
LUT_3D_SIZE 5
0.000334 0.000257 0.000073
0.036121 0.001443 0.000865
0.979986 0.000576 0.269675
0.999461 0.099723 0.540077
0.999933 0.463116 0.266135
0.000017 0.085425 0.000008
0.088929 0.062591 0.000194
0.784988 0.028305 0.053220
0.999972 0.227458 0.457366
0.999940 0.501370 0.227182
0.000158 0.701746 0.000294
0.046534 0.551953 0.000400
0.590179 0.494882 0.000001
0.999212 0.473412 0.202877
0.999751 0.577046 0.137248
0.234434 0.999722 0.000130
0.386260 0.997484 0.000081
0.605125 0.981320 0.000194
0.994444 0.886858 0.000000
0.999013 0.790535 0.000150
0.747044 0.999465 0.000136
0.756000 0.999451 0.000143
0.777141 0.999420 0.000161
0.903715 0.999547 0.003278
0.983737 1.000000 0.022016
0.000066 0.000000 0.074264
0.000056 0.000000 0.069975
0.933668 0.000393 0.211111
0.999461 0.099723 0.540077
0.999927 0.461493 0.267812
0.000061 0.066413 0.090791
0.050972 0.053234 0.049857
0.758506 0.023704 0.062199
0.999974 0.220536 0.461669
0.999940 0.499757 0.228799
0.000007 0.762503 0.000207
0.008080 0.580015 0.000234
0.565214 0.500950 0.000033
0.999188 0.470296 0.206092
0.999761 0.575854 0.138801
0.215517 0.999691 0.000149
0.372973 0.997776 0.000079
0.598773 0.981527 0.000220
0.994442 0.886853 0.000000
0.999013 0.790346 0.000148
0.746107 0.999463 0.000136
0.755135 0.999452 0.000142
0.776314 0.999420 0.000160
0.903162 0.999547 0.003218
0.983737 1.000000 0.022016
0.007158 0.000082 0.517623
0.007154 0.000056 0.514874
0.838992 0.000017 0.448762
0.999899 0.116240 0.613840
0.999913 0.457484 0.271952
0.008193 0.000037 0.604968
0.006787 0.000079 0.614411
0.737369 0.000189 0.496221
0.999499 0.280838 0.647696
0.999939 0.495787 0.232782
0.000146 0.744576 0.862163
0.000132 0.601200 0.667816
0.494915 0.496651 0.495777
0.999723 0.481598 0.575811
0.999787 0.572930 0.142616
0.009299 0.999666 0.029455
0.087020 0.999730 0.018159
0.407544 0.999796 0.002650
0.980030 0.950746 0.016656
0.999012 0.789882 0.000141
0.743666 0.999452 0.000138
0.753017 0.999453 0.000141
0.774290 0.999421 0.000157
0.901809 0.999548 0.003069
0.983737 1.000000 0.022016
0.013811 0.000184 0.912110
0.013805 0.000183 0.912080
0.014173 0.000097 0.902466
0.999834 0.042361 0.819851
0.999713 0.482548 0.772357
0.013802 0.000182 0.912066
0.013796 0.000181 0.912036
0.248565 0.000272 0.988864
0.999738 0.000255 0.903639
0.999744 0.521681 0.768994
0.000578 0.476845 0.999935
0.000576 0.485439 0.999986
0.017894 0.355010 0.999740
0.999561 0.296240 0.985044
0.999568 0.590657 0.766438
0.000384 0.934472 0.999952
0.000540 0.930011 0.999827
0.000454 0.920933 0.999926
0.855922 0.858102 0.856005
0.999907 0.778935 0.732756
0.548395 0.999886 0.547203
0.561421 0.999868 0.544386
0.587102 0.999781 0.536365
0.709193 0.999441 0.475602
0.988147 0.999721 0.327752
0.015679 0.004838 0.936230
0.015679 0.004838 0.936230
0.015679 0.004838 0.936230
0.998644 0.000023 0.999833
0.999808 0.000086 0.965619
0.015679 0.004838 0.936230
0.015679 0.004838 0.936230
0.015679 0.004838 0.936230
0.999625 0.000006 0.999748
1.000000 0.000000 0.999715
0.015679 0.004838 0.936230
0.015679 0.004838 0.936230
0.015679 0.004838 0.936230
1.000000 0.000000 0.999715
0.999807 0.029161 0.999361
0.000227 0.945005 0.999994
0.000219 0.945585 0.999994
0.000200 0.946993 0.999993
0.416049 0.635522 0.999869
0.999560 0.621014 0.999587
0.000675 0.973247 0.999564
0.001963 0.975430 0.999657
0.004909 0.980437 0.999875
0.337881 0.999808 0.999661
0.982352 0.989224 0.987367
