output/AppleLog2_display/AppleLog2_to_Velvia_33grid.cube
TITLE "AppleLog2_to_Velvia"
# Input: Apple Log 2 (Apple Gamut primaries, D65)
# Output: BT.709 / Gamma 2.2 (display-referred)
# Use: Display LUT for iPhone 17 Pro Apple Log 2 footage
# Source: FLog2C_to_Velvia_65grid_V.1.00.cube
# Generated from Fujifilm GFX ETERNA 55 F-Log2C LUT
LUT_3D_SIZE 33
0.000000 0.000000 0.000000
0.000000 0.000000 0.000000
0.000000 0.000000 0.000000
0.000000 0.000000 0.000000
0.000000 0.000000 0.000000
0.000000 0.000000 0.000000
0.000000 0.000000 0.000000
0.000000 0.000000 0.000000
0.008903 0.000168 0.000014
0.056302 0.001052 0.000141
0.146828 0.000191 0.002364
0.287595 0.000173 0.000590
0.455218 0.000175 0.001181
0.625736 0.000301 0.018410
0.802587 0.000051 0.058104
0.971357 0.000332 0.145660
0.999963 0.030077 0.278317
0.999706 0.075086 0.430227
0.999856 0.149587 0.485109
0.999814 0.235140 0.489124
0.999899 0.286792 0.492290
0.999899 0.286792 0.492290
0.999899 0.286792 0.492290
0.999899 0.286792 0.492290
0.999899 0.286792 0.492290
0.999899 0.286792 0.492290
0.999450 0.317828 0.463478
0.999458 0.355617 0.424950
0.999972 0.393702 0.380830
0.999708 0.432087 0.332867
0.999778 0.468145 0.284123
0.998996 0.505504 0.226336
0.999940 0.541354 0.162735
0.000000 0.000000 0.000000
0.000000 0.000000 0.000000
0.000000 0.000000 0.000000
0.000000 0.000000 0.000000
0.000000 0.000000 0.000000
0.000000 0.000000 0.000000
0.001044 0.000041 0.000006
0.016902 0.000324 0.000012
0.057654 0.001104 0.000129
0.124229 0.000361 0.001613
0.230922 0.000034 0.000060
0.370390 0.000051 0.000267
0.523541 0.000396 0.005716
0.680757 0.000116 0.027746
0.847368 0.000054 0.071702
0.985106 0.000405 0.170273
0.999949 0.037577 0.301152
0.999688 0.080946 0.445209
0.999829 0.157293 0.485701
0.999755 0.241551 0.489627
0.999899 0.286792 0.492290
0.999899 0.286792 0.492290
0.999899 0.286792 0.492290
0.999899 0.286792 0.492290
0.999673 0.295304 0.484930
0.999521 0.326482 0.455497
0.999558 0.355504 0.423961
0.999934 0.387193 0.389668
0.999949 0.418064 0.349527
0.999647 0.450686 0.307701
0.999581 0.483013 0.261406
0.998903 0.517309 0.207346
0.999990 0.550289 0.145708
0.000000 0.000000 0.000000
0.000000 0.000000 0.000000
0.000000 0.000000 0.000000
0.000000 0.000000 0.000000
0.000000 0.000000 0.000000
0.000044 0.000011 0.000000
0.009643 0.000184 0.000013
0.035949 0.000285 0.000320
0.083024 0.001018 0.000428
0.159742 0.000094 0.002794
0.269281 0.000128 0.000418
0.402915 0.000039 0.000346
0.549332 0.000489 0.008221
0.702490 0.000097 0.032467
0.865473 0.000073 0.078907
0.990602 0.000434 0.180111
0.999944 0.040599 0.310353
0.999712 0.084441 0.448596
0.999818 0.160432 0.485941
0.999837 0.215552 0.488493
0.999681 0.249327 0.490881
0.999896 0.286253 0.492295
0.999899 0.286792 0.492290
0.999530 0.292363 0.487538
0.999624 0.317870 0.461741
0.999252 0.343124 0.437860
0.999797 0.370123 0.407987
0.999829 0.399071 0.375064
0.999927 0.427585 0.336995
0.999586 0.458053 0.297535
0.999477 0.488947 0.251661
0.998925 0.521801 0.199087
0.999932 0.554456 0.137712
0.000000 0.000000 0.000000
0.000000 0.000000 0.000000
0.000000 0.000000 0.000000
0.000000 0.000000 0.000000
0.000000 0.000000 0.000000
0.001711 0.000046 0.000010
0.021691 0.000314 0.000089
0.056048 0.001043 0.000143
0.101597 0.000530 0.000861
0.187329 0.000060 0.001635
0.297002 0.000197 0.000678
0.428053 0.000104 0.000747
0.568399 0.000558 0.010072
0.718685 0.000083 0.035984
0.879378 0.000102 0.085836
0.994744 0.000456 0.187526
0.999940 0.042886 0.317315
0.999783 0.070929 0.410858
0.999943 0.103559 0.482070
0.999764 0.152397 0.486890
0.999402 0.203209 0.488448
0.999335 0.253617 0.494590
0.999920 0.286730 0.488621
0.999759 0.309724 0.472138
0.999333 0.333567 0.445704
0.999153 0.354747 0.424511
0.999976 0.381060 0.395599
0.999696 0.407611 0.363848
0.999866 0.434618 0.327507
0.999547 0.463530 0.289762
0.999399 0.493370 0.244395
0.998941 0.525171 0.192890
0.999878 0.557682 0.131517
0.000000 0.000000 0.000000
0.000000 0.000000 0.000000
0.000000 0.000000 0.000000
0.000000 0.000000 0.000000
0.000000 0.000000 0.000000
0.006558 0.000118 0.000019
0.033894 0.000289 0.000286
0.072287 0.001301 0.000178
0.126240 0.000345 0.001680
0.209353 0.000036 0.000672
0.319878 0.000180 0.000646
0.448490 0.000157 0.001073
0.573307 0.000402 0.011726
0.697054 0.000198 0.029771
0.829156 0.000007 0.068531
0.962540 0.000235 0.129514
0.999990 0.012340 0.215229
0.999747 0.045187 0.322251
0.999532 0.073248 0.426063
0.999541 0.118923 0.480646
0.999722 0.174748 0.485698
0.999795 0.239644 0.481197
0.999849 0.297683 0.473950
0.999299 0.324475 0.456662
0.999076 0.345231 0.434309
0.999218 0.364939 0.412948
0.999878 0.389311 0.385804
0.999586 0.414460 0.354839
0.999818 0.440323 0.319814
0.999527 0.468088 0.282828
0.999335 0.497014 0.238405
0.998955 0.527963 0.187758
0.999832 0.560366 0.126366
0.000027 0.000027 0.000027
0.000143 0.000157 0.000141
0.000355 0.000401 0.000349
0.000513 0.000583 0.000503
0.000639 0.000639 0.000639
0.004855 0.000934 0.000182
0.025898 0.000924 0.000209
0.057398 0.001023 0.000634
0.098172 0.001044 0.000398
0.163127 0.000376 0.001316
0.255014 0.000072 0.000512
0.361544 0.000107 0.001084
0.483769 0.000305 0.005126
0.605636 0.000072 0.013378
0.737991 0.000135 0.039370
0.875783 0.000012 0.086038
0.982815 0.000217 0.162193
0.999777 0.024059 0.264749
0.999653 0.061569 0.375292
0.999261 0.107732 0.455439
0.999700 0.171782 0.469646
0.999831 0.242874 0.460755
0.999637 0.309061 0.456701
0.999144 0.336396 0.444298
0.999118 0.354803 0.425068
0.999277 0.373323 0.403473
0.999756 0.396144 0.377612
0.999509 0.420083 0.347477
0.999777 0.445191 0.313252
0.999510 0.472008 0.276866
0.999306 0.500180 0.233194
0.998967 0.530385 0.183304
0.999793 0.562703 0.121881
0.000223 0.004875 0.000074
0.000113 0.007552 0.000016
0.000083 0.008668 0.000012
0.000060 0.009507 0.000008
0.000054 0.006311 0.000620
0.001532 0.005121 0.000290
0.012294 0.004374 0.000009
0.033999 0.005169 0.000000
0.071508 0.004666 0.000001
0.129920 0.003544 0.000058
0.208732 0.002166 0.000067
0.311835 0.000446 0.000026
0.428699 0.000014 0.000439
0.554450 0.000089 0.004706
0.685216 0.000175 0.019052
0.824457 0.000001 0.050239
0.959332 0.000149 0.119020
0.999710 0.019428 0.210709
0.999914 0.070654 0.315730
0.999704 0.119257 0.410440
0.999535 0.185372 0.443362
0.999828 0.249659 0.440983
0.999706 0.314428 0.440561
0.999423 0.346465 0.434416
0.999188 0.363098 0.416773
0.999332 0.380434 0.395566
0.999654 0.402058 0.370528
0.999448 0.424942 0.341133
0.999741 0.449471 0.307485
0.999494 0.475479 0.271588
0.999338 0.503026 0.228501
0.998977 0.532547 0.179329
0.999758 0.564794 0.117867
0.000226 0.018030 0.000353
0.000345 0.021348 0.000538
0.000319 0.023121 0.000488
0.000290 0.024519 0.000433
0.000363 0.018015 0.000090
0.000117 0.015586 0.000183
0.005900 0.013669 0.000066
0.025320 0.012508 0.000359
0.056332 0.011885 0.000224
0.108168 0.011648 0.000148
0.178539 0.010831 0.000144
0.279556 0.007533 0.000011
0.395987 0.002561 0.000091
0.521263 0.001741 0.000614
0.651025 0.000052 0.003064
0.790144 0.000022 0.019782
0.922470 0.004446 0.072282
0.999751 0.030345 0.154674
0.999906 0.084633 0.256302
0.999920 0.135310 0.358935
0.999765 0.198038 0.417946
0.999928 0.256572 0.422803
0.999801 0.318676 0.426144
0.999607 0.354693 0.424165
0.999439 0.371512 0.407139
0.999381 0.386780 0.388519
0.999668 0.407628 0.363850
0.999395 0.429358 0.335374
0.999715 0.453392 0.302130
0.999479 0.478665 0.266743
0.999367 0.505649 0.224177
0.998987 0.534546 0.175655
0.999726 0.566733 0.114147
0.000065 0.041329 0.000126
0.000066 0.047959 0.000253
0.000066 0.050631 0.000304
0.000066 0.052653 0.000343
0.000186 0.037542 0.000562
0.000628 0.032868 0.000421
0.003367 0.027832 0.000634
0.016407 0.025520 0.000141
0.042938 0.025605 0.000069
0.085995 0.025462 0.000067
0.152726 0.024625 0.000017
0.249556 0.022766 0.000463
0.363883 0.018236 0.000227
0.486352 0.014718 0.000463
0.618374 0.012351 0.000044
0.755260 0.010809 0.002259
0.882327 0.024078 0.026158
0.989786 0.047952 0.097409
0.999477 0.098344 0.191936
0.999792 0.154290 0.301296
0.999881 0.216881 0.379877
0.999538 0.267594 0.397630
0.999758 0.325538 0.406747
0.999739 0.363112 0.410466
0.999717 0.381025 0.396273
0.999384 0.394466 0.379803
0.999774 0.414264 0.355887
0.999337 0.434491 0.328688
0.999688 0.457982 0.295817
0.999461 0.482408 0.261051
0.999401 0.508742 0.219080
0.998999 0.536910 0.171307
0.999687 0.569034 0.109734
0.000161 0.083458 0.000554
0.000162 0.090200 0.000521
0.000147 0.093677 0.000472
0.000029 0.087655 0.000906
0.000630 0.066565 0.000021
0.000302 0.058773 0.000519
0.000773 0.055530 0.000349
0.007336 0.050973 0.000016
0.028974 0.050108 0.000183
0.069733 0.049528 0.000666
0.131825 0.049599 0.000068
0.221755 0.047451 0.000309
0.333589 0.044630 0.000711
0.459978 0.041634 0.000018
0.588403 0.038169 0.000005
0.718797 0.041124 0.000064
0.843190 0.055076 0.001814
0.968014 0.080746 0.036648
0.999483 0.120961 0.118745
0.999703 0.177847 0.232911
0.999793 0.236865 0.334143
0.999646 0.282279 0.368159
0.999761 0.334333 0.382969
0.999647 0.373412 0.393564
0.999668 0.391772 0.382864
0.999200 0.405326 0.366881
0.999901 0.422428 0.346088
0.999285 0.441035 0.320016
0.999655 0.463718 0.287925
0.999439 0.487116 0.253893
0.999446 0.512648 0.212643
0.999055 0.540248 0.165062
0.999639 0.571963 0.104118
0.000114 0.151358 0.000002
0.000151 0.159053 0.000002
0.000166 0.162186 0.000002
0.000285 0.130974 0.000579
0.000395 0.106614 0.000018
0.000087 0.096851 0.000297
0.000107 0.092054 0.000132
0.003332 0.088505 0.000002
0.016784 0.086068 0.000007
0.051723 0.084287 0.000018
0.110702 0.082386 0.000267
0.193029 0.081984 0.000107
0.305161 0.079424 0.000411
0.427684 0.076983 0.000443
0.556337 0.074852 0.000154
0.684226 0.081587 0.000152
0.804638 0.094364 0.000014
0.940525 0.122456 0.001858
0.999471 0.157977 0.038723
0.999519 0.208965 0.153931
0.999876 0.265460 0.270883
0.999976 0.304657 0.329339
0.999804 0.346002 0.353151
0.999222 0.385992 0.372981
0.999416 0.404171 0.366757
0.998987 0.418389 0.351299
0.999862 0.432605 0.333462
0.999260 0.449414 0.308601
0.999613 0.470833 0.278133
0.999526 0.493306 0.244749
0.999502 0.517556 0.204557
0.999163 0.544756 0.156547
0.999577 0.575679 0.096995
0.000169 0.245692 0.000118
0.000142 0.255160 0.000173
0.000051 0.244494 0.000230
0.000023 0.193586 0.000378
0.000016 0.167607 0.000237
0.000001 0.154653 0.000362
0.000194 0.146423 0.000355
0.001453 0.142166 0.000145
0.005982 0.138119 0.000049
0.031271 0.133964 0.000358
0.083633 0.131632 0.000653
0.162499 0.128798 0.000128
0.274250 0.125031 0.000132
0.400348 0.124644 0.000366
0.527096 0.122549 0.000053
0.647124 0.131619 0.000027
0.766377 0.149742 0.000063
0.895474 0.172039 0.000208
0.999003 0.207725 0.001509
0.999366 0.248384 0.056122
0.999392 0.298201 0.188556
0.999970 0.335352 0.277862
0.999414 0.363241 0.312632
0.999151 0.402037 0.340818
0.999405 0.420450 0.346953
0.999523 0.432538 0.333006
0.999544 0.445179 0.317287
0.999231 0.459595 0.294736
0.999608 0.479430 0.265522
0.999645 0.501005 0.233409
0.999575 0.523686 0.194462
0.999299 0.550422 0.145849
0.999500 0.580376 0.087996
0.000006 0.368179 0.000261
0.000007 0.375719 0.000237
0.000106 0.316127 0.000002
0.000041 0.268899 0.000042
0.000066 0.243770 0.000231
0.000113 0.231033 0.000407
0.000070 0.222126 0.000017
0.000172 0.215789 0.000003
0.000093 0.210448 0.000062
0.013944 0.205532 0.000092
0.057111 0.199679 0.000067
0.133810 0.196049 0.000596
0.238024 0.192558 0.000249
0.363908 0.189178 0.000347
0.491430 0.186950 0.000077
0.610456 0.195740 0.000005
0.726785 0.210281 0.000161
0.849387 0.230950 0.000003
0.971906 0.259975 0.000090
0.999549 0.293402 0.002574
0.999762 0.334804 0.088592
0.999807 0.369191 0.213494
0.999818 0.389503 0.258850
0.999377 0.419777 0.300561
0.999351 0.439345 0.322282
0.999929 0.448869 0.310659
0.999526 0.460016 0.295895
0.999402 0.472740 0.276124
0.999676 0.489650 0.249283
0.999794 0.510469 0.219495
0.999577 0.531620 0.180522
0.999468 0.557498 0.132492
0.999490 0.586044 0.075905
0.000357 0.495146 0.000425
0.000272 0.468172 0.000549
0.000082 0.393662 0.000096
0.000067 0.352699 0.000236
0.000148 0.335190 0.000333
0.000058 0.321973 0.000158
0.000018 0.312459 0.000338
0.000037 0.306134 0.000212
0.000074 0.299955 0.000099
0.004052 0.292506 0.000027
0.024148 0.282991 0.000061
0.094149 0.279907 0.000348
0.196819 0.275242 0.000097
0.326414 0.270066 0.000217
0.453282 0.266675 0.000283
0.573969 0.269310 0.000000
0.688976 0.280909 0.000003
0.806516 0.299332 0.000162
0.939419 0.319130 0.000039
0.999876 0.343895 0.000160
0.999216 0.375666 0.020280
0.999794 0.407299 0.120636
0.998815 0.422021 0.195114
0.999760 0.444291 0.248358
0.999266 0.460951 0.287193
0.999995 0.467736 0.282945
0.999887 0.477260 0.268332
0.999667 0.488652 0.253305
0.999754 0.502335 0.228976
0.999620 0.521981 0.199959
0.999541 0.541518 0.162765
0.999678 0.566269 0.115944
0.999544 0.592949 0.060225
0.000199 0.606078 0.000553
0.000136 0.521746 0.000080
0.000264 0.473036 0.000282
0.000326 0.447607 0.000127
0.000070 0.433306 0.000120
0.000090 0.421797 0.000344
0.000126 0.412934 0.000405
0.000045 0.406616 0.000152
0.000092 0.399533 0.000167
0.000303 0.391204 0.000516
0.008730 0.384520 0.000565
0.053132 0.379447 0.000757
0.146834 0.371121 0.000265
0.278818 0.359976 0.000037
0.411350 0.352517 0.000003
0.534992 0.353319 0.000068
0.652179 0.357259 0.000069
0.766696 0.368909 0.000019
0.896135 0.382680 0.000000
0.997723 0.400856 0.000044
0.999037 0.424007 0.000000
0.998959 0.451512 0.034366
0.999233 0.461937 0.114570
0.999937 0.472944 0.182058
0.999455 0.486523 0.235511
0.999907 0.491431 0.246899
0.999469 0.497721 0.237781
0.999479 0.507482 0.222889
0.999822 0.519548 0.200562
0.999186 0.535805 0.174881
0.999499 0.553553 0.141183
0.999693 0.576583 0.094263
0.999611 0.601507 0.040772
0.000329 0.709062 0.000825
0.000177 0.582474 0.000278
0.000207 0.551151 0.000767
0.000005 0.535074 0.000541
0.000004 0.522621 0.000269
0.000020 0.515415 0.000082
0.000123 0.509567 0.000023
0.000255 0.504569 0.000021
0.000229 0.499388 0.000020
0.000038 0.493650 0.000020
0.000000 0.487156 0.000356
0.022780 0.479100 0.000759
0.097265 0.467982 0.000783
0.228648 0.454589 0.000333
0.366687 0.444401 0.000264
0.497384 0.438053 0.000066
0.616434 0.435542 0.000114
0.729986 0.440504 0.000156
0.851437 0.449465 0.000022
0.972537 0.462886 0.000026
0.999859 0.478656 0.000300
0.999753 0.498324 0.000298
0.999248 0.508739 0.027891
0.999606 0.508783 0.096061
0.999361 0.516931 0.167934
0.998822 0.517614 0.203625
0.999235 0.523691 0.196318
0.999437 0.529129 0.185395
0.999628 0.539392 0.164783
0.999354 0.552762 0.142369
0.999268 0.568489 0.109059
0.999622 0.588971 0.067442
0.999696 0.612018 0.016851
0.000067 0.729491 0.000217
0.000218 0.644339 0.000171
0.000041 0.625358 0.000409
0.000129 0.614702 0.000095
0.000054 0.607631 0.000050
0.000004 0.601880 0.000085
0.000002 0.596721 0.000301
0.000000 0.592187 0.000496
0.000000 0.587592 0.000566
0.000000 0.582245 0.000610
0.000034 0.577097 0.000749
0.007639 0.570234 0.000821
0.039037 0.558335 0.000518
0.171173 0.544111 0.000049
0.322533 0.530896 0.000056
0.456736 0.521327 0.000005
0.578614 0.515158 0.000002
0.689650 0.513818 0.000054
0.808662 0.517127 0.000018
0.943999 0.513184 0.000104
0.999318 0.516758 0.000117
0.999131 0.540851 0.000130
0.998668 0.560077 0.000056
0.999046 0.552467 0.017413
0.999062 0.553622 0.073876
0.999555 0.550069 0.145847
0.999339 0.551553 0.144446
0.999278 0.555320 0.137366
0.999283 0.562399 0.120222
0.999861 0.573190 0.102033
0.999139 0.586483 0.070443
0.999548 0.604411 0.038270
0.999375 0.625055 0.009502
0.000001 0.760180 0.000278
0.000520 0.710858 0.001181
0.000457 0.699738 0.000218
0.000589 0.691308 0.000251
0.000653 0.684824 0.000370
0.000471 0.680079 0.000574
0.000319 0.676049 0.000745
0.000215 0.672665 0.000717
0.000124 0.669012 0.000513
0.000009 0.664604 0.000272
0.000113 0.660575 0.000323
0.003350 0.655216 0.000383
0.022805 0.645095 0.000266
0.114569 0.632426 0.000074
0.256638 0.617048 0.000325
0.406667 0.603107 0.000202
0.537603 0.593130 0.000009
0.655065 0.584844 0.000214
0.770806 0.575018 0.000056
0.903385 0.565856 0.000013
0.998576 0.560329 0.000038
0.999645 0.569283 0.000130
0.999346 0.597867 0.000000
0.999730 0.602785 0.000000
0.999940 0.596432 0.001155
0.999267 0.587487 0.057852
0.999480 0.583648 0.076453
0.999048 0.586188 0.075536
0.999174 0.589862 0.064570
0.999862 0.598203 0.051210
0.999760 0.608774 0.023275
0.999489 0.623562 0.008211
0.998968 0.640696 0.000981
0.000002 0.810554 0.000096
0.000001 0.781552 0.000075
0.000000 0.772202 0.000614
0.000000 0.765754 0.000656
0.000000 0.760766 0.000339
0.000000 0.756612 0.000072
0.000000 0.753448 0.000059
0.000000 0.750689 0.000089
0.000000 0.747526 0.000127
0.000000 0.743824 0.000273
0.000000 0.739597 0.000590
0.000000 0.734175 0.000744
0.000000 0.726593 0.000201
0.062528 0.715892 0.000354
0.186046 0.701727 0.000579
0.350047 0.683653 0.000210
0.492728 0.663555 0.000010
0.614781 0.647062 0.000153
0.730288 0.633866 0.000113
0.855482 0.621858 0.000020
0.971236 0.611149 0.000089
0.999590 0.607023 0.000000
0.999360 0.623832 0.000058
0.999440 0.636560 0.000000
0.999180 0.641624 0.000001
0.999150 0.632248 0.003539
0.999313 0.621018 0.006670
0.999433 0.620546 0.016541
0.999239 0.622451 0.006668
0.999385 0.626112 0.006085
0.999491 0.634377 0.004396
0.999292 0.646394 0.000078
0.998920 0.661717 0.000000
0.000032 0.866585 0.000231
0.000045 0.849046 0.000263
0.000052 0.843081 0.000386
0.000056 0.838821 0.000478
0.000046 0.835652 0.000416
0.000031 0.833116 0.000292
0.000018 0.830919 0.000185
0.000006 0.828940 0.000089
0.000010 0.826309 0.000103
0.000033 0.822739 0.000236
0.000060 0.818363 0.000402
0.000556 0.813518 0.000398
0.001413 0.808193 0.000199
0.035736 0.797353 0.000065
0.114949 0.780089 0.000003
0.296476 0.752029 0.000000
0.449075 0.729551 0.000017
0.575621 0.709806 0.000008
0.691264 0.693838 0.000178
0.812637 0.677943 0.000000
0.944077 0.663118 0.000000
0.998774 0.654184 0.000090
0.999008 0.657543 0.000032
0.999075 0.667421 0.000000
0.999190 0.668289 0.000007
0.999152 0.670302 0.000007
0.999097 0.663146 0.000228
0.999483 0.659213 0.000000
0.999435 0.658283 0.000343
0.999603 0.659517 0.000431
0.999131 0.664784 0.000006
0.999261 0.671038 0.000012
0.999182 0.681930 0.000000
0.000027 0.923146 0.000275
0.000025 0.909579 0.000413
0.000029 0.904864 0.000519
0.000026 0.901520 0.000539
0.000024 0.898820 0.000555
0.000023 0.896535 0.000570
0.000018 0.894809 0.000615
0.000014 0.893236 0.000656
0.000010 0.891400 0.000703
0.000004 0.889110 0.000761
0.000000 0.886274 0.000760
0.000000 0.882797 0.000589
0.000000 0.878587 0.000373
0.023207 0.868049 0.000179
0.069777 0.853046 0.000008
0.217668 0.824375 0.000001
0.378773 0.797771 0.000000
0.524110 0.774719 0.000007
0.648001 0.754754 0.000004
0.765440 0.737068 0.000358
0.896356 0.720233 0.000000
0.987774 0.706207 0.000309
0.999272 0.700725 0.000058
0.999464 0.705924 0.000020
0.999253 0.698529 0.000011
0.999420 0.693334 0.000060
0.999799 0.692864 0.000017
0.999148 0.691351 0.000060
0.998885 0.687771 0.000088
0.998924 0.689816 0.000001
0.999148 0.688694 0.000058
0.999445 0.692121 0.000158
0.999756 0.696133 0.000005
0.000024 0.976622 0.000184
0.000000 0.969440 0.000098
0.000000 0.966830 0.000100
0.000000 0.964439 0.000120
0.000000 0.962487 0.000136
0.000000 0.960817 0.000151
0.000000 0.959347 0.000164
0.000000 0.958004 0.000176
0.000005 0.956426 0.000213
0.000033 0.954406 0.000361
0.000068 0.951893 0.000545
0.000110 0.948792 0.000770
0.000119 0.943949 0.000833
0.000059 0.936436 0.000565
0.028508 0.923986 0.000285
0.141381 0.899216 0.000082
0.298778 0.872149 0.000020
0.463296 0.845650 0.000074
0.598569 0.823144 0.000246
0.719559 0.803510 0.000197
0.846731 0.783886 0.000000
0.969069 0.765893 0.000000
0.999321 0.755460 0.000063
0.999686 0.756240 0.000346
0.999016 0.746926 0.000019
0.998809 0.727807 0.000047
0.999510 0.713993 0.000097
0.999112 0.709583 0.000420
0.999293 0.705765 0.000084
0.999670 0.705448 0.000027
0.999119 0.704148 0.000021
0.999414 0.705568 0.000377
0.998752 0.707614 0.000053
0.000000 0.999760 0.000294
0.000000 0.999638 0.000295
0.000001 0.999621 0.000294
0.000001 0.999623 0.000294
0.000001 0.999635 0.000292
0.000000 0.999655 0.000290
0.000000 0.999677 0.000288
0.000000 0.999702 0.000287
0.000000 0.999737 0.000285
0.000000 0.999790 0.000284
0.000000 0.999872 0.000284
0.000000 0.999996 0.000285
0.000000 1.000000 0.000285
0.000000 1.000000 0.000285
0.026579 0.990590 0.000214
0.072974 0.974164 0.000090
0.222536 0.948074 0.000047
0.402061 0.919410 0.000036
0.548488 0.894742 0.000006
0.672926 0.872796 0.000047
0.794984 0.853000 0.000076
0.925275 0.832708 0.000036
0.993934 0.817736 0.000047
0.999155 0.814428 0.000001
0.999284 0.802076 0.000036
0.999585 0.779521 0.000187
0.999518 0.752151 0.000018
0.998786 0.732132 0.000038
0.999593 0.728538 0.000033
0.998811 0.725010 0.000040
0.999519 0.721753 0.000166
0.999223 0.722291 0.000204
0.999243 0.723040 0.000003
0.000000 1.000000 0.000285
0.000000 1.000000 0.000285
0.000000 1.000000 0.000285
0.000000 1.000000 0.000285
0.000000 1.000000 0.000285
0.000000 1.000000 0.000285
0.000000 1.000000 0.000285
0.000000 1.000000 0.000285
0.000000 1.000000 0.000285
0.000000 1.000000 0.000285
0.000000 1.000000 0.000285
0.000000 1.000000 0.000285
0.000000 1.000000 0.000285
0.007472 0.999554 0.000305
0.023424 0.998601 0.000346
0.043156 0.997453 0.000398
0.174966 0.991909 0.000722
0.326365 0.982183 0.000955
0.494897 0.961320 0.000774
0.622490 0.940776 0.000257
0.746941 0.920344 0.000044
0.880259 0.898725 0.000463
0.997421 0.879732 0.000020
0.999491 0.868206 0.000001
0.999480 0.855624 0.000016
0.999233 0.832797 0.000003
0.998976 0.804758 0.000102
0.999483 0.775436 0.000355
0.999694 0.764794 0.000007
0.999661 0.757595 0.000076
0.999269 0.752039 0.000032
0.999572 0.750150 0.000275
0.999461 0.748254 0.000030
0.000000 1.000000 0.000285
0.000000 1.000000 0.000285
0.000000 1.000000 0.000285
0.000000 1.000000 0.000285
0.000000 1.000000 0.000285
0.000000 1.000000 0.000285
0.000000 1.000000 0.000285
0.000000 1.000000 0.000285
0.000000 1.000000 0.000285
0.000000 1.000000 0.000285
0.000000 1.000000 0.000285
0.000000 1.000000 0.000285
0.000000 1.000000 0.000285
0.000000 1.000000 0.000285
0.000000 1.000000 0.000285
0.042439 0.999977 0.000244
0.117201 0.999937 0.000171
0.237613 0.998629 0.000150
0.424084 0.995607 0.000199
0.564389 0.987640 0.000072
0.695617 0.974361 0.000006
0.826524 0.955238 0.000087
0.944991 0.934003 0.000079
0.995240 0.916389 0.000130
0.999059 0.902218 0.000035
0.999267 0.881453 0.000249
0.999191 0.856528 0.000035
0.999450 0.826643 0.000547
0.998722 0.809512 0.000138
0.998699 0.800954 0.000027
0.999280 0.794845 0.000294
0.999475 0.788497 0.000001
0.999177 0.785545 0.000146
0.000000 1.000000 0.000285
0.000000 1.000000 0.000285
0.000000 1.000000 0.000285
0.000000 1.000000 0.000285
0.000000 1.000000 0.000285
0.000000 1.000000 0.000285
0.000000 1.000000 0.000285
0.000000 1.000000 0.000285
0.000000 1.000000 0.000285
0.000000 1.000000 0.000285
0.000000 1.000000 0.000285
0.000000 1.000000 0.000285
0.000000 1.000000 0.000285
0.001016 0.999996 0.000280
0.013204 0.999948 0.000220
0.028090 0.999889 0.000147
0.046027 0.999818 0.000059
0.184608 0.999601 0.000071
0.359367 0.999330 0.000099
0.501731 0.999505 0.000347
0.639862 0.997139 0.000514
0.765771 0.988954 0.000432
0.893260 0.971920 0.000063
0.984007 0.952373 0.000037
0.999430 0.937139 0.000135
0.999014 0.921280 0.000052
0.999630 0.901360 0.000042
0.999198 0.874936 0.000100
0.998604 0.852494 0.000026
0.998941 0.843857 0.000078
0.999289 0.836162 0.000006
0.999388 0.829604 0.000013
0.999127 0.824485 0.000051
0.000000 1.000000 0.000285
0.000000 1.000000 0.000285
0.000000 1.000000 0.000285
0.000000 1.000000 0.000285
0.000000 1.000000 0.000285
0.000000 1.000000 0.000285
0.000000 1.000000 0.000285
0.000000 1.000000 0.000285
0.000000 1.000000 0.000285
0.001035 0.999998 0.000287
0.002368 0.999994 0.000289
0.004024 0.999991 0.000291
0.006059 0.999986 0.000295
0.008523 0.999980 0.000298
0.011443 0.999973 0.000303
0.014807 0.999965 0.000308
0.081004 0.999787 0.000363
0.165317 0.999555 0.000432
0.275628 0.999345 0.000472
