output/AppleLog2_display/AppleLog2_to_ACROS_33grid.cube
TITLE "AppleLog2_to_ACROS"
# Input: Apple Log 2 (Apple Gamut primaries, D65)
# Output: BT.709 / Gamma 2.2 (display-referred)
# Use: Display LUT for iPhone 17 Pro Apple Log 2 footage
# Source: FLog2C_to_ACROS_65grid_V.1.00.cube
# Generated from Fujifilm GFX ETERNA 55 F-Log2C LUT
LUT_3D_SIZE 9
0.000105 0.000105 0.000105
0.000105 0.000105 0.000105
0.008964 0.008964 0.008964
0.106830 0.106830 0.106830
0.327607 0.327607 0.327607
0.558594 0.558594 0.558594
0.558594 0.558594 0.558594
0.612239 0.612239 0.612239
0.682450 0.682450 0.682450
0.000105 0.000105 0.000105
0.000105 0.000105 0.000105
0.036209 0.036209 0.036209
0.136430 0.136430 0.136430
0.298885 0.298885 0.298885
0.488498 0.488498 0.488498
0.587857 0.587857 0.587857
0.634447 0.634447 0.634447
0.690466 0.690466 0.690466
0.044258 0.044258 0.044258
0.041713 0.041713 0.041713
0.055465 0.055465 0.055465
0.113117 0.113117 0.113117
0.251915 0.251915 0.251915
0.485481 0.485481 0.485481
0.605104 0.605104 0.605104
0.642715 0.642715 0.642715
0.693921 0.693921 0.693921
0.183296 0.183296 0.183296
0.131960 0.131960 0.131960
0.135185 0.135185 0.135185
0.172828 0.172828 0.172828
0.284636 0.284636 0.284636
0.499523 0.499523 0.499523
0.633696 0.633696 0.633696
0.658353 0.658353 0.658353
0.700789 0.700789 0.700789
0.363571 0.363571 0.363571
0.307037 0.307037 0.307037
0.314024 0.314024 0.314024
0.338883 0.338883 0.338883
0.405332 0.405332 0.405332
0.545242 0.545242 0.545242
0.670915 0.670915 0.670915
0.691702 0.691702 0.691702
0.716890 0.716890 0.716890
0.536907 0.536907 0.536907
0.548402 0.548402 0.548402
0.553537 0.553537 0.553537
0.564696 0.564696 0.564696
0.595202 0.595202 0.595202
0.662915 0.662915 0.662915
0.733572 0.733572 0.733572
0.745241 0.745241 0.745241
0.750828 0.750828 0.750828
0.744296 0.744296 0.744296
0.750742 0.750742 0.750742
0.753429 0.753429 0.753429
0.758872 0.758872 0.758872
0.771884 0.771884 0.771884
0.800844 0.800844 0.800844
0.831798 0.831798 0.831798
0.812291 0.812291 0.812291
0.802641 0.802641 0.802641
0.820794 0.820794 0.820794
0.824030 0.824030 0.824030
0.825433 0.825433 0.825433
0.828321 0.828321 0.828321
0.835694 0.835694 0.835694
0.852711 0.852711 0.852711
0.880327 0.880327 0.880327
0.875998 0.875998 0.875998
0.864205 0.864205 0.864205
0.851959 0.851959 0.851959
0.853033 0.853033 0.853033
0.853505 0.853505 0.853505
0.854494 0.854494 0.854494
0.857153 0.857153 0.857153
0.863953 0.863953 0.863953
0.877121 0.877121 0.877121
0.884766 0.884766 0.884766
0.884766 0.884766 0.884766
0.000105 0.000105 0.000105
0.000105 0.000105 0.000105
0.000712 0.000712 0.000712
0.094499 0.094499 0.094499
0.319908 0.319908 0.319908
0.558594 0.558594 0.558594
0.558594 0.558594 0.558594
0.611197 0.611197 0.611197
0.682100 0.682100 0.682100
0.000105 0.000105 0.000105
0.000105 0.000105 0.000105
0.026907 0.026907 0.026907
0.128767 0.128767 0.128767
0.305881 0.305881 0.305881
0.491768 0.491768 0.491768
0.586007 0.586007 0.586007
0.633605 0.633605 0.633605
0.690125 0.690125 0.690125
0.038533 0.038533 0.038533
0.043084 0.043084 0.043084
0.047621 0.047621 0.047621
0.105515 0.105515 0.105515
0.247833 0.247833 0.247833
0.483456 0.483456 0.483456
0.603557 0.603557 0.603557
0.641955 0.641955 0.641955
0.693595 0.693595 0.693595
0.176991 0.176991 0.176991
0.133423 0.133423 0.133423
0.129866 0.129866 0.129866
0.165432 0.165432 0.165432
0.278716 0.278716 0.278716
0.497094 0.497094 0.497094
0.632647 0.632647 0.632647
0.657681 0.657681 0.657681
0.700489 0.700489 0.700489
0.381324 0.381324 0.381324
0.304399 0.304399 0.304399
0.309779 0.309779 0.309779
0.334524 0.334524 0.334524
0.401522 0.401522 0.401522
0.543010 0.543010 0.543010
0.670229 0.670229 0.670229
0.691266 0.691266 0.691266
0.716664 0.716664 0.716664
0.535026 0.535026 0.535026
0.546389 0.546389 0.546389
0.551675 0.551675 0.551675
0.562799 0.562799 0.562799
0.593444 0.593444 0.593444
0.661676 0.661676 0.661676
0.733183 0.733183 0.733183
0.745024 0.745024 0.745024
0.750681 0.750681 0.750681
0.743458 0.743458 0.743458
0.749954 0.749954 0.749954
0.752670 0.752670 0.752670
0.758138 0.758138 0.758138
0.771273 0.771273 0.771273
0.800359 0.800359 0.800359
0.831732 0.831732 0.831732
0.812212 0.812212 0.812212
0.802564 0.802564 0.802564
0.820467 0.820467 0.820467
0.823708 0.823708 0.823708
0.825116 0.825116 0.825116
0.828016 0.828016 0.828016
0.835431 0.835431 0.835431
0.852495 0.852495 0.852495
0.880262 0.880262 0.880262
0.875999 0.875999 0.875999
0.864188 0.864188 0.864188
0.851853 0.851853 0.851853
0.852927 0.852927 0.852927
0.853400 0.853400 0.853400
0.854390 0.854390 0.854390
0.857053 0.857053 0.857053
0.863876 0.863876 0.863876
0.877070 0.877070 0.877070
0.884766 0.884766 0.884766
0.884766 0.884766 0.884766
0.005936 0.005936 0.005936
0.005713 0.005713 0.005713
0.005611 0.005611 0.005611
0.080198 0.080198 0.080198
0.299467 0.299467 0.299467
0.558594 0.558594 0.558594
0.558594 0.558594 0.558594
0.610729 0.610729 0.610729
0.681943 0.681943 0.681943
0.005598 0.005598 0.005598
0.005363 0.005363 0.005363
0.020726 0.020726 0.020726
0.113421 0.113421 0.113421
0.294242 0.294242 0.294242
0.487126 0.487126 0.487126
0.585111 0.585111 0.585111
0.633227 0.633227 0.633227
0.689974 0.689974 0.689974
0.047933 0.047933 0.047933
0.054001 0.054001 0.054001
0.051666 0.051666 0.051666
0.101922 0.101922 0.101922
0.239478 0.239478 0.239478
0.478378 0.478378 0.478378
0.602859 0.602859 0.602859
0.641615 0.641615 0.641615
0.693449 0.693449 0.693449
0.207701 0.207701 0.207701
0.160846 0.160846 0.160846
0.146854 0.146854 0.146854
0.173207 0.173207 0.173207
0.277991 0.277991 0.277991
0.491510 0.491510 0.491510
0.632177 0.632177 0.632177
0.657380 0.657380 0.657380
0.700355 0.700355 0.700355
0.431840 0.431840 0.431840
0.329114 0.329114 0.329114
0.329970 0.329970 0.329970
0.346899 0.346899 0.346899
0.404339 0.404339 0.404339
0.541933 0.541933 0.541933
0.669922 0.669922 0.669922
0.691072 0.691072 0.691072
0.716564 0.716564 0.716564
0.533636 0.533636 0.533636
0.545742 0.545742 0.545742
0.550916 0.550916 0.550916
0.561944 0.561944 0.561944
0.592655 0.592655 0.592655
0.661121 0.661121 0.661121
0.733008 0.733008 0.733008
0.744927 0.744927 0.744927
0.750616 0.750616 0.750616
0.743084 0.743084 0.743084
0.749602 0.749602 0.749602
0.752330 0.752330 0.752330
0.757810 0.757810 0.757810
0.771001 0.771001 0.771001
0.800143 0.800143 0.800143
0.831695 0.831695 0.831695
0.812176 0.812176 0.812176
0.802529 0.802529 0.802529
0.820321 0.820321 0.820321
0.823564 0.823564 0.823564
0.824975 0.824975 0.824975
0.827880 0.827880 0.827880
0.835314 0.835314 0.835314
0.852399 0.852399 0.852399
0.880234 0.880234 0.880234
0.876000 0.876000 0.876000
0.864181 0.864181 0.864181
0.851808 0.851808 0.851808
0.852880 0.852880 0.852880
0.853353 0.853353 0.853353
0.854344 0.854344 0.854344
0.857009 0.857009 0.857009
0.863842 0.863842 0.863842
0.877048 0.877048 0.877048
0.884766 0.884766 0.884766
0.884766 0.884766 0.884766
0.015871 0.015871 0.015871
0.015613 0.015613 0.015613
0.015497 0.015497 0.015497
0.069511 0.069511 0.069511
0.279464 0.279464 0.279464
0.547707 0.547707 0.547707
0.558594 0.558594 0.558594
0.609730 0.609730 0.609730
0.681612 0.681612 0.681612
0.015482 0.015482 0.015482
0.015219 0.015219 0.015219
0.022219 0.022219 0.022219
0.100573 0.100573 0.100573
0.289622 0.289622 0.289622
0.473347 0.473347 0.473347
0.591667 0.591667 0.591667
0.632423 0.632423 0.632423
0.689653 0.689653 0.689653
0.057290 0.057290 0.057290
0.066070 0.066070 0.066070
0.053395 0.053395 0.053395
0.100758 0.100758 0.100758
0.237563 0.237563 0.237563
0.470481 0.470481 0.470481
0.611630 0.611630 0.611630
0.640892 0.640892 0.640892
0.693141 0.693141 0.693141
0.249363 0.249363 0.249363
0.214914 0.214914 0.214914
0.175342 0.175342 0.175342
0.191777 0.191777 0.191777
0.290082 0.290082 0.290082
0.491191 0.491191 0.491191
0.638930 0.638930 0.638930
0.656741 0.656741 0.656741
0.700072 0.700072 0.700072
0.513968 0.513968 0.513968
0.386438 0.386438 0.386438
0.381977 0.381977 0.381977
0.393203 0.393203 0.393203
0.440964 0.440964 0.440964
0.560420 0.560420 0.560420
0.678986 0.678986 0.678986
0.690659 0.690659 0.690659
0.716350 0.716350 0.716350
0.597926 0.597926 0.597926
0.603391 0.603391 0.603391
0.606252 0.606252 0.606252
0.612741 0.612741 0.612741
0.633243 0.633243 0.633243
0.684076 0.684076 0.684076
0.747204 0.747204 0.747204
0.744723 0.744723 0.744723
0.750478 0.750478 0.750478
0.747032 0.747032 0.747032
0.752135 0.752135 0.752135
0.754395 0.754395 0.754395
0.758902 0.758902 0.758902
0.770924 0.770924 0.770924
0.798988 0.798988 0.798988
0.831576 0.831576 0.831576
0.812101 0.812101 0.812101
0.802457 0.802457 0.802457
0.820012 0.820012 0.820012
0.823260 0.823260 0.823260
0.824676 0.824676 0.824676
0.827591 0.827591 0.827591
0.835067 0.835067 0.835067
0.852195 0.852195 0.852195
0.880173 0.880173 0.880173
0.876001 0.876001 0.876001
0.864165 0.864165 0.864165
0.851713 0.851713 0.851713
0.852780 0.852780 0.852780
0.853254 0.853254 0.853254
0.854246 0.854246 0.854246
0.856914 0.856914 0.856914
0.863770 0.863770 0.863770
0.877000 0.877000 0.877000
0.884766 0.884766 0.884766
0.884766 0.884766 0.884766
0.037484 0.037484 0.037484
0.037352 0.037352 0.037352
0.037294 0.037294 0.037294
0.062101 0.062101 0.062101
0.258186 0.258186 0.258186
0.532105 0.532105 0.532105
0.563349 0.563349 0.563349
0.628466 0.628466 0.628466
0.680692 0.680692 0.680692
0.037286 0.037286 0.037286
0.037154 0.037154 0.037154
0.037095 0.037095 0.037095
0.088842 0.088842 0.088842
0.278882 0.278882 0.278882
0.475322 0.475322 0.475322
0.599925 0.599925 0.599925
0.654564 0.654564 0.654564
0.688762 0.688762 0.688762
0.049672 0.049672 0.049672
0.060642 0.060642 0.060642
0.060224 0.060224 0.060224
0.091623 0.091623 0.091623
0.234354 0.234354 0.234354
0.461765 0.461765 0.461765
0.622935 0.622935 0.622935
0.664656 0.664656 0.664656
0.692287 0.692287 0.692287
0.276393 0.276393 0.276393
0.285392 0.285392 0.285392
0.217386 0.217386 0.217386
0.206624 0.206624 0.206624
0.300894 0.300894 0.300894
0.493926 0.493926 0.493926
0.646409 0.646409 0.646409
0.682924 0.682924 0.682924
0.699286 0.699286 0.699286
0.550995 0.550995 0.550995
0.448591 0.448591 0.448591
0.430577 0.430577 0.430577
0.437427 0.437427 0.437427
0.479032 0.479032 0.479032
0.582805 0.582805 0.582805
0.697879 0.697879 0.697879
0.720633 0.720633 0.720633
0.715759 0.715759 0.715759
0.641309 0.641309 0.641309
0.646766 0.646766 0.646766
0.650177 0.650177 0.650177
0.657038 0.657038 0.657038
0.675810 0.675810 0.675810
0.722036 0.722036 0.722036
0.787778 0.787778 0.787778
0.781751 0.781751 0.781751
0.750096 0.750096 0.750096
0.798084 0.798084 0.798084
0.803932 0.803932 0.803932
0.806529 0.806529 0.806529
0.811627 0.811627 0.811627
0.823104 0.823104 0.823104
0.846785 0.846785 0.846785
0.878392 0.878392 0.878392
0.848494 0.848494 0.848494
0.802256 0.802256 0.802256
0.823538 0.823538 0.823538
0.825975 0.825975 0.825975
0.827036 0.827036 0.827036
0.829232 0.829232 0.829232
0.835062 0.835062 0.835062
0.849009 0.849009 0.849009
0.874395 0.874395 0.874395
0.876006 0.876006 0.876006
0.864122 0.864122 0.864122
0.851452 0.851452 0.851452
0.852505 0.852505 0.852505
0.852981 0.852981 0.852981
0.853976 0.853976 0.853976
0.856654 0.856654 0.856654
0.863572 0.863572 0.863572
0.876870 0.876870 0.876870
0.884766 0.884766 0.884766
0.884766 0.884766 0.884766
0.066120 0.066120 0.066120
0.066071 0.066071 0.066071
0.066049 0.066049 0.066049
0.066002 0.066002 0.066002
0.215914 0.215914 0.215914
0.500511 0.500511 0.500511
0.565020 0.565020 0.565020
0.631210 0.631210 0.631210
0.720352 0.720352 0.720352
0.066046 0.066046 0.066046
0.065996 0.065996 0.065996
0.065974 0.065974 0.065974
0.062773 0.062773 0.062773
0.232037 0.232037 0.232037
0.507609 0.507609 0.507609
0.586322 0.586322 0.586322
0.660270 0.660270 0.660270
0.730479 0.730479 0.730479
0.066013 0.066013 0.066013
0.065963 0.065963 0.065963
0.065941 0.065941 0.065941
0.068939 0.068939 0.068939
0.231402 0.231402 0.231402
0.431014 0.431014 0.431014
0.612096 0.612096 0.612096
0.671346 0.671346 0.671346
0.734622 0.734622 0.734622
0.224699 0.224699 0.224699
0.237602 0.237602 0.237602
0.243326 0.243326 0.243326
0.178211 0.178211 0.178211
0.271591 0.271591 0.271591
0.470703 0.470703 0.470703
0.638294 0.638294 0.638294
0.692285 0.692285 0.692285
0.742834 0.742834 0.742834
0.552674 0.552674 0.552674
0.555385 0.555385 0.555385
0.497268 0.497268 0.497268
0.451357 0.451357 0.451357
0.491873 0.491873 0.491873
0.588080 0.588080 0.588080
0.701286 0.701286 0.701286
0.734256 0.734256 0.734256
0.762522 0.762522 0.762522
0.667121 0.667121 0.667121
0.661071 0.661071 0.661071
0.666371 0.666371 0.666371
0.675285 0.675285 0.675285
0.696660 0.696660 0.696660
0.741361 0.741361 0.741361
0.804063 0.804063 0.804063
0.800824 0.800824 0.800824
0.801139 0.801139 0.801139
0.803946 0.803946 0.803946
0.810327 0.810327 0.810327
0.813100 0.813100 0.813100
0.818674 0.818674 0.818674
0.831392 0.831392 0.831392
0.858126 0.858126 0.858126
0.895215 0.895215 0.895215
0.881244 0.881244 0.881244
0.859296 0.859296 0.859296
0.861696 0.861696 0.861696
0.864651 0.864651 0.864651
0.865927 0.865927 0.865927
0.868536 0.868536 0.868536
0.875263 0.875263 0.875263
0.891541 0.891541 0.891541
0.923226 0.923226 0.923226
0.940965 0.940965 0.940965
0.909336 0.909336 0.909336
0.861258 0.861258 0.861258
0.862088 0.862088 0.862088
0.862447 0.862447 0.862447
0.863201 0.863201 0.863201
0.865226 0.865226 0.865226
0.870468 0.870468 0.870468
0.880861 0.880861 0.880861
0.892710 0.892710 0.892710
0.884766 0.884766 0.884766
0.097764 0.097764 0.097764
0.097746 0.097746 0.097746
0.097739 0.097739 0.097739
0.097722 0.097722 0.097722
0.101509 0.101509 0.101509
0.422912 0.422912 0.422912
0.560045 0.560045 0.560045
0.595768 0.595768 0.595768
0.720228 0.720228 0.720228
0.097738 0.097738 0.097738
0.097720 0.097720 0.097720
0.097712 0.097712 0.097712
0.097696 0.097696 0.097696
0.128753 0.128753 0.128753
0.429693 0.429693 0.429693
0.560085 0.560085 0.560085
0.635088 0.635088 0.635088
0.731631 0.731631 0.731631
0.097726 0.097726 0.097726
0.097708 0.097708 0.097708
0.097700 0.097700 0.097700
0.097684 0.097684 0.097684
0.142898 0.142898 0.142898
0.432654 0.432654 0.432654
0.550087 0.550087 0.550087
0.649231 0.649231 0.649231
0.736322 0.736322 0.736322
0.097701 0.097701 0.097701
0.097683 0.097683 0.097683
0.097676 0.097676 0.097676
0.097659 0.097659 0.097659
0.161120 0.161120 0.161120
0.375810 0.375810 0.375810
0.594052 0.594052 0.594052
0.674395 0.674395 0.674395
0.745533 0.745533 0.745533
0.455585 0.455585 0.455585
0.459331 0.459331 0.459331
0.460975 0.460975 0.460975
0.464382 0.464382 0.464382
0.415057 0.415057 0.415057
0.537789 0.537789 0.537789
0.673799 0.673799 0.673799
0.723747 0.723747 0.723747
0.767249 0.767249 0.767249
0.673280 0.673280 0.673280
0.668909 0.668909 0.668909
0.652235 0.652235 0.652235
0.630863 0.630863 0.630863
0.661976 0.661976 0.661976
0.723185 0.723185 0.723185
0.792611 0.792611 0.792611
0.798226 0.798226 0.798226
0.809846 0.809846 0.809846
0.772394 0.772394 0.772394
0.780196 0.780196 0.780196
0.783268 0.783268 0.783268
0.790027 0.790027 0.790027
0.806123 0.806123 0.806123
0.839366 0.839366 0.839366
0.884621 0.884621 0.884621
0.888502 0.888502 0.888502
0.872692 0.872692 0.872692
0.863192 0.863192 0.863192
0.866347 0.866347 0.866347
0.867705 0.867705 0.867705
0.870492 0.870492 0.870492
0.877868 0.877868 0.877868
0.895151 0.895151 0.895151
0.928037 0.928037 0.928037
0.959198 0.959198 0.959198
0.937869 0.937869 0.937869
0.897093 0.897093 0.897093
0.897922 0.897922 0.897922
0.898287 0.898287 0.898287
0.899050 0.899050 0.899050
0.901270 0.901270 0.901270
0.907224 0.907224 0.907224
0.921245 0.921245 0.921245
0.949106 0.949106 0.949106
0.956117 0.956117 0.956117
0.119796 0.119796 0.119796
0.119795 0.119795 0.119795
0.119794 0.119794 0.119794
0.119792 0.119792 0.119792
0.119788 0.119788 0.119788
0.243091 0.243091 0.243091
0.534476 0.534476 0.534476
0.552507 0.552507 0.552507
0.676793 0.676793 0.676793
0.119794 0.119794 0.119794
0.119792 0.119792 0.119792
0.119791 0.119791 0.119791
0.119790 0.119790 0.119790
0.119786 0.119786 0.119786
0.260276 0.260276 0.260276
0.534780 0.534780 0.534780
0.550342 0.550342 0.550342
0.692268 0.692268 0.692268
0.119793 0.119793 0.119793
0.119791 0.119791 0.119791
0.119790 0.119790 0.119790
0.119789 0.119789 0.119789
0.119784 0.119784 0.119784
0.267211 0.267211 0.267211
0.534914 0.534914 0.534914
0.532443 0.532443 0.532443
0.698432 0.698432 0.698432
0.119790 0.119790 0.119790
0.119789 0.119789 0.119789
0.119788 0.119788 0.119788
0.119786 0.119786 0.119786
0.119782 0.119782 0.119782
0.280568 0.280568 0.280568
0.535194 0.535194 0.535194
0.574783 0.574783 0.574783
0.710362 0.710362 0.710362
0.121960 0.121960 0.121960
0.123122 0.123122 0.123122
0.123496 0.123496 0.123496
0.124313 0.124313 0.124313
0.126786 0.126786 0.126786
0.268900 0.268900 0.268900
0.529350 0.529350 0.529350
0.662025 0.662025 0.662025
0.738509 0.738509 0.738509
0.572218 0.572218 0.572218
0.573640 0.573640 0.573640
0.574269 0.574269 0.574269
0.575592 0.575592 0.575592
0.579197 0.579197 0.579197
0.589855 0.589855 0.589855
0.720694 0.720694 0.720694
0.764940 0.764940 0.764940
0.790355 0.790355 0.790355
0.787491 0.787491 0.787491
0.754293 0.754293 0.754293
0.732170 0.732170 0.732170
0.707475 0.707475 0.707475
0.710140 0.710140 0.710140
0.759600 0.759600 0.759600
0.832481 0.832481 0.832481
0.872250 0.872250 0.872250
0.862212 0.862212 0.862212
0.835890 0.835890 0.835890
0.838815 0.838815 0.838815
0.840063 0.840063 0.840063
0.842603 0.842603 0.842603
0.849742 0.849742 0.849742
0.867837 0.867837 0.867837
0.902661 0.902661 0.902661
0.947160 0.947160 0.947160
0.939495 0.939495 0.939495
0.899720 0.899720 0.899720
0.900762 0.900762 0.900762
0.901220 0.901220 0.901220
0.902176 0.902176 0.902176
0.904738 0.904738 0.904738
0.911301 0.911301 0.911301
0.926551 0.926551 0.926551
0.957770 0.957770 0.957770
0.982960 0.982960 0.982960
0.122616 0.122616 0.122616
0.122615 0.122615 0.122615
0.122615 0.122615 0.122615
0.122615 0.122615 0.122615
0.122613 0.122613 0.122613
0.122609 0.122609 0.122609
0.376107 0.376107 0.376107
0.510424 0.510424 0.510424
0.538518 0.538518 0.538518
0.122615 0.122615 0.122615
0.122614 0.122614 0.122614
0.122614 0.122614 0.122614
0.122614 0.122614 0.122614
0.122612 0.122612 0.122612
0.122608 0.122608 0.122608
0.381385 0.381385 0.381385
0.510587 0.510587 0.510587
0.518512 0.518512 0.518512
0.122615 0.122615 0.122615
0.122614 0.122614 0.122614
0.122614 0.122614 0.122614
0.122613 0.122613 0.122613
0.122612 0.122612 0.122612
0.122608 0.122608 0.122608
0.383637 0.383637 0.383637
0.510659 0.510659 0.510659
0.497216 0.497216 0.497216
0.122614 0.122614 0.122614
0.122613 0.122613 0.122613
0.122613 0.122613 0.122613
0.122613 0.122613 0.122613
0.122611 0.122611 0.122611
0.122607 0.122607 0.122607
0.387930 0.387930 0.387930
0.510811 0.510811 0.510811
0.527413 0.527413 0.527413
0.122612 0.122612 0.122612
0.122611 0.122611 0.122611
0.122611 0.122611 0.122611
0.122610 0.122610 0.122610
0.122609 0.122609 0.122609
0.122605 0.122605 0.122605
0.397518 0.397518 0.397518
0.511226 0.511226 0.511226
0.607123 0.607123 0.607123
0.132342 0.132342 0.132342
0.132875 0.132875 0.132875
0.133103 0.133103 0.133103
0.133567 0.133567 0.133567
0.134410 0.134410 0.134410
0.137148 0.137148 0.137148
0.331234 0.331234 0.331234
0.623764 0.623764 0.623764
0.708775 0.708775 0.708775
0.765938 0.765938 0.765938
0.766218 0.766218 0.766218
0.766343 0.766343 0.766343
0.766605 0.766605 0.766605
0.767326 0.767326 0.767326
0.769289 0.769289 0.769289
0.674799 0.674799 0.674799
0.800085 0.800085 0.800085
0.818443 0.818443 0.818443
0.797852 0.797852 0.797852
0.797852 0.797852 0.797852
0.797852 0.797852 0.797852
0.797852 0.797852 0.797852
0.797419 0.797419 0.797419
0.809986 0.809986 0.809986
0.835747 0.835747 0.835747
0.891886 0.891886 0.891886
0.919726 0.919726 0.919726
0.873941 0.873941 0.873941
0.875249 0.875249 0.875249
0.875821 0.875821 0.875821
0.877012 0.877012 0.877012
0.880177 0.880177 0.880177
0.888842 0.888842 0.888842
0.908464 0.908464 0.908464
0.946301 0.946301 0.946301
0.993304 0.993304 0.993304
