output/AppleLog2_display/AppleLog2_to_ETERNA_33grid.cube
TITLE "AppleLog2_to_ETERNA"
# Input: Apple Log 2 (Apple Gamut primaries, D65)
# Output: BT.709 / Gamma 2.2 (display-referred)
# Use: Display LUT for iPhone 17 Pro Apple Log 2 footage
# Source: FLog2C_to_ETERNA_65grid_V.1.00.cube
# Generated from Fujifilm GFX ETERNA 55 F-Log2C LUT
LUT_3D_SIZE 33
0.006510 0.006095 0.006119
0.006510 0.006095 0.006119
0.006510 0.006095 0.006119
0.006510 0.006095 0.006119
0.006510 0.006095 0.006119
0.006510 0.006095 0.006119
0.006510 0.006095 0.006119
0.006510 0.006095 0.006119
0.073306 0.010037 0.015201
0.134808 0.011938 0.023326
0.194943 0.018178 0.030093
0.271204 0.023982 0.040916
0.367601 0.040728 0.052467
0.483753 0.061042 0.068903
0.608070 0.088680 0.080973
0.732800 0.116070 0.095911
0.852505 0.154025 0.111158
0.931997 0.198259 0.118090
0.939435 0.244678 0.170092
0.944747 0.295123 0.237996
0.943984 0.328397 0.270514
0.943984 0.328397 0.270514
0.943984 0.328397 0.270514
0.943984 0.328397 0.270514
0.943984 0.328397 0.270514
0.943984 0.328397 0.270514
0.943801 0.347610 0.255296
0.940246 0.377021 0.236984
0.939100 0.406487 0.215366
0.936630 0.436464 0.186495
0.933497 0.468473 0.154638
0.930255 0.501511 0.102762
0.928897 0.534454 0.067551
0.006510 0.006095 0.006119
0.006510 0.006095 0.006119
0.006510 0.006095 0.006119
0.006510 0.006095 0.006119
0.006510 0.006095 0.006119
0.006510 0.006095 0.006119
0.039026 0.007849 0.010404
0.091257 0.010525 0.018085
0.136101 0.012115 0.023460
0.182265 0.018500 0.028405
0.241819 0.020763 0.037254
0.315742 0.032897 0.047259
0.412326 0.047714 0.058229
0.523114 0.069271 0.073890
0.639091 0.095732 0.083586
0.756297 0.123083 0.099460
0.869613 0.161013 0.113038
0.935577 0.203345 0.119197
0.940114 0.248969 0.179266
0.944824 0.299036 0.242062
0.943984 0.328397 0.270514
0.943984 0.328397 0.270514
0.943984 0.328397 0.270514
0.943984 0.328397 0.270514
0.943720 0.333759 0.265843
0.941742 0.354734 0.253402
0.941430 0.375660 0.237352
0.938890 0.400790 0.218719
0.937863 0.425371 0.198024
0.935128 0.452427 0.170144
0.932285 0.481821 0.135511
0.929294 0.512200 0.088203
0.928114 0.542559 0.065412
0.006510 0.006095 0.006119
0.006510 0.006095 0.006119
0.006510 0.006095 0.006119
0.006510 0.006095 0.006119
0.006510 0.006095 0.006119
0.014857 0.006325 0.007132
0.075037 0.010091 0.015482
0.115331 0.009278 0.021304
0.156368 0.015889 0.025460
0.202188 0.017994 0.031057
0.261708 0.022942 0.039732
0.334616 0.036333 0.049530
0.429585 0.050638 0.060847
0.538327 0.072756 0.075151
0.651364 0.098330 0.084890
0.765689 0.125886 0.100879
0.876506 0.163829 0.113795
0.935688 0.205571 0.120582
0.940391 0.250717 0.183004
0.943430 0.283501 0.225667
0.945336 0.304074 0.250760
0.943996 0.328046 0.270216
0.943984 0.328397 0.270514
0.943797 0.332076 0.266214
0.943497 0.348296 0.254621
0.940916 0.367648 0.244134
0.940884 0.386495 0.229250
0.938458 0.410104 0.210721
0.937419 0.432859 0.190953
0.934372 0.458909 0.163860
0.931797 0.487197 0.126557
0.929230 0.516441 0.083690
0.928000 0.545949 0.065165
0.006510 0.006095 0.006119
0.006510 0.006095 0.006119
0.006510 0.006095 0.006119
0.006510 0.006095 0.006119
0.006510 0.006095 0.006119
0.044285 0.008273 0.011080
0.097311 0.010212 0.018895
0.134566 0.011904 0.023301
0.169569 0.018823 0.026714
0.217649 0.019002 0.033513
0.276081 0.024516 0.041524
0.350470 0.038446 0.050942
0.442344 0.052799 0.062781
0.549665 0.075354 0.076090
0.660569 0.100117 0.086093
0.772768 0.127998 0.101949
0.881722 0.165959 0.114368
0.932336 0.193833 0.118043
0.936898 0.218990 0.123690
0.939617 0.247472 0.176483
0.943253 0.276651 0.217031
0.945311 0.307161 0.253724
0.944466 0.327645 0.265745
0.943225 0.342711 0.258164
0.942451 0.359967 0.248555
0.940764 0.376580 0.237378
0.940343 0.394636 0.223382
0.938126 0.416924 0.204493
0.936747 0.439178 0.184079
0.933883 0.463762 0.158643
0.931432 0.491203 0.119885
0.929182 0.519622 0.080298
0.927943 0.548526 0.065064
0.006510 0.006095 0.006119
0.006510 0.006095 0.006119
0.006510 0.006095 0.006119
0.006510 0.006095 0.006119
0.006510 0.006095 0.006119
0.067817 0.009864 0.014311
0.112735 0.009412 0.020957
0.148731 0.014187 0.024735
0.183394 0.018472 0.028555
0.229992 0.019831 0.035481
0.288302 0.026757 0.043224
0.363358 0.040163 0.052090
0.446517 0.053652 0.064378
0.535601 0.072067 0.074118
0.626260 0.090131 0.084705
0.714853 0.111991 0.092940
0.802167 0.140234 0.100264
0.884432 0.167693 0.113024
0.933994 0.197484 0.118896
0.937835 0.228242 0.143649
0.941374 0.260482 0.193164
0.943385 0.298192 0.231735
0.943855 0.334315 0.255464
0.941687 0.353759 0.251750
0.941458 0.368796 0.243764
0.940482 0.384009 0.232851
0.939853 0.401441 0.218015
0.937860 0.422402 0.199491
0.936204 0.444299 0.178506
0.933630 0.467876 0.153146
0.931132 0.494505 0.114386
0.929142 0.522257 0.077483
0.927896 0.550668 0.064981
0.004875 0.014145 0.005223
0.003999 0.024007 0.004353
0.004336 0.027826 0.004210
0.004587 0.030670 0.004103
0.006631 0.029316 0.002970
0.063193 0.023137 0.010252
0.104173 0.018828 0.017894
0.136469 0.019756 0.020835
0.168207 0.019784 0.026429
0.205150 0.019606 0.032561
0.254283 0.025610 0.039112
0.310431 0.033709 0.047734
0.386177 0.041676 0.056922
0.471230 0.055791 0.066628
0.564246 0.077757 0.074759
0.658197 0.100385 0.085363
0.750962 0.121665 0.097153
0.840536 0.150915 0.108364
0.921823 0.183971 0.115211
0.936236 0.219961 0.118995
0.939629 0.258223 0.163929
0.943231 0.299390 0.210591
0.942379 0.342034 0.243992
0.940852 0.362512 0.246618
0.941048 0.375167 0.238055
0.940258 0.390210 0.228523
0.939435 0.407197 0.213412
0.937470 0.427018 0.194828
0.935744 0.448665 0.173753
0.933413 0.471411 0.148428
0.930940 0.497352 0.109644
0.929109 0.524543 0.075037
0.927855 0.552533 0.064908
0.006160 0.061500 0.004380
0.006077 0.072531 0.002901
0.006016 0.076943 0.002215
0.005971 0.080257 0.001700
0.006043 0.073000 0.000254
0.047914 0.063030 0.002426
0.089056 0.059544 0.008385
0.121635 0.055227 0.012900
0.154876 0.056427 0.019058
0.190733 0.052430 0.024955
0.233064 0.053940 0.030039
0.284757 0.055647 0.038093
0.352948 0.060654 0.046680
0.432801 0.072188 0.056788
0.526048 0.082924 0.068575
0.622382 0.103479 0.080080
0.715862 0.123428 0.090487
0.810148 0.152385 0.099230
0.898288 0.187231 0.107463
0.934251 0.225413 0.104694
0.937703 0.265197 0.136014
0.942767 0.303332 0.190679
0.942170 0.345724 0.229704
0.940849 0.369261 0.242253
0.940695 0.380843 0.233242
0.940072 0.395694 0.223497
0.939077 0.412176 0.209444
0.937074 0.431046 0.190614
0.935341 0.452502 0.169577
0.933222 0.474539 0.144260
0.930904 0.499872 0.105450
0.929079 0.526583 0.072852
0.927819 0.554202 0.064843
0.005753 0.100683 0.000513
0.005700 0.106875 0.000588
0.005773 0.109512 0.000528
0.005841 0.111523 0.000471
0.005567 0.102661 0.000044
0.036187 0.095084 0.000149
0.083659 0.091456 0.002284
0.113950 0.088670 0.007113
0.145047 0.086842 0.011382
0.179497 0.085320 0.017066
0.220043 0.085228 0.023196
0.270435 0.086899 0.029731
0.332670 0.090804 0.037801
0.410757 0.096633 0.049465
0.501080 0.105030 0.061578
0.597699 0.120438 0.073471
0.692292 0.138380 0.083911
0.787275 0.166297 0.092886
0.878266 0.197047 0.101437
0.931058 0.234263 0.102335
0.936314 0.272083 0.114991
0.941848 0.307731 0.171974
0.942014 0.348721 0.216383
0.940689 0.375160 0.236076
0.940317 0.387321 0.229091
0.939909 0.400590 0.219020
0.938643 0.416675 0.205571
0.936715 0.434703 0.186791
0.934988 0.455824 0.165962
0.933048 0.477410 0.140440
0.930871 0.502194 0.101583
0.929051 0.528468 0.070829
0.927785 0.555750 0.064782
0.005969 0.133278 0.000037
0.005531 0.140128 0.000048
0.005355 0.142889 0.000053
0.005221 0.144979 0.000056
0.006518 0.128343 0.000300
0.028153 0.122455 0.000114
0.074191 0.115757 0.000372
0.106236 0.112536 0.003137
0.136667 0.112752 0.006579
0.171737 0.111335 0.010649
0.208908 0.110119 0.016686
0.256623 0.110804 0.023658
0.315589 0.112099 0.032464
0.389507 0.118086 0.042644
0.478286 0.126804 0.053653
0.571982 0.139034 0.065221
0.668699 0.155134 0.078164
0.765395 0.178558 0.087200
0.858057 0.207986 0.096204
0.926155 0.244498 0.099725
0.935757 0.282176 0.098182
0.939690 0.314839 0.138796
0.940741 0.353941 0.197869
0.940291 0.381794 0.225929
0.939880 0.394647 0.224419
0.939488 0.406535 0.213763
0.938040 0.421874 0.200830
0.936297 0.438952 0.182355
0.934586 0.459595 0.161864
0.932843 0.480781 0.135961
0.930831 0.504931 0.097024
0.929019 0.530699 0.068432
0.927745 0.557585 0.064710
0.006075 0.171101 0.000040
0.006388 0.176024 0.000086
0.006503 0.178332 0.000141
0.006988 0.174693 0.000271
0.005492 0.158138 0.000162
0.023627 0.150873 0.000020
0.065844 0.148446 0.000067
0.098865 0.142784 0.000430
0.128858 0.140511 0.001007
0.163122 0.139077 0.004883
0.199909 0.138639 0.010572
0.244582 0.138138 0.017123
0.300282 0.139108 0.025242
0.370889 0.144466 0.034492
0.455444 0.150143 0.045771
0.548249 0.160943 0.058670
0.644120 0.174574 0.069968
0.741329 0.195723 0.080555
0.836049 0.221804 0.090515
0.921745 0.256596 0.097351
0.935256 0.293477 0.092728
0.937934 0.324277 0.109798
0.939474 0.360423 0.173664
0.939693 0.389795 0.213273
0.939041 0.403774 0.216827
0.938152 0.414957 0.206831
0.937290 0.428269 0.194990
0.935720 0.444505 0.176760
0.934082 0.464310 0.156745
0.932586 0.485017 0.130342
0.930781 0.508389 0.091263
0.928978 0.533547 0.066861
0.927695 0.559921 0.064619
0.007283 0.214768 0.000695
0.007171 0.219272 0.000698
0.007125 0.221107 0.000700
0.005265 0.202209 0.000011
0.005814 0.187941 0.000259
0.018850 0.180860 0.000606
0.057706 0.178253 0.000224
0.091633 0.174863 0.000322
0.122776 0.170788 0.000494
0.155563 0.169031 0.001009
0.192005 0.168009 0.004572
0.234394 0.167231 0.010832
0.287374 0.168435 0.018763
0.353661 0.170787 0.028110
0.433313 0.175602 0.039783
0.525328 0.184598 0.051083
0.620736 0.195427 0.063564
0.716501 0.214442 0.074249
0.812038 0.239137 0.084337
0.900711 0.272717 0.091389
0.935748 0.308955 0.090931
0.937240 0.337586 0.091183
0.938126 0.368917 0.141556
0.938800 0.399382 0.197730
0.937886 0.414740 0.206733
0.936564 0.425085 0.198407
0.936431 0.436726 0.187184
0.934893 0.451899 0.169696
0.933456 0.470160 0.150399
0.931855 0.490584 0.121336
0.930716 0.512736 0.084018
0.928925 0.537160 0.066141
0.927632 0.562884 0.064503
0.007006 0.264103 0.000892
0.007164 0.268583 0.000867
0.007112 0.263103 0.000666
0.006473 0.236864 0.000149
0.005878 0.222944 0.000000
0.019778 0.215633 0.000144
0.053787 0.210288 0.000289
0.086457 0.207214 0.000292
0.116328 0.204968 0.000272
0.150054 0.201071 0.000005
0.185474 0.199355 0.000683
0.226141 0.199149 0.004932
0.276872 0.198180 0.012409
0.339613 0.199166 0.021898
0.415790 0.202828 0.032545
0.502163 0.210261 0.043085
0.595884 0.221409 0.056000
0.692407 0.237714 0.066646
0.787583 0.262980 0.076983
0.880337 0.292501 0.085461
0.933256 0.327400 0.086995
0.936454 0.356851 0.084056
0.935394 0.382982 0.098558
0.937034 0.412348 0.169804
0.937282 0.427841 0.196122
0.936550 0.437186 0.186489
0.935503 0.447868 0.176771
0.933889 0.460882 0.161115
0.932687 0.477814 0.140016
0.930912 0.497511 0.110014
0.930635 0.518164 0.074965
0.928858 0.541703 0.065238
0.927553 0.566626 0.064357
0.007398 0.325469 0.000697
0.007326 0.329446 0.000693
0.006387 0.298347 0.000047
0.006112 0.274891 0.000037
0.006952 0.260665 0.000013
0.019015 0.255023 0.000027
0.049450 0.250293 0.000088
0.084572 0.245648 0.000108
0.115128 0.243107 0.000423
0.145739 0.239953 0.000424
0.180080 0.235703 0.000151
0.220460 0.233829 0.001334
0.267768 0.233674 0.006106
0.325761 0.234601 0.013610
0.399603 0.236840 0.024307
0.483863 0.242849 0.035757
0.573064 0.252038 0.046584
0.668458 0.265332 0.058955
0.763810 0.287624 0.068129
0.856639 0.316903 0.077216
0.924921 0.350471 0.082770
0.933703 0.381988 0.080779
0.932450 0.402729 0.078184
0.934199 0.427013 0.134270
0.936093 0.443689 0.180766
0.935787 0.451673 0.173152
0.934398 0.461138 0.162367
0.933087 0.472762 0.146223
0.931753 0.487853 0.123287
0.929748 0.506028 0.096098
0.930207 0.525135 0.070563
0.928772 0.547377 0.064112
0.927478 0.571353 0.063999
0.006548 0.401339 0.000097
0.006350 0.384034 0.000037
0.006868 0.338239 0.000295
0.006736 0.317240 0.000274
0.006943 0.307071 0.000613
0.022815 0.299906 0.000581
0.051032 0.295029 0.000623
0.082973 0.291931 0.000333
0.112836 0.287831 0.000303
0.143882 0.283200 0.000455
0.177772 0.279682 0.000518
0.217210 0.276182 0.000164
0.262255 0.274849 0.000592
0.317989 0.274772 0.005318
0.386777 0.276498 0.015468
0.466752 0.280184 0.026816
0.553585 0.288487 0.038340
0.645334 0.300790 0.048541
0.739637 0.319024 0.059475
0.832633 0.344921 0.069499
0.913551 0.377172 0.076125
0.932749 0.409883 0.078246
0.931750 0.426863 0.075513
0.930954 0.446712 0.093124
0.933660 0.462553 0.149442
0.933900 0.468856 0.156275
0.933038 0.476765 0.143223
0.932278 0.487259 0.126960
0.930718 0.500014 0.103214
0.929246 0.515962 0.083409
0.929535 0.533809 0.068155
0.928663 0.554413 0.062720
0.927402 0.577275 0.063422
0.007903 0.488326 0.000286
0.007077 0.420713 0.000066
0.006223 0.386406 0.000277
0.005885 0.369191 0.000224
0.007133 0.360108 0.000676
0.028140 0.353437 0.000811
0.054197 0.348105 0.000706
0.084763 0.343740 0.000366
0.114556 0.339529 0.000134
0.145156 0.335263 0.000001
0.177250 0.330696 0.000270
0.214294 0.327765 0.000229
0.257602 0.325569 0.000252
0.311902 0.321927 0.000568
0.376008 0.322104 0.006760
0.453967 0.325944 0.016220
0.537956 0.332038 0.028324
0.627559 0.342889 0.040485
0.718170 0.358162 0.050320
0.808906 0.381826 0.058962
0.892660 0.410050 0.069191
0.930660 0.442458 0.074402
0.930941 0.457679 0.072016
0.929818 0.471196 0.071714
0.930773 0.484458 0.104313
0.932306 0.488610 0.122372
0.930116 0.496144 0.113262
0.930090 0.504100 0.098267
0.929943 0.514940 0.079592
0.929221 0.527605 0.070613
0.928711 0.544357 0.065188
0.928337 0.563624 0.062300
0.927307 0.584616 0.062704
0.007740 0.587135 0.000769
0.007506 0.466286 0.000059
0.007306 0.441570 0.000415
0.006774 0.429136 0.000053
0.012695 0.420621 0.000124
0.033891 0.414032 0.000242
0.060887 0.409222 0.000224
0.089806 0.405405 0.000140
0.117837 0.401080 0.000128
0.146973 0.395897 0.000196
0.178862 0.391694 0.000110
0.214991 0.387993 0.000029
0.257344 0.383739 0.000004
0.308647 0.379454 0.000006
0.370841 0.379175 0.001422
0.444258 0.380832 0.007543
0.525967 0.384063 0.017038
0.613164 0.393110 0.028339
0.700728 0.406020 0.039699
0.786902 0.425781 0.049283
0.870674 0.450444 0.060747
0.924596 0.479764 0.070553
0.929060 0.496119 0.070446
0.929054 0.500916 0.068286
0.929336 0.509831 0.076691
0.929685 0.514527 0.082827
0.928996 0.518023 0.077329
0.929087 0.523565 0.075915
0.929015 0.532417 0.066238
0.928872 0.543057 0.064393
0.928079 0.557944 0.064894
0.927872 0.575008 0.062221
0.927192 0.593636 0.061814
0.008352 0.604204 0.000210
0.008056 0.522083 0.000221
0.007610 0.504208 0.000480
0.008653 0.493784 0.000176
0.024542 0.487120 0.000073
0.042836 0.481841 0.000015
0.074426 0.477552 0.000018
0.102401 0.473787 0.000020
0.127283 0.470008 0.000255
0.155517 0.465603 0.000605
0.185393 0.461422 0.000454
0.219315 0.456897 0.000157
0.258972 0.451737 0.000031
0.310354 0.446691 0.000164
0.369148 0.445812 0.000283
0.439043 0.444868 0.000711
0.518878 0.445968 0.006755
0.601086 0.451765 0.017520
0.685347 0.462405 0.028618
0.768032 0.476886 0.040179
0.847985 0.497070 0.053102
0.914256 0.519969 0.065124
0.929258 0.539898 0.065877
0.929518 0.536986 0.066394
0.928581 0.539848 0.065890
0.928168 0.540527 0.066551
0.928776 0.542201 0.065602
0.928630 0.545947 0.065555
0.928101 0.552612 0.063797
0.928235 0.561832 0.062563
0.927468 0.573854 0.064353
0.927451 0.588472 0.061683
0.926854 0.605062 0.062502
0.008454 0.632502 0.000051
0.006927 0.584706 0.000059
0.007856 0.573038 0.000362
0.024080 0.565481 0.000437
0.041738 0.559728 0.000438
0.072794 0.555279 0.000313
0.099358 0.551511 0.000211
0.120207 0.548364 0.000211
0.141202 0.544970 0.000299
0.166769 0.540861 0.000410
0.194165 0.537032 0.000235
0.226845 0.532562 0.000031
0.267578 0.527086 0.000006
0.314983 0.522199 0.000000
0.372457 0.518111 0.000009
0.440110 0.515863 0.000047
0.514480 0.515631 0.000756
0.593157 0.517674 0.005638
0.672179 0.525367 0.017473
0.751870 0.534668 0.029537
0.828004 0.548820 0.046930
0.901535 0.565689 0.057878
0.927083 0.582168 0.063478
0.927549 0.579740 0.063079
0.927186 0.576394 0.063563
0.927429 0.572276 0.064557
0.927121 0.570762 0.064316
0.927658 0.571910 0.063468
0.927534 0.575629 0.063832
0.927210 0.581694 0.061890
0.927331 0.591317 0.062703
0.927175 0.604105 0.060387
0.926443 0.618793 0.063385
0.008894 0.679322 0.000118
0.007800 0.653410 0.000330
0.014985 0.643182 0.000195
0.038213 0.636612 0.000126
0.075049 0.632023 0.000081
0.105615 0.628201 0.000039
0.125727 0.625333 0.000106
0.142712 0.622845 0.000188
0.162310 0.619997 0.000285
0.185499 0.616646 0.000412
0.212191 0.612788 0.000567
0.244243 0.608388 0.000670
0.282291 0.603946 0.000554
0.327446 0.599118 0.000261
0.381014 0.594363 0.000011
0.444223 0.590627 0.000007
0.514510 0.588717 0.000039
0.586905 0.588261 0.000928
0.662164 0.590422 0.008984
0.737285 0.596272 0.022136
0.811329 0.604079 0.039292
0.883994 0.615517 0.053211
0.926398 0.630231 0.059383
0.926014 0.627272 0.060870
0.926635 0.618283 0.060641
0.926198 0.608125 0.062362
0.927138 0.602239 0.063779
0.926731 0.601110 0.062314
0.926809 0.602300 0.061470
0.926452 0.606659 0.060742
0.926759 0.613044 0.061978
0.926645 0.622925 0.060699
0.926637 0.635028 0.062499
0.009308 0.735457 0.000431
0.017626 0.715738 0.000260
0.059453 0.709635 0.000207
0.092997 0.705413 0.000176
0.118135 0.702387 0.000132
0.138457 0.700036 0.000086
0.156200 0.697996 0.000048
0.172295 0.696157 0.000015
0.189382 0.693901 0.000002
0.209121 0.690995 0.000005
0.233350 0.687442 0.000009
0.262637 0.683359 0.000010
0.297586 0.678670 0.000008
0.340691 0.674022 0.000016
0.392406 0.669255 0.000072
0.453709 0.664168 0.000295
0.519467 0.660306 0.000559
0.585898 0.657979 0.000035
0.656384 0.656471 0.003117
0.727682 0.657455 0.016377
0.797612 0.661249 0.033090
0.866804 0.668272 0.046629
0.918003 0.677483 0.056006
0.925786 0.677861 0.057987
0.926148 0.664550 0.057682
0.926033 0.649478 0.058605
0.926075 0.636079 0.059959
0.925876 0.633818 0.060243
0.925575 0.632821 0.061227
0.925980 0.633028 0.059419
0.925718 0.637838 0.060517
0.926140 0.645003 0.060161
0.926643 0.654252 0.060838
0.009398 0.789919 0.000122
0.069604 0.777837 0.000096
0.105529 0.773442 0.000094
0.134789 0.770237 0.000100
0.158555 0.767647 0.000105
0.178698 0.765455 0.000109
0.191985 0.763867 0.000109
0.204100 0.762422 0.000109
0.218231 0.760741 0.000110
0.235855 0.758649 0.000110
0.258082 0.755922 0.000119
0.286280 0.752246 0.000154
0.320486 0.747794 0.000201
0.361325 0.743085 0.000222
0.409236 0.737923 0.000199
0.463137 0.733311 0.000031
0.523831 0.728110 0.000036
0.587550 0.722980 0.000054
0.654298 0.719779 0.001401
0.720232 0.719811 0.013185
0.786549 0.719802 0.026789
0.852139 0.722605 0.041199
0.914603 0.726432 0.055111
0.925530 0.726536 0.056076
0.925758 0.713052 0.056908
0.926051 0.693955 0.057155
0.925280 0.675135 0.056890
0.926234 0.668374 0.058133
0.926032 0.665143 0.059908
0.925252 0.663657 0.057461
0.925871 0.665581 0.058973
0.925984 0.670146 0.057971
0.926105 0.676900 0.058262
0.060136 0.842527 0.000631
0.138574 0.833269 0.000588
0.171130 0.829766 0.000552
0.191885 0.827179 0.000472
0.208792 0.825068 0.000407
0.223309 0.823259 0.000351
0.236142 0.821662 0.000302
0.247911 0.820200 0.000257
0.261402 0.818515 0.000210
0.276823 0.816539 0.000173
0.296054 0.814082 0.000128
0.319853 0.811051 0.000072
0.349762 0.807661 0.000034
0.387216 0.804081 0.000041
0.431068 0.799815 0.000110
0.480059 0.794752 0.000373
0.534831 0.789975 0.000464
0.593501 0.785667 0.000279
0.654178 0.781909 0.001154
0.716641 0.778491 0.008164
0.778021 0.775986 0.021378
0.839677 0.774781 0.035202
0.898630 0.774438 0.048991
0.927094 0.774486 0.055495
0.926416 0.761565 0.055264
0.925722 0.741102 0.055487
0.925795 0.719284 0.055834
0.925839 0.705141 0.056865
0.925320 0.700213 0.058272
0.925896 0.697438 0.055797
0.925982 0.696123 0.057754
0.926229 0.697794 0.056130
0.925422 0.702148 0.056826
0.143481 0.887250 0.000066
0.210710 0.881187 0.000038
0.233664 0.878980 0.000020
0.250735 0.877344 0.000006
0.264547 0.875881 0.000001
0.276274 0.874520 0.000001
0.286687 0.873312 0.000001
0.296272 0.872200 0.000000
0.307562 0.870890 0.000000
0.321808 0.869238 0.000000
0.339686 0.867164 0.000000
0.361292 0.864945 0.000000
0.387535 0.862419 0.000000
0.419690 0.859332 0.000000
0.457537 0.855578 0.000005
0.502223 0.851103 0.000023
0.549561 0.846352 0.000034
0.601355 0.841643 0.000088
0.656551 0.837655 0.000687
0.712790 0.833339 0.005241
0.770898 0.829662 0.019049
0.829687 0.825642 0.032111
0.887172 0.822998 0.046562
0.926043 0.821710 0.054328
0.926747 0.809334 0.054420
0.926709 0.787272 0.054427
0.925902 0.763041 0.056874
0.926809 0.743153 0.054472
0.925801 0.736570 0.056081
0.927262 0.731860 0.056420
0.926404 0.728398 0.057063
0.927016 0.727898 0.055231
0.926088 0.729239 0.056681
0.227019 0.927244 0.000455
0.276785 0.922537 0.000258
0.295110 0.920705 0.000195
0.308833 0.919335 0.000147
0.320183 0.918202 0.000108
0.330023 0.917221 0.000074
0.338794 0.916348 0.000043
0.346801 0.915590 0.000037
0.355985 0.914841 0.000094
0.367622 0.913892 0.000166
0.382302 0.912698 0.000257
0.400718 0.911204 0.000371
0.423670 0.909347 0.000512
0.451192 0.906846 0.000508
0.484086 0.903578 0.000326
0.523908 0.899647 0.000109
0.565311 0.896248 0.000057
0.612460 0.892448 0.000056
0.662800 0.888470 0.000186
0.713611 0.883849 0.004477
0.766303 0.879631 0.015267
0.821486 0.874807 0.029114
0.875947 0.870853 0.043446
0.920307 0.866567 0.054517
0.926937 0.854910 0.053841
0.927103 0.832703 0.056264
0.927043 0.808595 0.055262
0.927056 0.783533 0.054246
0.925963 0.774039 0.056762
0.927174 0.767734 0.054170
0.926436 0.763760 0.056904
0.927108 0.760136 0.055023
0.925826 0.759514 0.056291
0.305550 0.964506 0.000398
0.344531 0.961224 0.000515
0.359285 0.960096 0.000433
0.370395 0.959246 0.000371
0.379623 0.958541 0.000320
0.387652 0.957927 0.000276
0.394831 0.957379 0.000237
0.401480 0.956871 0.000200
0.409363 0.956270 0.000157
0.419386 0.955505 0.000102
0.432088 0.954536 0.000033
0.446984 0.953242 0.000014
0.465069 0.951583 0.000028
0.487624 0.949526 0.000046
0.515537 0.947000 0.000069
0.546950 0.944157 0.000187
0.583365 0.940864 0.000378
0.624179 0.937306 0.000415
0.668815 0.933593 0.000237
0.714836 0.929737 0.004865
0.763715 0.924918 0.014520
0.814185 0.919445 0.026900
0.864391 0.913578 0.038518
0.911115 0.906598 0.050872
0.928718 0.896958 0.053961
0.928697 0.876527 0.053779
0.927357 0.853460 0.052031
0.927617 0.827964 0.055048
0.927128 0.812307 0.055119
0.927084 0.805399 0.054371
0.926485 0.799155 0.056384
0.926801 0.794769 0.053852
0.927251 0.791405 0.054805
0.380597 0.991222 0.000075
0.411869 0.989767 0.000032
0.424451 0.989185 0.000014
0.433354 0.988705 0.000009
0.440298 0.988273 0.000012
0.446355 0.987897 0.000014
0.451785 0.987560 0.000016
0.456826 0.987249 0.000018
0.462816 0.986880 0.000020
0.470454 0.986410 0.000023
0.480168 0.985815 0.000027
0.492478 0.985065 0.000032
0.508011 0.984126 0.000037
0.527175 0.982942 0.000043
0.547471 0.981331 0.000040
0.572583 0.979350 0.000035
0.603368 0.976940 0.000029
0.636006 0.973949 0.000083
0.674668 0.970385 0.000161
0.715656 0.966593 0.005711
0.759772 0.961503 0.013966
0.805261 0.955284 0.025030
0.851842 0.949131 0.036130
0.898111 0.941658 0.047013
0.927214 0.932083 0.054197
0.930285 0.916332 0.054558
0.928031 0.894975 0.054962
0.928177 0.870780 0.053880
0.927102 0.850420 0.055696
0.927390 0.842576 0.053811
0.926429 0.835580 0.055044
0.927082 0.830077 0.054195
0.927735 0.825604 0.054744
0.447431 0.999450 0.000027
0.469365 0.999223 0.000023
0.478251 0.999133 0.000022
0.484993 0.999065 0.000021
0.490626 0.999009 0.000020
0.495551 0.998961 0.000019
0.499974 0.998917 0.000019
0.504087 0.998877 0.000018
0.508983 0.998830 0.000017
0.514493 0.998797 0.000048
0.521492 0.998758 0.000088
0.530393 0.998710 0.000140
0.541671 0.998652 0.000205
0.555899 0.998585 0.000286
0.573753 0.998509 0.000388
0.596011 0.998430 0.000515
0.619254 0.998180 0.000520
0.647471 0.997901 0.000515
0.680439 0.996970 0.001412
