output/AppleLog2_display/AppleLog2_to_Velvia_33grid.cube
TITLE "AppleLog2_to_Velvia"
# Input: Apple Log 2 (Apple Gamut primaries, D65)
# Output: BT.709 / Gamma 2.2 (display-referred)
# Use: Display LUT for iPhone 17 Pro Apple Log 2 footage
# Source: FLog2C_to_Velvia_65grid_V.1.00.cube
# Generated from Fujifilm GFX ETERNA 55 F-Log2C LUT
LUT_3D_SIZE 9
0.000000 0.000000 0.000000
0.000000 0.000000 0.000000
0.008903 0.000168 0.000014
0.455218 0.000175 0.001181
0.999963 0.030077 0.278317
0.999899 0.286792 0.492290
0.999899 0.286792 0.492290
0.999972 0.393702 0.380830
0.999940 0.541354 0.162735
0.000000 0.000000 0.000000
0.000000 0.000000 0.000000
0.126240 0.000345 0.001680
0.573307 0.000402 0.011726
0.999990 0.012340 0.215229
0.999722 0.174748 0.485698
0.999076 0.345231 0.434309
0.999818 0.440323 0.319814
0.999832 0.560366 0.126366
0.000065 0.041329 0.000126
0.000186 0.037542 0.000562
0.042938 0.025605 0.000069
0.363883 0.018236 0.000227
0.882327 0.024078 0.026158
0.999881 0.216881 0.379877
0.999717 0.381025 0.396273
0.999688 0.457982 0.295817
0.999687 0.569034 0.109734
0.000006 0.368179 0.000261
0.000066 0.243770 0.000231
0.000093 0.210448 0.000062
0.238024 0.192558 0.000249
0.726785 0.210281 0.000161
0.999762 0.334804 0.088592
0.999351 0.439345 0.322282
0.999676 0.489650 0.249283
0.999490 0.586044 0.075905
0.000067 0.729491 0.000217
0.000054 0.607631 0.000050
0.000000 0.587592 0.000566
0.039037 0.558335 0.000518
0.578614 0.515158 0.000002
0.999318 0.516758 0.000117
0.999062 0.553622 0.073876
0.999283 0.562399 0.120222
0.999375 0.625055 0.009502
0.000027 0.923146 0.000275
0.000024 0.898820 0.000555
0.000010 0.891400 0.000703
0.000000 0.878587 0.000373
0.378773 0.797771 0.000000
0.896356 0.720233 0.000000
0.999253 0.698529 0.000011
0.998885 0.687771 0.000088
0.999756 0.696133 0.000005
0.000000 1.000000 0.000285
0.000000 1.000000 0.000285
0.000000 1.000000 0.000285
0.000000 1.000000 0.000285
0.117201 0.999937 0.000171
0.695617 0.974361 0.000006
0.999059 0.902218 0.000035
0.998722 0.809512 0.000138
0.999177 0.785545 0.000146
0.000000 1.000000 0.000285
0.024613 0.999883 0.000241
0.036420 0.999827 0.000220
0.060547 0.999712 0.000176
0.155340 0.999501 0.000082
0.527084 0.999663 0.000100
0.935166 0.980956 0.000168
0.998823 0.956270 0.000129
0.999286 0.929747 0.000033
0.417126 0.999651 0.000387
0.435698 0.999683 0.000351
0.443873 0.999697 0.000335
0.460989 0.999727 0.000303
0.507144 0.999806 0.000215
0.624780 0.999979 0.000017
0.834558 0.993140 0.000061
0.998552 0.969326 0.000000
0.998709 0.968898 0.000086
0.000000 0.000000 0.000000
0.000000 0.000000 0.000000
0.000029 0.000008 0.000000
0.402312 0.000037 0.000337
0.999970 0.024811 0.263307
0.999899 0.286792 0.492290
0.999899 0.286792 0.492290
0.999980 0.391609 0.383416
0.999935 0.540568 0.164228
0.000000 0.000000 0.000000
0.000000 0.000000 0.000000
0.077024 0.001176 0.000288
0.543353 0.000467 0.007640
0.999834 0.013586 0.235333
0.999563 0.180491 0.486859
0.999073 0.341587 0.437767
0.999836 0.438513 0.322232
0.999846 0.559512 0.127999
0.000152 0.031127 0.000175
0.000035 0.038628 0.000289
0.023319 0.021058 0.000319
0.344197 0.013797 0.000452
0.882244 0.013639 0.035405
0.999839 0.209087 0.391643
0.999629 0.377737 0.400066
0.999699 0.456361 0.298021
0.999700 0.568213 0.111299
0.000005 0.353302 0.000309
0.000033 0.252041 0.000083
0.000207 0.205146 0.000000
0.211559 0.185795 0.000584
0.720132 0.201255 0.000190
0.999669 0.329028 0.094670
0.999363 0.437087 0.325364
0.999669 0.488375 0.251298
0.999483 0.585335 0.077508
0.000011 0.754962 0.000520
0.000147 0.609379 0.000088
0.000000 0.587912 0.000475
0.032882 0.558166 0.000569
0.570108 0.512441 0.000015
0.999017 0.514599 0.000104
0.999077 0.552092 0.076935
0.999289 0.561368 0.122265
0.999388 0.624468 0.009806
0.000048 0.925457 0.000516
0.000027 0.899834 0.000528
0.000015 0.891937 0.000648
0.000000 0.878921 0.000456
0.363602 0.799357 0.000000
0.892869 0.719936 0.000000
0.999270 0.697995 0.000010
0.998897 0.687528 0.000091
0.999776 0.695977 0.000004
0.000000 1.000000 0.000285
0.000000 1.000000 0.000285
0.000000 1.000000 0.000285
0.000000 1.000000 0.000285
0.110458 0.999941 0.000177
0.691591 0.974700 0.000006
0.999059 0.902244 0.000028
0.998723 0.809341 0.000145
0.999178 0.785346 0.000145
0.000000 1.000000 0.000285
0.021812 0.999896 0.000246
0.033735 0.999840 0.000224
0.058099 0.999724 0.000181
0.148623 0.999500 0.000084
0.523585 0.999658 0.000097
0.934265 0.981090 0.000163
0.998826 0.956269 0.000130
0.999284 0.929706 0.000032
0.415113 0.999648 0.000389
0.433951 0.999680 0.000355
0.442133 0.999694 0.000340
0.459263 0.999723 0.000307
0.505452 0.999802 0.000219
0.623598 0.999981 0.000016
0.833706 0.993232 0.000062
0.998552 0.969327 0.000000
0.998710 0.968900 0.000086
0.000149 0.000017 0.027031
0.000155 0.000070 0.024582
0.000138 0.000129 0.023566
0.349805 0.000299 0.010403
0.999666 0.011541 0.218962
0.999899 0.286792 0.492290
0.999899 0.286792 0.492290
0.999984 0.390668 0.384577
0.999932 0.540218 0.164894
0.000135 0.000137 0.023433
0.000095 0.000275 0.021083
0.052924 0.001041 0.012836
0.483477 0.000018 0.010128
0.999857 0.008666 0.212172
0.999810 0.171102 0.488822
0.999121 0.339955 0.439347
0.999844 0.437701 0.323317
0.999853 0.559133 0.128727
0.000304 0.026353 0.047884
0.000436 0.036951 0.043593
0.017528 0.018440 0.015828
0.318990 0.011410 0.009636
0.848276 0.010973 0.040606
0.999682 0.206218 0.381820
0.999586 0.376251 0.401790
0.999704 0.455635 0.299007
0.999706 0.567848 0.111997
0.000091 0.385017 0.000379
0.000163 0.288600 0.000051
0.000168 0.226963 0.000692
0.192965 0.194217 0.000474
0.697729 0.199485 0.000036
0.998998 0.326385 0.078265
0.999367 0.436075 0.326753
0.999665 0.487805 0.252199
0.999480 0.585019 0.078222
0.000194 0.795311 0.000436
0.000018 0.636608 0.000047
0.000041 0.610323 0.000382
0.015346 0.576261 0.000231
0.546417 0.519902 0.000032
0.998592 0.514042 0.000091
0.999083 0.551404 0.078315
0.999291 0.560908 0.123176
0.999394 0.624207 0.009940
0.000004 0.928792 0.000176
0.000016 0.901224 0.000408
0.000017 0.892454 0.000623
0.000000 0.879072 0.000491
0.356886 0.800054 0.000000
0.891337 0.719801 0.000000
0.999279 0.697757 0.000010
0.998902 0.687421 0.000092
0.999784 0.695907 0.000004
0.000000 1.000000 0.000285
0.000000 1.000000 0.000285
0.000000 1.000000 0.000285
0.000000 1.000000 0.000285
0.107340 0.999943 0.000180
0.689797 0.974853 0.000006
0.999060 0.902246 0.000027
0.998724 0.809265 0.000148
0.999179 0.785257 0.000145
0.000000 1.000000 0.000285
0.020554 0.999902 0.000248
0.032529 0.999845 0.000227
0.056999 0.999729 0.000183
0.145629 0.999499 0.000084
0.522031 0.999656 0.000096
0.933866 0.981150 0.000161
0.998828 0.956268 0.000130
0.999282 0.929688 0.000032
0.413842 0.999647 0.000388
0.433176 0.999678 0.000357
0.441360 0.999692 0.000341
0.458496 0.999722 0.000309
0.504701 0.999801 0.000221
0.623072 0.999982 0.000016
0.833328 0.993273 0.000062
0.998552 0.969328 0.000000
0.998711 0.968900 0.000086
0.000581 0.000142 0.174906
0.000458 0.000114 0.170989
0.000403 0.000102 0.169232
0.315903 0.000059 0.126587
0.990906 0.000004 0.327519
0.999730 0.269597 0.493801
0.999899 0.286792 0.492290
0.999993 0.388663 0.387051
0.999927 0.539475 0.166305
0.000396 0.000100 0.169004
0.000271 0.000071 0.165008
0.029373 0.000211 0.127952
0.448401 0.000156 0.134014
0.999349 0.000674 0.346957
0.999970 0.133401 0.565491
0.999620 0.349045 0.455877
0.999863 0.435970 0.325632
0.999866 0.558328 0.130269
0.000142 0.002320 0.292759
0.000188 0.010990 0.306062
0.008995 0.002462 0.203340
0.321189 0.000102 0.187874
0.829019 0.000174 0.294237
0.999792 0.162508 0.502522
0.999759 0.387243 0.434737
0.999714 0.454093 0.301102
0.999718 0.567074 0.113473
0.000936 0.374592 0.430348
0.000203 0.321629 0.346670
0.000123 0.236150 0.240089
0.183945 0.185349 0.183729
0.681241 0.171259 0.174412
0.999829 0.286192 0.324804
0.999656 0.443888 0.386306
0.999658 0.486594 0.254114
0.999473 0.584350 0.079732
0.000232 0.800869 0.311105
0.000035 0.648309 0.065756
0.000064 0.622691 0.038145
0.009120 0.588236 0.015007
0.513500 0.522160 0.001249
0.990668 0.509103 0.041454
0.999420 0.552695 0.217838
0.999297 0.559931 0.125108
0.999407 0.623653 0.010224
0.000103 0.968280 0.000830
0.000000 0.937087 0.000124
0.000000 0.927486 0.000234
0.000171 0.910706 0.000579
0.214678 0.843262 0.000363
0.822800 0.744559 0.000008
0.999231 0.731808 0.000004
0.998913 0.687193 0.000095
0.999803 0.695761 0.000003
0.000000 1.000000 0.000285
0.000000 1.000000 0.000285
0.000000 1.000000 0.000285
0.000000 1.000000 0.000285
0.043281 0.999998 0.000227
0.648455 0.981528 0.000298
0.999067 0.902197 0.000028
0.998725 0.809104 0.000154
0.999180 0.785070 0.000144
0.000000 1.000000 0.000285
0.017870 0.999915 0.000253
0.029956 0.999858 0.000231
0.054651 0.999740 0.000187
0.139286 0.999497 0.000085
0.518749 0.999651 0.000093
0.933026 0.981276 0.000156
0.998830 0.956268 0.000130
0.999279 0.929650 0.000031
0.411153 0.999646 0.000386
0.431537 0.999674 0.000361
0.439728 0.999689 0.000345
0.456876 0.999718 0.000313
0.503114 0.999798 0.000224
0.621962 0.999983 0.000015
0.832528 0.993359 0.000063
0.998552 0.969329 0.000000
0.998712 0.968902 0.000086
0.013340 0.000224 0.518353
0.013251 0.000217 0.516288
0.013211 0.000214 0.515367
0.219967 0.000321 0.413406
0.963949 0.000469 0.573179
0.999728 0.238287 0.627668
0.999503 0.295111 0.576324
0.999872 0.408651 0.517098
0.999911 0.537409 0.170226
0.013206 0.000214 0.515247
0.013116 0.000207 0.513166
0.013068 0.000204 0.512267
0.373016 0.000138 0.414916
0.987191 0.000162 0.592231
0.999817 0.082099 0.732574
0.999342 0.363936 0.623336
0.999708 0.452793 0.496150
0.999904 0.556098 0.134548
0.025432 0.000039 0.614883
0.022783 0.000011 0.646100
0.018776 0.000196 0.630383
0.316398 0.000388 0.513367
0.827580 0.000001 0.625584
0.999993 0.061735 0.750671
0.999952 0.398256 0.614537
0.999651 0.469189 0.488592
0.999753 0.564929 0.117572
0.000885 0.295486 0.889350
0.000734 0.314457 0.886471
0.000658 0.213725 0.767897
0.166783 0.128968 0.662575
0.673194 0.095860 0.606498
0.999680 0.212082 0.629225
0.999489 0.441306 0.599441
0.999216 0.499709 0.470221
0.999458 0.582482 0.083879
0.000040 0.761933 0.813083
0.000049 0.643337 0.659956
0.000477 0.610417 0.619065
0.000416 0.568886 0.570497
0.487485 0.491187 0.489794
0.971322 0.467976 0.473788
0.999784 0.535875 0.533183
0.999849 0.565897 0.423077
0.999442 0.622117 0.011000
0.000120 0.954618 0.403843
0.000190 0.924858 0.371946
0.000093 0.913643 0.361006
0.000081 0.893296 0.343659
0.130992 0.839863 0.302229
0.757264 0.762635 0.258578
0.999530 0.736288 0.329543
0.999056 0.684625 0.291703
0.999856 0.695355 0.000002
0.000000 1.000000 0.000285
0.000000 1.000000 0.000285
0.000000 1.000000 0.000285
0.000000 1.000000 0.000285
0.000000 1.000000 0.000285
0.467421 0.999585 0.000460
0.996643 0.957172 0.000000
0.999333 0.871541 0.000000
0.999185 0.784554 0.000142
0.000000 1.000000 0.000285
0.000000 1.000000 0.000285
0.000000 1.000000 0.000285
0.000000 1.000000 0.000285
0.004425 0.999985 0.000276
0.251438 0.999899 0.000374
0.836127 0.992809 0.000137
0.998838 0.956269 0.000131
0.999272 0.929544 0.000029
0.403715 0.999642 0.000379
0.427021 0.999665 0.000373
0.435229 0.999679 0.000357
0.452412 0.999709 0.000324
0.498740 0.999789 0.000235
0.618898 0.999988 0.000013
0.830320 0.993599 0.000064
0.998551 0.969332 0.000000
0.998716 0.968905 0.000086
0.088314 0.000007 0.861006
0.088108 0.000008 0.860792
0.088017 0.000008 0.860697
0.087823 0.000009 0.860495
0.826270 0.000139 0.830539
0.999902 0.089442 0.831853
0.999814 0.284567 0.669650
0.999662 0.395924 0.696830
0.999421 0.548382 0.563833
0.088005 0.000008 0.860684
0.087798 0.000009 0.860469
0.087706 0.000009 0.860374
0.075400 0.000049 0.846695
0.885002 0.000329 0.838101
0.999837 0.109299 0.818866
0.999869 0.286859 0.766976
0.999701 0.449195 0.691930
0.998923 0.564835 0.555668
0.087867 0.000009 0.860541
0.087660 0.000010 0.860326
0.087568 0.000010 0.860230
0.133432 0.000596 0.842970
0.878003 0.000088 0.855714
0.999973 0.000000 0.999492
0.999894 0.337566 0.763142
0.999676 0.468393 0.690196
0.999024 0.571286 0.551692
0.123865 0.046543 0.996660
0.113583 0.065788 0.999930
0.108921 0.074954 0.999936
0.094864 0.018617 0.944696
0.673196 0.000133 0.994226
0.999890 0.044463 0.960712
0.999990 0.384809 0.777075
0.999534 0.502086 0.685533
0.999363 0.583905 0.543586
0.000168 0.665748 0.999771
0.000134 0.670350 0.999765
0.000167 0.599501 0.999341
0.000749 0.524674 0.999072
0.464709 0.425661 0.915132
0.949132 0.394281 0.834941
0.999939 0.497101 0.779302
0.999823 0.563652 0.673273
0.999478 0.617937 0.522416
0.000225 0.891136 0.961223
0.000157 0.873431 0.916074
0.000317 0.866659 0.900951
0.000214 0.854511 0.873842
0.094438 0.808681 0.810006
0.722561 0.723757 0.722381
0.999807 0.690482 0.694276
0.999454 0.666996 0.628972
0.999596 0.690692 0.464719
0.000262 0.999594 0.554324
0.000076 0.999539 0.546061
0.000026 0.999489 0.542487
0.000125 0.999693 0.535716
0.000019 0.999740 0.521062
0.350833 0.999453 0.469112
0.945156 0.955475 0.423648
0.999899 0.860008 0.459835
0.999504 0.838501 0.286597
0.000000 0.999793 0.074448
0.000000 0.999862 0.076094
0.000004 0.999889 0.076528
0.000096 0.999890 0.071350
0.000346 0.999908 0.057186
0.046924 0.999631 0.027325
0.618705 0.999685 0.000119
0.999103 0.999511 0.038226
0.999321 0.972901 0.003288
0.000000 1.000000 0.000285
0.000000 1.000000 0.000285
0.005047 0.999989 0.000279
0.025915 0.999946 0.000254
0.082228 0.999843 0.000189
0.229311 0.999672 0.000025
0.570432 0.999744 0.000067
0.975569 0.975946 0.000116
0.998725 0.968915 0.000086
0.281982 0.000085 0.999652
0.281829 0.000086 0.999652
0.281760 0.000087 0.999652
0.281616 0.000089 0.999652
0.296596 0.000016 0.999007
1.000000 0.000000 0.999715
0.999636 0.209104 0.828751
0.999933 0.260787 0.877681
0.999712 0.518878 0.780698
0.281751 0.000087 0.999652
0.281597 0.000089 0.999652
0.281529 0.000090 0.999652
0.281384 0.000091 0.999652
0.441278 0.000060 0.999520
1.000000 0.000000 0.999715
0.999663 0.209653 0.827495
0.999897 0.341651 0.871784
0.999577 0.538440 0.779232
0.281649 0.000088 0.999652
0.281495 0.000090 0.999652
0.281426 0.000091 0.999652
0.281282 0.000092 0.999652
0.495382 0.000117 0.999955
1.000000 0.000000 0.999715
0.999587 0.138120 0.946688
0.999801 0.369337 0.869794
0.999598 0.546260 0.779031
0.281432 0.000091 0.999652
0.281278 0.000092 0.999652
0.281209 0.000093 0.999653
0.281064 0.000094 0.999653
0.553270 0.000124 0.999931
1.000000 0.000000 0.999715
0.999845 0.212932 0.986264
0.999561 0.416509 0.865037
0.999703 0.561943 0.777680
0.196161 0.369624 0.999878
0.188173 0.379055 0.999930
0.184664 0.383194 0.999952
0.176501 0.391000 0.999942
0.379897 0.234306 0.999488
0.941721 0.165064 0.999640
0.999720 0.356884 0.999549
0.999748 0.504505 0.857734
0.999580 0.599816 0.773556
0.000555 0.815810 1.000000
0.000282 0.810565 0.999747
0.000581 0.791638 0.999974
0.000238 0.768166 0.999701
0.021327 0.723807 0.999935
0.674455 0.635453 0.999397
0.999431 0.595899 0.999548
0.999947 0.635112 0.844499
0.999328 0.672720 0.765925
0.000538 0.950421 0.999357
0.000239 0.947777 0.998725
0.000231 0.946888 0.998293
0.000101 0.944974 0.998286
0.000563 0.939119 0.991946
0.262076 0.955011 0.956570
0.873499 0.879280 0.878152
0.999886 0.818408 0.807208
0.999607 0.794001 0.703869
0.000218 0.999707 0.682237
0.000159 0.999748 0.680866
0.000133 0.999766 0.680269
0.000080 0.999803 0.679030
0.000021 0.999817 0.675322
0.000288 0.999748 0.664395
0.482911 0.999163 0.596051
0.989465 0.999752 0.534772
0.999549 0.974767 0.502903
0.000149 0.999797 0.409912
0.000169 0.999842 0.408264
0.000177 0.999861 0.407534
0.000195 0.999902 0.405996
0.028609 0.999942 0.397724
0.144185 0.999926 0.369715
0.412034 0.999629 0.307889
0.791012 0.999802 0.235591
0.998909 0.999726 0.081668
0.493804 0.000519 0.999802
0.493778 0.000519 0.999801
0.493766 0.000519 0.999800
0.493742 0.000519 0.999799
0.493674 0.000519 0.999797
0.770985 0.000041 0.998981
0.999710 0.046029 0.999566
0.999906 0.152487 0.923857
0.999784 0.377149 0.999319
0.493765 0.000519 0.999800
0.493739 0.000519 0.999799
0.493727 0.000519 0.999799
0.493702 0.000519 0.999798
0.493635 0.000519 0.999795
0.827466 0.000232 0.999444
0.999665 0.047408 0.999615
0.999738 0.138614 0.946012
0.999869 0.407674 0.999585
0.493747 0.000519 0.999800
0.493721 0.000519 0.999799
0.493710 0.000519 0.999798
0.493685 0.000519 0.999797
0.493617 0.000519 0.999795
0.851467 0.000268 0.999588
0.999646 0.048015 0.999636
0.999914 0.036510 0.999315
0.999753 0.419259 0.999632
0.493710 0.000519 0.999798
0.493684 0.000519 0.999797
0.493673 0.000519 0.999797
0.493648 0.000519 0.999796
0.493581 0.000519 0.999794
0.899628 0.000238 0.999725
0.999604 0.049283 0.999680
0.999966 0.115222 0.999366
0.999780 0.441998 0.998975
0.502252 0.000022 0.999205
0.505121 0.000145 0.999759
0.505750 0.000247 0.999611
0.507455 0.000345 0.999266
0.513633 0.000000 0.999404
0.846811 0.000134 0.999611
1.000000 0.000000 0.999715
0.999856 0.317106 0.999435
0.999797 0.493454 0.998060
0.021484 0.593203 0.999558
0.018387 0.596819 0.999547
0.017016 0.598418 0.999542
0.014135 0.601781 0.999532
0.006277 0.610946 0.999505
0.527982 0.435230 0.999571
0.999937 0.392737 0.999537
0.999926 0.519228 0.999780
0.999635 0.587412 0.989555
0.000202 0.981001 0.999813
0.000164 0.940514 0.999877
0.000260 0.906857 0.999802
0.000736 0.866439 0.999948
0.000431 0.846016 0.999750
0.153841 0.830762 0.999809
0.793425 0.755089 0.999629
0.999793 0.716088 0.999236
0.999301 0.732919 0.964498
0.000207 0.980418 0.999974
0.000238 0.980060 0.999987
0.000253 0.979915 0.999990
0.000283 0.979623 0.999995
0.000274 0.978654 0.999595
0.000249 0.976040 0.999972
0.382707 0.999648 0.998840
0.947552 0.956119 0.954661
0.999912 0.916819 0.891041
0.000073 0.998809 0.926194
0.000138 0.998938 0.923546
0.000166 0.998995 0.922382
0.000226 0.999112 0.919949
0.000385 0.999423 0.913411
0.020865 0.999868 0.893529
0.274076 0.999769 0.835935
0.695443 0.999655 0.776483
0.999363 0.999640 0.674591
0.498754 0.000321 0.999948
0.498754 0.000321 0.999947
0.498753 0.000321 0.999947
0.498753 0.000320 0.999947
0.498752 0.000320 0.999947
0.498748 0.000317 0.999947
1.000000 0.000000 0.999715
1.000000 0.000000 0.999715
0.999453 0.070754 0.999307
0.498753 0.000321 0.999947
0.498753 0.000320 0.999947
0.498753 0.000320 0.999947
0.498752 0.000320 0.999947
0.498751 0.000319 0.999947
0.498747 0.000317 0.999947
1.000000 0.000000 0.999715
1.000000 0.000000 0.999715
1.000000 0.000388 0.999644
0.498753 0.000320 0.999947
0.498753 0.000320 0.999947
0.498752 0.000320 0.999947
0.498752 0.000320 0.999947
0.498750 0.000319 0.999947
0.498747 0.000317 0.999947
1.000000 0.000000 0.999715
1.000000 0.000000 0.999715
1.000000 0.000000 0.999715
0.498752 0.000320 0.999947
0.498752 0.000320 0.999947
0.498752 0.000320 0.999947
0.498751 0.000319 0.999947
0.498750 0.000319 0.999947
0.498746 0.000316 0.999947
1.000000 0.000000 0.999715
1.000000 0.000000 0.999715
1.000000 0.000000 0.999715
0.498750 0.000319 0.999947
0.498750 0.000319 0.999947
0.498750 0.000318 0.999947
0.498749 0.000318 0.999947
0.498748 0.000317 0.999947
0.498744 0.000315 0.999946
1.000000 0.000000 0.999715
1.000000 0.000000 0.999715
0.999815 0.104543 0.998941
0.517049 0.000093 0.999492
0.517920 0.000059 0.999404
0.518294 0.000044 0.999366
0.519057 0.000014 0.999290
0.521334 0.000232 0.999728
0.526746 0.000055 0.999270
0.997605 0.000005 0.999700
0.999996 0.101032 0.999721
0.999932 0.366136 0.999670
0.000196 0.957140 0.999987
0.000192 0.957519 0.999987
0.000190 0.957687 0.999987
0.000187 0.958041 0.999987
0.000176 0.959014 0.999986
0.000148 0.961665 0.999986
0.591351 0.558543 0.999939
0.999888 0.552028 0.999554
0.999918 0.591638 0.999412
0.000573 0.986758 0.999653
0.000573 0.986758 0.999653
0.000573 0.986758 0.999653
0.000573 0.986758 0.999653
0.000476 0.986482 0.999768
0.000438 0.968716 0.999980
0.181170 0.949443 0.999793
0.870556 0.856756 0.999790
0.999945 0.824967 0.999569
0.000573 0.986422 1.000000
0.000573 0.986422 1.000000
0.000573 0.986422 1.000000
0.000573 0.986422 1.000000
0.000573 0.986422 1.000000
0.000573 0.986640 0.999775
0.021623 0.994375 0.999845
0.532203 0.999732 0.999484
0.989724 0.995681 0.994543
