output/AppleLog2_display/AppleLog2_to_ASTIA_33grid.cube
TITLE "AppleLog2_to_ASTIA"
# Input: Apple Log 2 (Apple Gamut primaries, D65)
# Output: BT.709 / Gamma 2.2 (display-referred)
# Use: Display LUT for iPhone 17 Pro Apple Log 2 footage
# Source: FLog2C_to_ASTIA_65grid_V.1.00.cube
# Generated from Fujifilm GFX ETERNA 55 F-Log2C LUT
LUT_3D_SIZE 9
0.000334 0.000257 0.000073
0.000334 0.000257 0.000073
0.036121 0.001443 0.000865
0.422312 0.002947 0.009873
0.979986 0.000576 0.269675
0.999461 0.099723 0.540077
0.999461 0.099723 0.540077
0.999718 0.248205 0.445362
0.999933 0.463116 0.266135
0.000334 0.000257 0.000073
0.000334 0.000257 0.000073
0.151726 0.003493 0.005113
0.526195 0.001156 0.020023
0.929026 0.000284 0.208633
0.999573 0.003084 0.516300
0.999799 0.173940 0.493198
0.999661 0.316087 0.394213
0.999949 0.489589 0.239053
0.000017 0.085425 0.000008
0.000358 0.079505 0.000120
0.088929 0.062591 0.000194
0.352809 0.051322 0.000170
0.784988 0.028305 0.053220
0.999729 0.018709 0.436091
0.999972 0.227458 0.457366
0.999612 0.342459 0.374017
0.999940 0.501370 0.227182
0.000531 0.366221 0.000025
0.000369 0.263509 0.000758
0.059590 0.230470 0.000017
0.278751 0.206841 0.000346
0.674666 0.192439 0.000238
0.999542 0.190694 0.201833
0.999383 0.315582 0.394224
0.999499 0.388833 0.334204
0.999924 0.524377 0.203031
0.000158 0.701746 0.000294
0.000183 0.576301 0.000484
0.046534 0.551953 0.000400
0.245577 0.522992 0.000020
0.590179 0.494882 0.000001
0.941518 0.486618 0.000082
0.999212 0.473412 0.202877
0.999084 0.492431 0.236010
0.999751 0.577046 0.137248
0.000082 0.876602 0.000240
0.062900 0.852681 0.000321
0.140477 0.844049 0.000491
0.298662 0.829799 0.000518
0.561415 0.788206 0.000001
0.847339 0.740989 0.000011
0.999703 0.718596 0.000157
0.999564 0.665916 0.014640
0.998659 0.682222 0.000075
0.234434 0.999722 0.000130
0.344525 0.998428 0.000077
0.386260 0.997484 0.000081
0.461016 0.993617 0.000195
0.605125 0.981320 0.000194
0.807561 0.943784 0.000216
0.994444 0.886858 0.000000
0.998794 0.807417 0.000145
0.999013 0.790535 0.000150
0.579200 0.999750 0.000095
0.602371 0.999781 0.000134
0.612119 0.999796 0.000160
0.632204 0.999826 0.000214
0.682522 0.999833 0.000318
0.785142 0.999579 0.000360
0.952762 0.999665 0.011551
0.988477 0.955327 0.000363
0.991927 0.916976 0.000054
0.747044 0.999465 0.000136
0.753264 0.999455 0.000141
0.756000 0.999451 0.000143
0.761726 0.999443 0.000148
0.777141 0.999420 0.000161
0.816824 0.999380 0.000196
0.903715 0.999547 0.003278
0.983737 1.000000 0.022016
0.983737 1.000000 0.022016
0.000334 0.000257 0.000073
0.000334 0.000257 0.000073
0.003545 0.000225 0.000010
0.378780 0.003381 0.008706
0.970061 0.000590 0.254816
0.999461 0.099723 0.540077
0.999461 0.099723 0.540077
0.999642 0.245000 0.447346
0.999929 0.461993 0.267295
0.000334 0.000257 0.000073
0.000334 0.000257 0.000073
0.106304 0.002974 0.002802
0.499097 0.001658 0.016039
0.944988 0.000088 0.224907
0.999516 0.004445 0.518063
0.999798 0.168380 0.496957
0.999700 0.313242 0.396411
0.999948 0.488427 0.240218
0.000170 0.073745 0.000016
0.000198 0.082019 0.000003
0.067242 0.056995 0.000456
0.337505 0.045655 0.000206
0.783606 0.020618 0.060495
0.999701 0.013361 0.445032
0.999973 0.222683 0.460328
0.999575 0.340249 0.375679
0.999940 0.500255 0.228301
0.000405 0.354210 0.000019
0.000372 0.271705 0.000307
0.039900 0.227726 0.000008
0.258463 0.202377 0.000404
0.668569 0.186642 0.000225
0.999536 0.183923 0.206085
0.999304 0.312214 0.397064
0.999545 0.386815 0.336172
0.999924 0.523437 0.204176
0.000005 0.727416 0.000506
0.000199 0.579315 0.000572
0.025918 0.552837 0.000583
0.226321 0.521868 0.000034
0.582343 0.492067 0.000001
0.940039 0.483828 0.000093
0.999195 0.471260 0.205095
0.999058 0.491028 0.237600
0.999758 0.576221 0.138322
0.000052 0.878819 0.000444
0.050203 0.853806 0.000412
0.122109 0.845009 0.000420
0.283353 0.830168 0.000543
0.554434 0.788540 0.000001
0.844943 0.740611 0.000009
0.999689 0.718135 0.000152
0.999572 0.665257 0.015228
0.998640 0.681724 0.000065
0.221364 0.999701 0.000143
0.334957 0.998651 0.000075
0.377077 0.997684 0.000079
0.454176 0.994162 0.000173
0.600732 0.981459 0.000211
0.805634 0.943897 0.000219
0.994441 0.886856 0.000000
0.998803 0.807264 0.000145
0.999013 0.790404 0.000148
0.576287 0.999750 0.000111
0.600201 0.999778 0.000127
0.609983 0.999792 0.000153
0.630134 0.999823 0.000208
0.680877 0.999840 0.000318
0.784008 0.999578 0.000358
0.952344 0.999669 0.011388
0.988478 0.955356 0.000389
0.991933 0.916924 0.000054
0.746415 0.999464 0.000136
0.752661 0.999456 0.000140
0.755401 0.999452 0.000143
0.761134 0.999443 0.000147
0.776569 0.999420 0.000160
0.816348 0.999377 0.000196
0.903332 0.999547 0.003236
0.983737 1.000000 0.022016
0.983737 1.000000 0.022016
0.000066 0.000000 0.074264
0.000054 0.000000 0.071021
0.000056 0.000000 0.069975
0.332402 0.002983 0.025130
0.933668 0.000393 0.211111
0.999461 0.099723 0.540077
0.999461 0.099723 0.540077
0.999607 0.243561 0.448235
0.999927 0.461493 0.267812
0.000056 0.000000 0.069838
0.000061 0.000001 0.067418
0.079227 0.000201 0.046217
0.448171 0.001994 0.019429
0.922894 0.000045 0.202887
0.999613 0.002107 0.516189
0.999822 0.166095 0.498121
0.999717 0.311965 0.397397
0.999948 0.487910 0.240738
0.000061 0.066413 0.090791
0.000191 0.077978 0.086244
0.050972 0.053234 0.049857
0.309807 0.042065 0.024785
0.758506 0.023704 0.062199
0.999931 0.012546 0.434415
0.999974 0.220536 0.461669
0.999559 0.339260 0.376423
0.999940 0.499757 0.228799
0.000438 0.374831 0.041188
0.000001 0.299851 0.003321
0.019981 0.246102 0.000436
0.235389 0.207872 0.000527
0.647878 0.186364 0.000001
0.999631 0.187695 0.188823
0.999267 0.310698 0.398344
0.999566 0.385914 0.337053
0.999923 0.523018 0.204687
0.000007 0.762503 0.000207
0.000084 0.610727 0.000473
0.008080 0.580015 0.000234
0.194087 0.541181 0.000320
0.565214 0.500950 0.000033
0.938347 0.483135 0.000107
0.999188 0.470296 0.206092
0.999046 0.490402 0.238310
0.999761 0.575854 0.138801
0.000195 0.882100 0.000415
0.042001 0.855133 0.000384
0.112780 0.845735 0.000384
0.276480 0.830343 0.000556
0.551312 0.788694 0.000001
0.843872 0.740441 0.000008
0.999683 0.717928 0.000150
0.999576 0.664963 0.015488
0.998631 0.681502 0.000060
0.215517 0.999691 0.000149
0.330680 0.998752 0.000074
0.372973 0.997776 0.000079
0.451125 0.994413 0.000163
0.598773 0.981527 0.000220
0.804775 0.943948 0.000220
0.994442 0.886853 0.000000
0.998808 0.807196 0.000145
0.999013 0.790346 0.000148
0.574990 0.999750 0.000118
0.599235 0.999776 0.000124
0.609032 0.999791 0.000150
0.629212 0.999821 0.000205
0.680145 0.999843 0.000317
0.783503 0.999578 0.000357
0.952159 0.999670 0.011316
0.988478 0.955369 0.000400
0.991936 0.916900 0.000054
0.746107 0.999463 0.000136
0.752393 0.999456 0.000140
0.755135 0.999452 0.000142
0.760871 0.999443 0.000147
0.776314 0.999420 0.000160
0.816136 0.999376 0.000196
0.903162 0.999547 0.003218
0.983737 1.000000 0.022016
0.983737 1.000000 0.022016
0.001305 0.000000 0.227177
0.001311 0.000000 0.224164
0.001314 0.000000 0.222812
0.286327 0.000457 0.143146
0.891158 0.000012 0.276237
0.999969 0.077639 0.538547
0.999461 0.099723 0.540077
0.999532 0.240494 0.450128
0.999924 0.460432 0.268908
0.001315 0.000000 0.222636
0.001322 0.000000 0.219562
0.041769 0.000138 0.177662
0.399368 0.000014 0.136860
0.911427 0.000003 0.295250
0.999642 0.000017 0.575097
0.999865 0.183445 0.509853
0.999755 0.309242 0.399499
0.999947 0.486815 0.241837
0.002215 0.038396 0.310888
0.002696 0.052889 0.321337
0.023156 0.033992 0.232624
0.288148 0.020640 0.187406
0.741050 0.004460 0.243917
0.999914 0.003844 0.513838
0.999778 0.242792 0.488701
0.999524 0.337159 0.378003
0.999939 0.498705 0.229855
0.000494 0.373173 0.438345
0.000453 0.328242 0.359627
0.000112 0.253704 0.266697
0.202697 0.204222 0.201857
0.631122 0.173885 0.182860
0.994280 0.177849 0.357349
0.999577 0.326345 0.447647
0.999610 0.383999 0.338924
0.999923 0.522131 0.205767
0.000281 0.768886 0.425060
0.000131 0.629407 0.186262
0.000110 0.600751 0.155499
0.139091 0.560690 0.102809
0.532835 0.511579 0.046299
0.898021 0.479601 0.133944
0.999597 0.482239 0.308476
0.999021 0.489075 0.239817
0.999768 0.575078 0.139813
0.000096 0.910208 0.000383
0.001916 0.884422 0.000433
0.016479 0.875247 0.000567
0.159362 0.858457 0.000280
0.479448 0.824497 0.000159
0.806168 0.775619 0.000002
0.999019 0.734965 0.000104
0.999584 0.664341 0.016034
0.998613 0.681033 0.000050
0.119695 0.999723 0.000623
0.237862 0.999711 0.000576
0.287763 0.999763 0.000442
0.381495 0.999233 0.000120
0.553440 0.988935 0.000126
0.788015 0.950445 0.000014
0.994459 0.886835 0.000000
0.998816 0.807051 0.000145
0.999013 0.790223 0.000146
0.572246 0.999750 0.000133
0.597191 0.999773 0.000117
0.607019 0.999787 0.000144
0.627263 0.999818 0.000199
0.678596 0.999850 0.000317
0.782436 0.999577 0.000355
0.951769 0.999673 0.011163
0.988478 0.955397 0.000424
0.991941 0.916851 0.000053
0.745458 0.999460 0.000137
0.751827 0.999456 0.000140
0.754571 0.999452 0.000142
0.760314 0.999443 0.000146
0.775776 0.999420 0.000159
0.815689 0.999373 0.000195
0.902802 0.999547 0.003178
0.983737 1.000000 0.022016
0.983737 1.000000 0.022016
0.007158 0.000082 0.517623
0.007155 0.000064 0.515722
0.007154 0.000056 0.514874
0.169036 0.000074 0.393711
0.838992 0.000017 0.448762
0.999872 0.053259 0.651943
0.999899 0.116240 0.613840
0.999676 0.286546 0.562244
0.999913 0.457484 0.271952
0.007154 0.000055 0.514764
0.007151 0.000038 0.512849
0.007144 0.000033 0.512022
0.304787 0.000104 0.373686
0.879188 0.000011 0.467973
0.999852 0.000242 0.707968
0.999948 0.226729 0.654127
0.999765 0.350754 0.544420
0.999946 0.483777 0.244889
0.008193 0.000037 0.604968
0.007435 0.000019 0.627775
0.006787 0.000079 0.614411
0.242852 0.000508 0.461555
0.737369 0.000189 0.496221
0.999786 0.000092 0.704660
0.999499 0.280838 0.647696
0.999849 0.376244 0.537047
0.999939 0.495787 0.232782
0.000101 0.327981 0.846805
0.000020 0.343441 0.846848
0.000195 0.253843 0.725685
0.135012 0.175346 0.592875
0.613390 0.130716 0.518370
0.990725 0.127307 0.606133
0.999200 0.343837 0.631940
0.999921 0.422496 0.520112
0.999922 0.519648 0.208739
0.000146 0.744576 0.862163
0.000366 0.634613 0.711468
0.000132 0.601200 0.667816
0.052495 0.556085 0.604253
0.494915 0.496651 0.495777
0.875061 0.454275 0.484636
0.999723 0.481598 0.575811
0.999943 0.517690 0.481863
0.999787 0.572930 0.142616
0.000047 0.883133 0.571002
0.000257 0.856064 0.528297
0.000145 0.847578 0.514662
0.046590 0.831169 0.479419
0.406409 0.801083 0.391826
0.774289 0.759938 0.339911
0.999500 0.719124 0.420843
0.999472 0.665205 0.377417
0.998563 0.679736 0.000022
0.009299 0.999666 0.029455
0.040041 0.999806 0.021750
0.087020 0.999730 0.018159
0.179193 0.999580 0.011963
0.407544 0.999796 0.002650
0.699638 0.996698 0.000231
0.980030 0.950746 0.016656
0.999202 0.852870 0.047401
0.999012 0.789882 0.000141
0.429028 0.999952 0.000669
0.463789 0.999953 0.000706
0.477116 0.999938 0.000677
0.504531 0.999906 0.000608
0.574502 0.999829 0.000364
0.700956 0.999686 0.000234
0.906361 0.999766 0.003273
0.988480 0.955475 0.000488
0.991957 0.916715 0.000053
0.743666 0.999452 0.000138
0.750263 0.999457 0.000139
0.753017 0.999453 0.000141
0.758779 0.999444 0.000145
0.774290 0.999421 0.000157
0.814454 0.999366 0.000194
0.901809 0.999548 0.003069
0.983737 1.000000 0.022016
0.983737 1.000000 0.022016
0.011612 0.000039 0.873033
0.011602 0.000038 0.872557
0.011598 0.000038 0.872346
0.011590 0.000038 0.871898
0.728325 0.000476 0.680915
0.999944 0.000362 0.795239
0.999394 0.113899 0.694135
0.999929 0.288144 0.714074
0.999610 0.504208 0.600384
0.011598 0.000038 0.872318
0.011589 0.000038 0.871841
0.011585 0.000037 0.871628
0.009806 0.000054 0.844114
0.776312 0.000279 0.688400
0.999962 0.000643 0.789690
0.999835 0.131020 0.773741
0.999593 0.367320 0.708481
0.999927 0.526410 0.595746
0.011592 0.000038 0.872000
0.011582 0.000037 0.871522
0.011578 0.000037 0.871309
0.028461 0.000310 0.793690
0.770457 0.000063 0.704552
0.999882 0.000124 0.878484
0.999928 0.206658 0.769211
0.999709 0.396529 0.705518
0.999957 0.535517 0.592792
0.000463 0.148521 0.999953
0.000181 0.167684 0.999815
0.000209 0.176272 0.999728
0.002605 0.088867 0.990614
0.569965 0.019110 0.867154
0.989069 0.015758 0.859989
0.999790 0.282436 0.777178
0.999453 0.446431 0.700489
0.999981 0.553541 0.586493
0.000298 0.686335 0.999969
0.000321 0.690161 0.999977
0.000735 0.623394 0.999993
0.000293 0.543948 0.992503
0.397651 0.458012 0.870273
0.852385 0.401364 0.790103
0.999602 0.450147 0.770784
0.999674 0.535848 0.690602
0.999066 0.595622 0.569430
0.000312 0.866864 0.983727
0.000317 0.842306 0.950985
0.000212 0.833839 0.939953
0.000216 0.817443 0.919491
0.263776 0.783148 0.836838
0.734629 0.736603 0.736423
0.999461 0.689582 0.710883
0.999592 0.659213 0.660869
0.999676 0.677399 0.529343
0.000219 0.992381 0.733061
0.000136 0.990215 0.727341
0.000048 0.989340 0.725605
0.027248 0.988370 0.712549
0.224455 0.981666 0.666440
0.615610 0.954706 0.595447
0.926811 0.906848 0.553746
0.999526 0.825047 0.563217
0.999328 0.805652 0.413013
0.272396 0.999762 0.290640
0.312716 0.999663 0.285646
0.329761 0.999625 0.283379
0.357029 0.999693 0.276367
0.427003 0.999886 0.257715
0.578955 0.999755 0.215942
0.798366 0.999550 0.155346
0.989224 0.999689 0.177844
0.992073 0.975710 0.005110
0.603436 0.999855 0.000044
0.612037 0.999865 0.000025
0.615581 0.999868 0.000037
0.622504 0.999873 0.000099
0.641129 0.999883 0.000270
0.689350 0.999879 0.000734
0.790615 0.999507 0.000125
0.970499 0.999958 0.017540
0.983737 1.000000 0.022016
0.013811 0.000184 0.912110
0.013807 0.000183 0.912090
0.013805 0.000183 0.912080
0.013801 0.000182 0.912061
0.014173 0.000097 0.902466
0.999779 0.000056 0.989760
0.999834 0.042361 0.819851
0.999965 0.114110 0.860263
0.999713 0.482548 0.772357
0.013805 0.000183 0.912079
0.013801 0.000182 0.912059
0.013799 0.000182 0.912050
0.013795 0.000181 0.912030
0.168642 0.000134 0.961095
0.999936 0.000081 0.990695
0.999854 0.042816 0.818917
0.999821 0.232505 0.850234
0.999831 0.510285 0.769785
0.013802 0.000182 0.912066
0.013798 0.000181 0.912045
0.013796 0.000181 0.912036
0.013792 0.000180 0.912016
0.248565 0.000272 0.988864
1.000000 0.000091 0.990826
0.999738 0.000255 0.903639
0.999949 0.273100 0.846797
0.999744 0.521681 0.768994
0.013796 0.000181 0.912037
0.013792 0.000180 0.912016
0.013790 0.000180 0.912007
0.013786 0.000179 0.911987
0.313596 0.000213 0.999842
1.000000 0.000000 0.999715
0.999858 0.076437 0.950137
0.999692 0.342415 0.839027
0.999724 0.543266 0.767707
0.000578 0.476845 0.999935
0.000577 0.482818 0.999970
0.000576 0.485439 0.999986
0.000531 0.490878 0.999984
0.017894 0.355010 0.999740
0.811222 0.244181 0.999701
0.999561 0.296240 0.985044
0.999626 0.472069 0.827730
0.999568 0.590657 0.766438
0.000523 0.812491 0.999850
0.000314 0.808380 0.999539
0.000163 0.791884 0.999563
0.000467 0.772332 0.999976
0.000213 0.736107 0.999692
0.637235 0.685005 0.999681
0.999867 0.625911 0.946306
0.999885 0.636777 0.810671
0.999763 0.671976 0.761161
0.000384 0.934472 0.999952
0.000546 0.931332 0.999866
0.000540 0.930011 0.999827
0.000537 0.928058 0.999753
0.000454 0.920933 0.999926
0.448813 0.899168 0.942266
0.855922 0.858102 0.856005
0.999649 0.800558 0.799052
0.999907 0.778935 0.732756
0.001075 0.999887 0.822788
0.023643 0.999900 0.816241
0.033354 0.999905 0.813419
0.053262 0.999914 0.807627
0.139891 0.999835 0.789821
0.389554 0.999546 0.744587
0.711155 0.999705 0.689132
0.983353 0.980583 0.658821
0.997868 0.923053 0.624655
0.548395 0.999886 0.547203
0.557447 0.999874 0.545249
0.561421 0.999868 0.544386
0.569722 0.999857 0.542573
0.587102 0.999781 0.536365
0.624695 0.999536 0.518018
0.709193 0.999441 0.475602
0.879332 0.999339 0.434036
0.988147 0.999721 0.327752
0.015679 0.004838 0.936230
0.015679 0.004838 0.936230
0.015679 0.004838 0.936230
0.015679 0.004838 0.936230
0.015679 0.004838 0.936230
0.582076 0.000179 0.999042
0.999984 0.000082 0.985323
0.999861 0.001862 0.887128
0.999941 0.309112 0.938943
0.015679 0.004838 0.936230
0.015679 0.004838 0.936230
0.015679 0.004838 0.936230
0.015679 0.004838 0.936230
0.015679 0.004838 0.936230
0.660589 0.000028 0.998789
0.999988 0.000059 0.984237
1.000000 0.000114 0.901476
0.999928 0.351770 0.933806
0.015679 0.004838 0.936230
0.015679 0.004838 0.936230
0.015679 0.004838 0.936230
0.015679 0.004838 0.936230
0.015679 0.004838 0.936230
0.688419 0.000012 0.999137
0.999990 0.000048 0.983758
0.999994 0.000048 0.990639
0.999945 0.369065 0.931769
0.015679 0.004838 0.936230
0.015679 0.004838 0.936230
0.015679 0.004838 0.936230
0.015679 0.004838 0.936230
0.015679 0.004838 0.936230
0.739521 0.000044 0.999982
0.999995 0.000027 0.982755
0.999921 0.004386 0.999568
0.999899 0.401598 0.926932
0.015679 0.004838 0.936230
0.015679 0.004838 0.936230
0.015679 0.004838 0.936230
0.015679 0.004838 0.936230
0.015679 0.004838 0.936230
0.633720 0.000007 0.999771
1.000000 0.000000 0.999715
0.999829 0.243590 0.996089
0.999620 0.474893 0.917222
0.000187 0.642242 0.999946
0.000198 0.644680 0.999951
0.000203 0.645759 0.999953
0.000214 0.648026 0.999958
0.000243 0.654206 0.999970
0.212425 0.541859 0.999899
0.956606 0.463771 0.999086
0.999775 0.520996 0.972709
0.999935 0.594774 0.903237
0.000375 0.970189 1.000000
0.000320 0.928343 0.999860
0.000294 0.897823 0.999833
0.000400 0.859787 0.999962
0.000353 0.838986 0.999763
0.084259 0.815244 0.999596
0.739583 0.782207 0.999868
0.999823 0.734152 0.992663
0.999608 0.740558 0.886188
0.000380 0.970249 0.999752
0.000460 0.969905 0.999841
0.000500 0.969766 0.999884
0.000582 0.969490 0.999971
0.000306 0.967275 0.999996
0.045470 0.979130 0.999902
0.558765 0.967532 0.993169
0.925205 0.927102 0.925163
0.999755 0.884529 0.865699
0.292420 0.999961 0.932385
0.307307 0.999956 0.928309
0.313847 0.999954 0.926518
0.327511 0.999950 0.922777
0.364177 0.999938 0.912736
0.451711 0.999874 0.889160
0.611487 0.999788 0.843278
0.819178 0.999577 0.807820
0.992778 0.999806 0.748712
0.015679 0.004838 0.936230
0.015679 0.004838 0.936230
0.015679 0.004838 0.936230
0.015679 0.004838 0.936230
0.015679 0.004838 0.936230
0.015679 0.004838 0.936230
0.998644 0.000023 0.999833
1.000000 0.000000 0.999715
0.999808 0.000086 0.965619
0.015679 0.004838 0.936230
0.015679 0.004838 0.936230
0.015679 0.004838 0.936230
0.015679 0.004838 0.936230
0.015679 0.004838 0.936230
0.015679 0.004838 0.936230
0.999332 0.000011 0.999773
1.000000 0.000000 0.999715
1.000000 0.000000 0.999715
0.015679 0.004838 0.936230
0.015679 0.004838 0.936230
0.015679 0.004838 0.936230
0.015679 0.004838 0.936230
0.015679 0.004838 0.936230
0.015679 0.004838 0.936230
0.999625 0.000006 0.999748
1.000000 0.000000 0.999715
1.000000 0.000000 0.999715
0.015679 0.004838 0.936230
0.015679 0.004838 0.936230
0.015679 0.004838 0.936230
0.015679 0.004838 0.936230
0.015679 0.004838 0.936230
0.015679 0.004838 0.936230
1.000000 0.000000 0.999715
1.000000 0.000000 0.999715
1.000000 0.000000 0.999715
0.015679 0.004838 0.936230
0.015679 0.004838 0.936230
0.015679 0.004838 0.936230
0.015679 0.004838 0.936230
0.015679 0.004838 0.936230
0.015679 0.004838 0.936230
1.000000 0.000000 0.999715
1.000000 0.000000 0.999715
0.999807 0.029161 0.999361
0.015679 0.004838 0.936230
0.015679 0.004838 0.936230
0.015679 0.004838 0.936230
0.015679 0.004838 0.936230
0.015679 0.004838 0.936230
0.015679 0.004838 0.936230
0.801171 0.000142 0.999979
0.999927 0.051234 0.999440
0.999743 0.343388 0.999325
0.000227 0.945005 0.999994
0.000221 0.945407 0.999994
0.000219 0.945585 0.999994
0.000214 0.945961 0.999993
0.000200 0.946993 0.999993
0.000161 0.949805 0.999992
0.416049 0.635522 0.999869
0.988589 0.610614 0.999598
0.999560 0.621014 0.999587
0.000000 0.973779 1.000000
0.000000 0.973779 1.000000
0.000000 0.973779 1.000000
0.000000 0.973779 1.000000
0.000323 0.973548 1.000000
0.000119 0.957559 0.999670
0.280826 0.904695 0.999793
0.821307 0.851315 0.999030
0.999848 0.820442 0.999070
0.000675 0.973247 0.999564
0.001572 0.974767 0.999628
0.001963 0.975430 0.999657
0.002774 0.976806 0.999716
0.004909 0.980437 0.999875
0.065629 0.993825 0.999982
0.337881 0.999808 0.999661
0.687728 0.998867 0.999489
0.982352 0.989224 0.987367
