output/AppleLog2_display/AppleLog2_to_PRO-Neg.Std_33grid.cube
TITLE "AppleLog2_to_PRO-Neg.Std"
# Input: Apple Log 2 (Apple Gamut primaries, D65)
# Output: BT.709 / Gamma 2.2 (display-referred)
# Use: Display LUT for iPhone 17 Pro Apple Log 2 footage
# Source: FLog2C_to_PRO-Neg.Std_65grid_V.1.00.cube
# Generated from Fujifilm GFX ETERNA 55 F-Log2C LUT
LUT_3D_SIZE 33
0.000438 0.000379 0.000085
0.000438 0.000379 0.000085
0.000438 0.000379 0.000085
0.000438 0.000379 0.000085
0.000438 0.000379 0.000085
0.000438 0.000379 0.000085
0.000438 0.000379 0.000085
0.000438 0.000379 0.000085
0.036441 0.008026 0.008700
0.080578 0.012186 0.021696
0.136870 0.018849 0.039915
0.213092 0.026053 0.060372
0.315665 0.036941 0.087891
0.445598 0.044099 0.122962
0.594630 0.050934 0.166089
0.741213 0.060203 0.226976
0.861432 0.073214 0.304014
0.939567 0.093042 0.395642
0.952033 0.138459 0.446395
0.959603 0.210008 0.468390
0.966102 0.257228 0.484735
0.966102 0.257228 0.484735
0.966102 0.257228 0.484735
0.966102 0.257228 0.484735
0.966102 0.257228 0.484735
0.966102 0.257228 0.484735
0.967572 0.282964 0.466742
0.968600 0.317495 0.442897
0.970831 0.352018 0.414965
0.971206 0.388967 0.385732
0.972915 0.425110 0.355059
0.971942 0.464262 0.316840
0.973331 0.502727 0.277261
0.000438 0.000379 0.000085
0.000438 0.000379 0.000085
0.000438 0.000379 0.000085
0.000438 0.000379 0.000085
0.000438 0.000379 0.000085
0.000438 0.000379 0.000085
0.018787 0.004400 0.003959
0.047543 0.008602 0.013848
0.081599 0.012413 0.021953
0.124314 0.019166 0.034637
0.181154 0.024033 0.051230
0.262551 0.031557 0.073631
0.363442 0.040323 0.100409
0.492216 0.046292 0.136331
0.632985 0.051313 0.177388
0.765827 0.063272 0.241439
0.878539 0.076567 0.317823
0.943171 0.095750 0.405275
0.953021 0.144479 0.448775
0.960138 0.215769 0.470410
0.966102 0.257228 0.484735
0.966102 0.257228 0.484735
0.966102 0.257228 0.484735
0.966102 0.257228 0.484735
0.967409 0.263342 0.480984
0.967335 0.289473 0.462122
0.968763 0.316440 0.443215
0.969817 0.345338 0.422324
0.970558 0.375047 0.397158
0.971625 0.407258 0.369584
0.973338 0.440682 0.339997
0.972231 0.476577 0.304627
0.972587 0.512646 0.265951
0.000438 0.000379 0.000085
0.000438 0.000379 0.000085
0.000438 0.000379 0.000085
0.000438 0.000379 0.000085
0.000438 0.000379 0.000085
0.005381 0.001202 0.001180
0.037501 0.008084 0.009207
0.065213 0.008771 0.017838
0.099335 0.016535 0.026325
0.144045 0.018668 0.042931
0.202772 0.025400 0.057418
0.282626 0.033791 0.078976
0.382540 0.041431 0.105335
0.510283 0.047498 0.141536
0.647810 0.051932 0.182770
0.775665 0.064499 0.247219
0.885432 0.077918 0.323386
0.943625 0.097497 0.408148
0.953423 0.146932 0.449745
0.958782 0.192500 0.464207
0.961820 0.222629 0.474735
0.966043 0.256739 0.484598
0.966102 0.257228 0.484735
0.965725 0.262566 0.480758
0.967821 0.283043 0.467461
0.967913 0.305291 0.451366
0.969219 0.329289 0.433410
0.970338 0.356367 0.413454
0.970499 0.384179 0.390435
0.971766 0.414314 0.363201
0.973546 0.446902 0.333626
0.972239 0.481579 0.299372
0.972658 0.516777 0.261364
0.000438 0.000379 0.000085
0.000438 0.000379 0.000085
0.000438 0.000379 0.000085
0.000438 0.000379 0.000085
0.000438 0.000379 0.000085
0.021230 0.005153 0.004265
0.051986 0.008645 0.014851
0.080387 0.012143 0.021648
0.111740 0.019482 0.029351
0.158329 0.020820 0.046072
0.218393 0.026388 0.061889
0.298505 0.035305 0.083261
0.396659 0.042250 0.108976
0.523746 0.048397 0.145416
0.658638 0.052788 0.187571
0.783081 0.065423 0.251576
0.890648 0.078940 0.327596
0.940943 0.090461 0.385842
0.946654 0.105703 0.433019
0.952089 0.141555 0.448720
0.957134 0.182831 0.460978
0.962900 0.227087 0.478338
0.966422 0.256368 0.481009
0.966672 0.275422 0.472597
0.968065 0.297144 0.457321
0.968763 0.316519 0.443294
0.969771 0.339053 0.425902
0.970783 0.364903 0.405755
0.970981 0.391271 0.383886
0.971859 0.419826 0.358366
0.973699 0.451536 0.328878
0.972245 0.485331 0.295428
0.972764 0.519915 0.257897
0.000438 0.000379 0.000085
0.000438 0.000379 0.000085
0.000438 0.000379 0.000085
0.000438 0.000379 0.000085
0.000438 0.000379 0.000085
0.033080 0.007842 0.007091
0.063307 0.008753 0.017407
0.092159 0.014825 0.024577
0.125431 0.019137 0.035107
0.169714 0.022583 0.048520
0.231911 0.027774 0.065558
0.311415 0.036536 0.086744
0.402355 0.042307 0.110838
0.505128 0.047832 0.138926
0.615631 0.050859 0.174228
0.721437 0.059553 0.215952
0.812727 0.070111 0.266846
0.892459 0.080880 0.328050
0.941462 0.092250 0.395721
0.948486 0.117577 0.434424
0.954661 0.159550 0.451740
0.960752 0.213437 0.463891
0.967835 0.264498 0.470289
0.967875 0.288884 0.462277
0.968467 0.307350 0.449929
0.969601 0.325465 0.436590
0.970205 0.346887 0.419540
0.971137 0.371747 0.399578
0.971370 0.397026 0.378577
0.971902 0.424989 0.354146
0.973826 0.455355 0.324964
0.972250 0.488438 0.292160
0.972851 0.522525 0.255015
0.000561 0.006465 0.000480
0.001472 0.013951 0.001002
0.002296 0.016598 0.001231
0.002911 0.018569 0.001402
0.004043 0.017547 0.000789
0.032976 0.017653 0.003500
0.058647 0.016201 0.011532
0.083406 0.017350 0.022150
0.109757 0.019339 0.027079
0.146731 0.021638 0.041415
0.194859 0.026352 0.054195
0.256896 0.032047 0.071484
0.336959 0.036201 0.093962
0.428940 0.043604 0.117140
0.539050 0.049019 0.147666
0.657515 0.052904 0.186358
0.759976 0.062480 0.236792
0.850438 0.073659 0.294221
0.931276 0.088230 0.361213
0.946068 0.111474 0.418845
0.953499 0.155828 0.440120
0.960457 0.213191 0.449414
0.966415 0.274039 0.459343
0.968547 0.299690 0.454512
0.968557 0.315649 0.443945
0.970108 0.332920 0.430934
0.970567 0.353463 0.414153
0.971235 0.377348 0.394874
0.971702 0.401938 0.374048
0.971937 0.429429 0.350519
0.973881 0.458679 0.321600
0.972255 0.491134 0.289324
0.972928 0.524798 0.252505
0.005613 0.036303 0.001178
0.006760 0.042712 0.000908
0.007255 0.045303 0.000803
0.007627 0.047249 0.000725
0.007171 0.042504 0.000057
0.028548 0.038641 0.000601
0.051971 0.040349 0.002892
0.073319 0.039159 0.007419
0.100840 0.040973 0.013523
0.134763 0.040742 0.027075
0.177084 0.043478 0.039526
0.233737 0.046852 0.055268
0.303117 0.049553 0.075863
0.392837 0.053337 0.102077
0.496915 0.056052 0.128878
0.614689 0.063125 0.163440
0.724988 0.069098 0.211020
0.821170 0.081926 0.265678
0.910177 0.100387 0.328050
0.945752 0.124035 0.393071
0.953685 0.164424 0.423551
0.960314 0.217234 0.435420
0.965872 0.278543 0.447936
0.968740 0.308142 0.449363
0.968704 0.322901 0.438660
0.970140 0.339465 0.425874
0.970881 0.359156 0.409500
0.971256 0.382181 0.390940
0.971992 0.406258 0.370067
0.971966 0.433360 0.347310
0.973822 0.461680 0.318649
0.972259 0.493539 0.286792
0.972996 0.526831 0.250260
0.009859 0.061380 0.000556
0.010523 0.066130 0.000574
0.010978 0.068301 0.000522
0.011346 0.069975 0.000475
0.008411 0.062463 0.000021
0.025386 0.058687 0.000331
0.049728 0.057840 0.001475
0.070799 0.057606 0.004153
0.094900 0.058791 0.007331
0.127944 0.059780 0.014701
0.167833 0.061388 0.023775
0.221660 0.064870 0.038813
0.288331 0.068536 0.057586
0.371327 0.072900 0.081585
0.471667 0.075769 0.107511
0.589072 0.082330 0.140990
0.700136 0.088662 0.184213
0.799413 0.102267 0.237336
0.890941 0.118389 0.298008
0.943647 0.141626 0.363261
0.953814 0.173444 0.408289
0.959906 0.222445 0.422148
0.965467 0.282012 0.437501
0.968814 0.315400 0.443069
0.969278 0.330524 0.432869
0.970168 0.345304 0.421374
0.971030 0.364464 0.405222
0.971276 0.386569 0.387371
0.972242 0.410190 0.366532
0.971992 0.436969 0.344365
0.973767 0.464446 0.315930
0.972263 0.495763 0.284451
0.973059 0.528717 0.248179
0.014276 0.088431 0.000229
0.014358 0.094517 0.000362
0.014391 0.096970 0.000416
0.014416 0.098826 0.000456
0.011810 0.083633 0.000190
0.022213 0.078378 0.000256
0.049151 0.076860 0.000393
0.068993 0.076633 0.000803
0.092330 0.078547 0.002251
0.123227 0.078277 0.007240
0.159264 0.081219 0.011972
0.209588 0.084265 0.023144
0.272442 0.087058 0.040029
0.353057 0.090829 0.061529
0.449710 0.096815 0.085849
0.562200 0.100859 0.117822
0.675683 0.109036 0.156369
0.777460 0.122094 0.209598
0.870498 0.139386 0.265929
0.939389 0.160768 0.333455
0.954132 0.188948 0.386233
0.960420 0.231075 0.406395
0.964601 0.286387 0.423210
0.968763 0.323401 0.433488
0.969942 0.339139 0.426359
0.970270 0.352339 0.415766
0.971081 0.370741 0.400196
0.971301 0.391663 0.383229
0.972523 0.414777 0.362461
0.972020 0.441210 0.340907
0.973702 0.467706 0.312723
0.972268 0.498393 0.281681
0.973135 0.530954 0.245711
0.016768 0.125170 0.000466
0.017387 0.130472 0.000410
0.017685 0.133013 0.000372
0.016512 0.127044 0.000029
0.015407 0.109042 0.000375
0.022401 0.102669 0.000284
0.045066 0.101600 0.000203
0.065246 0.099360 0.000306
0.089303 0.099891 0.000839
0.118168 0.101448 0.001539
0.155292 0.104117 0.005041
0.202282 0.105640 0.011179
0.261050 0.109333 0.019433
0.340208 0.114105 0.040046
0.429568 0.118044 0.063979
0.538783 0.124124 0.092068
0.651209 0.133200 0.125656
0.756404 0.146449 0.176768
0.850494 0.163545 0.231667
0.934942 0.182476 0.299792
0.954303 0.206917 0.359978
0.959979 0.243108 0.387895
0.964201 0.292766 0.406506
0.968685 0.332519 0.421556
0.970532 0.349679 0.417071
0.970633 0.362160 0.407271
0.971140 0.378461 0.393994
0.971475 0.398222 0.377669
0.972870 0.420508 0.357373
0.972052 0.446545 0.336562
0.973620 0.471825 0.308673
0.972377 0.501872 0.278016
0.973230 0.533801 0.242570
0.021234 0.172992 0.000126
0.021439 0.177908 0.000167
0.021523 0.179910 0.000183
0.019806 0.159021 0.000513
0.018285 0.141321 0.000799
0.022652 0.133403 0.000143
0.042863 0.131601 0.000092
0.065502 0.130633 0.000039
0.087324 0.130666 0.000406
0.115013 0.130925 0.000419
0.151465 0.131151 0.000234
0.196871 0.133740 0.002592
0.254951 0.136852 0.005498
0.325620 0.141736 0.015023
0.411018 0.146092 0.030986
0.517625 0.152211 0.060992
0.625665 0.160078 0.096086
0.731743 0.175443 0.139025
0.829759 0.190192 0.195197
0.919434 0.211061 0.258132
0.954539 0.231879 0.326228
0.959543 0.261129 0.363898
0.964555 0.302213 0.386889
0.968494 0.342817 0.406974
0.971101 0.362278 0.405249
0.971061 0.374005 0.397038
0.971473 0.388441 0.385816
0.971971 0.406766 0.369961
0.973295 0.427615 0.351060
0.972244 0.452690 0.330326
0.973515 0.477002 0.303581
0.972602 0.506390 0.273258
0.973351 0.537413 0.238587
0.023756 0.232869 0.000343
0.023817 0.238649 0.000380
0.023538 0.231415 0.000257
0.022610 0.198013 0.000203
0.021166 0.181745 0.000107
0.026001 0.172453 0.000251
0.042272 0.168699 0.000016
0.062925 0.167879 0.000005
0.085127 0.166920 0.000049
0.115141 0.164697 0.000595
0.148895 0.165919 0.000128
0.190908 0.166689 0.000074
0.248752 0.170789 0.000348
0.316482 0.174690 0.000743
0.397310 0.178838 0.001805
0.494597 0.185707 0.023389
0.601777 0.195455 0.057601
0.706963 0.207789 0.099806
0.806178 0.224094 0.148829
0.897799 0.242755 0.211043
0.953376 0.263775 0.281849
0.960434 0.285957 0.333647
0.965251 0.315934 0.362060
0.969310 0.357250 0.387146
0.971621 0.377641 0.394996
0.971223 0.388628 0.386819
0.972265 0.401283 0.375113
0.972569 0.417158 0.360577
0.973674 0.436537 0.342878
0.972503 0.460265 0.322535
0.973382 0.483468 0.297221
0.972882 0.512073 0.267276
0.973504 0.541977 0.233557
0.023581 0.311137 0.000088
0.023515 0.316159 0.000029
0.023736 0.277753 0.000093
0.023202 0.246844 0.000107
0.023665 0.228639 0.000050
0.026954 0.220732 0.000044
0.040377 0.215611 0.000039
0.063561 0.214153 0.000085
0.086616 0.212034 0.000033
0.113115 0.210475 0.000312
0.146745 0.209181 0.000347
0.189209 0.210208 0.000068
0.242475 0.211230 0.000084
0.307707 0.214187 0.000462
0.386857 0.217611 0.000104
0.476540 0.226381 0.001346
0.578500 0.234479 0.014647
0.683970 0.245618 0.056670
0.782674 0.261686 0.103929
0.875235 0.280038 0.160894
0.945563 0.299241 0.231047
0.960947 0.316634 0.297883
0.964421 0.340537 0.328011
0.968438 0.373763 0.361425
0.972245 0.396323 0.379286
0.971958 0.405442 0.373061
0.972743 0.416647 0.361258
0.972248 0.430448 0.348343
0.973928 0.447687 0.332263
0.972836 0.469566 0.312966
0.973295 0.491970 0.288493
0.973227 0.519177 0.259802
0.973516 0.547959 0.226484
0.018702 0.406063 0.000738
0.020028 0.384098 0.000533
0.023051 0.326180 0.000430
0.023233 0.299279 0.000199
0.023181 0.286037 0.000244
0.026317 0.277409 0.000542
0.036460 0.272402 0.000617
0.058705 0.269612 0.000167
0.083149 0.267346 0.000025
0.112266 0.264900 0.000100
0.147410 0.261783 0.000226
0.189723 0.261355 0.000036
0.240095 0.261999 0.000303
0.304662 0.264851 0.000021
0.378588 0.267781 0.000192
0.462540 0.274209 0.000004
0.559166 0.283082 0.000115
0.660274 0.293530 0.011364
0.760298 0.305312 0.051310
0.852090 0.321490 0.104176
0.936239 0.338551 0.173788
0.960888 0.353731 0.245418
0.965604 0.368992 0.290044
0.968873 0.395810 0.326564
0.972879 0.417677 0.355428
0.973070 0.424892 0.354091
0.972788 0.434814 0.343696
0.971518 0.446527 0.333493
0.974139 0.461471 0.319167
0.972801 0.481430 0.300530
0.973224 0.502642 0.277392
0.973647 0.527992 0.250534
0.973400 0.555609 0.217103
0.015894 0.506077 0.000368
0.017157 0.428476 0.000418
0.020193 0.385330 0.000038
0.020877 0.364690 0.000209
0.022481 0.352593 0.000438
0.028283 0.343532 0.000283
0.039221 0.337494 0.000168
0.059001 0.334939 0.000290
0.081813 0.332180 0.000489
0.109761 0.329157 0.000777
0.144695 0.325749 0.000522
0.186147 0.325376 0.000207
0.236990 0.324992 0.000053
0.299797 0.324325 0.000147
0.371058 0.324314 0.000117
0.453214 0.330455 0.000106
0.543426 0.336819 0.000341
0.641401 0.346359 0.000077
0.736965 0.356241 0.005092
0.829730 0.369101 0.042482
0.918583 0.383594 0.109523
0.962023 0.398187 0.182845
0.966668 0.405992 0.242338
0.969710 0.423516 0.285869
0.972279 0.442161 0.322612
0.971155 0.450367 0.329657
0.973639 0.456155 0.326190
0.972707 0.467334 0.314481
0.973780 0.479856 0.301771
0.972463 0.496014 0.285081
0.973134 0.515631 0.263890
0.973860 0.538839 0.237335
0.973256 0.565092 0.205478
0.012555 0.611052 0.000739
0.014849 0.481324 0.000031
0.015593 0.452906 0.000238
0.014896 0.437110 0.000583
0.015873 0.426199 0.000470
0.017442 0.418730 0.000514
0.032969 0.414533 0.000362
0.054182 0.411952 0.000129
0.078401 0.408523 0.000116
0.107983 0.403977 0.000350
0.144376 0.399860 0.000241
0.187382 0.396297 0.000082
0.238489 0.393737 0.000032
0.299318 0.392005 0.000289
0.367785 0.391177 0.000317
0.446972 0.393308 0.000001
0.532558 0.396626 0.000704
0.625684 0.403673 0.000208
0.718847 0.412892 0.000095
0.808576 0.423131 0.003022
0.895434 0.435930 0.037705
0.957309 0.447466 0.110123
0.967210 0.453464 0.179858
0.968169 0.459778 0.234051
0.970894 0.473703 0.279489
0.972456 0.478501 0.302793
0.973547 0.482167 0.299345
0.973026 0.490750 0.290516
0.974072 0.500729 0.280503
0.972340 0.513923 0.264824
0.973660 0.531509 0.244270
0.974025 0.552022 0.220690
0.973078 0.576742 0.191204
0.012968 0.629179 0.000831
0.013634 0.542433 0.000078
0.015253 0.521451 0.000242
0.015273 0.509657 0.000059
0.017744 0.502678 0.000482
0.024065 0.497272 0.000786
0.042620 0.493083 0.000817
0.058870 0.489395 0.000838
0.082231 0.485780 0.000697
0.111641 0.481599 0.000484
0.147487 0.477529 0.000310
0.189916 0.473569 0.000174
0.239086 0.470558 0.000102
0.298010 0.466229 0.000024
0.365246 0.464221 0.000001
0.439585 0.463264 0.000011
0.523473 0.464440 0.000005
0.610015 0.468407 0.000051
0.702916 0.475848 0.000047
0.789063 0.483089 0.000023
0.873676 0.493041 0.001095
0.945560 0.500912 0.036559
0.966362 0.508061 0.112007
0.967990 0.505168 0.165375
0.970514 0.511170 0.222209
0.972773 0.511493 0.266179
0.973630 0.512926 0.266378
0.973069 0.517762 0.261380
0.974226 0.524866 0.254044
0.972543 0.535484 0.239993
0.974052 0.550530 0.221040
0.973771 0.568847 0.199748
0.972914 0.591453 0.170899
0.011225 0.660250 0.000022
0.012477 0.607966 0.000750
0.013333 0.594400 0.000058
0.013481 0.586617 0.000206
0.016725 0.580673 0.000331
0.032037 0.575544 0.000222
0.044887 0.571170 0.000125
0.061766 0.568091 0.000110
0.086540 0.565402 0.000167
0.116672 0.562171 0.000237
0.151018 0.558545 0.000446
0.192030 0.554397 0.000617
0.242134 0.550168 0.000421
0.298541 0.545507 0.000175
0.362659 0.541266 0.000075
0.436436 0.538737 0.000033
0.515529 0.537367 0.000265
0.602253 0.538128 0.000125
0.689347 0.542248 0.000321
0.774695 0.545978 0.000009
0.854859 0.555459 0.000633
0.931487 0.559793 0.000049
0.963870 0.564293 0.030985
0.967349 0.557364 0.087233
0.970283 0.554646 0.152943
0.972866 0.549829 0.210618
0.974195 0.547047 0.226254
0.973807 0.549148 0.224749
0.972641 0.554015 0.219588
0.973806 0.561819 0.211098
0.973360 0.573821 0.194061
0.972776 0.590308 0.173438
0.972745 0.609120 0.146449
0.007594 0.710548 0.000012
0.011578 0.680400 0.000003
0.012192 0.669665 0.000798
0.019533 0.662975 0.000876
0.032270 0.658542 0.000452
0.042748 0.654847 0.000102
0.061441 0.651894 0.000056
0.079997 0.649294 0.000061
0.101293 0.646320 0.000069
0.127569 0.643277 0.000104
0.159795 0.640515 0.000182
0.199158 0.637227 0.000298
0.248102 0.633364 0.000527
0.301694 0.629051 0.000364
0.362692 0.623952 0.000171
0.433262 0.619205 0.000208
0.510253 0.617363 0.000223
0.592682 0.614805 0.000286
0.677808 0.613984 0.000280
0.759916 0.616239 0.000096
0.838307 0.619382 0.000096
0.910953 0.624552 0.000101
0.962474 0.626220 0.000802
0.966040 0.618499 0.001508
0.968095 0.609653 0.063767
0.970929 0.596144 0.135861
0.971507 0.587066 0.175527
0.973235 0.586361 0.176168
0.972787 0.587967 0.175535
0.972777 0.592639 0.167619
0.972607 0.601882 0.156317
0.971967 0.614843 0.137947
0.971740 0.631021 0.114538
0.008436 0.769761 0.000352
0.008960 0.748169 0.000633
0.013885 0.741663 0.000367
0.017559 0.737144 0.000152
0.035180 0.734199 0.000169
0.058171 0.732085 0.000290
0.078221 0.730250 0.000397
0.096392 0.728593 0.000496
0.117266 0.726770 0.000622
0.142939 0.724608 0.000790
0.174434 0.721983 0.000998
0.212392 0.718769 0.000830
0.257697 0.714885 0.000244
0.309679 0.710818 0.000315
0.369135 0.706410 0.000602
0.436598 0.701235 0.000000
0.508433 0.696175 0.000013
0.587242 0.692424 0.000029
0.666324 0.690114 0.000657
0.746369 0.687636 0.000056
0.821210 0.686402 0.000158
0.893902 0.688106 0.000019
0.951024 0.690082 0.000197
0.963393 0.685457 0.000000
0.965213 0.671537 0.004245
0.968531 0.651217 0.045038
0.970976 0.632795 0.112765
0.971426 0.628587 0.116166
0.971294 0.627030 0.120697
0.971473 0.627319 0.115857
0.971869 0.634333 0.109380
0.971115 0.643277 0.094206
0.970559 0.656327 0.076151
0.005247 0.827225 0.000115
0.011044 0.814005 0.000247
0.029418 0.809978 0.000313
0.051023 0.807421 0.000335
0.068396 0.805360 0.000354
0.083301 0.803622 0.000368
0.101576 0.802380 0.000316
0.118245 0.801248 0.000269
0.137695 0.799929 0.000213
0.161966 0.798285 0.000141
0.191458 0.796114 0.000112
0.226355 0.793149 0.000213
0.268707 0.789582 0.000330
0.317415 0.786113 0.000190
0.373968 0.782235 0.000063
0.436167 0.777672 0.000328
0.504902 0.772895 0.000186
0.580861 0.767306 0.000323
0.657783 0.762084 0.000250
0.733541 0.757977 0.000176
0.805725 0.753170 0.000043
0.877178 0.748659 0.000013
0.946411 0.746262 0.000064
0.962387 0.744676 0.000335
0.962615 0.732787 0.000105
0.965075 0.712014 0.003601
0.968525 0.682823 0.022136
0.970070 0.673860 0.047232
0.969998 0.669940 0.053321
0.970737 0.667444 0.054817
0.970640 0.670802 0.051422
0.969973 0.675939 0.042923
0.969236 0.684989 0.032403
0.001734 0.881283 0.000276
0.040882 0.872810 0.000427
0.059152 0.869759 0.000495
0.084242 0.868592 0.000451
0.104934 0.867662 0.000412
0.122681 0.866867 0.000379
0.138354 0.866167 0.000349
0.152713 0.865528 0.000321
0.169433 0.864709 0.000289
0.189882 0.863346 0.000252
0.215394 0.861655 0.000208
0.246975 0.859575 0.000155
0.285138 0.857141 0.000215
0.330506 0.854366 0.000479
0.383178 0.850600 0.000658
0.440523 0.844824 0.000512
0.504920 0.838644 0.000493
0.575573 0.831830 0.000319
0.649038 0.824473 0.000021
0.721899 0.817136 0.000026
0.794008 0.809671 0.000020
0.862290 0.803202 0.000118
0.928853 0.797798 0.000002
0.960992 0.793456 0.000037
0.960952 0.783516 0.000022
0.962169 0.767998 0.000012
0.964793 0.743153 0.000082
0.966914 0.724033 0.001053
0.967966 0.717323 0.003551
0.967633 0.713509 0.000777
0.967719 0.711699 0.007255
0.967948 0.713478 0.003378
0.967181 0.718800 0.000024
0.003880 0.930934 0.000025
0.071308 0.928070 0.000025
0.105117 0.927509 0.000024
0.130270 0.927100 0.000022
0.149724 0.926165 0.000031
0.165490 0.924862 0.000048
0.179491 0.923704 0.000063
0.192382 0.922639 0.000078
0.207566 0.921384 0.000094
0.226730 0.919800 0.000116
0.250785 0.917811 0.000144
0.278817 0.915243 0.000220
0.312194 0.912010 0.000336
0.353130 0.908062 0.000478
0.399079 0.903182 0.000520
0.452006 0.897314 0.000497
0.509970 0.891923 0.000256
0.574529 0.885252 0.000021
0.644139 0.876127 0.000014
0.712916 0.869309 0.000143
0.782434 0.862221 0.000004
0.849259 0.853244 0.000025
0.913823 0.846309 0.000030
0.956544 0.842511 0.000000
0.959359 0.831399 0.000013
0.959517 0.811913 0.000110
0.961425 0.789794 0.000019
0.965589 0.776487 0.000035
0.965485 0.765454 0.000182
0.965890 0.761777 0.000000
0.965334 0.757074 0.000009
0.965278 0.755952 0.000073
0.967007 0.757299 0.000002
0.082731 0.975810 0.000368
0.139848 0.971237 0.000334
0.166259 0.969294 0.000254
0.186043 0.967842 0.000194
0.202410 0.966641 0.000144
0.216602 0.965602 0.000100
0.229254 0.964676 0.000061
0.240504 0.963845 0.000048
0.252523 0.962935 0.000100
0.267754 0.961783 0.000166
0.286973 0.960332 0.000249
0.311096 0.958516 0.000355
0.341177 0.956260 0.000488
0.376113 0.953083 0.000469
0.416684 0.948809 0.000259
0.465825 0.943660 0.000003
0.519094 0.938646 0.000016
0.579637 0.932739 0.000077
0.643959 0.925899 0.000243
0.710873 0.917552 0.000045
0.775803 0.909243 0.000302
0.836673 0.901667 0.000098
0.900217 0.893647 0.000001
0.951474 0.885809 0.000014
0.957114 0.874476 0.000000
0.958492 0.855534 0.000012
0.960062 0.831967 0.000121
0.960436 0.810316 0.000195
0.961768 0.801057 0.000266
0.961425 0.794475 0.000288
0.961949 0.792615 0.000042
0.961877 0.788526 0.000042
0.961560 0.789637 0.000057
0.161773 0.998930 0.000438
0.214623 0.998040 0.000316
0.234948 0.997030 0.000329
0.250255 0.996274 0.000339
0.262972 0.995650 0.000346
0.274036 0.995110 0.000353
0.283931 0.994629 0.000359
0.293097 0.994185 0.000365
0.303964 0.993661 0.000371
0.317785 0.992998 0.000380
0.335302 0.992164 0.000390
0.355237 0.991106 0.000350
0.379085 0.989784 0.000272
0.408826 0.988164 0.000173
0.445629 0.986203 0.000050
0.487131 0.983552 0.000005
0.535318 0.980215 0.000013
0.589395 0.975570 0.000026
0.648629 0.969185 0.000043
0.708284 0.961438 0.000296
0.768473 0.953142 0.000198
0.827391 0.944624 0.000005
0.884927 0.935277 0.000058
0.938647 0.924996 0.000127
0.957304 0.912741 0.000000
0.956748 0.895637 0.000027
0.957560 0.874479 0.000014
0.959403 0.851163 0.000006
0.958787 0.836793 0.000003
0.959882 0.829779 0.000011
0.958870 0.824163 0.000025
0.960513 0.819588 0.000176
0.960379 0.816452 0.000125
0.245269 0.999951 0.000532
0.289038 0.999950 0.000335
0.306649 0.999949 0.000257
0.318992 0.999950 0.000222
0.328519 0.999952 0.000211
0.336832 0.999953 0.000203
0.344283 0.999955 0.000195
0.351201 0.999956 0.000188
0.359421 0.999957 0.000179
0.369904 0.999959 0.000169
0.383237 0.999962 0.000156
0.400134 0.999965 0.000140
0.421458 0.999969 0.000120
0.447805 0.999970 0.000100
0.476119 0.999931 0.000116
0.511154 0.999882 0.000135
0.554106 0.999820 0.000159
0.598765 0.999242 0.000106
0.651539 0.998515 0.000027
0.703123 0.993329 0.000096
0.758025 0.986888 0.000103
0.812801 0.979260 0.000032
0.866050 0.969981 0.000068
0.919074 0.958012 0.000121
0.951338 0.946187 0.000174
0.956364 0.931494 0.000251
0.957023 0.913259 0.000158
0.957606 0.890750 0.000033
0.959139 0.872245 0.000402
0.957922 0.865075 0.000191
0.958505 0.858731 0.000024
0.958360 0.852841 0.000081
0.958612 0.848811 0.000138
0.331778 0.999622 0.000090
0.361417 0.999529 0.000086
0.373422 0.999491 0.000085
0.382530 0.999463 0.000083
0.390140 0.999439 0.000082
0.396792 0.999418 0.000081
0.402766 0.999399 0.000081
0.408321 0.999381 0.000080
0.414933 0.999361 0.000079
0.422366 0.999393 0.000076
0.431807 0.999435 0.000071
0.443812 0.999490 0.000066
0.459024 0.999560 0.000060
0.478215 0.999649 0.000052
0.502297 0.999762 0.000043
0.532318 0.999905 0.000034
0.565470 0.999879 0.000044
0.605864 0.999830 0.000054
0.651656 0.999708 0.000116
