output/AppleLog2_display/AppleLog2_to_PRO-Neg.Std_33grid.cube
TITLE "AppleLog2_to_PRO-Neg.Std"
# Input: Apple Log 2 (Apple Gamut primaries, D65)
# Output: BT.709 / Gamma 2.2 (display-referred)
# Use: Display LUT for iPhone 17 Pro Apple Log 2 footage
# Source: FLog2C_to_PRO-Neg.Std_65grid_V.1.00.cube
# Generated from Fujifilm GFX ETERNA 55 F-Log2C LUT
LUT_3D_SIZE 9
0.000438 0.000379 0.000085
0.000438 0.000379 0.000085
0.036441 0.008026 0.008700
0.315665 0.036941 0.087891
0.861432 0.073214 0.304014
0.966102 0.257228 0.484735
0.966102 0.257228 0.484735
0.970831 0.352018 0.414965
0.973331 0.502727 0.277261
0.000438 0.000379 0.000085
0.000438 0.000379 0.000085
0.125431 0.019137 0.035107
0.402355 0.042307 0.110838
0.812727 0.070111 0.266846
0.954661 0.159550 0.451740
0.968467 0.307350 0.449929
0.971370 0.397026 0.378577
0.972851 0.522525 0.255015
0.014276 0.088431 0.000229
0.011810 0.083633 0.000190
0.092330 0.078547 0.002251
0.272442 0.087058 0.040029
0.675683 0.109036 0.156369
0.954132 0.188948 0.386233
0.969942 0.339139 0.426359
0.972523 0.414777 0.362461
0.973135 0.530954 0.245711
0.023581 0.311137 0.000088
0.023665 0.228639 0.000050
0.086616 0.212034 0.000033
0.242475 0.211230 0.000084
0.578500 0.234479 0.014647
0.945563 0.299241 0.231047
0.972245 0.396323 0.379286
0.973928 0.447687 0.332263
0.973516 0.547959 0.226484
0.012968 0.629179 0.000831
0.017744 0.502678 0.000482
0.082231 0.485780 0.000697
0.239086 0.470558 0.000102
0.523473 0.464440 0.000005
0.873676 0.493041 0.001095
0.970514 0.511170 0.222209
0.974226 0.524866 0.254044
0.972914 0.591453 0.170899
0.005247 0.827225 0.000115
0.068396 0.805360 0.000354
0.137695 0.799929 0.000213
0.268707 0.789582 0.000330
0.504902 0.772895 0.000186
0.805725 0.753170 0.000043
0.962615 0.732787 0.000105
0.969998 0.669940 0.053321
0.969236 0.684989 0.032403
0.161773 0.998930 0.000438
0.262972 0.995650 0.000346
0.303964 0.993661 0.000371
0.379085 0.989784 0.000272
0.535318 0.980215 0.000013
0.768473 0.953142 0.000198
0.957304 0.912741 0.000000
0.958787 0.836793 0.000003
0.960379 0.816452 0.000125
0.488968 0.999977 0.000115
0.517186 0.999933 0.000157
0.529207 0.999912 0.000177
0.553970 0.999868 0.000219
0.615509 0.999687 0.000287
0.735607 0.999214 0.000134
0.905952 0.999604 0.000227
0.954303 0.971125 0.000156
0.955689 0.939961 0.000007
0.693024 0.999611 0.000200
0.700195 0.999575 0.000189
0.703349 0.999559 0.000184
0.709950 0.999525 0.000173
0.727725 0.999435 0.000143
0.773107 0.999224 0.000076
0.859067 0.999535 0.000329
0.949657 0.999753 0.000512
0.950505 0.999695 0.000653
0.000438 0.000379 0.000085
0.000438 0.000379 0.000085
0.003755 0.000852 0.000799
0.282245 0.033755 0.078873
0.849250 0.071637 0.295209
0.966102 0.257228 0.484735
0.966102 0.257228 0.484735
0.970808 0.350059 0.416827
0.973398 0.501855 0.278254
0.000438 0.000379 0.000085
0.000438 0.000379 0.000085
0.095325 0.015580 0.025348
0.378113 0.041174 0.104193
0.825686 0.069931 0.277966
0.955462 0.163832 0.452649
0.968379 0.304210 0.452238
0.971239 0.395208 0.380259
0.972824 0.521700 0.255927
0.013090 0.077888 0.000251
0.013348 0.084908 0.000093
0.073677 0.070859 0.001891
0.260225 0.080457 0.040341
0.672863 0.100908 0.161484
0.953889 0.182660 0.392511
0.969692 0.336162 0.428594
0.972423 0.413162 0.363889
0.973109 0.530162 0.246583
0.023713 0.301229 0.000203
0.023077 0.235569 0.000019
0.069207 0.208058 0.000003
0.227123 0.206514 0.000019
0.570850 0.228668 0.016124
0.945125 0.294679 0.234040
0.972158 0.394024 0.381554
0.973901 0.446297 0.333589
0.973531 0.547178 0.227440
0.011506 0.655794 0.000421
0.015766 0.504589 0.000114
0.063004 0.485532 0.000851
0.225391 0.468419 0.000150
0.516153 0.461572 0.000031
0.871705 0.490628 0.000361
0.970519 0.509591 0.223995
0.974322 0.523761 0.255326
0.972920 0.590790 0.171816
0.004900 0.829502 0.000183
0.055736 0.805884 0.000325
0.121862 0.800002 0.000255
0.256470 0.789637 0.000310
0.498120 0.772324 0.000209
0.803504 0.752434 0.000044
0.962614 0.732262 0.000109
0.970019 0.669313 0.054327
0.969266 0.684523 0.032854
0.150810 0.999024 0.000473
0.253646 0.996096 0.000335
0.295017 0.994046 0.000361
0.372101 0.990062 0.000295
0.530297 0.980335 0.000012
0.766503 0.953222 0.000214
0.957304 0.912758 0.000000
0.958796 0.836636 0.000004
0.960385 0.816289 0.000124
0.485739 0.999977 0.000112
0.514503 0.999938 0.000151
0.526567 0.999916 0.000170
0.551415 0.999873 0.000212
0.613552 0.999701 0.000286
0.734324 0.999212 0.000136
0.905444 0.999605 0.000221
0.954308 0.971151 0.000156
0.955693 0.939921 0.000007
0.692294 0.999613 0.000201
0.699498 0.999578 0.000189
0.702657 0.999562 0.000184
0.709266 0.999529 0.000174
0.727062 0.999439 0.000144
0.772617 0.999223 0.000075
0.858726 0.999531 0.000327
0.949654 0.999753 0.000512
0.950505 0.999695 0.000653
0.005434 0.001414 0.064870
0.005168 0.001468 0.062494
0.004851 0.001474 0.061558
0.247647 0.026326 0.085694
0.814814 0.069492 0.268910
0.966102 0.257228 0.484735
0.966102 0.257228 0.484735
0.970799 0.349180 0.417666
0.973428 0.501467 0.278697
0.004809 0.001475 0.061435
0.004077 0.001490 0.059268
0.076630 0.008837 0.059393
0.337459 0.036969 0.098229
0.804954 0.067567 0.263892
0.953791 0.156677 0.452735
0.968300 0.302786 0.453286
0.971179 0.394392 0.381014
0.972812 0.521333 0.256333
0.018371 0.079396 0.090006
0.019711 0.090516 0.089307
0.068936 0.070940 0.068521
0.248970 0.077294 0.088373
0.648910 0.101216 0.163552
0.952592 0.181145 0.386235
0.969584 0.334816 0.429618
0.972377 0.412440 0.364529
0.973097 0.529809 0.246972
0.028127 0.330498 0.097816
0.028796 0.263290 0.057340
0.053956 0.224382 0.040006
0.221195 0.213019 0.045209
0.555631 0.230434 0.074853
0.939970 0.294374 0.223989
0.972119 0.392990 0.382575
0.973890 0.445676 0.334181
0.973537 0.546830 0.227865
0.013568 0.697425 0.000250
0.015277 0.536060 0.000281
0.040749 0.510260 0.000676
0.206009 0.485391 0.000169
0.499207 0.468876 0.000012
0.870244 0.489799 0.000327
0.970519 0.508885 0.224799
0.974365 0.523269 0.255898
0.972923 0.590495 0.172224
0.004164 0.832239 0.000331
0.047370 0.806704 0.000296
0.113897 0.800182 0.000255
0.250964 0.789670 0.000299
0.495084 0.772068 0.000220
0.802513 0.752103 0.000044
0.962613 0.732029 0.000111
0.970028 0.669033 0.054775
0.969279 0.684316 0.033055
0.145890 0.999068 0.000490
0.249477 0.996301 0.000330
0.291018 0.994224 0.000356
0.368982 0.990191 0.000305
0.528058 0.980391 0.000011
0.765625 0.953258 0.000221
0.957284 0.912760 0.000000
0.958800 0.836566 0.000004
0.960388 0.816216 0.000124
0.484300 0.999977 0.000111
0.513307 0.999940 0.000148
0.525391 0.999918 0.000167
0.550278 0.999875 0.000209
0.612681 0.999707 0.000286
0.733754 0.999210 0.000137
0.905218 0.999605 0.000219
0.954310 0.971163 0.000156
0.955695 0.939904 0.000007
0.691933 0.999613 0.000202
0.699189 0.999580 0.000190
0.702349 0.999564 0.000185
0.708962 0.999530 0.000174
0.726768 0.999440 0.000145
0.772399 0.999223 0.000074
0.858574 0.999530 0.000325
0.949653 0.999753 0.000512
0.950505 0.999695 0.000653
0.017396 0.003171 0.161707
0.017366 0.003120 0.159744
0.017353 0.003097 0.158863
0.226340 0.016751 0.167410
0.777086 0.049999 0.322248
0.966034 0.239589 0.482280
0.966102 0.257228 0.484735
0.970779 0.347303 0.419464
0.973491 0.500643 0.279634
0.017351 0.003094 0.158749
0.017321 0.003041 0.156746
0.058109 0.004300 0.145104
0.308198 0.020139 0.182202
0.797954 0.052428 0.333521
0.953635 0.133892 0.504414
0.969946 0.312861 0.467250
0.971052 0.392656 0.382624
0.972786 0.520555 0.257195
0.025567 0.070153 0.227669
0.027345 0.085223 0.236407
0.056765 0.064151 0.185815
0.246708 0.064735 0.200042
0.638702 0.083458 0.294770
0.955627 0.166260 0.465349
0.972497 0.348977 0.456008
0.972279 0.410902 0.365887
0.973073 0.529063 0.247796
0.033640 0.351858 0.356574
0.034360 0.308764 0.300865
0.039123 0.247262 0.233816
0.221420 0.222672 0.221159
0.552583 0.227637 0.252178
0.929311 0.284084 0.372156
0.975245 0.405407 0.428989
0.973867 0.444357 0.335440
0.973550 0.546093 0.228767
0.024756 0.738408 0.367582
0.026188 0.571018 0.203256
0.032822 0.541884 0.181766
0.188453 0.511279 0.167915
0.492533 0.482929 0.167951
0.850774 0.488945 0.224208
0.975955 0.518694 0.316662
0.974458 0.522223 0.257111
0.972929 0.589870 0.173088
0.007491 0.862094 0.000134
0.014303 0.836368 0.000377
0.039717 0.828412 0.000299
0.173008 0.816962 0.000139
0.441802 0.795398 0.000146
0.774288 0.767171 0.000229
0.968837 0.739116 0.015882
0.970047 0.668442 0.055723
0.969307 0.683878 0.033478
0.062294 0.999841 0.000146
0.159704 0.999655 0.000073
0.206664 0.999455 0.000053
0.296801 0.997896 0.000002
0.476126 0.988312 0.000395
0.746923 0.958424 0.000055
0.957133 0.912734 0.000003
0.958808 0.836417 0.000004
0.960394 0.816063 0.000123
0.481255 0.999977 0.000109
0.510777 0.999945 0.000142
0.522902 0.999923 0.000161
0.547870 0.999879 0.000202
0.610838 0.999720 0.000285
0.732548 0.999208 0.000139
0.904741 0.999606 0.000214
0.954315 0.971187 0.000157
0.955699 0.939866 0.000007
0.691170 0.999613 0.000205
0.698535 0.999583 0.000190
0.701699 0.999567 0.000185
0.708320 0.999533 0.000175
0.726145 0.999443 0.000146
0.771939 0.999222 0.000074
0.858254 0.999526 0.000323
0.949651 0.999753 0.000511
0.950505 0.999695 0.000653
0.034242 0.004693 0.343736
0.034124 0.004696 0.342572
0.034072 0.004697 0.342053
0.172376 0.006078 0.305485
0.736141 0.003350 0.460019
0.968731 0.225198 0.583189
0.970074 0.271688 0.552722
0.978144 0.379006 0.530985
0.973664 0.498350 0.282237
0.034065 0.004697 0.341986
0.033947 0.004701 0.340813
0.033898 0.004703 0.340307
0.261816 0.010379 0.317347
0.774990 0.010159 0.474861
0.958779 0.111376 0.628734
0.980100 0.341107 0.612363
0.980994 0.423927 0.521900
0.972714 0.518398 0.259588
0.046955 0.016786 0.405083
0.048965 0.035202 0.429541
0.044853 0.037703 0.417722
0.232603 0.023419 0.365433
0.641559 0.035184 0.477558
0.961034 0.118580 0.639061
0.982190 0.376524 0.612018
0.982401 0.441336 0.516091
0.973004 0.526992 0.250083
0.044931 0.337110 0.659639
0.045019 0.349288 0.661958
0.042401 0.271646 0.550978
0.201562 0.217541 0.479975
0.551719 0.205314 0.488806
0.923828 0.252399 0.582994
0.984715 0.420314 0.607632
0.982793 0.475522 0.506147
0.973578 0.544062 0.231231
0.033499 0.733467 0.719744
0.036988 0.606548 0.580906
0.037355 0.569858 0.541781
0.153301 0.528346 0.505327
0.484998 0.487720 0.484339
0.843792 0.474755 0.508324
0.988166 0.521747 0.567913
0.985506 0.547622 0.477610
0.972949 0.588139 0.175482
0.019125 0.866082 0.478306
0.020644 0.838355 0.441378
0.020803 0.828805 0.428443
0.110109 0.814941 0.414487
0.408787 0.791263 0.396621
0.759884 0.757584 0.385832
0.984584 0.733875 0.436299
0.984469 0.678044 0.390186
0.969385 0.682665 0.034642
0.010606 0.999786 0.112035
0.042771 0.999925 0.104622
0.083312 0.999881 0.102556
0.162650 0.999797 0.098315
0.364935 0.998489 0.089552
0.668236 0.986365 0.086284
0.943724 0.949792 0.104435
0.972210 0.857215 0.116697
0.960411 0.815640 0.000121
0.334426 0.999856 0.000479
0.369615 0.999865 0.000460
0.383871 0.999847 0.000422
0.413243 0.999808 0.000342
0.488551 0.999720 0.000221
0.640955 0.999740 0.000237
0.859817 0.999720 0.000015
0.954328 0.971256 0.000157
0.955709 0.939763 0.000007
0.689065 0.999611 0.000211
0.696729 0.999591 0.000192
0.699904 0.999576 0.000187
0.706546 0.999542 0.000177
0.724428 0.999452 0.000148
0.770669 0.999221 0.000072
0.857372 0.999515 0.000317
0.949645 0.999754 0.000510
0.950505 0.999695 0.000653
0.063796 0.010375 0.622624
0.063742 0.010357 0.622107
0.063718 0.010349 0.621878
0.063668 0.010331 0.621392
0.640119 0.000060 0.624554
0.966567 0.130499 0.716953
0.976520 0.271008 0.634281
0.985700 0.383498 0.686384
0.990054 0.538025 0.597417
0.063715 0.010347 0.621848
0.063661 0.010329 0.621330
0.063637 0.010321 0.621100
0.060564 0.009337 0.588464
0.686426 0.000061 0.635788
0.967983 0.144193 0.711769
0.981798 0.284697 0.721160
0.988769 0.439229 0.693934
0.990793 0.555496 0.592916
0.063679 0.010335 0.621502
0.063625 0.010317 0.620984
0.063601 0.010309 0.620754
0.107333 0.008375 0.564568
0.681973 0.000183 0.648011
0.959286 0.009872 0.834969
0.984846 0.331226 0.731596
0.990463 0.459906 0.696296
0.991167 0.563061 0.590935
0.059498 0.222072 0.912675
0.056523 0.238033 0.917549
0.055997 0.244944 0.919045
0.081559 0.171320 0.789199
0.530529 0.133043 0.751542
0.920589 0.174320 0.813992
0.988651 0.381006 0.755330
0.991959 0.496373 0.698270
0.992029 0.578138 0.587034
0.042180 0.694155 0.964998
0.041900 0.698044 0.964483
0.044700 0.620700 0.899646
0.048501 0.534407 0.825555
0.444128 0.470338 0.793928
0.835497 0.440059 0.788797
0.996323 0.501218 0.777693
0.994411 0.564876 0.699982
0.991442 0.616013 0.573823
0.026394 0.864312 0.827346
0.027660 0.840138 0.798310
0.027692 0.831582 0.787605
0.029146 0.814192 0.770218
0.345003 0.785930 0.758016
0.741074 0.743735 0.742319
0.994291 0.709464 0.737365
0.993636 0.678765 0.679504
0.989498 0.693604 0.539395
0.011481 0.982442 0.627925
0.011909 0.978129 0.620826
0.012250 0.976296 0.617988
0.064283 0.973206 0.614771
0.266551 0.967019 0.613687
0.607477 0.946711 0.606360
0.912293 0.910787 0.591713
0.987484 0.838273 0.590615
0.982997 0.818880 0.434816
0.251722 0.999965 0.328667
0.286807 0.999983 0.330269
0.301703 0.999988 0.330809
0.327076 0.999950 0.328887
0.392258 0.999845 0.323461
0.538696 0.999674 0.306465
0.780634 0.999365 0.271540
0.969435 0.998323 0.277152
0.967503 0.976728 0.075108
0.528857 0.999850 0.000676
0.538793 0.999926 0.000728
0.542938 0.999928 0.000715
0.551145 0.999874 0.000629
0.573228 0.999749 0.000420
0.630421 0.999590 0.000040
0.747418 0.999555 0.000235
0.921885 0.999729 0.000172
0.950505 0.999695 0.000653
0.103774 0.035670 0.840230
0.103741 0.035640 0.840164
0.103726 0.035627 0.840135
0.103695 0.035600 0.840073
0.144860 0.019186 0.845840
0.964239 0.000040 0.957821
0.978185 0.224617 0.753184
0.985117 0.277407 0.811082
0.997557 0.525752 0.782625
0.103724 0.035626 0.840131
0.103691 0.035596 0.840065
0.103676 0.035583 0.840036
0.103645 0.035556 0.839974
0.268206 0.006806 0.857873
0.964404 0.000058 0.956340
0.978119 0.225010 0.752246
0.991018 0.350222 0.825322
0.998668 0.547017 0.783852
0.103702 0.035606 0.840087
0.103669 0.035577 0.840021
0.103654 0.035564 0.839992
0.103623 0.035536 0.839930
0.315561 0.002892 0.855955
0.964488 0.000227 0.955400
0.978699 0.185042 0.834929
0.993037 0.376630 0.828594
0.999132 0.555539 0.784217
0.103655 0.035565 0.839994
0.103622 0.035535 0.839928
0.103607 0.035522 0.839899
0.103575 0.035495 0.839837
0.363309 0.001545 0.905077
0.935997 0.000049 0.998689
0.988173 0.258296 0.900106
0.995081 0.424619 0.832731
0.999431 0.573177 0.784889
0.055307 0.507550 0.999781
0.054219 0.513095 0.999871
0.053745 0.515529 0.999910
0.053359 0.520454 0.999905
0.243727 0.403894 1.000000
0.806201 0.339715 0.999361
0.999810 0.402845 0.977054
0.999025 0.518815 0.837371
0.998496 0.616701 0.787282
0.032166 0.828155 0.993286
0.032234 0.823911 0.993142
0.033949 0.807192 0.996108
0.036215 0.786621 0.999229
0.139614 0.750400 0.987797
0.673865 0.704203 0.989773
0.994425 0.654765 0.966401
0.999181 0.662770 0.835465
0.997154 0.695392 0.787702
0.020175 0.939488 0.893770
0.021294 0.934789 0.886932
0.022259 0.932625 0.884419
0.021240 0.928661 0.879897
0.105767 0.921919 0.875280
0.501299 0.904470 0.880357
0.868307 0.870161 0.869261
0.996780 0.820262 0.830175
0.994280 0.797622 0.763411
0.024167 0.999827 0.703529
0.064352 0.999840 0.704911
0.081631 0.999846 0.705498
0.117038 0.999859 0.706687
0.207929 0.999881 0.709286
0.407349 0.999949 0.712748
0.712600 0.999460 0.710039
0.970791 0.976399 0.711069
0.986023 0.928687 0.673303
0.521466 0.999618 0.555564
0.530195 0.999616 0.555026
0.534028 0.999615 0.554785
0.542033 0.999612 0.554275
0.559744 0.999581 0.551291
0.599901 0.999476 0.540817
0.692736 0.999610 0.510174
0.865952 0.999746 0.490417
0.971006 0.999636 0.399904
0.142206 0.081836 0.927228
0.142205 0.081830 0.927218
0.142204 0.081828 0.927214
0.142203 0.081823 0.927204
0.142201 0.081808 0.927178
0.580749 0.000675 0.999250
0.978660 0.139822 0.914800
0.978446 0.192623 0.819938
0.998589 0.406900 0.930676
0.142204 0.081828 0.927213
0.142203 0.081822 0.927203
0.142203 0.081820 0.927198
0.142202 0.081814 0.927189
0.142200 0.081800 0.927163
0.637573 0.000221 0.999715
0.978557 0.140609 0.913405
0.978672 0.185756 0.833639
0.999415 0.436051 0.931240
0.142204 0.081824 0.927206
0.142203 0.081818 0.927196
0.142202 0.081816 0.927192
0.142201 0.081811 0.927182
0.142199 0.081796 0.927156
0.659673 0.000227 0.999754
0.978511 0.140954 0.912792
0.979033 0.135330 0.922799
0.999549 0.448010 0.931166
0.142202 0.081816 0.927192
0.142201 0.081810 0.927182
0.142201 0.081808 0.927178
0.142200 0.081803 0.927168
0.142198 0.081788 0.927142
0.702006 0.000162 0.999622
0.978416 0.141676 0.911511
0.988383 0.203119 0.968670
0.999629 0.471704 0.929954
0.147704 0.082785 0.934771
0.151454 0.082250 0.935683
0.152203 0.082445 0.936064
0.154244 0.082628 0.937449
0.161129 0.081423 0.942306
0.640678 0.012331 0.999505
0.990257 0.102683 0.999634
0.999781 0.366984 0.986208
0.999955 0.525348 0.929766
0.047131 0.661303 0.999623
0.046940 0.663653 0.999602
0.046855 0.664693 0.999592
0.046678 0.666879 0.999573
0.046194 0.672837 0.999519
0.420061 0.576950 0.999686
0.959282 0.528609 0.999355
0.999775 0.567112 0.983119
0.999549 0.628606 0.923000
0.014678 0.992307 0.925699
0.020865 0.939064 0.953556
0.024429 0.905544 0.967680
0.028206 0.870363 0.981860
0.029365 0.852973 0.985348
0.303871 0.836790 0.999855
0.783020 0.809464 0.999267
0.999894 0.766355 0.995043
0.998600 0.767126 0.909805
0.014010 0.994896 0.928165
0.014160 0.993962 0.929368
0.014224 0.993562 0.929900
0.014353 0.992754 0.930973
0.014098 0.990057 0.929095
0.203353 0.984370 0.939251
0.600250 0.966046 0.944768
0.931609 0.934185 0.931586
0.992257 0.899597 0.891872
0.352015 0.999980 0.848823
0.363336 0.999975 0.848067
0.368308 0.999973 0.847735
0.378697 0.999969 0.847040
0.406567 0.999958 0.845173
0.474274 0.999900 0.838940
0.613279 0.999919 0.825489
0.829768 0.999609 0.822553
0.987136 0.999673 0.793263
0.142369 0.082989 0.929200
0.142369 0.082989 0.929200
0.142369 0.082989 0.929200
0.142369 0.082989 0.929200
0.142369 0.082989 0.929200
0.142369 0.082989 0.929200
0.944256 0.000149 0.998724
0.978426 0.084562 0.990846
0.979425 0.151713 0.894860
0.142369 0.082989 0.929200
0.142369 0.082989 0.929200
0.142369 0.082989 0.929200
0.142369 0.082989 0.929200
0.142369 0.082989 0.929200
0.142369 0.082989 0.929200
0.959996 0.000084 0.998809
0.978487 0.084954 0.990584
0.979603 0.102486 0.971279
0.142369 0.082989 0.929200
0.142369 0.082989 0.929200
0.142369 0.082989 0.929200
0.142369 0.082989 0.929200
0.142369 0.082989 0.929200
0.142369 0.082989 0.929200
0.966710 0.000056 0.998845
0.978515 0.085128 0.990468
0.977727 0.054649 0.999641
0.142369 0.082989 0.929200
0.142369 0.082989 0.929200
0.142369 0.082989 0.929200
0.142369 0.082989 0.929200
0.142369 0.082989 0.929200
0.142369 0.082989 0.929200
0.976173 0.000046 0.998974
0.978572 0.085493 0.990223
0.984646 0.102238 0.999578
0.142369 0.082989 0.929200
0.142369 0.082989 0.929200
0.142369 0.082989 0.929200
0.142369 0.082989 0.929200
0.142369 0.082989 0.929200
0.142369 0.082989 0.929200
0.982035 0.000223 0.999543
0.978728 0.086490 0.989550
0.997268 0.246133 0.999225
0.167452 0.080807 0.944041
0.168578 0.080768 0.944473
0.169060 0.080752 0.944658
0.170043 0.080719 0.945036
0.171181 0.080895 0.947911
0.179850 0.080625 0.953626
0.786202 0.003652 0.999883
0.999657 0.273034 0.999580
0.999979 0.445926 0.999562
0.019274 0.957819 0.945856
0.019214 0.958280 0.945636
0.019187 0.958485 0.945538
0.019132 0.958916 0.945332
0.018978 0.960101 0.944766
0.018561 0.963328 0.943225
0.535094 0.666728 0.999843
0.990505 0.660698 0.999313
0.999582 0.665410 0.999552
0.013481 0.999264 0.918544
0.013481 0.999264 0.918544
0.013481 0.999264 0.918544
0.013481 0.999264 0.918544
0.013908 0.999586 0.918971
0.016819 0.974964 0.938596
0.411831 0.913390 0.994235
0.854093 0.872568 0.999840
0.998138 0.848038 0.999268
0.031351 0.999605 0.924440
0.048202 0.999627 0.925922
0.055576 0.999637 0.926571
0.070930 0.999657 0.927922
0.111778 0.999712 0.931518
0.213742 0.999622 0.938812
0.420102 0.999638 0.950876
0.719044 0.999561 0.967024
0.982589 0.988086 0.985451
