output/AppleLog2_display/AppleLog2_to_PROVIA_33grid.cube
TITLE "AppleLog2_to_PROVIA"
# Input: Apple Log 2 (Apple Gamut primaries, D65)
# Output: BT.709 / Gamma 2.2 (display-referred)
# Use: Display LUT for iPhone 17 Pro Apple Log 2 footage
# Source: FLog2C_to_PROVIA_65grid_V.1.00.cube
# Generated from Fujifilm GFX ETERNA 55 F-Log2C LUT
LUT_3D_SIZE 5
0.000459 0.000290 0.000061
0.045657 0.003535 0.003048
0.999940 0.046584 0.277544
1.000000 0.257130 0.480656
0.999473 0.513385 0.230316
0.001769 0.091873 0.000442
0.093923 0.072218 0.000004
0.810938 0.079487 0.097358
0.999617 0.341427 0.407024
0.999169 0.541741 0.193913
0.000093 0.667836 0.000066
0.000422 0.515490 0.000612
0.563327 0.471599 0.000230
0.999255 0.520545 0.170131
0.999141 0.601814 0.105096
0.000000 1.000000 0.000285
0.000000 1.000000 0.000285
0.228784 0.990399 0.000562
0.999284 0.887346 0.000357
0.999158 0.794709 0.000037
0.497740 0.999755 0.000199
0.521195 0.999771 0.000180
0.576619 0.999810 0.000139
0.842182 0.997874 0.000000
0.981461 0.985989 0.015710
0.005416 0.000118 0.081770
0.004951 0.000160 0.077058
0.964660 0.040046 0.234819
1.000000 0.257130 0.480656
0.999504 0.512120 0.231911
0.000724 0.075557 0.096021
0.059841 0.062614 0.059552
0.781519 0.070428 0.107225
0.999600 0.337177 0.410777
0.999172 0.540587 0.195416
0.000000 0.742263 0.000172
0.000234 0.541575 0.000236
0.532539 0.475797 0.000262
0.999281 0.518184 0.172947
0.999144 0.600865 0.106643
0.000000 1.000000 0.000285
0.000000 1.000000 0.000285
0.213802 0.991205 0.000580
0.999289 0.887363 0.000358
0.999160 0.794482 0.000038
0.494978 0.999754 0.000200
0.518951 0.999770 0.000183
0.574457 0.999808 0.000140
0.841367 0.997915 0.000000
0.981463 0.985988 0.015710
0.048751 0.000173 0.468443
0.048479 0.000181 0.466113
0.869385 0.000033 0.465643
0.999703 0.269043 0.556527
0.999578 0.508995 0.235841
0.061256 0.000109 0.543303
0.051996 0.003609 0.551971
0.766122 0.001898 0.496112
0.999885 0.377392 0.612103
0.999181 0.537742 0.199127
0.000045 0.761922 0.803298
0.000243 0.592247 0.602189
0.482218 0.485785 0.482555
0.999517 0.527792 0.553860
0.999154 0.598533 0.110444
0.000058 0.999947 0.007775
0.000044 0.999993 0.005765
0.017551 0.999999 0.001637
0.976303 0.943617 0.008086
0.999165 0.793925 0.000040
0.486884 0.999755 0.000202
0.513471 0.999765 0.000188
0.569174 0.999805 0.000145
0.839379 0.998014 0.000000
0.981469 0.985985 0.015710
0.232375 0.000350 0.963223
0.232217 0.000348 0.963107
0.251832 0.000098 0.958808
0.999831 0.214035 0.775793
0.999728 0.528879 0.781727
0.232137 0.000346 0.963050
0.231978 0.000344 0.962934
0.426584 0.000065 0.993918
0.999891 0.166950 0.870291
0.999657 0.559542 0.782346
0.138878 0.474675 0.999899
0.129833 0.484984 0.999879
0.323375 0.351371 0.999851
0.999832 0.387767 0.991380
0.999756 0.619555 0.780755
0.000442 0.945983 0.986838
0.000465 0.942475 0.981928
0.000503 0.935564 0.964149
0.867716 0.871916 0.869137
0.999641 0.800466 0.746544
0.105136 0.999703 0.523327
0.126542 0.999701 0.520197
0.178539 0.999680 0.511360
0.496098 0.999840 0.444630
0.980453 0.999465 0.276301
0.389113 0.000033 0.999974
0.389113 0.000033 0.999974
0.389113 0.000033 0.999974
1.000000 0.000000 0.999715
0.999595 0.123367 0.941645
0.389113 0.000033 0.999974
0.389113 0.000033 0.999974
0.389113 0.000033 0.999974
1.000000 0.000000 0.999715
0.999948 0.008069 0.999659
0.389113 0.000033 0.999974
0.389113 0.000033 0.999974
0.389113 0.000033 0.999974
1.000000 0.000000 0.999715
0.999903 0.205862 0.999771
0.000231 0.955550 0.999940
0.000239 0.956083 0.999938
0.000258 0.957374 0.999933
0.579945 0.644458 0.999770
0.999833 0.655164 0.999631
0.003503 0.990025 1.000000
0.003503 0.990025 1.000000
0.003503 0.990025 1.000000
0.061669 0.995487 0.999783
0.982962 0.990272 0.987781
