output/AppleLog2_display/AppleLog2_to_ETERNA-BB_33grid.cube
TITLE "AppleLog2_to_ETERNA-BB"
# Input: Apple Log 2 (Apple Gamut primaries, D65)
# Output: BT.709 / Gamma 2.2 (display-referred)
# Use: Display LUT for iPhone 17 Pro Apple Log 2 footage
# Source: FLog2C_to_ETERNA-BB_65grid_V.1.00.cube
# Generated from Fujifilm GFX ETERNA 55 F-Log2C LUT
LUT_3D_SIZE 9
0.000282 0.000191 0.000111
0.000282 0.000191 0.000111
0.034521 0.005256 0.005604
0.234349 0.042093 0.056841
0.595342 0.134861 0.178632
0.753503 0.376840 0.375047
0.753503 0.376840 0.375047
0.806528 0.481058 0.410883
0.873991 0.632926 0.436599
0.000282 0.000191 0.000111
0.000282 0.000191 0.000111
0.095422 0.017710 0.020535
0.304851 0.050000 0.071310
0.566442 0.116370 0.159682
0.699401 0.275632 0.296351
0.782294 0.431401 0.394628
0.827516 0.528810 0.422829
0.880020 0.651487 0.437460
0.015058 0.076728 0.024289
0.014568 0.073773 0.017448
0.079835 0.073263 0.028686
0.198737 0.080110 0.047142
0.485112 0.111462 0.116330
0.705892 0.296071 0.283569
0.800536 0.466474 0.405005
0.835631 0.546315 0.426429
0.882721 0.659101 0.438051
0.047069 0.230837 0.062111
0.037143 0.165536 0.040044
0.094275 0.157745 0.049774
0.176451 0.159869 0.059886
0.433883 0.180551 0.104940
0.730173 0.376112 0.287014
0.828353 0.528046 0.423257
0.851958 0.579542 0.431386
0.887728 0.674088 0.438838
0.144018 0.526611 0.161874
0.139384 0.411884 0.124121
0.174386 0.399245 0.130747
0.241899 0.387262 0.145361
0.457964 0.412323 0.198358
0.773518 0.554592 0.332979
0.871886 0.637683 0.421257
0.881228 0.651854 0.436737
0.896999 0.708685 0.436994
0.268511 0.715819 0.250673
0.331852 0.711876 0.265182
0.362220 0.712432 0.273618
0.434666 0.717930 0.294746
0.600224 0.744798 0.336356
0.829886 0.794619 0.395042
0.919942 0.811521 0.415928
0.908948 0.768082 0.417149
0.911538 0.778619 0.413796
0.509385 0.876185 0.331766
0.560174 0.885407 0.342514
0.581237 0.888764 0.347522
0.622304 0.895819 0.356487
0.713194 0.911162 0.372060
0.844938 0.927598 0.396314
0.941042 0.928443 0.415432
0.935378 0.885007 0.414218
0.932285 0.871536 0.414144
0.715660 0.941397 0.373798
0.731174 0.944241 0.376265
0.737779 0.945437 0.377289
0.751387 0.947899 0.379398
0.784972 0.953701 0.384670
0.846784 0.961388 0.396807
0.919463 0.967946 0.414624
0.941263 0.955005 0.417855
0.941220 0.940070 0.417613
0.826442 0.959445 0.392362
0.830008 0.959800 0.393264
0.831576 0.959956 0.393660
0.834857 0.960282 0.394490
0.843693 0.961161 0.396726
0.865991 0.963387 0.402337
0.902120 0.966610 0.410883
0.938308 0.969402 0.417893
0.939180 0.969303 0.418121
0.000282 0.000191 0.000111
0.000282 0.000191 0.000111
0.002894 0.000575 0.000021
0.204494 0.038409 0.051180
0.588474 0.129890 0.173755
0.753503 0.376840 0.375047
0.753503 0.376840 0.375047
0.805533 0.479115 0.410208
0.873736 0.632079 0.436581
0.000282 0.000191 0.000111
0.000282 0.000191 0.000111
0.076593 0.013571 0.016968
0.286710 0.047891 0.067095
0.574230 0.120812 0.163046
0.701547 0.279820 0.300487
0.780107 0.427722 0.392992
0.826747 0.527014 0.422367
0.879752 0.650734 0.437402
0.013986 0.069582 0.022267
0.014748 0.075346 0.022582
0.068824 0.067603 0.025816
0.188264 0.075830 0.045167
0.482522 0.106769 0.117520
0.703159 0.290721 0.282027
0.799125 0.463280 0.404479
0.834779 0.544749 0.426236
0.882463 0.658381 0.437994
0.045670 0.222427 0.060410
0.034665 0.169059 0.040528
0.083198 0.154177 0.046777
0.167231 0.156406 0.059057
0.427589 0.176363 0.102327
0.726748 0.370517 0.284889
0.827485 0.525760 0.422752
0.851287 0.578085 0.431135
0.887567 0.673457 0.438867
0.155703 0.552263 0.174409
0.126913 0.411960 0.121334
0.166924 0.398523 0.129046
0.233585 0.384722 0.141740
0.449779 0.407641 0.195368
0.770914 0.550784 0.330946
0.871309 0.636237 0.421112
0.880940 0.650864 0.436656
0.896846 0.708181 0.437023
0.260117 0.715247 0.248369
0.325745 0.711102 0.263292
0.354713 0.711429 0.271244
0.426577 0.716373 0.292082
0.594720 0.742838 0.334791
0.828393 0.793500 0.394616
0.919867 0.811126 0.415948
0.908862 0.767644 0.417302
0.911436 0.778292 0.413772
0.503952 0.874901 0.330828
0.555237 0.884511 0.341320
0.576511 0.887906 0.346384
0.618104 0.894940 0.355643
0.710192 0.910590 0.371651
0.843881 0.927379 0.396142
0.941038 0.928462 0.415410
0.935385 0.884910 0.414226
0.932284 0.871428 0.414159
0.713880 0.941038 0.373458
0.729705 0.943974 0.376040
0.736333 0.945174 0.377067
0.749987 0.947646 0.379183
0.783932 0.953551 0.384503
0.846170 0.961344 0.396645
0.919273 0.967930 0.414595
0.941266 0.955006 0.417860
0.941224 0.940046 0.417612
0.826076 0.959405 0.392275
0.829661 0.959765 0.393174
0.831231 0.959922 0.393572
0.834517 0.960248 0.394403
0.843363 0.961128 0.396641
0.865789 0.963365 0.402290
0.901979 0.966602 0.410847
0.938307 0.969401 0.417892
0.939181 0.969302 0.418121
0.006404 0.003441 0.044175
0.006093 0.003588 0.043006
0.006081 0.003648 0.042625
0.175605 0.033202 0.056978
0.567959 0.117786 0.160091
0.753503 0.376840 0.375047
0.753503 0.376840 0.375047
0.805087 0.478243 0.409903
0.873622 0.631701 0.436573
0.006080 0.003656 0.042575
0.006053 0.003795 0.041693
0.064622 0.009853 0.044190
0.251455 0.043816 0.065809
0.562342 0.113911 0.157269
0.698623 0.273563 0.295125
0.779314 0.426078 0.392358
0.826403 0.526208 0.422160
0.879632 0.650398 0.437377
0.021462 0.073737 0.074984
0.023216 0.081627 0.077744
0.069848 0.071174 0.069471
0.178826 0.075705 0.076563
0.467642 0.104937 0.121465
0.700906 0.287290 0.278088
0.798497 0.461840 0.404259
0.834398 0.544050 0.426151
0.882349 0.658060 0.437968
0.060825 0.251995 0.143011
0.046394 0.193992 0.106887
0.086965 0.168761 0.097198
0.166142 0.163204 0.096572
0.418148 0.178153 0.119713
0.719314 0.364216 0.277206
0.827096 0.524730 0.422523
0.850988 0.577434 0.431022
0.887495 0.673175 0.438880
0.185871 0.603700 0.260946
0.132632 0.442309 0.156934
0.173327 0.422837 0.151008
0.231422 0.400616 0.149388
0.439768 0.413056 0.196889
0.769369 0.549281 0.330049
0.871050 0.635589 0.421051
0.880811 0.650423 0.436620
0.896778 0.707957 0.437037
0.254552 0.716716 0.247319
0.321952 0.711235 0.262847
0.350965 0.711095 0.270165
0.422924 0.715674 0.290879
0.592251 0.741963 0.334090
0.827729 0.793000 0.394424
0.919834 0.810951 0.415956
0.908823 0.767448 0.417369
0.911391 0.778147 0.413761
0.501516 0.874327 0.330408
0.553027 0.884110 0.340785
0.574396 0.887521 0.345874
0.616225 0.894548 0.355266
0.708851 0.910335 0.371469
0.843410 0.927282 0.396066
0.940999 0.928460 0.415393
0.935388 0.884867 0.414229
0.932283 0.871380 0.414166
0.713087 0.940878 0.373306
0.729051 0.943855 0.375939
0.735689 0.945057 0.376968
0.749364 0.947533 0.379088
0.783469 0.953485 0.384428
0.845897 0.961325 0.396573
0.919189 0.967923 0.414583
0.941267 0.955007 0.417862
0.941225 0.940035 0.417611
0.825890 0.959379 0.392241
0.829506 0.959750 0.393135
0.831078 0.959906 0.393532
0.834365 0.960233 0.394364
0.843217 0.961114 0.396603
0.865699 0.963356 0.402269
0.901916 0.966599 0.410831
0.938307 0.969401 0.417892
0.939182 0.969301 0.418121
0.021578 0.008072 0.092170
0.021308 0.007934 0.091277
0.021187 0.007872 0.090876
0.153880 0.023059 0.098824
0.546253 0.101657 0.174802
0.743184 0.359772 0.362274
0.753503 0.376840 0.375047
0.804136 0.476385 0.409251
0.873380 0.630901 0.436556
0.021171 0.007864 0.090824
0.020896 0.007724 0.089913
0.054763 0.011556 0.086258
0.216612 0.032957 0.108298
0.559209 0.107847 0.181346
0.694836 0.257202 0.308179
0.789304 0.441067 0.409897
0.825672 0.524491 0.421716
0.879379 0.649688 0.437323
0.039518 0.070747 0.139484
0.043073 0.080439 0.146294
0.064364 0.066052 0.118940
0.170830 0.073110 0.126135
0.460794 0.103522 0.171362
0.699260 0.272467 0.308919
0.810260 0.481317 0.430105
0.833585 0.542562 0.425975
0.882105 0.657380 0.437915
0.092836 0.283166 0.287563
0.073404 0.238561 0.233887
0.091770 0.188850 0.183088
0.173189 0.173663 0.173257
0.420882 0.187825 0.199865
0.715438 0.357334 0.338279
0.838884 0.542610 0.454273
0.850353 0.576052 0.430780
0.887343 0.672580 0.438906
0.238512 0.684804 0.503382
0.172764 0.503669 0.314853
0.209554 0.480647 0.299344
0.263790 0.452695 0.283887
0.461528 0.456467 0.305597
0.776153 0.564598 0.408429
0.888329 0.653997 0.461458
0.880538 0.649486 0.436543
0.896634 0.707482 0.437065
0.259931 0.749313 0.359061
0.327770 0.744964 0.358429
0.352730 0.743237 0.360120
0.415411 0.746445 0.367198
0.576111 0.766764 0.392468
0.815948 0.805713 0.430027
0.922242 0.821240 0.418299
0.908741 0.767034 0.417510
0.911294 0.777839 0.413738
0.463910 0.869700 0.324045
0.516362 0.880066 0.334899
0.538043 0.884387 0.339226
0.581031 0.892337 0.347854
0.680422 0.908770 0.366365
0.834743 0.928445 0.394731
0.940723 0.928399 0.415318
0.935394 0.884776 0.414237
0.932282 0.871278 0.414179
0.711408 0.940540 0.372985
0.727666 0.943603 0.375727
0.734327 0.944809 0.376759
0.748044 0.947294 0.378885
0.782489 0.953344 0.384270
0.845321 0.961284 0.396420
0.919011 0.967907 0.414556
0.941270 0.955008 0.417866
0.941228 0.940013 0.417609
0.825497 0.959324 0.392170
0.829180 0.959717 0.393051
0.830753 0.959874 0.393449
0.834045 0.960201 0.394281
0.842907 0.961083 0.396523
0.865509 0.963336 0.402224
0.901784 0.966591 0.410796
0.938307 0.969401 0.417892
0.939184 0.969301 0.418121
0.049731 0.017079 0.205845
0.049534 0.017007 0.205006
0.049447 0.016975 0.204631
0.122706 0.023339 0.164789
0.519462 0.073679 0.221671
0.753962 0.359069 0.427655
0.774505 0.403545 0.437144
0.838073 0.525849 0.505737
0.872709 0.628682 0.436506
0.049435 0.016971 0.204583
0.049237 0.016898 0.203737
0.049152 0.016869 0.203364
0.175505 0.028728 0.166357
0.546101 0.087904 0.233415
0.704746 0.255817 0.383981
0.827211 0.491842 0.539002
0.863616 0.571649 0.528751
0.878676 0.647713 0.437177
0.063671 0.020755 0.250368
0.070496 0.039626 0.269685
0.066941 0.041361 0.261806
0.158209 0.037016 0.202226
0.460303 0.085681 0.250104
0.703337 0.250709 0.401926
0.848207 0.531470 0.564752
0.872959 0.589238 0.537302
0.881431 0.655492 0.437768
0.157948 0.291550 0.477342
0.162299 0.304671 0.483262
0.116583 0.219955 0.388666
0.181699 0.181850 0.321878
0.424053 0.198076 0.328717
0.719132 0.345469 0.454239
0.873425 0.576373 0.591443
0.889276 0.622412 0.548031
0.886902 0.670922 0.438959
0.288585 0.708233 0.673996
0.225441 0.577203 0.551093
0.248249 0.541976 0.521182
0.301010 0.504820 0.489942
0.495021 0.496392 0.494192
0.795903 0.575566 0.567887
0.918644 0.674666 0.622173
0.916979 0.689045 0.564866
0.896236 0.706163 0.437147
0.286980 0.787764 0.618020
0.349860 0.783920 0.608738
0.372111 0.782924 0.605782
0.427187 0.783959 0.604006
0.584101 0.796235 0.614848
0.819457 0.821379 0.629001
0.951209 0.836672 0.615548
0.938873 0.793502 0.563691
0.911028 0.776989 0.413676
0.436377 0.879508 0.528708
0.481807 0.887368 0.531796
0.502172 0.890889 0.533337
0.542295 0.897884 0.536218
0.638001 0.912112 0.542481
0.802013 0.930115 0.546400
0.926494 0.931915 0.524582
0.942602 0.894292 0.488978
0.932280 0.870997 0.414218
0.633018 0.924431 0.358194
0.651350 0.928151 0.361598
0.659097 0.929626 0.363048
0.675051 0.932685 0.366030
0.716200 0.940844 0.373490
0.799543 0.955976 0.387033
0.902066 0.966767 0.410244
0.941277 0.955012 0.417877
0.941237 0.939951 0.417604
0.824414 0.959173 0.391972
0.828280 0.959627 0.392820
0.829859 0.959784 0.393219
0.833161 0.960113 0.394054
0.842051 0.960997 0.396302
0.864985 0.963280 0.402101
0.901418 0.966571 0.410702
0.938305 0.969399 0.417890
0.939188 0.969298 0.418121
0.090641 0.030340 0.399901
0.090578 0.030332 0.399562
0.090550 0.030328 0.399412
0.090490 0.030321 0.399093
0.455156 0.043764 0.326011
0.729729 0.285167 0.468459
0.787632 0.415568 0.499713
0.858838 0.546538 0.623749
0.924768 0.687858 0.646613
0.090546 0.030328 0.399392
0.090483 0.030320 0.399053
0.090455 0.030316 0.398902
0.086983 0.029013 0.376872
0.487625 0.044387 0.328617
0.735399 0.296863 0.473049
0.809685 0.443810 0.579194
0.890299 0.601163 0.664072
0.929637 0.703403 0.652307
0.090504 0.030322 0.399166
0.090441 0.030314 0.398826
0.090412 0.030311 0.398674
0.105373 0.030438 0.353895
0.485220 0.044403 0.338433
0.698203 0.202696 0.492822
0.835295 0.496409 0.620315
0.900551 0.621375 0.677602
0.931882 0.709859 0.653784
0.170692 0.185437 0.567207
0.175918 0.198999 0.571789
0.178464 0.205240 0.573798
0.149189 0.151490 0.508716
0.415039 0.163111 0.470888
0.710830 0.288848 0.563589
0.866902 0.551595 0.674410
0.917906 0.657073 0.699960
0.936439 0.722708 0.656240
0.341402 0.683798 0.743187
0.342116 0.687478 0.744444
0.309239 0.614435 0.698207
0.300849 0.532127 0.647239
0.494102 0.499298 0.650448
0.789864 0.560497 0.719667
0.922748 0.668713 0.758553
0.941289 0.717019 0.732321
0.945366 0.753563 0.663537
0.316794 0.809602 0.755065
0.348456 0.799404 0.749608
0.367934 0.797784 0.751148
0.418639 0.797618 0.756555
0.574679 0.806540 0.782470
0.821442 0.823314 0.820965
0.963429 0.827924 0.811906
0.963308 0.805573 0.760135
0.955913 0.812703 0.665874
0.426821 0.887531 0.755215
0.465466 0.893573 0.761588
0.482583 0.896719 0.764216
0.519525 0.902268 0.770748
0.612518 0.914354 0.787925
0.787494 0.931243 0.812367
0.933156 0.935278 0.802306
0.965860 0.906232 0.757887
0.957663 0.888180 0.647290
0.623997 0.939580 0.678503
0.639788 0.942612 0.681446
0.646551 0.943876 0.682641
0.659274 0.945446 0.683529
0.691897 0.949444 0.685522
0.770147 0.958028 0.687213
0.886305 0.971259 0.672448
0.957095 0.968941 0.629304
0.948877 0.947661 0.513642
0.743110 0.946691 0.378210
0.748358 0.947740 0.378911
0.750576 0.948141 0.379205
0.755010 0.948846 0.379769
0.766928 0.950721 0.381308
0.797711 0.955426 0.385453
0.854291 0.962010 0.399249
0.927769 0.968077 0.415391
0.939200 0.969292 0.418121
0.136815 0.036041 0.551983
0.136781 0.036035 0.551915
0.136766 0.036033 0.551884
0.136735 0.036027 0.551820
0.147883 0.037046 0.526826
0.699105 0.176569 0.553377
0.781626 0.378725 0.556577
0.819291 0.445479 0.638968
0.928559 0.688078 0.769808
0.136764 0.036033 0.551880
0.136731 0.036027 0.551812
0.136716 0.036024 0.551782
0.136684 0.036018 0.551718
0.209075 0.040746 0.515430
0.703327 0.186038 0.555536
0.781708 0.378985 0.556223
0.859797 0.525066 0.700017
0.935421 0.706880 0.780067
0.136742 0.036029 0.551835
0.136708 0.036023 0.551767
0.136693 0.036020 0.551737
0.136662 0.036014 0.551673
0.239969 0.042589 0.511923
0.705144 0.190126 0.556373
0.772845 0.346266 0.587943
0.873961 0.551172 0.718332
0.938510 0.714711 0.784465
0.136695 0.036020 0.551739
0.136661 0.036014 0.551671
0.136646 0.036012 0.551641
0.136614 0.036006 0.551577
0.278880 0.045859 0.530777
0.653905 0.107373 0.567225
0.819927 0.430260 0.683278
0.896447 0.598104 0.750120
0.944417 0.729755 0.792901
0.335056 0.481017 0.700439
0.336933 0.487673 0.702732
0.337757 0.490593 0.703738
0.339375 0.496355 0.705650
0.359194 0.384150 0.668536
0.730589 0.435021 0.749754
0.900011 0.582166 0.819030
0.929853 0.684361 0.800745
0.954409 0.763347 0.810848
0.389514 0.807496 0.808988
0.386825 0.802997 0.806162
0.377929 0.789130 0.800001
0.369677 0.770174 0.791467
0.487211 0.764269 0.814172
0.777109 0.784375 0.883668
0.949447 0.791544 0.906635
0.961248 0.801631 0.855646
0.965302 0.821042 0.837846
0.394484 0.871937 0.815446
0.421292 0.875864 0.821620
0.433410 0.877211 0.824473
0.465435 0.880894 0.831711
0.551798 0.893108 0.853194
0.736471 0.912937 0.893514
0.921586 0.922808 0.921166
0.975721 0.904843 0.897235
0.971770 0.889345 0.853534
0.564813 0.939943 0.832609
0.581092 0.942354 0.837002
0.588100 0.943392 0.838892
0.602474 0.945525 0.842763
0.640951 0.950959 0.851742
0.732773 0.962923 0.869993
0.875475 0.975586 0.892755
0.972424 0.974902 0.880805
0.974418 0.955563 0.843009
0.783205 0.965680 0.820536
0.787674 0.966198 0.820947
0.789636 0.966425 0.821126
0.793733 0.966899 0.821497
0.802366 0.967782 0.821434
0.821195 0.969520 0.819474
0.862499 0.974589 0.809491
0.933269 0.981197 0.793610
0.964282 0.981591 0.717531
0.193832 0.037769 0.610072
0.193824 0.037769 0.610069
0.193820 0.037768 0.610067
0.193813 0.037767 0.610064
0.193793 0.037765 0.610056
0.452535 0.065456 0.600164
0.762090 0.309799 0.612851
0.774308 0.352562 0.582342
0.898267 0.584973 0.796657
0.193820 0.037768 0.610067
0.193812 0.037767 0.610064
0.193809 0.037767 0.610063
0.193801 0.037766 0.610060
0.193781 0.037764 0.610051
0.491602 0.068042 0.601404
0.762245 0.310172 0.612444
0.772933 0.346014 0.588271
0.909905 0.613082 0.812226
0.193815 0.037768 0.610065
0.193807 0.037767 0.610062
0.193803 0.037766 0.610060
0.193796 0.037766 0.610057
0.193776 0.037763 0.610049
0.506563 0.069540 0.601424
0.762314 0.310336 0.612265
0.760438 0.305604 0.614280
0.913905 0.624494 0.818255
0.193804 0.037766 0.610061
0.193796 0.037765 0.610057
0.193792 0.037765 0.610056
0.193785 0.037764 0.610053
0.193765 0.037762 0.610045
0.534368 0.072905 0.601275
0.762456 0.310680 0.611890
0.799937 0.375848 0.686664
0.921781 0.645933 0.830373
0.197597 0.038854 0.609928
0.198349 0.039081 0.609650
0.199106 0.039140 0.609476
0.200656 0.039394 0.609442
0.204614 0.039881 0.611100
0.500055 0.072674 0.631348
0.765781 0.283348 0.712907
0.885147 0.547822 0.799831
0.937067 0.694300 0.852540
0.404045 0.663383 0.766434
0.404448 0.665882 0.767252
0.404627 0.666987 0.767614
0.405002 0.669310 0.768376
0.406023 0.675644 0.770451
0.571360 0.606439 0.796439
0.903375 0.665067 0.913415
0.950340 0.729926 0.891315
0.959044 0.777795 0.886201
0.359360 0.897979 0.827460
0.379678 0.873755 0.825742
0.387857 0.858866 0.823864
0.395054 0.838702 0.819980
0.428094 0.833500 0.826271
0.619741 0.857516 0.882924
0.878259 0.883865 0.951703
0.971277 0.877571 0.951099
0.967731 0.877129 0.920304
0.494761 0.923127 0.866604
0.509782 0.925235 0.871485
0.516236 0.926139 0.873603
0.529353 0.927980 0.877906
0.565189 0.933389 0.887307
0.658384 0.942857 0.910033
0.827730 0.958695 0.944422
0.961586 0.962894 0.961019
0.985083 0.949653 0.940795
0.734705 0.964990 0.912874
0.739381 0.965656 0.913660
0.741434 0.965948 0.914006
0.745725 0.966560 0.914726
0.757237 0.968199 0.916656
0.786391 0.972159 0.921308
0.847527 0.979469 0.929893
0.933556 0.988600 0.941193
0.988890 0.994154 0.933607
0.195518 0.037927 0.610641
0.195518 0.037927 0.610641
0.195518 0.037927 0.610641
0.195518 0.037927 0.610641
0.195518 0.037927 0.610641
0.195518 0.037927 0.610641
0.661877 0.106845 0.659205
0.749589 0.271854 0.632005
0.764310 0.318929 0.606590
0.195518 0.037927 0.610641
0.195518 0.037927 0.610641
0.195518 0.037927 0.610641
0.195518 0.037927 0.610641
0.195518 0.037927 0.610641
0.195518 0.037927 0.610641
0.666855 0.108607 0.659771
0.749676 0.272103 0.631942
0.753444 0.283056 0.626500
0.195518 0.037927 0.610641
0.195518 0.037927 0.610641
0.195518 0.037927 0.610641
0.195518 0.037927 0.610641
0.195518 0.037927 0.610641
0.195518 0.037927 0.610641
0.668980 0.109359 0.660013
0.749715 0.272212 0.631914
0.741959 0.250874 0.637615
0.195518 0.037927 0.610641
0.195518 0.037927 0.610641
0.195518 0.037927 0.610641
0.195518 0.037927 0.610641
0.195518 0.037927 0.610641
0.195518 0.037927 0.610641
0.673530 0.110668 0.660301
0.749796 0.272443 0.631855
0.762865 0.287025 0.678946
0.195518 0.037927 0.610641
0.195518 0.037927 0.610641
0.195518 0.037927 0.610641
0.195518 0.037927 0.610641
0.195518 0.037927 0.610641
0.195518 0.037927 0.610641
0.685978 0.113014 0.660149
0.750017 0.273073 0.631695
0.828460 0.420211 0.767947
0.206640 0.040718 0.610773
0.207746 0.040575 0.611626
0.208219 0.040514 0.611991
0.209185 0.040389 0.612738
0.210417 0.040437 0.612679
0.214930 0.041424 0.610929
0.590061 0.087973 0.648228
0.843664 0.444955 0.801319
0.920871 0.621760 0.879655
0.373436 0.882045 0.826260
0.373299 0.882242 0.826315
0.373239 0.882330 0.826340
0.373111 0.882515 0.826391
0.372760 0.883022 0.826533
0.371804 0.884404 0.826918
0.689379 0.729742 0.867971
0.954581 0.788628 0.955836
0.964439 0.808207 0.945280
0.345942 0.901284 0.825200
0.345942 0.901284 0.825200
0.345942 0.901284 0.825200
0.345942 0.901284 0.825200
0.355648 0.902412 0.827724
0.460843 0.908085 0.854528
0.720831 0.921395 0.922274
0.927513 0.931555 0.968766
0.980889 0.929008 0.973586
0.622718 0.951470 0.905825
0.629200 0.952311 0.907459
0.632037 0.952679 0.908174
0.637943 0.953446 0.909663
0.653654 0.955485 0.913625
0.693419 0.960490 0.923627
0.780016 0.971757 0.944798
0.901158 0.986120 0.974324
0.993139 0.995444 0.993696
