output/AppleLog2_display/AppleLog2_to_CLASSIC-Neg._33grid.cube
TITLE "AppleLog2_to_CLASSIC-Neg."
# Input: Apple Log 2 (Apple Gamut primaries, D65)
# Output: BT.709 / Gamma 2.2 (display-referred)
# Use: Display LUT for iPhone 17 Pro Apple Log 2 footage
# Source: FLog2C_to_CLASSIC-Neg._65grid_V.1.00.cube
# Generated from Fujifilm GFX ETERNA 55 F-Log2C LUT
LUT_3D_SIZE 5
0.000129 0.000120 0.000052
0.029791 0.002169 0.000350
0.903508 0.110902 0.043922
0.951060 0.281893 0.277250
0.955843 0.520570 0.232908
0.001385 0.077424 0.017870
0.068024 0.059140 0.001117
0.776010 0.120893 0.000016
0.952642 0.353819 0.266641
0.956389 0.550751 0.224234
0.017868 0.576812 0.095548
0.014149 0.409177 0.067339
0.494569 0.399779 0.003225
0.954221 0.521165 0.193457
0.957786 0.612814 0.204565
0.029659 0.917533 0.152676
0.029298 0.912678 0.152342
0.256697 0.915791 0.120861
0.953884 0.921642 0.025175
0.957173 0.835136 0.058893
0.542824 0.973597 0.090761
0.569115 0.975116 0.087268
0.631259 0.978706 0.079011
0.866476 0.992226 0.048266
0.934068 0.994879 0.038811
0.006552 0.003385 0.044810
0.005735 0.003303 0.041624
0.878502 0.100508 0.023318
0.951060 0.281893 0.277250
0.955739 0.519256 0.233328
0.004812 0.074633 0.086593
0.051300 0.060683 0.047825
0.748610 0.114022 0.000000
0.952393 0.349706 0.267018
0.956415 0.549497 0.224577
0.025845 0.665536 0.236072
0.014324 0.442852 0.102459
0.458327 0.405221 0.021149
0.954203 0.518661 0.194117
0.957811 0.611813 0.204890
0.029730 0.917868 0.152907
0.029296 0.912913 0.152239
0.243661 0.915153 0.122635
0.953844 0.921630 0.025142
0.957159 0.834910 0.059113
0.539954 0.973434 0.091140
0.566608 0.974970 0.087601
0.628836 0.978565 0.079332
0.866015 0.992204 0.048328
0.934069 0.994876 0.038809
0.087199 0.033449 0.292939
0.086737 0.033174 0.290992
0.836191 0.069689 0.155855
0.954301 0.303758 0.351553
0.955481 0.516012 0.234357
0.105459 0.051451 0.357770
0.104641 0.070472 0.373728
0.756279 0.091392 0.205123
0.962399 0.420003 0.471657
0.956477 0.546410 0.225423
0.055501 0.761711 0.927297
0.042364 0.585641 0.700338
0.505400 0.497080 0.491355
0.968450 0.576161 0.513172
0.957870 0.609354 0.205689
0.046752 0.929422 0.607924
0.046350 0.925057 0.592158
0.114768 0.920577 0.557214
0.949580 0.934822 0.394868
0.957126 0.834359 0.059649
0.532009 0.972993 0.092188
0.560486 0.974613 0.088412
0.622920 0.978221 0.080118
0.864891 0.992152 0.048479
0.934071 0.994869 0.038805
0.369541 0.165681 0.838384
0.369278 0.165575 0.838237
0.342242 0.138731 0.782265
0.961514 0.291389 0.529623
0.976492 0.619279 0.708811
0.369146 0.165521 0.838163
0.368883 0.165415 0.838016
0.473205 0.122377 0.704653
0.963206 0.271886 0.590588
0.977876 0.653453 0.725625
0.524790 0.662542 0.999297
0.519927 0.668804 0.999871
0.571645 0.542048 0.946247
0.977295 0.517611 0.794420
0.980987 0.715352 0.755471
0.065410 0.913446 0.999604
0.064708 0.910151 0.999990
0.217506 0.911114 0.999829
0.942202 0.920809 0.919218
0.987634 0.863398 0.816896
0.349592 0.958132 0.880825
0.369418 0.959193 0.877430
0.413475 0.961868 0.868518
0.679986 0.978422 0.805508
0.966961 0.993294 0.657061
0.658415 0.293294 0.922544
0.658414 0.293293 0.922544
0.658410 0.293293 0.922542
0.972044 0.217757 0.857719
0.964341 0.255242 0.631224
0.658413 0.293293 0.922543
0.658411 0.293293 0.922542
0.658407 0.293293 0.922540
0.972172 0.209257 0.855341
0.966409 0.210601 0.708706
0.658407 0.293293 0.922540
0.658405 0.293292 0.922539
0.658401 0.293292 0.922537
0.970910 0.188396 0.848147
0.975204 0.393623 0.811903
0.065118 0.922985 0.999896
0.065109 0.923302 0.999892
0.065087 0.924070 0.999883
0.825114 0.794907 0.986217
0.989889 0.793866 0.935812
0.167928 0.948000 0.999753
0.183393 0.948952 0.999710
0.219244 0.951162 0.999610
0.521020 0.969963 0.999508
0.992715 0.994593 0.993164
