output/AppleLog2_display/AppleLog2_to_ETERNA_33grid.cube
TITLE "AppleLog2_to_ETERNA"
# Input: Apple Log 2 (Apple Gamut primaries, D65)
# Output: BT.709 / Gamma 2.2 (display-referred)
# Use: Display LUT for iPhone 17 Pro Apple Log 2 footage
# Source: FLog2C_to_ETERNA_65grid_V.1.00.cube
# Generated from Fujifilm GFX ETERNA 55 F-Log2C LUT
LUT_3D_SIZE 5
0.006510 0.006095 0.006119
0.073306 0.010037 0.015201
0.852505 0.154025 0.111158
0.943984 0.328397 0.270514
0.928897 0.534454 0.067551
0.005969 0.133278 0.000037
0.136667 0.112752 0.006579
0.668699 0.155134 0.078164
0.939880 0.394647 0.224419
0.927745 0.557585 0.064710
0.008352 0.604204 0.000210
0.127283 0.470008 0.000255
0.518878 0.445968 0.006755
0.928581 0.539848 0.065890
0.926854 0.605062 0.062502
0.305550 0.964506 0.000398
0.409363 0.956270 0.000157
0.583365 0.940864 0.000378
0.928718 0.896958 0.053961
0.927251 0.791405 0.054805
0.716919 0.999992 0.003127
0.725174 0.999936 0.005554
0.744652 0.999802 0.011260
0.854960 0.999617 0.050599
0.932505 0.999759 0.081778
0.011530 0.003164 0.118960
0.011427 0.003351 0.114095
0.805562 0.138820 0.104063
0.943984 0.328397 0.270514
0.929001 0.533423 0.067819
0.013748 0.120095 0.134335
0.102663 0.104842 0.101980
0.643787 0.146000 0.079932
0.940113 0.390923 0.226755
0.927767 0.556644 0.064741
0.017208 0.668946 0.045342
0.079846 0.494385 0.000241
0.497304 0.449949 0.002521
0.928647 0.538020 0.066114
0.926875 0.604317 0.062449
0.293739 0.965240 0.000337
0.399893 0.956701 0.000215
0.577819 0.941032 0.000353
0.928688 0.896977 0.053958
0.927247 0.791162 0.054819
0.716067 0.999995 0.002972
0.724369 0.999942 0.005303
0.743885 0.999808 0.011027
0.854532 0.999613 0.050432
0.932505 0.999758 0.081779
0.026167 0.003468 0.396924
0.026061 0.003439 0.395250
0.732742 0.060739 0.369183
0.947922 0.339876 0.353951
0.929255 0.530879 0.068473
0.029927 0.020188 0.448855
0.030949 0.056643 0.455097
0.637291 0.081312 0.410299
0.949210 0.428778 0.454622
0.927822 0.554324 0.064815
0.056372 0.719179 0.681701
0.043518 0.566865 0.532330
0.484942 0.486164 0.484882
0.946720 0.558423 0.451768
0.926926 0.602486 0.062320
0.111059 0.966495 0.234628
0.240556 0.959740 0.239889
0.455247 0.948302 0.247825
0.908130 0.907847 0.155452
0.927238 0.790567 0.054852
0.713897 0.999992 0.002883
0.722402 0.999957 0.004687
0.742010 0.999823 0.010454
0.853487 0.999604 0.050022
0.932505 0.999758 0.081779
0.055110 0.036779 0.892710
0.055103 0.036738 0.892502
0.127121 0.024466 0.841072
0.959996 0.304090 0.581159
0.958515 0.562576 0.680143
0.055100 0.036717 0.892397
0.055093 0.036675 0.892189
0.313722 0.010272 0.807386
0.963811 0.274786 0.665848
0.959092 0.589180 0.689657
0.064854 0.509660 0.942641
0.064719 0.517234 0.941206
0.224320 0.413616 0.951266
0.967796 0.460805 0.853529
0.961123 0.640043 0.706048
0.087953 0.906423 0.828750
0.087376 0.899651 0.820133
0.223534 0.888545 0.823390
0.851432 0.854252 0.851593
0.966660 0.795042 0.731813
0.596172 0.994432 0.626615
0.605632 0.994694 0.626675
0.625510 0.995254 0.625174
0.728773 0.997984 0.597593
0.959410 0.999529 0.436615
0.062535 0.071686 1.000000
0.062535 0.071686 1.000000
0.062535 0.071686 1.000000
0.934348 0.000034 0.999180
0.967025 0.249582 0.727321
0.062535 0.071686 1.000000
0.062535 0.071686 1.000000
0.062535 0.071686 1.000000
0.956942 0.000035 0.999124
0.977171 0.174568 0.860556
0.062535 0.071686 1.000000
0.062535 0.071686 1.000000
0.062535 0.071686 1.000000
0.989805 0.000001 0.998894
0.974859 0.325962 0.939799
0.094876 0.931442 0.859957
0.094980 0.932043 0.859857
0.095232 0.933501 0.859612
0.514320 0.660477 0.970034
0.977533 0.691465 0.980956
0.215383 0.980254 0.868732
0.235316 0.980288 0.871949
0.281588 0.980368 0.879419
0.517769 0.983690 0.914026
0.984256 0.988980 0.986792
