output/AppleLog2_display/AppleLog2_to_PROVIA_33grid.cube
TITLE "AppleLog2_to_PROVIA"
# Input: Apple Log 2 (Apple Gamut primaries, D65)
# Output: BT.709 / Gamma 2.2 (display-referred)
# Use: Display LUT for iPhone 17 Pro Apple Log 2 footage
# Source: FLog2C_to_PROVIA_65grid_V.1.00.cube
# Generated from Fujifilm GFX ETERNA 55 F-Log2C LUT
LUT_3D_SIZE 9
0.000459 0.000290 0.000061
0.000459 0.000290 0.000061
0.045657 0.003535 0.003048
0.435414 0.013895 0.051861
0.999940 0.046584 0.277544
1.000000 0.257130 0.480656
1.000000 0.257130 0.480656
0.999017 0.355948 0.395023
0.999473 0.513385 0.230316
0.000459 0.000290 0.000061
0.000459 0.000290 0.000061
0.177115 0.008546 0.015972
0.537317 0.016228 0.068230
0.960890 0.041070 0.232164
0.999533 0.152893 0.453950
0.999930 0.308190 0.439959
0.999798 0.402656 0.351858
0.999191 0.533256 0.204927
0.001769 0.091873 0.000442
0.001756 0.086568 0.000375
0.093923 0.072218 0.000004
0.360382 0.067143 0.003276
0.810938 0.079487 0.097358
0.999570 0.185294 0.374978
0.999617 0.341427 0.407024
0.999904 0.421238 0.333969
0.999169 0.541741 0.193913
0.000078 0.340757 0.000038
0.000008 0.253645 0.000028
0.027002 0.228539 0.000317
0.261830 0.214601 0.000211
0.683992 0.222164 0.000054
0.998941 0.293829 0.177428
0.999721 0.401689 0.353896
0.999623 0.456348 0.297290
0.999144 0.558777 0.171090
0.000093 0.667836 0.000066
0.000016 0.536179 0.000742
0.000422 0.515490 0.000612
0.134146 0.490241 0.000258
0.563327 0.471599 0.000230
0.982595 0.493596 0.000000
0.999255 0.520545 0.170131
0.999381 0.535597 0.202634
0.999141 0.601814 0.105096
0.000156 0.874203 0.000628
0.000028 0.849226 0.000152
0.000012 0.840802 0.000506
0.016826 0.826014 0.000367
0.409659 0.790501 0.000423
0.865458 0.734801 0.000617
0.999413 0.718184 0.000096
0.999150 0.679767 0.002574
0.999400 0.695144 0.000005
0.000000 1.000000 0.000285
0.000000 1.000000 0.000285
0.000000 1.000000 0.000285
0.021937 1.000000 0.000422
0.228784 0.990399 0.000562
0.730351 0.942942 0.000139
0.999284 0.887346 0.000357
0.999597 0.813898 0.000390
0.999158 0.794709 0.000037
0.000631 0.999986 0.000274
0.057093 0.999897 0.000211
0.084244 0.999854 0.000181
0.139886 0.999766 0.000118
0.284739 0.999600 0.000042
0.597856 0.999704 0.000419
0.916271 0.992680 0.003714
0.999189 0.944353 0.000464
0.999423 0.911501 0.000022
0.497740 0.999755 0.000199
0.514027 0.999766 0.000186
0.521195 0.999771 0.000180
0.536196 0.999782 0.000169
0.576619 0.999810 0.000139
0.679046 0.999878 0.000067
0.842182 0.997874 0.000000
0.979483 0.986348 0.015280
0.981461 0.985989 0.015710
0.000459 0.000290 0.000061
0.000459 0.000290 0.000061
0.004194 0.000321 0.000140
0.392379 0.013283 0.044922
0.992613 0.044535 0.266712
1.000000 0.257130 0.480656
1.000000 0.257130 0.480656
0.999023 0.353864 0.396653
0.999495 0.512510 0.231420
0.000459 0.000290 0.000061
0.000459 0.000290 0.000061
0.129920 0.006642 0.012177
0.510352 0.015663 0.063689
0.968120 0.041554 0.244203
0.999655 0.157436 0.455878
0.999997 0.304677 0.443508
0.999782 0.400767 0.353671
0.999195 0.532422 0.206017
0.001689 0.079921 0.000405
0.001627 0.088977 0.000721
0.070382 0.065390 0.000311
0.346389 0.060165 0.002796
0.809249 0.071435 0.104204
0.999724 0.178516 0.383030
0.999606 0.338496 0.409613
0.999910 0.419531 0.335622
0.999171 0.540943 0.194952
0.000063 0.330102 0.000035
0.000457 0.261148 0.000004
0.002851 0.225312 0.000530
0.242305 0.210445 0.000384
0.676499 0.216409 0.000084
0.998911 0.288912 0.181034
0.999747 0.399353 0.356633
0.999652 0.454846 0.298999
0.999141 0.558007 0.172240
0.000000 0.697268 0.000273
0.000018 0.538355 0.000439
0.000020 0.516185 0.000431
0.113282 0.489138 0.000226
0.553697 0.468750 0.000156
0.982551 0.490914 0.000004
0.999273 0.518915 0.172073
0.999382 0.534506 0.204025
0.999143 0.601158 0.106166
0.000099 0.876657 0.000633
0.000027 0.850321 0.000164
0.000017 0.841534 0.000380
0.015126 0.826341 0.000427
0.398071 0.790559 0.000371
0.862791 0.734329 0.000598
0.999403 0.717730 0.000097
0.999148 0.679168 0.002624
0.999407 0.694674 0.000005
0.000000 1.000000 0.000285
0.000000 1.000000 0.000285
0.000000 1.000000 0.000285
0.017676 1.000000 0.000395
0.218448 0.990950 0.000574
0.726800 0.943226 0.000130
0.999289 0.887363 0.000359
0.999599 0.813734 0.000390
0.999159 0.794552 0.000038
0.000616 0.999987 0.000275
0.050576 0.999908 0.000219
0.077935 0.999864 0.000188
0.134000 0.999776 0.000125
0.279415 0.999599 0.000036
0.594851 0.999699 0.000412
0.915520 0.992756 0.003621
0.999176 0.944383 0.000498
0.999422 0.911458 0.000021
0.495997 0.999754 0.000200
0.512466 0.999765 0.000188
0.519642 0.999770 0.000182
0.534659 0.999781 0.000170
0.575122 0.999809 0.000140
0.678078 0.999877 0.000067
0.841618 0.997902 0.000000
0.979479 0.986348 0.015279
0.981462 0.985988 0.015710
0.005416 0.000118 0.081770
0.005153 0.000120 0.078521
0.004951 0.000160 0.077058
0.350940 0.007715 0.059191
0.964660 0.040046 0.234819
1.000000 0.257130 0.480656
1.000000 0.257130 0.480656
0.999025 0.352929 0.397385
0.999504 0.512120 0.231911
0.004925 0.000165 0.076867
0.004457 0.000258 0.073483
0.104666 0.000536 0.058845
0.461368 0.013575 0.061701
0.950750 0.038595 0.230030
0.999514 0.149870 0.454545
0.999992 0.303147 0.444376
0.999775 0.399919 0.354484
0.999196 0.532050 0.206503
0.000724 0.075557 0.096021
0.000472 0.088179 0.091650
0.059841 0.062614 0.059552
0.325150 0.056037 0.057307
0.781519 0.070428 0.107225
0.999889 0.175929 0.374891
0.999600 0.337177 0.410777
0.999912 0.418768 0.336362
0.999172 0.540587 0.195416
0.000164 0.351412 0.055592
0.000150 0.285611 0.014066
0.002088 0.241765 0.001308
0.224490 0.216708 0.000384
0.653910 0.215592 0.003878
0.999430 0.288184 0.166341
0.999758 0.398305 0.357869
0.999665 0.454175 0.299763
0.999140 0.557664 0.172752
0.000000 0.742263 0.000172
0.000002 0.570735 0.000027
0.000234 0.541575 0.000236
0.081679 0.507693 0.000255
0.532539 0.475797 0.000262
0.981116 0.489992 0.000009
0.999281 0.518184 0.172947
0.999383 0.534019 0.204646
0.999144 0.600865 0.106643
0.000235 0.880121 0.000407
0.000069 0.851606 0.000395
0.000037 0.842113 0.000355
0.014245 0.826504 0.000453
0.392894 0.790585 0.000348
0.861604 0.734116 0.000590
0.999398 0.717526 0.000098
0.999148 0.678900 0.002644
0.999411 0.694465 0.000005
0.000000 1.000000 0.000285
0.000000 1.000000 0.000285
0.000000 1.000000 0.000285
0.015718 1.000000 0.000383
0.213802 0.991205 0.000580
0.725222 0.943352 0.000126
0.999289 0.887363 0.000358
0.999600 0.813661 0.000390
0.999160 0.794482 0.000038
0.000609 0.999987 0.000275
0.047658 0.999912 0.000222
0.075110 0.999869 0.000191
0.131365 0.999780 0.000129
0.277047 0.999599 0.000033
0.593515 0.999697 0.000408
0.915185 0.992789 0.003579
0.999171 0.944397 0.000513
0.999421 0.911440 0.000021
0.494978 0.999754 0.000200
0.511773 0.999764 0.000188
0.518951 0.999770 0.000183
0.533975 0.999780 0.000171
0.574457 0.999808 0.000140
0.677648 0.999877 0.000067
0.841367 0.997915 0.000000
0.979478 0.986348 0.015278
0.981463 0.985988 0.015710
0.023176 0.000138 0.226512
0.023068 0.000149 0.223697
0.023020 0.000154 0.222435
0.318823 0.000106 0.175022
0.921693 0.017034 0.302091
0.999993 0.240972 0.477008
1.000000 0.257130 0.480656
0.999031 0.350932 0.398946
0.999524 0.511293 0.232952
0.023014 0.000155 0.222270
0.022904 0.000166 0.219399
0.073536 0.000192 0.186667
0.422120 0.000020 0.179550
0.941637 0.020044 0.316448
0.999717 0.123719 0.514330
0.999701 0.314906 0.455470
0.999760 0.398111 0.356217
0.999200 0.531263 0.207533
0.001904 0.054511 0.295960
0.000440 0.069568 0.302728
0.045667 0.047053 0.233772
0.319092 0.037006 0.212112
0.764255 0.047278 0.275524
0.999510 0.152897 0.462790
0.999506 0.352044 0.441315
0.999916 0.417147 0.337936
0.999174 0.539834 0.196397
0.000031 0.359805 0.394222
0.000141 0.317675 0.327926
0.000000 0.254268 0.253751
0.214928 0.216742 0.215286
0.641127 0.206496 0.214158
0.999855 0.270413 0.335540
0.999937 0.410392 0.405411
0.999694 0.452749 0.301385
0.999138 0.556938 0.173837
0.000090 0.776813 0.356081
0.000044 0.604030 0.168738
0.000113 0.574150 0.144184
0.050207 0.535150 0.117908
0.502371 0.490862 0.082335
0.939723 0.484941 0.142537
0.999776 0.527945 0.273915
0.999385 0.532986 0.205964
0.999147 0.600246 0.107651
0.000011 0.915094 0.000404
0.000129 0.887921 0.000302
0.000131 0.878713 0.000353
0.000105 0.861804 0.000463
0.281965 0.823246 0.000158
0.812265 0.764155 0.000171
0.999062 0.744121 0.000045
0.999146 0.678335 0.002684
0.999418 0.694023 0.000005
0.000000 1.000000 0.000285
0.000000 1.000000 0.000285
0.000000 1.000000 0.000285
0.000000 1.000000 0.000285
0.096838 0.998159 0.000518
0.689231 0.951530 0.000579
0.999273 0.887324 0.000348
0.999601 0.813506 0.000390
0.999161 0.794334 0.000039
0.000595 0.999987 0.000275
0.041451 0.999922 0.000229
0.069101 0.999879 0.000198
0.125757 0.999789 0.000135
0.272042 0.999599 0.000027
0.590692 0.999692 0.000401
0.914479 0.992860 0.003490
0.999159 0.944426 0.000544
0.999420 0.911400 0.000021
0.492825 0.999754 0.000201
0.510307 0.999763 0.000190
0.517493 0.999768 0.000184
0.532532 0.999779 0.000172
0.573051 0.999808 0.000142
0.676740 0.999877 0.000067
0.840838 0.997941 0.000000
0.979474 0.986348 0.015277
0.981465 0.985987 0.015710
0.048751 0.000173 0.468443
0.048563 0.000179 0.466831
0.048479 0.000181 0.466113
0.236643 0.000254 0.382941
0.869385 0.000033 0.465643
0.999112 0.219282 0.593024
0.999703 0.269043 0.556527
0.999413 0.381891 0.520306
0.999578 0.508995 0.235841
0.048469 0.000181 0.466020
0.048279 0.000186 0.464396
0.048198 0.000189 0.463699
0.352143 0.000479 0.374936
0.912390 0.000020 0.479070
0.999701 0.093091 0.653941
0.999716 0.340358 0.615250
0.999900 0.428411 0.508403
0.999211 0.529075 0.210396
0.061256 0.000109 0.543303
0.058518 0.002452 0.564924
0.051996 0.003609 0.551971
0.308817 0.000003 0.443280
0.766122 0.001898 0.496112
0.999981 0.092983 0.660264
0.999885 0.377392 0.612103
0.999970 0.446269 0.502386
0.999181 0.537742 0.199127
0.000442 0.329918 0.766122
0.000556 0.343457 0.767842
0.000126 0.263597 0.644781
0.194645 0.197619 0.539931
0.635252 0.173045 0.504609
0.999795 0.227960 0.577670
0.999921 0.422884 0.603619
0.999426 0.483262 0.487924
0.999132 0.554935 0.176798
0.000045 0.761922 0.803298
0.000414 0.629784 0.646309
0.000243 0.592247 0.602189
0.022955 0.545750 0.548868
0.482218 0.485785 0.482555
0.917876 0.464312 0.480129
0.999517 0.527792 0.553860
0.999867 0.555407 0.453868
0.999154 0.598533 0.110444
0.000191 0.905618 0.482925
0.000237 0.877889 0.441316
0.000270 0.868526 0.427370
0.000022 0.852930 0.406043
0.207922 0.814667 0.358973
0.769745 0.761969 0.321542
0.999261 0.738969 0.392508
0.999513 0.686348 0.347340
0.999437 0.692799 0.000004
0.000058 0.999947 0.007775
0.000048 0.999992 0.006309
0.000044 0.999993 0.005765
0.000035 0.999994 0.004635
0.017551 0.999999 0.001637
0.521937 0.995804 0.000003
0.976303 0.943617 0.008086
0.999026 0.861967 0.020063
0.999165 0.793925 0.000040
0.000000 1.000000 0.000285
0.000000 1.000000 0.000285
0.000000 1.000000 0.000285
0.000000 1.000000 0.000285
0.010852 0.999986 0.000310
0.362349 0.999737 0.000141
0.845666 0.997582 0.000127
0.999128 0.944505 0.000629
0.999416 0.911290 0.000020
0.486884 0.999755 0.000202
0.506265 0.999760 0.000194
0.513471 0.999765 0.000188
0.528549 0.999776 0.000176
0.569174 0.999805 0.000145
0.674234 0.999876 0.000068
0.839379 0.998014 0.000000
0.979465 0.986348 0.015274
0.981469 0.985985 0.015710
0.108899 0.000215 0.811104
0.108772 0.000212 0.810395
0.108716 0.000211 0.810079
0.108597 0.000208 0.809411
0.765124 0.000042 0.670801
0.999958 0.111070 0.749901
0.999656 0.266732 0.643296
0.999944 0.382223 0.691538
0.999760 0.545254 0.584501
0.108709 0.000211 0.810038
0.108582 0.000208 0.809326
0.108525 0.000206 0.809010
0.099553 0.000081 0.767206
0.815511 0.000072 0.681070
0.999937 0.126534 0.742386
0.999604 0.278264 0.736342
0.999814 0.440396 0.692580
0.999986 0.562797 0.579549
0.108624 0.000209 0.809563
0.108497 0.000206 0.808851
0.108440 0.000205 0.808534
0.150019 0.000021 0.723399
0.810498 0.000142 0.696115
0.999789 0.000150 0.882461
0.999403 0.326863 0.742333
0.999723 0.462013 0.692671
0.999763 0.570486 0.577021
0.115654 0.168164 0.999998
0.108499 0.186828 0.999833
0.105537 0.195022 0.999719
0.106944 0.122501 0.943682
0.621882 0.072323 0.829203
0.998817 0.128264 0.848188
0.999397 0.377018 0.764965
0.999690 0.501964 0.693775
0.999178 0.585896 0.571779
0.000265 0.707693 0.999301
0.000292 0.712081 0.999296
0.000362 0.630889 0.999855
0.000183 0.539952 0.950493
0.449341 0.453305 0.859433
0.902079 0.418758 0.802511
0.999784 0.502478 0.775237
0.999810 0.570113 0.693898
0.999632 0.622575 0.554670
0.000115 0.895791 0.919812
0.000118 0.872319 0.887651
0.000267 0.862465 0.877947
0.000575 0.845868 0.856632
0.149950 0.805059 0.809319
0.739050 0.744116 0.741661
0.999524 0.711686 0.724749
0.999626 0.684167 0.663584
0.999212 0.700716 0.511532
0.000006 0.997139 0.656336
0.000072 0.995923 0.649679
0.000124 0.995250 0.647500
0.000139 0.993368 0.642213
0.000694 0.988905 0.628006
0.417277 0.966895 0.580515
0.921609 0.914678 0.548635
0.999671 0.843342 0.555310
0.999234 0.823234 0.384557
0.000150 0.999772 0.224233
0.000134 0.999855 0.225351
0.000126 0.999885 0.225599
0.000098 0.999806 0.221205
0.000018 0.999571 0.209120
0.114049 0.999635 0.172999
0.674971 0.999715 0.102113
0.994780 0.999181 0.128708
0.999134 0.960200 0.010449
0.084426 0.999984 0.000139
0.093719 0.999975 0.000122
0.101449 0.999967 0.000128
0.124990 0.999946 0.000168
0.188353 0.999892 0.000270
0.352636 0.999781 0.000491
0.629635 0.999612 0.000240
0.941686 0.989697 0.006365
0.981481 0.985979 0.015710
0.232375 0.000350 0.963223
0.232265 0.000348 0.963143
0.232217 0.000348 0.963107
0.232114 0.000346 0.963033
0.251832 0.000098 0.958808
0.999986 0.000050 0.999004
0.999831 0.214035 0.775793
0.999659 0.266841 0.833032
0.999728 0.528879 0.781727
0.232210 0.000348 0.963103
0.232100 0.000346 0.963023
0.232052 0.000345 0.962987
0.231949 0.000344 0.962913
0.377565 0.000013 0.996884
0.999981 0.000075 0.998662
0.999843 0.214413 0.774735
0.999930 0.343603 0.841626
0.999663 0.550579 0.782200
0.232137 0.000346 0.963050
0.232027 0.000345 0.962970
0.231978 0.000344 0.962934
0.231875 0.000342 0.962859
0.426584 0.000065 0.993918
0.999978 0.000094 0.998290
0.999891 0.166950 0.870291
0.999974 0.370780 0.843528
0.999657 0.559542 0.782346
0.231982 0.000344 0.962937
0.231872 0.000342 0.962857
0.231824 0.000342 0.962822
0.231720 0.000340 0.962746
0.483300 0.000219 0.999684
1.000000 0.000000 0.999715
0.999894 0.239418 0.932565
0.999434 0.421696 0.843856
0.999662 0.577442 0.782322
0.138878 0.474675 0.999899
0.132594 0.481839 0.999885
0.129833 0.484984 0.999879
0.123706 0.491081 0.999883
0.323375 0.351371 0.999851
0.886568 0.284667 0.999866
0.999832 0.387767 0.991380
0.999782 0.519897 0.841274
0.999756 0.619555 0.780755
0.000463 0.849564 0.999933
0.000353 0.845076 0.999956
0.000187 0.827491 0.999842
0.000312 0.806058 0.999904
0.028823 0.763964 0.999915
0.688627 0.694362 0.999466
0.999571 0.647881 0.972237
0.999772 0.664876 0.831135
0.999879 0.698401 0.779829
0.000442 0.945983 0.986838
0.000454 0.943590 0.983332
0.000465 0.942475 0.981928
0.000570 0.940418 0.977707
0.000503 0.935564 0.964149
0.313766 0.921676 0.924966
0.867716 0.871916 0.869137
0.999357 0.822659 0.820573
0.999641 0.800466 0.746544
0.000010 0.999822 0.748386
0.000024 0.999838 0.747370
0.000030 0.999846 0.746931
0.000041 0.999864 0.746024
0.000055 0.999786 0.742722
0.000113 0.999814 0.733907
0.550216 0.999815 0.689553
0.976906 0.979360 0.670010
0.999427 0.931201 0.633986
0.105136 0.999703 0.523327
0.120014 0.999702 0.521156
0.126542 0.999701 0.520197
0.140164 0.999701 0.518185
0.178539 0.999680 0.511360
0.280859 0.999598 0.491103
0.496098 0.999840 0.444630
0.823671 0.999651 0.395094
0.980453 0.999465 0.276301
0.384687 0.000117 0.999982
0.384664 0.000118 0.999981
0.384654 0.000118 0.999981
0.384633 0.000119 0.999981
0.384575 0.000120 0.999981
0.717740 0.000080 0.999581
0.999943 0.108734 0.963907
0.999774 0.175949 0.853077
0.999733 0.397232 0.948223
0.384653 0.000118 0.999981
0.384631 0.000119 0.999981
0.384621 0.000119 0.999981
0.384600 0.000119 0.999981
0.384542 0.000121 0.999981
0.770379 0.000131 0.999895
0.999935 0.109719 0.962504
0.999856 0.167320 0.869219
0.999624 0.429154 0.945651
0.384638 0.000118 0.999981
0.384616 0.000119 0.999981
0.384606 0.000119 0.999981
0.384585 0.000120 0.999981
0.384527 0.000121 0.999981
0.791650 0.000142 0.999882
0.999932 0.110152 0.961887
0.999948 0.102289 0.972555
0.999838 0.441967 0.945202
0.384607 0.000119 0.999981
0.384584 0.000120 0.999981
0.384574 0.000120 0.999981
0.384553 0.000120 0.999981
0.384495 0.000122 0.999981
0.832703 0.000110 0.999728
0.999925 0.111058 0.960597
0.999665 0.175250 0.997588
0.999790 0.466446 0.943557
0.394875 0.000131 0.999818
0.396827 0.000003 0.999056
0.397898 0.000035 0.999424
0.400263 0.000107 0.999957
0.406166 0.000043 0.999947
0.785860 0.000075 0.999681
0.999708 0.027513 0.998915
0.999905 0.350267 0.998462
0.999626 0.522621 0.937695
0.015728 0.661328 0.999904
0.013445 0.664200 0.999898
0.012435 0.665470 0.999896
0.010311 0.668141 0.999890
0.004519 0.675423 0.999875
0.493379 0.542511 0.999668
0.997282 0.493528 0.999614
0.999786 0.560865 0.989933
0.999868 0.625980 0.926756
0.001280 0.982949 0.999455
0.000192 0.940468 0.999900
0.000415 0.915650 0.999911
0.000453 0.888467 0.999914
0.000739 0.873833 0.999993
0.166466 0.847130 0.999850
0.796289 0.802052 0.999746
0.999933 0.762937 0.996969
0.999879 0.767450 0.907969
0.000128 0.981443 1.000000
0.000182 0.980692 1.000000
0.000218 0.980380 1.000000
0.000291 0.979750 1.000000
0.000754 0.977642 1.000000
0.000301 0.973838 0.999720
0.432589 0.979059 0.981617
0.932284 0.935240 0.932950
0.999468 0.901155 0.886760
0.001694 0.999845 0.908561
0.003376 0.999841 0.906532
0.004114 0.999839 0.905641
0.005652 0.999835 0.903779
0.009760 0.999820 0.898784
0.071015 0.999834 0.883764
0.374454 0.999542 0.845460
0.762362 0.999820 0.815279
0.985461 0.999608 0.768544
0.389113 0.000033 0.999974
0.389113 0.000033 0.999974
0.389113 0.000033 0.999974
0.389113 0.000033 0.999974
0.389113 0.000033 0.999974
0.389113 0.000033 0.999974
1.000000 0.000000 0.999715
0.999725 0.039285 0.999457
0.999595 0.123367 0.941645
0.389113 0.000033 0.999974
0.389113 0.000033 0.999974
0.389113 0.000033 0.999974
0.389113 0.000033 0.999974
0.389113 0.000033 0.999974
0.389113 0.000033 0.999974
1.000000 0.000000 0.999715
0.999719 0.039748 0.999468
0.999877 0.060458 0.999626
0.389113 0.000033 0.999974
0.389113 0.000033 0.999974
0.389113 0.000033 0.999974
0.389113 0.000033 0.999974
0.389113 0.000033 0.999974
0.389113 0.000033 0.999974
1.000000 0.000000 0.999715
0.999716 0.039952 0.999473
0.999948 0.008069 0.999659
0.389113 0.000033 0.999974
0.389113 0.000033 0.999974
0.389113 0.000033 0.999974
0.389113 0.000033 0.999974
0.389113 0.000033 0.999974
0.389113 0.000032 0.999974
1.000000 0.000000 0.999715
0.999710 0.040383 0.999484
0.999819 0.046371 0.999431
0.389113 0.000033 0.999974
0.389113 0.000033 0.999974
0.389113 0.000033 0.999974
0.389113 0.000033 0.999974
0.389113 0.000033 0.999974
0.389113 0.000032 0.999974
1.000000 0.000000 0.999715
0.999693 0.041560 0.999514
0.999903 0.205862 0.999771
0.409600 0.000137 0.999435
0.410765 0.000145 0.999189
0.411263 0.000148 0.999084
0.412281 0.000154 0.998870
0.415076 0.000058 0.999363
0.421544 0.000056 0.999362
0.927285 0.000159 0.999147
0.999833 0.223018 0.999447
0.999920 0.424053 0.999621
0.000231 0.955550 0.999940
0.000237 0.955919 0.999938
0.000239 0.956083 0.999938
0.000244 0.956428 0.999937
0.000258 0.957374 0.999933
0.000297 0.959953 0.999924
0.579945 0.644458 0.999770
0.999837 0.637275 0.999266
0.999833 0.655164 0.999631
0.002135 0.990721 1.000000
0.002135 0.990721 1.000000
0.002135 0.990721 1.000000
0.002135 0.990721 1.000000
0.002135 0.990906 0.999517
0.000253 0.967196 0.999840
0.212466 0.931658 0.999850
0.861268 0.870948 0.999780
0.999694 0.846809 0.999183
0.003503 0.990025 1.000000
0.003503 0.990025 1.000000
0.003503 0.990025 1.000000
0.003503 0.990025 1.000000
0.003503 0.990025 1.000000
0.003460 0.989982 0.999994
0.061669 0.995487 0.999783
0.600819 0.999666 0.993461
0.982962 0.990272 0.987781
