output/AppleLog2_display/AppleLog2_to_REALA-ACE_33grid.cube
TITLE "AppleLog2_to_REALA-ACE"
# Input: Apple Log 2 (Apple Gamut primaries, D65)
# Output: BT.709 / Gamma 2.2 (display-referred)
# Use: Display LUT for iPhone 17 Pro Apple Log 2 footage
# Source: FLog2C_to_REALA-ACE_65grid_V.1.00.cube
# Generated from Fujifilm GFX ETERNA 55 F-Log2C LUT
LUT_3D_SIZE 9
0.000200 0.000111 0.000001
0.000200 0.000111 0.000001
0.025105 0.000096 0.000190
0.433802 0.000050 0.022144
0.890008 0.146243 0.251822
0.940825 0.327148 0.473700
0.940825 0.327148 0.473700
0.959077 0.409866 0.401792
0.981585 0.550061 0.232962
0.000200 0.000111 0.000001
0.000200 0.000111 0.000001
0.125625 0.000048 0.002990
0.521335 0.000021 0.031879
0.852895 0.090802 0.195301
0.922831 0.244428 0.432593
0.950583 0.369211 0.440206
0.968451 0.452275 0.363173
0.982226 0.568189 0.201861
0.000091 0.088601 0.000130
0.000348 0.075416 0.000554
0.096993 0.068147 0.000368
0.378505 0.053446 0.000029
0.741948 0.034705 0.052856
0.924245 0.255346 0.365243
0.957086 0.397365 0.416624
0.971786 0.469162 0.344543
0.982418 0.576144 0.187906
0.051771 0.346727 0.026422
0.001019 0.274728 0.000359
0.050443 0.249818 0.000125
0.294122 0.228698 0.000454
0.653807 0.204814 0.000156
0.939836 0.331985 0.206921
0.968282 0.451496 0.363726
0.976968 0.500231 0.308044
0.982793 0.591699 0.158953
0.253714 0.629539 0.196669
0.174503 0.517038 0.128731
0.165793 0.496606 0.114763
0.237178 0.471917 0.066942
0.553443 0.449258 0.000368
0.940079 0.493032 0.041997
0.978484 0.558602 0.168634
0.982511 0.570865 0.198850
0.982454 0.629048 0.078822
0.526968 0.840718 0.455054
0.490654 0.815968 0.419445
0.481477 0.807171 0.405225
0.483833 0.793865 0.375965
0.578696 0.775418 0.249716
0.880372 0.750089 0.000061
0.981047 0.739517 0.000017
0.980411 0.705496 0.000000
0.980882 0.720526 0.000133
0.666587 0.929793 0.593265
0.678307 0.931492 0.593247
0.685594 0.932496 0.593294
0.705453 0.935788 0.592255
0.770462 0.946528 0.585682
0.892989 0.953524 0.464541
0.988422 0.914141 0.000024
0.986196 0.832392 0.000131
0.986636 0.814392 0.000100
0.747942 0.943205 0.589714
0.761217 0.945417 0.588318
0.767024 0.946382 0.587685
0.778977 0.948368 0.586382
0.809704 0.953684 0.582087
0.878282 0.966377 0.562906
0.983493 0.984460 0.460407
0.996715 0.966346 0.259803
0.990644 0.934205 0.034299
0.850119 0.961063 0.573335
0.854400 0.961878 0.571804
0.856284 0.962236 0.571131
0.860224 0.962986 0.569725
0.870834 0.965006 0.565947
0.898209 0.970158 0.555547
0.955299 0.980036 0.507425
0.996976 0.986641 0.425675
0.996976 0.986641 0.425675
0.000200 0.000111 0.000001
0.000200 0.000111 0.000001
0.002263 0.000376 0.000098
0.391153 0.000137 0.019043
0.882646 0.134942 0.238788
0.940825 0.327148 0.473700
0.940825 0.327148 0.473700
0.958696 0.407993 0.403390
0.981551 0.549288 0.234272
0.000200 0.000111 0.000001
0.000200 0.000111 0.000001
0.084957 0.000015 0.000584
0.499336 0.000030 0.027985
0.863085 0.107364 0.209878
0.923310 0.247694 0.434525
0.950010 0.366621 0.442691
0.968069 0.450450 0.365042
0.982208 0.567408 0.203239
0.000075 0.071568 0.000358
0.000052 0.082566 0.000072
0.067122 0.056882 0.000004
0.363624 0.046425 0.000041
0.739470 0.022959 0.056465
0.923239 0.251234 0.370404
0.956413 0.394490 0.418624
0.971546 0.467765 0.346311
0.982401 0.575394 0.189222
0.042700 0.338010 0.020370
0.000433 0.279342 0.000778
0.024225 0.246093 0.000098
0.277356 0.225529 0.000308
0.646947 0.199064 0.000148
0.938908 0.327551 0.209549
0.967922 0.449245 0.366220
0.976747 0.498795 0.309622
0.982779 0.591062 0.160419
0.280388 0.655482 0.220462
0.175306 0.518701 0.129282
0.162882 0.498113 0.117053
0.226285 0.470914 0.070233
0.545616 0.447267 0.000427
0.938865 0.489857 0.042591
0.978388 0.557093 0.171177
0.982438 0.569883 0.200503
0.982499 0.628420 0.080011
0.529837 0.842666 0.457940
0.492292 0.817011 0.421098
0.481565 0.807907 0.406798
0.481550 0.793908 0.377216
0.573857 0.774792 0.252997
0.877826 0.749300 0.000075
0.981024 0.738882 0.000018
0.980343 0.704838 0.000000
0.980829 0.720142 0.000135
0.666286 0.929731 0.593288
0.676605 0.931262 0.593233
0.684036 0.932286 0.593284
0.702966 0.935335 0.592475
0.768037 0.946154 0.585946
0.891730 0.953416 0.466700
0.988425 0.914164 0.000021
0.986192 0.832242 0.000126
0.986643 0.814238 0.000100
0.746748 0.943002 0.589791
0.759910 0.945203 0.588460
0.765742 0.946172 0.587825
0.777744 0.948166 0.586517
0.808621 0.953477 0.582339
0.877509 0.966244 0.563199
0.983294 0.984434 0.460972
0.996720 0.966350 0.259839
0.990632 0.934157 0.033988
0.849688 0.960982 0.573476
0.853985 0.961799 0.571958
0.855871 0.962158 0.571284
0.859816 0.962909 0.569875
0.870439 0.964930 0.566089
0.897871 0.970103 0.555778
0.955089 0.979996 0.507706
0.996976 0.986641 0.425675
0.996976 0.986641 0.425675
0.000069 0.000187 0.060504
0.000104 0.000216 0.057795
0.000138 0.000216 0.056759
0.345196 0.000159 0.040320
0.854654 0.094080 0.197023
0.940825 0.327148 0.473700
0.940825 0.327148 0.473700
0.958526 0.407151 0.404109
0.981535 0.548943 0.234856
0.000143 0.000216 0.056623
0.000222 0.000217 0.054226
0.067834 0.000023 0.040419
0.456342 0.000017 0.033613
0.847342 0.082435 0.188998
0.922349 0.242494 0.434767
0.949673 0.365277 0.443518
0.967896 0.449631 0.365881
0.982200 0.567060 0.203853
0.000275 0.073383 0.096848
0.000687 0.089946 0.093090
0.067852 0.070551 0.067307
0.337523 0.039121 0.046127
0.716281 0.017356 0.060371
0.922292 0.247781 0.363742
0.956107 0.393189 0.419534
0.971439 0.467141 0.347103
0.982393 0.575059 0.189809
0.034100 0.349164 0.065574
0.003333 0.289984 0.005250
0.006908 0.252439 0.000541
0.248049 0.226873 0.000322
0.626388 0.197720 0.000021
0.937925 0.324281 0.197026
0.967761 0.448235 0.367345
0.976648 0.498153 0.310326
0.982772 0.590779 0.161072
0.339699 0.705917 0.274900
0.191205 0.540906 0.143091
0.173109 0.514865 0.126948
0.212584 0.482826 0.086862
0.522362 0.454447 0.000212
0.936974 0.488502 0.041767
0.978344 0.556414 0.172324
0.982406 0.569445 0.201239
0.982518 0.628140 0.080541
0.533410 0.845435 0.461366
0.493996 0.818246 0.422790
0.481883 0.808491 0.407924
0.480489 0.793931 0.377811
0.571656 0.774521 0.254502
0.876689 0.748949 0.000082
0.981014 0.738599 0.000018
0.980313 0.704545 0.000000
0.980805 0.719972 0.000136
0.666147 0.929702 0.593298
0.675832 0.931157 0.593226
0.683329 0.932191 0.593279
0.701851 0.935132 0.592575
0.766954 0.945988 0.586065
0.891167 0.953367 0.467676
0.988430 0.914172 0.000103
0.986190 0.832176 0.000124
0.986645 0.814170 0.000100
0.746215 0.942912 0.589826
0.759328 0.945108 0.588523
0.765170 0.946079 0.587887
0.777194 0.948076 0.586577
0.808138 0.953385 0.582451
0.877164 0.966185 0.563329
0.983206 0.984423 0.461222
0.996723 0.966351 0.259856
0.990626 0.934136 0.033850
0.849481 0.960945 0.573514
0.853800 0.961763 0.572027
0.855687 0.962123 0.571352
0.859635 0.962874 0.569942
0.870263 0.964897 0.566153
0.897720 0.970078 0.555880
0.954996 0.979978 0.507832
0.996976 0.986641 0.425675
0.996976 0.986641 0.425675
0.000194 0.000092 0.250387
0.000221 0.000072 0.246825
0.000234 0.000064 0.245228
0.314982 0.000267 0.186998
0.823806 0.042402 0.249747
0.938325 0.315642 0.471075
0.940825 0.327148 0.473700
0.958164 0.405354 0.405645
0.981503 0.548212 0.236093
0.000235 0.000063 0.245020
0.000263 0.000043 0.241386
0.049214 0.000105 0.197717
0.411994 0.000045 0.178316
0.840821 0.058878 0.266287
0.920131 0.230167 0.487006
0.951718 0.374356 0.459090
0.967527 0.447884 0.367669
0.982183 0.566324 0.205155
0.000431 0.033784 0.310677
0.000644 0.047178 0.310165
0.012933 0.028787 0.247384
0.315175 0.016908 0.225862
0.696767 0.001853 0.231708
0.922208 0.236539 0.451355
0.958323 0.406926 0.448841
0.971212 0.465817 0.348788
0.982376 0.574351 0.191052
0.000104 0.304276 0.329776
0.000455 0.274590 0.281484
0.000066 0.229051 0.224705
0.225391 0.226891 0.225541
0.599809 0.183222 0.195403
0.935865 0.306823 0.343596
0.969996 0.459825 0.419128
0.976438 0.496788 0.311823
0.982758 0.590178 0.162454
0.405643 0.770965 0.494909
0.185314 0.573368 0.220004
0.166883 0.542418 0.193222
0.183171 0.501801 0.153109
0.492505 0.469441 0.074917
0.917914 0.487493 0.147519
0.986109 0.569290 0.281928
0.982339 0.568518 0.202799
0.982560 0.627548 0.081661
0.601633 0.889805 0.529007
0.564457 0.866093 0.491995
0.551303 0.857749 0.478392
0.531568 0.840619 0.451811
0.575558 0.814114 0.357175
0.837838 0.785099 0.000000
0.985384 0.772978 0.000052
0.980249 0.703925 0.000000
0.980755 0.719612 0.000138
0.663656 0.929187 0.593484
0.666969 0.929660 0.593377
0.671063 0.930220 0.593206
0.682661 0.931867 0.592757
0.743142 0.941855 0.589745
0.881267 0.954671 0.498428
0.988460 0.914185 0.000717
0.986187 0.832035 0.000119
0.986651 0.814026 0.000099
0.745084 0.942720 0.589901
0.758094 0.944906 0.588657
0.763960 0.945881 0.588019
0.776030 0.947886 0.586705
0.807117 0.953190 0.582691
0.876436 0.966059 0.563606
0.983021 0.984400 0.461749
0.996728 0.966355 0.259894
0.990614 0.934091 0.033558
0.849044 0.960866 0.573596
0.853409 0.961689 0.572172
0.855298 0.962049 0.571496
0.859251 0.962801 0.570083
0.869892 0.964826 0.566287
0.897402 0.970027 0.556097
0.954799 0.979940 0.508097
0.996976 0.986641 0.425675
0.996976 0.986641 0.425675
0.000052 0.000053 0.493440
0.000042 0.000038 0.492173
0.000037 0.000032 0.491608
0.205695 0.000088 0.410814
0.782176 0.002972 0.405424
0.935230 0.317440 0.579405
0.943514 0.345447 0.551607
0.964574 0.437238 0.533220
0.981412 0.546183 0.239530
0.000036 0.000031 0.491535
0.000026 0.000016 0.490258
0.000023 0.000011 0.489699
0.326122 0.000377 0.393497
0.816658 0.028304 0.419330
0.899918 0.269755 0.611819
0.956576 0.411890 0.616530
0.973091 0.479971 0.523920
0.982136 0.564280 0.208774
0.000078 0.000026 0.551478
0.000107 0.000026 0.563616
0.000696 0.000020 0.550677
0.267681 0.000209 0.455163
0.685370 0.000130 0.449259
0.891516 0.277322 0.632447
0.962508 0.443656 0.622228
0.977028 0.496957 0.521570
0.982331 0.572389 0.194506
0.000044 0.225293 0.648868
0.000073 0.237618 0.650038
0.000682 0.175728 0.548319
0.116850 0.151724 0.491146
0.576012 0.147309 0.474373
0.927465 0.296241 0.571608
0.972003 0.484553 0.621048
0.983980 0.528508 0.507376
0.982720 0.588498 0.166222
0.327456 0.728203 0.743013
0.065838 0.574464 0.578254
0.028919 0.528235 0.526048
0.014639 0.483512 0.476737
0.483107 0.486395 0.483983
0.914496 0.483796 0.500923
0.991853 0.578402 0.582870
0.995904 0.597260 0.474527
0.982675 0.625908 0.084765
0.583092 0.892794 0.678334
0.546905 0.869161 0.634542
0.535386 0.861026 0.619464
0.514698 0.847068 0.594333
0.542043 0.819907 0.523827
0.819726 0.801104 0.362276
0.998607 0.778144 0.431575
0.997158 0.719812 0.366338
0.980614 0.718619 0.000143
0.663487 0.929321 0.594748
0.663599 0.929256 0.594530
0.663604 0.929258 0.594394
0.663615 0.929257 0.594137
0.694038 0.934101 0.592276
0.831345 0.957457 0.577222
0.996546 0.976429 0.344249
0.988806 0.882192 0.013664
0.986666 0.813627 0.000098
0.694196 0.933532 0.592893
0.703201 0.934940 0.592545
0.708223 0.935825 0.592262
0.718590 0.937672 0.591633
0.746198 0.942645 0.589783
0.821978 0.955937 0.579118
0.958129 0.980817 0.503851
0.996741 0.966368 0.260016
0.990582 0.933968 0.032753
0.847836 0.960650 0.573820
0.852331 0.961484 0.572574
0.854226 0.961845 0.571894
0.858192 0.962599 0.570473
0.868868 0.964632 0.566658
0.896523 0.969883 0.556698
0.954257 0.979836 0.508829
0.996976 0.986641 0.425675
0.996976 0.986641 0.425675
0.081533 0.000207 0.669674
0.081241 0.000204 0.669525
0.081110 0.000203 0.669459
0.080835 0.000200 0.669319
0.661759 0.140545 0.611091
0.884440 0.327460 0.689698
0.933770 0.365549 0.633344
0.949671 0.464452 0.690493
0.992484 0.588304 0.609468
0.081094 0.000203 0.669450
0.080800 0.000200 0.669301
0.080670 0.000199 0.669235
0.062112 0.000034 0.659918
0.702950 0.160096 0.615038
0.887923 0.331575 0.686601
0.912695 0.407266 0.705478
0.965569 0.509696 0.701776
0.995474 0.605142 0.605794
0.080898 0.000201 0.669351
0.080604 0.000198 0.669202
0.080474 0.000197 0.669135
0.073129 0.000135 0.644294
0.696308 0.166626 0.627752
0.851123 0.344816 0.774465
0.921000 0.442025 0.719959
0.970370 0.527717 0.706086
0.996239 0.612267 0.603380
0.181945 0.158768 0.759513
0.180722 0.171698 0.763945
0.180049 0.177589 0.766009
0.143726 0.099843 0.714556
0.510747 0.167201 0.702876
0.860186 0.363411 0.767326
0.929531 0.486913 0.746199
0.979326 0.559749 0.710829
0.997560 0.626468 0.598187
0.247437 0.657903 0.853559
0.250139 0.661917 0.854026
0.211404 0.582264 0.845092
0.145572 0.485248 0.811729
0.387027 0.431809 0.803697
0.853132 0.498732 0.792071
0.957971 0.585990 0.782144
0.993368 0.615753 0.716582
0.999118 0.660193 0.583429
0.519406 0.848169 0.851704
0.497751 0.835239 0.829719
0.485300 0.826379 0.821162
0.465047 0.814695 0.806313
0.444656 0.783438 0.776636
0.784274 0.786930 0.785547
0.998052 0.754500 0.762660
0.998447 0.716659 0.691004
0.998468 0.732811 0.537469
0.651828 0.936923 0.788407
0.652006 0.936731 0.785293
0.651979 0.936705 0.784118
0.651741 0.936625 0.782013
0.656652 0.937765 0.775581
0.760603 0.947846 0.757602
0.963558 0.942570 0.613492
0.998336 0.867502 0.583428
0.998573 0.850547 0.407291
0.672066 0.932630 0.646171
0.676873 0.933236 0.646513
0.679040 0.933519 0.646596
0.685434 0.934562 0.645354
0.701781 0.937238 0.641843
0.755770 0.945909 0.631743
0.885882 0.968561 0.593380
0.995974 0.988583 0.473908
0.997400 0.983610 0.396136
0.761704 0.945421 0.587874
0.765880 0.946173 0.587457
0.767833 0.946526 0.587254
0.772125 0.947303 0.586775
0.783651 0.949375 0.585459
0.813347 0.954590 0.581848
0.881720 0.967287 0.562192
0.990315 0.985562 0.442942
0.996976 0.986641 0.425675
0.114016 0.015290 0.685325
0.113993 0.015276 0.685308
0.113984 0.015270 0.685301
0.113963 0.015257 0.685285
0.142402 0.027893 0.692767
0.841063 0.372761 0.825615
0.891757 0.383130 0.723353
0.890126 0.429288 0.767884
0.961199 0.597169 0.785920
0.113982 0.015269 0.685300
0.113960 0.015255 0.685283
0.113950 0.015249 0.685276
0.113930 0.015236 0.685260
0.259872 0.084263 0.724678
0.841084 0.372727 0.825547
0.892035 0.383012 0.722749
0.903502 0.477997 0.786866
0.966411 0.613455 0.789318
0.113968 0.015260 0.685289
0.113945 0.015246 0.685272
0.113936 0.015240 0.685265
0.113915 0.015227 0.685249
0.306600 0.105906 0.741369
0.841123 0.372683 0.825424
0.870476 0.389254 0.773416
0.908772 0.496715 0.792828
0.968309 0.620366 0.791270
0.113936 0.015240 0.685265
0.113914 0.015226 0.685249
0.113904 0.015220 0.685241
0.113884 0.015207 0.685226
0.353432 0.128878 0.759654
0.841020 0.372832 0.825754
0.872570 0.442424 0.819867
0.920176 0.532343 0.804389
0.972729 0.633523 0.793739
0.170811 0.429941 0.827809
0.172137 0.436259 0.828392
0.172719 0.439032 0.828647
0.173976 0.444519 0.829212
0.198056 0.332778 0.818621
0.785705 0.436754 0.852829
0.892630 0.547106 0.878301
0.942057 0.600848 0.822323
0.984668 0.665548 0.796917
0.418037 0.782230 0.862837
0.412111 0.779284 0.863078
0.384303 0.762784 0.861294
0.349251 0.743066 0.859881
0.302217 0.712697 0.858713
0.668945 0.710112 0.938778
0.939734 0.725263 0.933218
0.979968 0.709405 0.840765
0.996927 0.732113 0.800578
0.591014 0.892622 0.901174
0.586232 0.889752 0.898453
0.584856 0.889085 0.897752
0.580924 0.886676 0.895263
0.572905 0.881820 0.886958
0.637232 0.896347 0.891316
0.895806 0.897242 0.895528
0.998929 0.848786 0.846051
0.998959 0.825186 0.775210
0.651424 0.936100 0.820973
0.651484 0.936163 0.820342
0.651509 0.936191 0.820069
0.651557 0.936250 0.819503
0.656474 0.937320 0.818501
0.694276 0.945130 0.820773
0.825042 0.968541 0.824427
0.991727 0.990627 0.749128
0.998198 0.952513 0.686072
0.738192 0.948251 0.743826
0.741819 0.948934 0.743776
0.743412 0.949233 0.743751
0.746738 0.949858 0.743693
0.754551 0.951166 0.741794
0.772998 0.953958 0.734138
0.820180 0.961327 0.715266
0.929093 0.980371 0.671320
0.995380 0.989865 0.540215
0.127032 0.030979 0.694359
0.127034 0.030982 0.694361
0.127036 0.030983 0.694363
0.127038 0.030985 0.694365
0.127045 0.030992 0.694372
0.579522 0.229772 0.795613
0.854050 0.394027 0.817076
0.873919 0.387993 0.764427
0.896192 0.535180 0.856527
0.127036 0.030983 0.694363
0.127038 0.030986 0.694365
0.127040 0.030987 0.694367
0.127042 0.030989 0.694369
0.127049 0.030996 0.694376
0.634777 0.256453 0.800732
0.854286 0.393825 0.816361
0.870537 0.389383 0.773167
0.902639 0.556234 0.863484
0.127037 0.030985 0.694365
0.127040 0.030987 0.694367
0.127041 0.030989 0.694368
0.127044 0.030991 0.694371
0.127051 0.030998 0.694378
0.656070 0.267383 0.803432
0.854390 0.393736 0.816047
0.852498 0.394527 0.821190
0.905353 0.564583 0.865852
0.127041 0.030988 0.694368
0.127044 0.030991 0.694371
0.127045 0.030992 0.694372
0.127048 0.030995 0.694375
0.127055 0.031002 0.694382
0.696113 0.288468 0.809096
0.854605 0.393550 0.815391
0.857028 0.426418 0.842082
0.909904 0.580567 0.870099
0.132511 0.032875 0.697285
0.133614 0.033456 0.697358
0.134245 0.034124 0.697545
0.135735 0.035217 0.697857
0.141566 0.037889 0.699945
0.636783 0.257576 0.801028
0.845717 0.387233 0.829843
0.881879 0.514608 0.870534
0.921326 0.618646 0.879365
0.215833 0.595012 0.846348
0.216675 0.597604 0.846668
0.217048 0.598750 0.846809
0.217831 0.601160 0.847107
0.219965 0.607728 0.847919
0.356815 0.518084 0.866672
0.904947 0.612053 0.901498
0.921326 0.655994 0.912221
0.945294 0.695545 0.893964
0.642430 0.924526 0.920602
0.576468 0.883109 0.900765
0.528118 0.851225 0.885491
0.477180 0.817877 0.871542
0.454558 0.803789 0.866869
0.437780 0.786346 0.869960
0.787137 0.820072 0.975186
0.963762 0.813223 0.961630
0.982531 0.803889 0.911609
0.644963 0.925836 0.921801
0.644399 0.925570 0.921762
0.644147 0.925452 0.921744
0.643641 0.925213 0.921708
0.642291 0.924488 0.922246
0.648724 0.927943 0.924306
0.747159 0.954445 0.948473
0.957277 0.957239 0.956963
0.998749 0.922437 0.908083
0.669640 0.937633 0.883719
0.672717 0.938452 0.883654
0.674068 0.938812 0.883625
0.676890 0.939563 0.883564
0.684456 0.941577 0.883400
0.706352 0.947036 0.882971
0.766436 0.960817 0.881781
0.886131 0.982983 0.883816
0.995029 0.997155 0.800462
0.128319 0.032232 0.695519
0.128319 0.032232 0.695519
0.128319 0.032232 0.695519
0.128319 0.032232 0.695519
0.128319 0.032232 0.695519
0.128320 0.032233 0.695520
0.841020 0.372832 0.825754
0.844716 0.385412 0.829297
0.856935 0.392829 0.807081
0.128319 0.032232 0.695519
0.128319 0.032232 0.695519
0.128319 0.032232 0.695519
0.128319 0.032232 0.695519
0.128319 0.032232 0.695520
0.128320 0.032233 0.695520
0.841020 0.372832 0.825754
0.844731 0.385476 0.829276
0.846641 0.390749 0.831261
0.128319 0.032232 0.695519
0.128319 0.032232 0.695519
0.128319 0.032232 0.695519
0.128319 0.032232 0.695519
0.128319 0.032232 0.695520
0.128320 0.032233 0.695520
0.841020 0.372832 0.825754
0.844737 0.385504 0.829267
0.843264 0.379345 0.827697
0.128319 0.032232 0.695519
0.128319 0.032232 0.695519
0.128319 0.032232 0.695519
0.128319 0.032232 0.695519
0.128320 0.032232 0.695520
0.128320 0.032233 0.695520
0.841020 0.372832 0.825754
0.844751 0.385564 0.829247
0.845499 0.387761 0.830255
0.128319 0.032232 0.695520
0.128320 0.032232 0.695520
0.128320 0.032232 0.695520
0.128320 0.032233 0.695520
0.128320 0.032233 0.695520
0.128320 0.032233 0.695520
0.841020 0.372832 0.825754
0.844789 0.385727 0.829195
0.859670 0.439223 0.846984
0.145240 0.038518 0.701449
0.146220 0.039128 0.701873
0.146640 0.039389 0.702055
0.147496 0.039922 0.702424
0.148293 0.040609 0.702338
0.154973 0.042589 0.704638
0.749837 0.318157 0.815503
0.862202 0.448279 0.849164
0.895842 0.563707 0.886637
0.602324 0.899286 0.909699
0.602941 0.899680 0.909902
0.603215 0.899855 0.909992
0.603792 0.900223 0.910182
0.605376 0.901234 0.910703
0.609690 0.903989 0.912122
0.485007 0.623208 0.896913
0.937202 0.722725 0.934590
0.939653 0.728316 0.936109
0.647963 0.928690 0.919891
0.647963 0.928690 0.919891
0.647963 0.928690 0.919891
0.647963 0.928690 0.919891
0.647427 0.927970 0.920304
0.620647 0.910996 0.915109
0.603368 0.884379 0.911962
0.864231 0.889595 0.994195
0.980556 0.876145 0.980001
0.646627 0.926964 0.922541
0.646415 0.926930 0.922675
0.646321 0.926914 0.922733
0.646123 0.926881 0.922854
0.645579 0.926785 0.923171
0.649866 0.929109 0.924777
0.680948 0.938549 0.932031
0.807352 0.970867 0.963267
0.988743 0.993988 0.991786
