output/AppleLog2_display/AppleLog2_to_PRO-Neg.Std_33grid.cube
TITLE "AppleLog2_to_PRO-Neg.Std"
# Input: Apple Log 2 (Apple Gamut primaries, D65)
# Output: BT.709 / Gamma 2.2 (display-referred)
# Use: Display LUT for iPhone 17 Pro Apple Log 2 footage
# Source: FLog2C_to_PRO-Neg.Std_65grid_V.1.00.cube
# Generated from Fujifilm GFX ETERNA 55 F-Log2C LUT
LUT_3D_SIZE 5
0.000438 0.000379 0.000085
0.036441 0.008026 0.008700
0.861432 0.073214 0.304014
0.966102 0.257228 0.484735
0.973331 0.502727 0.277261
0.014276 0.088431 0.000229
0.092330 0.078547 0.002251
0.675683 0.109036 0.156369
0.969942 0.339139 0.426359
0.973135 0.530954 0.245711
0.012968 0.629179 0.000831
0.082231 0.485780 0.000697
0.523473 0.464440 0.000005
0.970514 0.511170 0.222209
0.972914 0.591453 0.170899
0.161773 0.998930 0.000438
0.303964 0.993661 0.000371
0.535318 0.980215 0.000013
0.957304 0.912741 0.000000
0.960379 0.816452 0.000125
0.693024 0.999611 0.000200
0.703349 0.999559 0.000184
0.727725 0.999435 0.000143
0.859067 0.999535 0.000329
0.950505 0.999695 0.000653
0.005434 0.001414 0.064870
0.004851 0.001474 0.061558
0.814814 0.069492 0.268910
0.966102 0.257228 0.484735
0.973428 0.501467 0.278697
0.018371 0.079396 0.090006
0.068936 0.070940 0.068521
0.648910 0.101216 0.163552
0.969584 0.334816 0.429618
0.973097 0.529809 0.246972
0.013568 0.697425 0.000250
0.040749 0.510260 0.000676
0.499207 0.468876 0.000012
0.970519 0.508885 0.224799
0.972923 0.590495 0.172224
0.145890 0.999068 0.000490
0.291018 0.994224 0.000356
0.528058 0.980391 0.000011
0.957284 0.912760 0.000000
0.960388 0.816216 0.000124
0.691933 0.999613 0.000202
0.702349 0.999564 0.000185
0.726768 0.999440 0.000145
0.858574 0.999530 0.000325
0.950505 0.999695 0.000653
0.034242 0.004693 0.343736
0.034072 0.004697 0.342053
0.736141 0.003350 0.460019
0.970074 0.271688 0.552722
0.973664 0.498350 0.282237
0.046955 0.016786 0.405083
0.044853 0.037703 0.417722
0.641559 0.035184 0.477558
0.982190 0.376524 0.612018
0.973004 0.526992 0.250083
0.033499 0.733467 0.719744
0.037355 0.569858 0.541781
0.484998 0.487720 0.484339
0.988166 0.521747 0.567913
0.972949 0.588139 0.175482
0.010606 0.999786 0.112035
0.083312 0.999881 0.102556
0.364935 0.998489 0.089552
0.943724 0.949792 0.104435
0.960411 0.815640 0.000121
0.689065 0.999611 0.000211
0.699904 0.999576 0.000187
0.724428 0.999452 0.000148
0.857372 0.999515 0.000317
0.950505 0.999695 0.000653
0.103774 0.035670 0.840230
0.103726 0.035627 0.840135
0.144860 0.019186 0.845840
0.978185 0.224617 0.753184
0.997557 0.525752 0.782625
0.103702 0.035606 0.840087
0.103654 0.035564 0.839992
0.315561 0.002892 0.855955
0.978699 0.185042 0.834929
0.999132 0.555539 0.784217
0.055307 0.507550 0.999781
0.053745 0.515529 0.999910
0.243727 0.403894 1.000000
0.999810 0.402845 0.977054
0.998496 0.616701 0.787282
0.020175 0.939488 0.893770
0.022259 0.932625 0.884419
0.105767 0.921919 0.875280
0.868307 0.870161 0.869261
0.994280 0.797622 0.763411
0.521466 0.999618 0.555564
0.534028 0.999615 0.554785
0.559744 0.999581 0.551291
0.692736 0.999610 0.510174
0.971006 0.999636 0.399904
0.142369 0.082989 0.929200
0.142369 0.082989 0.929200
0.142369 0.082989 0.929200
0.944256 0.000149 0.998724
0.979425 0.151713 0.894860
0.142369 0.082989 0.929200
0.142369 0.082989 0.929200
0.142369 0.082989 0.929200
0.966710 0.000056 0.998845
0.977727 0.054649 0.999641
0.142369 0.082989 0.929200
0.142369 0.082989 0.929200
0.142369 0.082989 0.929200
0.982035 0.000223 0.999543
0.997268 0.246133 0.999225
0.019274 0.957819 0.945856
0.019187 0.958485 0.945538
0.018978 0.960101 0.944766
0.535094 0.666728 0.999843
0.999582 0.665410 0.999552
0.031351 0.999605 0.924440
0.055576 0.999637 0.926571
0.111778 0.999712 0.931518
0.420102 0.999638 0.950876
0.982589 0.988086 0.985451
