output/AppleLog2_display/AppleLog2_to_Velvia_33grid.cube
TITLE "AppleLog2_to_Velvia"
# Input: Apple Log 2 (Apple Gamut primaries, D65)
# Output: BT.709 / Gamma 2.2 (display-referred)
# Use: Display LUT for iPhone 17 Pro Apple Log 2 footage
# Source: FLog2C_to_Velvia_65grid_V.1.00.cube
# Generated from Fujifilm GFX ETERNA 55 F-Log2C LUT
LUT_3D_SIZE 5
0.000000 0.000000 0.000000
0.008903 0.000168 0.000014
0.999963 0.030077 0.278317
0.999899 0.286792 0.492290
0.999940 0.541354 0.162735
0.000065 0.041329 0.000126
0.042938 0.025605 0.000069
0.882327 0.024078 0.026158
0.999717 0.381025 0.396273
0.999687 0.569034 0.109734
0.000067 0.729491 0.000217
0.000000 0.587592 0.000566
0.578614 0.515158 0.000002
0.999062 0.553622 0.073876
0.999375 0.625055 0.009502
0.000000 1.000000 0.000285
0.000000 1.000000 0.000285
0.117201 0.999937 0.000171
0.999059 0.902218 0.000035
0.999177 0.785545 0.000146
0.417126 0.999651 0.000387
0.443873 0.999697 0.000335
0.507144 0.999806 0.000215
0.834558 0.993140 0.000061
0.998709 0.968898 0.000086
0.000149 0.000017 0.027031
0.000138 0.000129 0.023566
0.999666 0.011541 0.218962
0.999899 0.286792 0.492290
0.999932 0.540218 0.164894
0.000304 0.026353 0.047884
0.017528 0.018440 0.015828
0.848276 0.010973 0.040606
0.999586 0.376251 0.401790
0.999706 0.567848 0.111997
0.000194 0.795311 0.000436
0.000041 0.610323 0.000382
0.546417 0.519902 0.000032
0.999083 0.551404 0.078315
0.999394 0.624207 0.009940
0.000000 1.000000 0.000285
0.000000 1.000000 0.000285
0.107340 0.999943 0.000180
0.999060 0.902246 0.000027
0.999179 0.785257 0.000145
0.413842 0.999647 0.000388
0.441360 0.999692 0.000341
0.504701 0.999801 0.000221
0.833328 0.993273 0.000062
0.998711 0.968900 0.000086
0.013340 0.000224 0.518353
0.013211 0.000214 0.515367
0.963949 0.000469 0.573179
0.999503 0.295111 0.576324
0.999911 0.537409 0.170226
0.025432 0.000039 0.614883
0.018776 0.000196 0.630383
0.827580 0.000001 0.625584
0.999952 0.398256 0.614537
0.999753 0.564929 0.117572
0.000040 0.761933 0.813083
0.000477 0.610417 0.619065
0.487485 0.491187 0.489794
0.999784 0.535875 0.533183
0.999442 0.622117 0.011000
0.000000 1.000000 0.000285
0.000000 1.000000 0.000285
0.000000 1.000000 0.000285
0.996643 0.957172 0.000000
0.999185 0.784554 0.000142
0.403715 0.999642 0.000379
0.435229 0.999679 0.000357
0.498740 0.999789 0.000235
0.830320 0.993599 0.000064
0.998716 0.968905 0.000086
0.281982 0.000085 0.999652
0.281760 0.000087 0.999652
0.296596 0.000016 0.999007
0.999636 0.209104 0.828751
0.999712 0.518878 0.780698
0.281649 0.000088 0.999652
0.281426 0.000091 0.999652
0.495382 0.000117 0.999955
0.999587 0.138120 0.946688
0.999598 0.546260 0.779031
0.196161 0.369624 0.999878
0.184664 0.383194 0.999952
0.379897 0.234306 0.999488
0.999720 0.356884 0.999549
0.999580 0.599816 0.773556
0.000538 0.950421 0.999357
0.000231 0.946888 0.998293
0.000563 0.939119 0.991946
0.873499 0.879280 0.878152
0.999607 0.794001 0.703869
0.000149 0.999797 0.409912
0.000177 0.999861 0.407534
0.028609 0.999942 0.397724
0.412034 0.999629 0.307889
0.998909 0.999726 0.081668
0.498754 0.000321 0.999948
0.498753 0.000321 0.999947
0.498752 0.000320 0.999947
1.000000 0.000000 0.999715
0.999453 0.070754 0.999307
0.498753 0.000320 0.999947
0.498752 0.000320 0.999947
0.498750 0.000319 0.999947
1.000000 0.000000 0.999715
1.000000 0.000000 0.999715
0.498750 0.000319 0.999947
0.498750 0.000318 0.999947
0.498748 0.000317 0.999947
1.000000 0.000000 0.999715
0.999815 0.104543 0.998941
0.000196 0.957140 0.999987
0.000190 0.957687 0.999987
0.000176 0.959014 0.999986
0.591351 0.558543 0.999939
0.999918 0.591638 0.999412
0.000573 0.986422 1.000000
0.000573 0.986422 1.000000
0.000573 0.986422 1.000000
0.021623 0.994375 0.999845
0.989724 0.995681 0.994543
