output/ProPhoto/ProPhoto_to_REALA-ACE_33grid.cube
TITLE "ProPhoto_to_REALA-ACE"
# Input: ProPhoto RGB, gamma 1.8 (D50)
# Output: ProPhoto RGB, gamma 1.8 (D50) with film simulation look
# Use: Photoshop 3D LUT adjustment layer on standard ProPhoto document
# Source: FLog2C_to_REALA-ACE_65grid_V.1.00.cube
# Generated from Fujifilm GFX ETERNA 55 F-Log2C LUT
LUT_3D_SIZE 9
0.000023 0.000016 0.000006
0.083545 0.032802 0.012443
0.408538 0.160410 0.066675
0.624071 0.267385 0.217042
0.661147 0.308484 0.350007
0.690907 0.362368 0.395405
0.694071 0.369016 0.399877
0.694071 0.369016 0.399877
0.694071 0.369016 0.399877
0.032273 0.055409 0.018193
0.049934 0.041338 0.013992
0.282888 0.111914 0.041957
0.500225 0.196438 0.088857
0.634145 0.276319 0.242810
0.659986 0.306670 0.348181
0.687064 0.354698 0.391171
0.694071 0.369016 0.399877
0.694071 0.369016 0.399877
0.137282 0.234643 0.077365
0.109682 0.188207 0.061797
0.214545 0.176284 0.059698
0.407431 0.209652 0.074759
0.565405 0.267144 0.098336
0.661024 0.333197 0.186302
0.676951 0.354507 0.273435
0.693326 0.379999 0.322982
0.706955 0.403455 0.364361
0.251825 0.401520 0.153194
0.215836 0.350772 0.127890
0.220105 0.309119 0.102122
0.366925 0.312937 0.105693
0.520332 0.336776 0.116530
0.652934 0.391989 0.138844
0.706202 0.438849 0.175738
0.716047 0.449339 0.218911
0.721718 0.456107 0.258180
0.358002 0.544421 0.232700
0.325458 0.502964 0.207192
0.296847 0.451391 0.174566
0.367565 0.434376 0.144302
0.509661 0.449585 0.151501
0.639243 0.482303 0.164436
0.738891 0.529266 0.184411
0.744145 0.542135 0.188347
0.743546 0.535103 0.192722
0.486462 0.679564 0.351459
0.450101 0.644195 0.315672
0.399487 0.591386 0.265120
0.422663 0.567183 0.216064
0.524605 0.568601 0.189465
0.647754 0.591954 0.199030
0.741924 0.610282 0.206653
0.776189 0.630277 0.213629
0.777946 0.632626 0.214401
0.608077 0.792099 0.475202
0.579908 0.766881 0.445937
0.532316 0.723338 0.397110
0.520503 0.693505 0.337882
0.567375 0.682576 0.250697
0.657401 0.679843 0.227049
0.747961 0.688801 0.231483
0.798982 0.694165 0.234156
0.799973 0.694857 0.234393
0.690757 0.862443 0.564574
0.676446 0.850812 0.548533
0.640821 0.820820 0.509822
0.607077 0.781876 0.448034
0.624670 0.763929 0.362623
0.676308 0.757932 0.261778
0.751142 0.754917 0.252455
0.813584 0.757432 0.254381
0.823733 0.756175 0.254174
0.710301 0.878477 0.585523
0.708652 0.877137 0.583682
0.702733 0.872229 0.577103
0.673992 0.843916 0.534070
0.679797 0.824927 0.464710
0.712471 0.819680 0.364210
0.756147 0.811068 0.271188
0.818358 0.809146 0.270822
0.842388 0.808192 0.270953
0.015090 0.006180 0.041420
0.061671 0.024262 0.032264
0.357695 0.140452 0.063318
0.591424 0.242486 0.168715
0.655357 0.298565 0.339403
0.685348 0.352557 0.387806
0.694071 0.369016 0.399877
0.694071 0.369016 0.399877
0.694071 0.369016 0.399877
0.052164 0.076880 0.073728
0.054756 0.055664 0.053336
0.251889 0.100759 0.055058
0.467723 0.183685 0.095317
0.623924 0.268716 0.213394
0.654165 0.296663 0.339554
0.676810 0.336352 0.374950
0.694068 0.369010 0.399871
0.694071 0.369016 0.399877
0.156097 0.264401 0.094584
0.118979 0.204215 0.067388
0.196025 0.181142 0.061099
0.385588 0.207886 0.075180
0.546169 0.253163 0.106126
0.656241 0.327779 0.202355
0.678876 0.356085 0.291250
0.692932 0.378598 0.330661
0.707093 0.404371 0.362650
0.278208 0.438199 0.172154
0.237274 0.381247 0.142921
0.218262 0.326112 0.109320
0.349578 0.321538 0.108066
0.499261 0.335685 0.115687
0.637865 0.384391 0.138577
0.711086 0.440609 0.208184
0.721938 0.455140 0.262731
0.728406 0.463177 0.295844
0.406548 0.599690 0.275081
0.358783 0.545201 0.233232
0.315309 0.483742 0.194569
0.362101 0.456715 0.153120
0.497075 0.464739 0.156041
0.624808 0.488995 0.166216
0.732239 0.530325 0.184075
0.751056 0.549660 0.205830
0.754606 0.548246 0.231697
0.543504 0.733721 0.408125
0.500009 0.692983 0.364612
0.439268 0.633193 0.305356
0.435857 0.598196 0.244918
0.517592 0.594419 0.198124
0.637932 0.610302 0.204642
0.733454 0.629013 0.212366
0.780657 0.642035 0.217408
0.781383 0.640219 0.217241
0.647027 0.825859 0.516459
0.619284 0.802180 0.487111
0.568688 0.757253 0.434029
0.542544 0.720718 0.376144
0.569973 0.701975 0.284194
0.646784 0.696344 0.232576
0.734945 0.701652 0.235301
0.804708 0.714899 0.240796
0.812282 0.727013 0.244759
0.707433 0.876050 0.582367
0.693454 0.864659 0.567138
0.665724 0.842017 0.536503
0.625153 0.801611 0.478558
0.632019 0.779535 0.401374
0.673228 0.771724 0.292166
0.737950 0.765113 0.255516
0.804450 0.766560 0.257096
0.828414 0.770747 0.258862
0.710308 0.878485 0.585530
0.710283 0.878459 0.585506
0.706431 0.875344 0.581318
0.689879 0.859689 0.557649
0.681694 0.833379 0.489212
0.712083 0.828370 0.403199
0.749880 0.822178 0.286568
0.805333 0.816402 0.272890
0.844109 0.816541 0.273625
0.089219 0.036556 0.244888
0.077978 0.031611 0.183561
0.295641 0.116360 0.172031
0.529392 0.208119 0.214933
0.650717 0.285203 0.368391
0.675185 0.324839 0.419467
0.698524 0.372025 0.435060
0.697153 0.371912 0.418751
0.694809 0.369846 0.404315
0.107415 0.084574 0.265262
0.076765 0.051434 0.197376
0.228949 0.094501 0.186782
0.439969 0.173070 0.203381
0.605295 0.250064 0.289293
0.662141 0.299027 0.418627
0.682260 0.333590 0.452972
0.702538 0.374159 0.468805
0.704887 0.380763 0.461231
0.193241 0.280990 0.282313
0.141181 0.207483 0.200995
0.198857 0.199438 0.198334
0.365758 0.205755 0.187556
0.528738 0.246213 0.215332
0.655282 0.321423 0.306292
0.689908 0.359035 0.405358
0.706972 0.388464 0.441641
0.723553 0.421691 0.463723
0.323194 0.503030 0.321234
0.257272 0.417272 0.234748
0.226539 0.353674 0.188130
0.343828 0.337019 0.178360
0.502516 0.354040 0.198425
0.639984 0.391759 0.244445
0.718696 0.439097 0.323208
0.734390 0.459773 0.389556
0.743292 0.474088 0.420681
0.473172 0.664660 0.396096
0.411608 0.603601 0.323438
0.342545 0.525318 0.249602
0.367633 0.486084 0.195035
0.500219 0.490318 0.193031
0.628755 0.507721 0.218734
0.737710 0.540512 0.265191
0.769313 0.558164 0.320718
0.775129 0.561655 0.365819
0.587249 0.773292 0.471748
0.546431 0.735941 0.425051
0.485129 0.677953 0.359487
0.459197 0.634172 0.291095
0.522194 0.621272 0.220419
0.635677 0.628390 0.219956
0.730864 0.639317 0.239070
0.791762 0.650879 0.270440
0.800108 0.652576 0.311995
0.676542 0.850763 0.550825
0.651787 0.829873 0.523096
0.606136 0.790520 0.473957
0.569875 0.751335 0.418665
0.591974 0.738043 0.342328
0.651712 0.733064 0.255649
0.733026 0.733268 0.246650
0.806090 0.737772 0.257092
0.823977 0.738431 0.279388
0.710308 0.878485 0.585530
0.710278 0.878465 0.585506
0.692332 0.863780 0.565644
0.663200 0.837981 0.529510
0.667616 0.821214 0.474128
0.702950 0.819442 0.390997
0.745133 0.813597 0.279741
0.806360 0.811781 0.271581
0.844618 0.811622 0.274838
0.710308 0.878485 0.585530
0.710308 0.878485 0.585530
0.710308 0.878485 0.585530
0.707769 0.876158 0.582069
0.710309 0.865526 0.549355
0.734772 0.860560 0.488042
0.772283 0.864551 0.393079
0.814466 0.867838 0.307852
0.861360 0.870989 0.291290
0.157431 0.065111 0.431801
0.132941 0.054537 0.364861
0.255366 0.101245 0.309890
0.477377 0.188040 0.321427
0.642069 0.277365 0.430468
0.663792 0.322191 0.524485
0.693655 0.358166 0.511662
0.715121 0.393556 0.513647
0.711639 0.388652 0.498082
0.179283 0.113285 0.466601
0.145942 0.083108 0.386470
0.221373 0.097917 0.345027
0.417688 0.165396 0.330729
0.585448 0.237362 0.378311
0.664246 0.313922 0.494579
0.678477 0.343383 0.528250
0.703213 0.377823 0.529986
0.720473 0.404929 0.534976
0.275738 0.331936 0.537040
0.197840 0.227307 0.402232
0.187248 0.187717 0.344301
0.365558 0.217183 0.345647
0.529686 0.255070 0.358755
0.661427 0.324632 0.424484
0.699953 0.369683 0.509850
0.717108 0.401206 0.536241
0.736651 0.439040 0.548026
0.398757 0.554963 0.567889
0.299968 0.436314 0.436725
0.239226 0.348493 0.345369
0.362835 0.364096 0.362372
0.512416 0.371785 0.361433
0.647510 0.403047 0.395161
0.730512 0.446412 0.455937
0.747906 0.467323 0.511900
0.758775 0.487532 0.533432
0.531756 0.706211 0.605196
0.465573 0.644140 0.524622
0.380277 0.558501 0.424863
0.395469 0.529342 0.376972
0.521263 0.519231 0.367346
0.646475 0.530782 0.383139
0.746348 0.550134 0.417436
0.785605 0.564113 0.462661
0.790829 0.569169 0.500439
0.626611 0.801097 0.638736
0.585829 0.765868 0.586963
0.525484 0.710930 0.512620
0.488167 0.663493 0.443388
0.539796 0.648778 0.374098
0.648213 0.646624 0.368158
0.741489 0.652877 0.389546
0.808638 0.660242 0.420459
0.817830 0.660958 0.456845
0.693267 0.860468 0.663838
0.668201 0.840080 0.630267
0.621754 0.800973 0.572164
0.582089 0.762685 0.516533
0.596267 0.745203 0.450554
0.656377 0.743060 0.373742
0.739000 0.742995 0.366565
0.812114 0.745565 0.388205
0.841120 0.745496 0.418648
0.718386 0.882570 0.659325
0.716793 0.881488 0.651239
0.694198 0.863442 0.619892
0.661650 0.836634 0.578059
0.658970 0.817061 0.525799
0.693568 0.814509 0.456657
0.745433 0.816418 0.377891
0.808839 0.816658 0.364967
0.854794 0.815485 0.385658
0.714510 0.881038 0.627956
0.714016 0.880288 0.624151
0.713676 0.880129 0.619041
0.710038 0.877230 0.610814
0.715623 0.873884 0.591045
0.738926 0.868784 0.542178
0.775260 0.872947 0.475716
0.815376 0.875827 0.395828
0.862412 0.874026 0.362409
0.204088 0.089003 0.555415
0.203807 0.088619 0.554877
0.233808 0.094007 0.455024
0.436173 0.176262 0.439631
0.603110 0.273726 0.495090
0.661420 0.339894 0.593469
0.671259 0.351825 0.582860
0.696402 0.382593 0.569347
0.710013 0.397388 0.558047
0.240652 0.162339 0.612990
0.225512 0.142244 0.585568
0.207186 0.096053 0.474741
0.397702 0.168719 0.457706
0.560328 0.252015 0.483407
0.666112 0.337506 0.561421
0.675618 0.364783 0.607295
0.694247 0.386097 0.588173
0.717330 0.416654 0.584149
0.348649 0.394882 0.703944
0.288560 0.303646 0.626101
0.211992 0.196120 0.488708
0.371996 0.235782 0.500288
0.531976 0.276809 0.498143
0.655421 0.347554 0.537569
0.699140 0.394954 0.593781
0.711927 0.419658 0.613845
0.733203 0.447852 0.608024
0.486402 0.623546 0.749443
0.368397 0.488373 0.636659
0.281243 0.362679 0.506480
0.362744 0.370074 0.513330
0.532284 0.397986 0.528107
0.660524 0.420539 0.541826
0.741684 0.461682 0.575738
0.756759 0.483167 0.613945
0.768524 0.503447 0.620975
0.576719 0.728922 0.740856
0.501265 0.658690 0.665157
0.410523 0.568671 0.569813
0.395380 0.523849 0.526668
0.544756 0.545062 0.544768
0.660223 0.547387 0.540758
0.756344 0.560003 0.559511
0.800800 0.572686 0.588445
0.805369 0.578042 0.617097
0.651007 0.808355 0.755554
0.612703 0.775739 0.711088
0.544438 0.714746 0.635502
0.501116 0.668052 0.578896
0.558757 0.668233 0.550567
0.659919 0.660639 0.533107
0.750028 0.660546 0.539769
0.819453 0.665403 0.558114
0.832361 0.665806 0.582838
0.697093 0.854889 0.758218
0.683508 0.844713 0.737623
0.645454 0.813610 0.690929
0.600318 0.773734 0.638079
0.606883 0.755352 0.589920
0.664901 0.750694 0.536480
0.746310 0.746915 0.523811
0.817403 0.748161 0.534506
0.854763 0.747787 0.553260
0.725557 0.882965 0.752019
0.720391 0.879135 0.741906
0.704312 0.866659 0.716818
0.675517 0.843557 0.681074
0.662827 0.819730 0.636084
0.695828 0.816484 0.585987
0.749765 0.818534 0.528729
0.812219 0.816653 0.513960
0.862643 0.814365 0.526059
0.728787 0.887564 0.728256
0.727820 0.887170 0.722531
0.725310 0.885702 0.712101
0.720638 0.882112 0.701239
0.712388 0.870780 0.675309
0.732757 0.864954 0.637356
0.769055 0.867561 0.583835
0.810300 0.868517 0.521886
0.857514 0.864950 0.496662
0.262393 0.147107 0.648864
0.262104 0.146591 0.648406
0.215835 0.091023 0.538390
0.399549 0.177659 0.534829
0.566600 0.273848 0.562608
0.663597 0.354328 0.632911
0.671382 0.371187 0.654822
0.687673 0.386855 0.623400
0.706594 0.410823 0.609384
0.302622 0.236180 0.709758
0.302388 0.235591 0.709495
0.219373 0.115603 0.564639
0.377792 0.182793 0.555836
0.540008 0.266792 0.566150
0.664732 0.357555 0.620503
0.678290 0.384001 0.666025
0.690556 0.397632 0.643981
0.710948 0.424130 0.630856
0.396689 0.444747 0.763543
0.396465 0.444305 0.763441
0.263092 0.234240 0.622115
0.364968 0.250544 0.612238
0.530418 0.311426 0.606278
0.646709 0.374219 0.623085
0.702099 0.419871 0.659448
0.712143 0.439528 0.681121
0.729226 0.460539 0.662521
0.508664 0.635349 0.804003
0.462021 0.574763 0.780421
0.338162 0.409366 0.654881
0.365991 0.382056 0.640556
0.542788 0.422319 0.661461
0.660660 0.451288 0.654957
0.738935 0.489722 0.669479
0.754133 0.506122 0.691134
0.764743 0.521560 0.691966
0.605645 0.743158 0.822676
0.542630 0.684270 0.769307
0.437404 0.579323 0.680092
0.399614 0.520047 0.637776
0.532846 0.542056 0.659819
0.672574 0.564323 0.673251
0.761357 0.573494 0.675357
0.807637 0.587223 0.688625
0.808867 0.592599 0.706131
0.648062 0.793076 0.810678
0.623883 0.772528 0.782904
0.560967 0.716222 0.720584
0.503840 0.659357 0.665051
0.542850 0.652912 0.657247
0.668345 0.670261 0.668192
0.757656 0.669363 0.665748
0.827816 0.672749 0.672433
0.847026 0.673501 0.686703
0.687315 0.836392 0.806737
0.675793 0.827367 0.791404
0.649470 0.805478 0.759519
0.610762 0.771643 0.718461
0.607230 0.751143 0.686612
0.671741 0.759543 0.669562
0.754179 0.753695 0.655264
0.823262 0.752561 0.657262
0.866664 0.750523 0.665275
0.718584 0.868648 0.803414
0.710134 0.862214 0.792467
0.694365 0.850045 0.771371
0.676974 0.836654 0.748177
0.664888 0.819290 0.719752
0.698888 0.819600 0.692409
0.751813 0.819386 0.653638
0.814764 0.815980 0.638683
0.865279 0.809757 0.639922
0.739127 0.889915 0.794598
0.735602 0.887570 0.788464
0.725438 0.880201 0.773715
0.712576 0.870020 0.757088
0.707958 0.864448 0.740198
0.723436 0.857902 0.712861
0.760344 0.860574 0.676232
0.804847 0.861030 0.632251
0.853497 0.856067 0.613445
0.290978 0.202894 0.693884
0.290758 0.202332 0.693561
0.244170 0.123217 0.616536
0.373186 0.182988 0.610622
0.541710 0.279762 0.630194
0.659898 0.366855 0.676132
0.676746 0.391585 0.712502
0.685451 0.398889 0.679410
0.703427 0.419606 0.657460
0.327485 0.294054 0.732101
0.327252 0.293477 0.731971
0.270454 0.176481 0.662077
0.363977 0.199722 0.631486
0.527912 0.285197 0.642274
0.650584 0.368544 0.676864
0.684019 0.402315 0.709281
0.692865 0.414321 0.699666
0.708677 0.434315 0.678079
0.417627 0.485558 0.772652
0.417416 0.485155 0.772556
0.330608 0.315143 0.726105
0.362927 0.274572 0.688208
0.527276 0.339096 0.686683
0.641903 0.398342 0.693469
0.710023 0.445515 0.716669
0.715522 0.458103 0.731660
0.729445 0.474495 0.712247
0.506557 0.634401 0.803823
0.506407 0.634217 0.803793
0.403363 0.474860 0.754684
0.379087 0.403082 0.721519
0.530669 0.433898 0.738159
0.660870 0.479589 0.736877
0.735083 0.511892 0.735456
0.758658 0.528730 0.748958
0.764260 0.537055 0.745005
0.594420 0.730442 0.823314
0.571301 0.706743 0.816918
0.480826 0.610564 0.768480
0.418563 0.532253 0.718762
0.519983 0.540509 0.749839
0.670771 0.576708 0.767950
0.757209 0.591704 0.759915
0.803345 0.606879 0.761291
0.806388 0.610034 0.769662
0.642921 0.779535 0.843466
0.616745 0.755133 0.822579
0.576486 0.719856 0.780241
0.516631 0.662325 0.731332
0.525465 0.638052 0.731981
0.660012 0.667702 0.761052
0.764085 0.679463 0.766667
0.832395 0.682203 0.764425
0.853158 0.682824 0.769240
0.676831 0.817752 0.841547
0.666776 0.810337 0.825858
0.641395 0.788478 0.797440
0.611504 0.762079 0.766547
0.596047 0.735601 0.741782
0.661447 0.750617 0.755932
0.759239 0.759838 0.759404
0.826300 0.755835 0.752110
0.874799 0.753028 0.751226
0.707611 0.850844 0.837415
0.700001 0.845312 0.826997
0.683678 0.832321 0.805849
0.667462 0.819886 0.785091
0.655255 0.805183 0.765751
0.688810 0.809282 0.759923
0.747570 0.817379 0.745426
0.811646 0.811814 0.732557
0.864478 0.805687 0.728248
0.731674 0.876766 0.831468
0.726671 0.872787 0.823495
0.714280 0.863127 0.808811
0.700648 0.852727 0.791475
0.700198 0.852574 0.782045
0.711759 0.847067 0.765814
0.751060 0.852791 0.746391
0.796826 0.853031 0.718080
0.847150 0.847860 0.704220
0.315408 0.263858 0.724659
0.315177 0.263277 0.724494
0.287764 0.194475 0.689043
0.355003 0.192103 0.668933
0.524067 0.287884 0.688427
0.648161 0.374103 0.719230
0.684061 0.407949 0.745688
0.690047 0.416341 0.732795
0.702638 0.430937 0.703824
0.353228 0.353138 0.745285
0.352984 0.352590 0.745183
0.312354 0.255986 0.721520
0.355239 0.218869 0.690929
0.519429 0.303085 0.703753
0.640301 0.380250 0.725073
0.691697 0.421582 0.746178
0.698828 0.433184 0.750220
0.710936 0.447720 0.722841
0.428490 0.506656 0.777505
0.428338 0.506372 0.777434
0.371291 0.392062 0.753206
0.366358 0.305535 0.744209
0.522299 0.362325 0.745215
0.640234 0.419806 0.749221
0.716218 0.467316 0.760047
0.723401 0.476816 0.771086
0.732768 0.489536 0.755748
0.501033 0.625992 0.802982
0.500917 0.625832 0.802952
0.441768 0.531295 0.783563
0.400955 0.435241 0.765387
0.518450 0.447485 0.787600
0.654754 0.498216 0.789069
0.733052 0.530844 0.786491
0.763778 0.546792 0.790803
0.767419 0.552991 0.789981
0.582278 0.717992 0.819327
0.582212 0.717924 0.819306
0.509806 0.638664 0.804700
0.454565 0.561994 0.781138
0.514110 0.547706 0.799658
0.657732 0.580132 0.822343
0.751749 0.607324 0.816721
0.802707 0.623977 0.811496
0.807465 0.624805 0.812523
0.632743 0.769302 0.839083
0.615554 0.752000 0.830967
0.580570 0.716668 0.817101
0.535261 0.672253 0.789827
0.530684 0.640391 0.787466
0.643150 0.661258 0.825880
0.761793 0.687637 0.838126
0.825686 0.694800 0.828407
0.850606 0.696091 0.821522
0.671111 0.807305 0.858887
0.651264 0.788244 0.845394
0.630197 0.769682 0.823989
0.605962 0.748766 0.797778
0.580330 0.717548 0.775479
0.636333 0.728294 0.805363
0.748169 0.754678 0.827822
0.824852 0.756877 0.828160
0.872799 0.752607 0.816996
0.697112 0.834676 0.862607
0.688005 0.827640 0.850822
0.672818 0.815418 0.831343
0.654334 0.800108 0.809902
0.642123 0.787755 0.793734
0.665824 0.787151 0.794990
0.731268 0.804405 0.809488
0.805765 0.806993 0.806041
0.860277 0.801702 0.797490
0.722968 0.862498 0.857493
0.716810 0.858119 0.848934
0.702713 0.846813 0.832988
0.690219 0.836800 0.817883
0.688899 0.836881 0.809023
0.695876 0.830831 0.798874
0.736834 0.840715 0.798494
0.788557 0.846985 0.786951
0.841697 0.841342 0.776309
0.341001 0.325846 0.739729
0.340772 0.325319 0.739627
0.339062 0.321357 0.738768
0.331300 0.203641 0.692121
0.508656 0.297985 0.729093
0.633763 0.378662 0.749717
0.690892 0.421630 0.763014
0.696594 0.432030 0.767661
0.706730 0.445786 0.747802
0.372620 0.395138 0.753683
0.372430 0.394735 0.753599
0.364564 0.378047 0.749691
0.335736 0.239488 0.713375
0.506986 0.316853 0.741686
0.630991 0.390745 0.758633
0.699041 0.438894 0.772155
0.705459 0.447411 0.776390
0.715489 0.462499 0.762965
0.429952 0.509560 0.777914
0.429826 0.509321 0.777858
0.414295 0.479389 0.771541
0.357668 0.337816 0.750586
0.503799 0.374038 0.771600
0.634623 0.435984 0.785263
0.716240 0.483170 0.793340
0.731081 0.494314 0.797253
0.737942 0.505033 0.792417
0.493728 0.615985 0.801125
0.493621 0.615840 0.801098
0.465650 0.574020 0.793777
0.410542 0.469839 0.770081
0.502335 0.459098 0.815431
0.644338 0.510171 0.823000
0.729600 0.545324 0.823801
0.770503 0.564313 0.823817
0.772414 0.567993 0.824409
0.566049 0.701368 0.815869
0.565963 0.701279 0.815851
0.522812 0.653793 0.807398
0.475155 0.588387 0.795857
0.511715 0.560725 0.820570
0.639412 0.583612 0.854472
0.746320 0.620418 0.857419
0.802334 0.638740 0.849055
0.811832 0.638812 0.847301
0.618655 0.755356 0.832193
0.618600 0.755300 0.832167
0.580796 0.716730 0.819396
0.541503 0.675020 0.811109
0.529193 0.641148 0.816174
0.627354 0.655803 0.859804
0.750033 0.690025 0.883773
0.816671 0.702284 0.870938
0.848051 0.703785 0.858512
0.667020 0.803157 0.856555
0.646773 0.782831 0.846694
0.619933 0.756543 0.832806
0.600570 0.737514 0.822041
0.574726 0.709043 0.806405
0.615940 0.709627 0.836279
0.728306 0.741827 0.874773
0.813335 0.753899 0.877213
0.863624 0.754295 0.864371
0.690735 0.825706 0.869973
0.678901 0.814655 0.863758
0.660125 0.797881 0.848189
0.642836 0.782334 0.830468
0.633419 0.774732 0.816303
0.640676 0.762817 0.814609
0.707185 0.783292 0.847829
0.791843 0.797681 0.858491
0.853022 0.796634 0.854985
0.713039 0.848164 0.876977
0.705736 0.842582 0.868796
0.692306 0.831500 0.852548
0.678325 0.820035 0.836615
0.671802 0.815889 0.825342
0.677170 0.812611 0.820083
0.715171 0.820765 0.829713
0.775709 0.835244 0.839516
0.834099 0.835253 0.835181
