output/ProPhoto/ProPhoto_to_PROVIA_33grid.cube
TITLE "ProPhoto_to_PROVIA"
# Input: ProPhoto RGB, gamma 1.8 (D50)
# Output: ProPhoto RGB, gamma 1.8 (D50) with film simulation look
# Use: Photoshop 3D LUT adjustment layer on standard ProPhoto document
# Source: FLog2C_to_PROVIA_65grid_V.1.00.cube
# Generated from Fujifilm GFX ETERNA 55 F-Log2C LUT
LUT_3D_SIZE 5
0.000066 0.000051 0.000019
0.449017 0.176655 0.090154
0.722425 0.298814 0.370810
0.734594 0.345967 0.403826
0.734594 0.345967 0.403826
0.130402 0.223884 0.073510
0.197066 0.166016 0.056120
0.633587 0.296209 0.108370
0.723050 0.343022 0.273287
0.736732 0.378140 0.357677
0.337396 0.579267 0.190196
0.280059 0.480073 0.157632
0.536815 0.477386 0.160785
0.759486 0.525372 0.180544
0.758040 0.516990 0.184615
0.471435 0.809395 0.265756
0.433450 0.744180 0.244344
0.520371 0.684747 0.226411
0.737260 0.673414 0.226425
0.806133 0.676740 0.228820
0.536801 0.921620 0.302604
0.522077 0.896342 0.294304
0.512330 0.825343 0.271371
0.713032 0.784699 0.261257
0.837276 0.777871 0.261277
0.080340 0.033889 0.219111
0.316054 0.124377 0.178315
0.722028 0.285627 0.391211
0.737084 0.345466 0.435916
0.734913 0.346050 0.407722
0.238745 0.344416 0.355199
0.194459 0.195107 0.194217
0.589972 0.283602 0.248778
0.733562 0.344760 0.399296
0.747614 0.387398 0.453427
0.395826 0.667053 0.287713
0.321824 0.546568 0.213512
0.501507 0.495652 0.193713
0.733110 0.520968 0.248431
0.771523 0.530174 0.342065
0.496226 0.851926 0.279911
0.460059 0.789864 0.259344
0.484419 0.714727 0.235517
0.702910 0.700088 0.235072
0.813732 0.699408 0.259099
0.540281 0.927595 0.304566
0.537386 0.922625 0.302934
0.511926 0.877040 0.287980
0.677877 0.827218 0.274245
0.829479 0.831135 0.277984
0.258709 0.125528 0.695932
0.269692 0.108834 0.470687
0.700160 0.276147 0.554252
0.753190 0.303844 0.637889
0.753773 0.355831 0.569104
0.408083 0.462284 0.839461
0.274904 0.266884 0.581534
0.583059 0.294205 0.527924
0.756782 0.353051 0.594982
0.766979 0.394581 0.611439
0.522829 0.749208 0.789391
0.414914 0.599271 0.615648
0.513743 0.514160 0.513968
0.730715 0.525825 0.518728
0.794870 0.534899 0.568469
0.557251 0.864950 0.671322
0.509887 0.801270 0.584980
0.490625 0.720090 0.498589
0.695010 0.698756 0.476208
0.825965 0.700515 0.501102
0.572728 0.929966 0.558525
0.558376 0.913391 0.520013
0.528596 0.868526 0.477700
0.659207 0.828377 0.440435
0.808366 0.818101 0.451754
0.362985 0.244128 0.926452
0.331301 0.166696 0.856183
0.642980 0.258069 0.745975
0.779816 0.313921 0.809828
0.771068 0.350643 0.706913
0.463980 0.531500 0.945701
0.392834 0.375209 0.900149
0.578571 0.320389 0.759643
0.783523 0.374810 0.761581
0.788128 0.396613 0.762879
0.581154 0.788695 0.971624
0.505546 0.659887 0.895801
0.533235 0.545233 0.761935
0.737151 0.540187 0.725237
0.819695 0.547428 0.739295
0.602661 0.859088 0.920138
0.567728 0.817447 0.848259
0.528781 0.740668 0.762725
0.708432 0.709685 0.708817
0.838624 0.706675 0.699402
0.603832 0.903194 0.820246
0.588476 0.886794 0.782357
0.565593 0.858909 0.734416
0.654993 0.817716 0.677407
0.801706 0.806171 0.658928
0.402583 0.363229 0.933346
0.400875 0.358093 0.933009
0.604772 0.266265 0.919359
0.800035 0.333632 0.914047
0.796648 0.355123 0.869776
0.481083 0.571529 0.949128
0.462617 0.528143 0.945604
0.567729 0.361969 0.925995
0.783701 0.397778 0.896668
0.812782 0.412548 0.898916
0.570629 0.766819 0.969113
0.543226 0.708950 0.962792
0.546453 0.583260 0.929232
0.740789 0.561603 0.872182
0.842111 0.565333 0.863589
0.613176 0.854433 0.979120
0.594989 0.817404 0.974550
0.555196 0.751266 0.920371
0.704444 0.714537 0.854282
0.836080 0.705090 0.828716
0.625969 0.888429 0.964401
0.610682 0.871682 0.929778
0.589697 0.847470 0.884777
0.647552 0.808571 0.823856
0.793545 0.795954 0.794080
