output/ProPhoto/ProPhoto_to_CLASSIC-CHROME_33grid.cube
TITLE "ProPhoto_to_CLASSIC-CHROME"
# Input: ProPhoto RGB, gamma 1.8 (D50)
# Output: ProPhoto RGB, gamma 1.8 (D50) with film simulation look
# Use: Photoshop 3D LUT adjustment layer on standard ProPhoto document
# Source: FLog2C_to_CLASSIC-CHROME_65grid_V.1.00.cube
# Generated from Fujifilm GFX ETERNA 55 F-Log2C LUT
LUT_3D_SIZE 5
0.000020 0.000013 0.000007
0.416926 0.164970 0.074034
0.696698 0.339062 0.320218
0.713467 0.403390 0.382491
0.713467 0.403390 0.382491
0.102941 0.176737 0.058030
0.178462 0.133682 0.045606
0.575555 0.292223 0.118922
0.704400 0.398434 0.285404
0.720195 0.440496 0.367783
0.304131 0.522096 0.171427
0.272796 0.437929 0.144006
0.530717 0.467121 0.158565
0.712691 0.541692 0.190717
0.742963 0.566957 0.259451
0.409651 0.702945 0.230979
0.385395 0.656232 0.215664
0.561786 0.650199 0.218221
0.713162 0.674938 0.233561
0.780249 0.699626 0.246949
0.465050 0.797708 0.262348
0.448906 0.769379 0.252970
0.579212 0.757731 0.254761
0.724014 0.770448 0.267724
0.810621 0.788440 0.281514
0.051196 0.021286 0.140361
0.270820 0.106471 0.108197
0.688712 0.295276 0.310617
0.716697 0.404006 0.405219
0.713627 0.403519 0.385115
0.223023 0.320261 0.335165
0.171573 0.171843 0.171258
0.540687 0.284732 0.236702
0.712345 0.397119 0.379890
0.730852 0.453433 0.442352
0.374305 0.612677 0.345565
0.309742 0.511273 0.252984
0.518356 0.501091 0.261229
0.697202 0.550220 0.334356
0.763151 0.592608 0.428614
0.440524 0.747469 0.292176
0.409873 0.698280 0.258237
0.533073 0.675059 0.263701
0.698779 0.691749 0.314771
0.793307 0.718501 0.390861
0.484477 0.830791 0.274094
0.466879 0.800760 0.263836
0.535529 0.775482 0.260242
0.701523 0.784786 0.285616
0.798556 0.800045 0.337590
0.203520 0.099889 0.549338
0.192600 0.078769 0.348871
0.615909 0.249024 0.413025
0.714036 0.334664 0.502467
0.730282 0.416462 0.505758
0.365165 0.445058 0.701859
0.236165 0.249466 0.494543
0.530916 0.300624 0.453342
0.719733 0.396386 0.522139
0.745959 0.462970 0.555678
0.488537 0.699409 0.736322
0.397503 0.572849 0.591541
0.533030 0.533418 0.533168
0.705454 0.567309 0.549624
0.784984 0.605996 0.598045
0.521999 0.787204 0.687685
0.482893 0.735020 0.618969
0.544315 0.697950 0.568650
0.718366 0.714116 0.580350
0.815265 0.734989 0.611651
0.537772 0.839400 0.627751
0.520940 0.818076 0.593949
0.542483 0.790921 0.564026
0.721357 0.805534 0.581422
0.817912 0.816144 0.604628
0.310890 0.219922 0.790132
0.245555 0.131605 0.655757
0.554546 0.234421 0.563317
0.727611 0.331980 0.614402
0.737356 0.406993 0.590479
0.434031 0.518116 0.851472
0.335311 0.355964 0.723223
0.516316 0.328098 0.620384
0.713030 0.404654 0.632834
0.759133 0.464273 0.650795
0.539228 0.737012 0.887190
0.463587 0.627568 0.776204
0.526609 0.560769 0.694199
0.709399 0.583889 0.684014
0.802888 0.618118 0.702300
0.557369 0.798217 0.837482
0.525180 0.754348 0.784740
0.540613 0.712962 0.733893
0.727149 0.728110 0.727327
0.823439 0.744222 0.733202
0.567429 0.837483 0.791850
0.551427 0.816668 0.763377
0.539366 0.788029 0.727932
0.712917 0.802599 0.731566
0.818678 0.815369 0.738316
0.386365 0.352289 0.904338
0.384150 0.347106 0.902670
0.498272 0.243366 0.696387
0.716454 0.342131 0.692484
0.751046 0.408053 0.684198
0.464350 0.555847 0.908215
0.445376 0.515525 0.898782
0.481882 0.363810 0.738836
0.697310 0.422061 0.721755
0.772555 0.477912 0.732667
0.539726 0.722791 0.918076
0.510478 0.673821 0.887797
0.504107 0.585534 0.796740
0.705729 0.602744 0.771208
0.810266 0.631772 0.775014
0.581453 0.810386 0.922030
0.546957 0.760815 0.872072
0.522725 0.713960 0.818629
0.711692 0.730382 0.803819
0.816590 0.743341 0.800723
0.584144 0.835749 0.877674
0.567519 0.813947 0.849185
0.546088 0.784348 0.813515
0.683420 0.791530 0.803734
0.806813 0.808545 0.806807
