output/ProPhoto/ProPhoto_to_ETERNA-BB_33grid.cube
TITLE "ProPhoto_to_ETERNA-BB"
# Input: ProPhoto RGB, gamma 1.8 (D50)
# Output: ProPhoto RGB, gamma 1.8 (D50) with film simulation look
# Use: Photoshop 3D LUT adjustment layer on standard ProPhoto document
# Source: FLog2C_to_ETERNA-BB_65grid_V.1.00.cube
# Generated from Fujifilm GFX ETERNA 55 F-Log2C LUT
LUT_3D_SIZE 9
0.000037 0.000030 0.000018
0.049394 0.021295 0.013738
0.236749 0.100436 0.064738
0.390469 0.180687 0.140146
0.472494 0.261275 0.222561
0.538842 0.346462 0.301985
0.548090 0.358862 0.311965
0.548090 0.358862 0.311965
0.548090 0.358862 0.311965
0.026657 0.044266 0.017384
0.042068 0.041911 0.019302
0.146012 0.071417 0.039919
0.301580 0.132662 0.089445
0.406917 0.193990 0.153474
0.470135 0.258353 0.219505
0.529262 0.334370 0.291588
0.548090 0.358862 0.311965
0.548090 0.358862 0.311965
0.082257 0.136565 0.052395
0.074239 0.108898 0.044601
0.123081 0.113803 0.050969
0.251007 0.149385 0.078003
0.374988 0.212239 0.128891
0.474267 0.292206 0.207182
0.534056 0.351883 0.264174
0.562318 0.384383 0.302105
0.590840 0.417753 0.339281
0.177036 0.291825 0.115670
0.156635 0.249538 0.100478
0.176802 0.228858 0.103329
0.273282 0.250893 0.123298
0.402642 0.309626 0.174343
0.516238 0.388103 0.233429
0.597916 0.460303 0.286339
0.633251 0.492970 0.328701
0.639210 0.495972 0.350087
0.270488 0.436888 0.183260
0.254463 0.403265 0.170781
0.266760 0.376745 0.172214
0.346321 0.392476 0.202258
0.467719 0.447697 0.245625
0.577732 0.512858 0.300689
0.650707 0.566196 0.337913
0.698672 0.606711 0.362388
0.697942 0.599868 0.363990
0.345405 0.552388 0.237978
0.338542 0.531667 0.231757
0.354976 0.514329 0.236245
0.428739 0.531363 0.267451
0.535589 0.574403 0.312540
0.632804 0.624587 0.349385
0.697357 0.661002 0.375357
0.740404 0.688570 0.394293
0.755958 0.698599 0.399730
0.390838 0.622817 0.270043
0.394146 0.615256 0.271012
0.417855 0.611926 0.281181
0.489014 0.631415 0.313649
0.585240 0.670874 0.348420
0.671704 0.707948 0.379564
0.730875 0.735492 0.399155
0.767881 0.754495 0.412582
0.790343 0.766137 0.420228
0.419994 0.667826 0.290555
0.429697 0.668660 0.295386
0.457244 0.671957 0.308397
0.527748 0.700211 0.337372
0.616572 0.736759 0.368837
0.698177 0.768908 0.395979
0.751508 0.789205 0.412716
0.786611 0.803582 0.423617
0.810342 0.811980 0.430423
0.441532 0.697641 0.304732
0.452235 0.699873 0.310746
0.483316 0.712163 0.326285
0.552883 0.744534 0.353385
0.635699 0.779047 0.381408
0.711502 0.809325 0.406191
0.764374 0.826843 0.421068
0.797509 0.837378 0.429545
0.819637 0.844163 0.435030
0.010020 0.005147 0.025223
0.038983 0.016418 0.028682
0.197428 0.083359 0.060668
0.363302 0.162388 0.121242
0.458765 0.243894 0.204691
0.526271 0.330538 0.288149
0.548090 0.358862 0.311965
0.548090 0.358862 0.311965
0.548090 0.358862 0.311965
0.041534 0.059008 0.056357
0.048492 0.049117 0.048034
0.134961 0.071764 0.062767
0.283655 0.127128 0.094888
0.390611 0.184243 0.145268
0.456842 0.241792 0.202408
0.507834 0.306744 0.266146
0.547789 0.358482 0.312097
0.548090 0.358862 0.311965
0.115829 0.182117 0.109823
0.092100 0.132756 0.084326
0.129306 0.125987 0.083054
0.248988 0.156124 0.107544
0.372720 0.216316 0.158305
0.468479 0.289466 0.219975
0.539605 0.357290 0.276213
0.565380 0.387627 0.307768
0.592956 0.421716 0.342957
0.222541 0.352854 0.182320
0.188871 0.294834 0.150011
0.197929 0.260086 0.141991
0.283521 0.274031 0.159849
0.408315 0.324714 0.206752
0.521909 0.397883 0.267947
0.603163 0.466149 0.324120
0.646269 0.507504 0.361332
0.651870 0.511767 0.375294
0.311481 0.491444 0.241081
0.287198 0.449145 0.218007
0.292236 0.414520 0.209194
0.360854 0.421475 0.230578
0.473972 0.468023 0.270779
0.582035 0.526567 0.323429
0.656469 0.575784 0.364392
0.709276 0.615963 0.394957
0.722611 0.623591 0.407935
0.368761 0.584951 0.267576
0.357065 0.561848 0.254204
0.370486 0.542171 0.253860
0.433910 0.551612 0.275791
0.534516 0.589561 0.317460
0.628153 0.632762 0.352120
0.694988 0.667749 0.380376
0.740511 0.695351 0.406138
0.767039 0.711788 0.425023
0.402113 0.640462 0.277983
0.399918 0.630268 0.275702
0.422678 0.625693 0.286111
0.487148 0.642869 0.314486
0.578506 0.678818 0.348649
0.665677 0.714889 0.378375
0.725400 0.741297 0.399077
0.764999 0.759196 0.412809
0.790449 0.771443 0.421651
0.425456 0.677177 0.293985
0.429926 0.674622 0.296434
0.456989 0.678970 0.310218
0.520362 0.703515 0.335416
0.607312 0.740083 0.367245
0.687442 0.771035 0.394184
0.745684 0.793392 0.411162
0.781812 0.806610 0.423011
0.805336 0.815269 0.429540
0.441114 0.700534 0.304831
0.449123 0.702023 0.309567
0.478659 0.713009 0.324502
0.540037 0.741906 0.348897
0.623394 0.778148 0.378557
0.700985 0.808778 0.403089
0.755798 0.827707 0.418529
0.791892 0.839841 0.428236
0.816113 0.847777 0.434727
0.033942 0.023153 0.078024
0.039009 0.018535 0.061311
0.150721 0.062091 0.083219
0.321670 0.136578 0.127606
0.428287 0.207195 0.194400
0.495419 0.285518 0.266876
0.554288 0.363338 0.331968
0.552887 0.363789 0.323999
0.549290 0.360044 0.315058
0.079724 0.087965 0.149366
0.061774 0.062862 0.098052
0.128113 0.077533 0.102331
0.271524 0.127080 0.130201
0.384418 0.182709 0.179226
0.458912 0.239078 0.236115
0.509145 0.299721 0.294041
0.561152 0.366732 0.352408
0.569727 0.379278 0.357617
0.197215 0.274223 0.269754
0.129915 0.177256 0.173471
0.150203 0.150480 0.149583
0.257895 0.172514 0.164354
0.379768 0.228983 0.210917
0.475319 0.295057 0.269977
0.553253 0.365265 0.331472
0.592030 0.410190 0.373366
0.623603 0.450349 0.412185
0.306790 0.446483 0.353904
0.250078 0.365670 0.277920
0.243983 0.313727 0.236657
0.317362 0.316314 0.244331
0.436384 0.358617 0.283238
0.542781 0.420987 0.339395
0.617538 0.478100 0.389470
0.668560 0.523030 0.428397
0.682177 0.537485 0.447072
0.383389 0.568759 0.406275
0.349760 0.519961 0.357227
0.347641 0.477569 0.324802
0.407755 0.476588 0.332594
0.509436 0.510590 0.363718
0.609333 0.555479 0.401473
0.678120 0.593333 0.435245
0.725723 0.625252 0.460814
0.750035 0.642910 0.478461
0.426873 0.641834 0.426199
0.407923 0.614655 0.395369
0.420383 0.595734 0.378367
0.476683 0.599215 0.389006
0.567243 0.628810 0.417712
0.655555 0.663491 0.442002
0.718090 0.691193 0.462981
0.758932 0.709799 0.480111
0.786502 0.723952 0.495025
0.449205 0.682099 0.425768
0.443002 0.670643 0.409576
0.462431 0.665727 0.403360
0.518186 0.680563 0.414236
0.602988 0.710304 0.439334
0.683571 0.738785 0.464294
0.741432 0.759404 0.478512
0.779708 0.773839 0.489602
0.805279 0.782640 0.498926
0.461250 0.707481 0.413662
0.460021 0.702037 0.404590
0.484291 0.707936 0.404336
0.538915 0.728651 0.418758
0.620181 0.759953 0.442978
0.697678 0.787690 0.466887
0.754282 0.805821 0.481711
0.792303 0.818329 0.491997
0.816021 0.824591 0.499596
0.467889 0.724675 0.395964
0.470219 0.722665 0.391840
0.496842 0.734000 0.396904
0.550056 0.758700 0.413084
0.626881 0.790336 0.437268
0.702321 0.819017 0.459968
0.759862 0.837625 0.475875
0.797214 0.848482 0.486216
0.822799 0.855348 0.493470
0.085052 0.058549 0.195275
0.064281 0.041957 0.147213
0.130451 0.059500 0.127545
0.286096 0.120499 0.156910
0.400523 0.179989 0.215904
0.473100 0.243841 0.282725
0.540402 0.332396 0.351512
0.590809 0.400180 0.403347
0.583159 0.392333 0.388337
0.140569 0.131203 0.289613
0.102045 0.093040 0.212739
0.135120 0.089315 0.168169
0.265394 0.132602 0.187228
0.384719 0.187668 0.232582
0.465202 0.243258 0.290599
0.517169 0.297579 0.338324
0.570223 0.369428 0.392728
0.607255 0.418887 0.429733
0.299464 0.377015 0.450903
0.202019 0.251240 0.324843
0.186340 0.187969 0.251714
0.278569 0.203341 0.255137
0.396120 0.253015 0.291508
0.494162 0.313627 0.345268
0.570315 0.376655 0.402884
0.616648 0.429645 0.444459
0.650577 0.477088 0.481275
0.396949 0.542395 0.529953
0.320540 0.439257 0.429228
0.299392 0.369143 0.364007
0.362470 0.363311 0.361537
0.471925 0.397087 0.391176
0.570806 0.448525 0.435145
0.640456 0.496768 0.477175
0.690563 0.536330 0.509612
0.710591 0.557468 0.527665
0.443884 0.626245 0.556883
0.406096 0.575412 0.501837
0.400000 0.528891 0.457585
0.453102 0.521674 0.455144
0.546346 0.547411 0.478003
0.640655 0.583292 0.505142
0.704811 0.613596 0.532155
0.745857 0.636654 0.551947
0.773283 0.654866 0.565535
0.474844 0.680073 0.570070
0.456657 0.655019 0.538372
0.466224 0.635413 0.514642
0.516617 0.637845 0.515629
0.600957 0.660773 0.536191
0.684661 0.688403 0.552922
0.744208 0.708700 0.565185
0.781377 0.721598 0.575897
0.807907 0.733174 0.586231
0.493773 0.717062 0.572822
0.483671 0.702098 0.552001
0.501796 0.698719 0.540563
0.551606 0.709785 0.544607
0.630793 0.734392 0.563084
0.707446 0.758220 0.580882
0.763139 0.775249 0.587061
0.800747 0.785589 0.589202
0.826344 0.792395 0.595610
0.503968 0.739777 0.566193
0.501804 0.734009 0.554324
0.522066 0.737378 0.548619
0.569314 0.753216 0.554932
0.645272 0.779863 0.573123
0.718615 0.803668 0.588941
0.774779 0.820105 0.599087
0.811382 0.829828 0.599492
0.835996 0.835309 0.601289
0.508543 0.753720 0.552154
0.508652 0.751233 0.544409
0.533221 0.761844 0.545764
0.579485 0.780153 0.553700
0.651020 0.808579 0.572123
0.723319 0.833798 0.587625
0.779139 0.849908 0.597658
0.817102 0.859408 0.603813
0.840954 0.864096 0.603623
0.144293 0.098689 0.332464
0.143519 0.097851 0.330908
0.135645 0.074227 0.211184
0.273251 0.124139 0.224113
0.393674 0.180534 0.269306
0.469649 0.232499 0.325706
0.510511 0.279730 0.357380
0.565998 0.356225 0.407276
0.593884 0.397667 0.430326
0.202032 0.188219 0.408228
0.185862 0.167637 0.384045
0.155026 0.109787 0.260581
0.269861 0.145415 0.263423
0.389914 0.199597 0.299522
0.472358 0.251000 0.349125
0.532608 0.303728 0.396544
0.572962 0.361627 0.427559
0.617789 0.424865 0.467663
0.354591 0.433665 0.543513
0.296215 0.353531 0.476272
0.230524 0.235586 0.360715
0.306953 0.237508 0.347557
0.419150 0.280423 0.376583
0.513941 0.333373 0.420868
0.586608 0.389467 0.470701
0.633822 0.438964 0.507226
0.660697 0.480737 0.524015
0.474562 0.625973 0.649864
0.397792 0.520083 0.558951
0.345739 0.419552 0.470276
0.399793 0.405161 0.459859
0.499408 0.432834 0.485748
0.593783 0.477129 0.524780
0.659218 0.514859 0.554921
0.706399 0.547968 0.580792
0.730822 0.572615 0.595574
0.495645 0.677664 0.656781
0.454946 0.622290 0.602426
0.440711 0.570151 0.558742
0.487737 0.557866 0.552257
0.577011 0.577227 0.576719
0.664762 0.606437 0.599417
0.724625 0.628701 0.617069
0.763326 0.648322 0.631813
0.791674 0.665413 0.642927
0.505826 0.708951 0.654484
0.487437 0.683158 0.625523
0.496383 0.663311 0.607238
0.542988 0.663381 0.609064
0.624032 0.682919 0.629114
0.703455 0.704517 0.645312
0.762183 0.720412 0.655053
0.798484 0.730869 0.661862
0.824094 0.739902 0.667113
0.519640 0.736516 0.655561
0.511167 0.724027 0.639844
0.528289 0.720373 0.632800
0.573998 0.728709 0.639318
0.650793 0.751108 0.658296
0.726311 0.772417 0.676289
0.780892 0.786067 0.679553
0.818504 0.794185 0.680152
0.842499 0.799388 0.681864
0.527543 0.755064 0.650782
0.524007 0.748613 0.641127
0.546595 0.754556 0.643371
0.590394 0.768356 0.651387
0.664403 0.793541 0.672673
0.736420 0.815540 0.688727
0.791712 0.829634 0.697622
0.828418 0.837896 0.696009
0.852641 0.841796 0.692095
0.532134 0.767608 0.642324
0.534288 0.766643 0.638086
0.555743 0.775077 0.642129
0.598102 0.791907 0.653911
0.667783 0.818916 0.675263
0.738601 0.843702 0.691442
0.795076 0.857848 0.702321
0.832203 0.865661 0.704707
0.855842 0.869633 0.699527
0.196648 0.148694 0.432912
0.196346 0.148193 0.432563
0.159868 0.099051 0.314713
0.271430 0.135483 0.302520
0.393475 0.189915 0.333552
0.473420 0.239628 0.379783
0.526999 0.286092 0.420296
0.562110 0.339035 0.437127
0.605960 0.402315 0.472044
0.258443 0.255352 0.488685
0.258029 0.254636 0.488362
0.186966 0.141986 0.362067
0.279993 0.164806 0.342599
0.398162 0.215306 0.368706
0.483636 0.264439 0.409928
0.548982 0.315357 0.454887
0.585161 0.364017 0.476394
0.622927 0.421089 0.501875
0.393673 0.476139 0.599958
0.393424 0.475718 0.599762
0.275116 0.289758 0.453324
0.334299 0.274730 0.431272
0.441237 0.309208 0.453958
0.535259 0.357077 0.491902
0.604297 0.407330 0.532788
0.652877 0.452298 0.565113
0.675272 0.489138 0.574792
0.494863 0.643155 0.685917
0.459007 0.591956 0.645264
0.384823 0.467933 0.550668
0.428791 0.441724 0.538027
0.525482 0.464441 0.562193
0.615190 0.500986 0.594869
0.676771 0.532884 0.621110
0.720045 0.559934 0.640477
0.742992 0.580627 0.650707
0.534608 0.717729 0.719128
0.497092 0.664485 0.671682
0.465704 0.599078 0.620354
0.509164 0.584400 0.619498
0.595774 0.601186 0.644940
0.678113 0.624848 0.669277
0.734611 0.643193 0.685451
0.772121 0.658333 0.695391
0.800198 0.672118 0.702560
0.533805 0.732689 0.706795
0.515787 0.707783 0.682498
0.514777 0.682977 0.662577
0.557821 0.680318 0.668997
0.638403 0.698298 0.693687
0.716052 0.717171 0.715358
0.773439 0.730730 0.724650
0.809844 0.739208 0.729532
0.834487 0.745777 0.732742
0.532153 0.745094 0.696080
0.524593 0.733999 0.683885
0.542636 0.732623 0.685006
0.586123 0.740685 0.696533
0.661944 0.761214 0.721055
0.736476 0.781321 0.740788
0.792675 0.794289 0.751929
0.829550 0.800167 0.749355
0.854056 0.803770 0.749781
0.539161 0.761305 0.693403
0.535936 0.755446 0.686668
0.557427 0.760828 0.692665
0.599342 0.774671 0.706750
0.672205 0.799781 0.733157
0.745108 0.821800 0.754685
0.801946 0.835542 0.767167
0.839454 0.842834 0.765622
0.862721 0.844730 0.760790
0.544952 0.775102 0.689233
0.542845 0.770319 0.684948
0.566739 0.779695 0.693567
0.604430 0.794969 0.707401
0.672895 0.821684 0.734027
0.743442 0.845239 0.755705
0.802125 0.860816 0.769707
0.840891 0.869077 0.774224
0.865704 0.872772 0.768506
0.246194 0.213764 0.498340
0.245812 0.213064 0.498033
0.190887 0.133168 0.410789
0.275711 0.152887 0.379373
0.396251 0.203959 0.397741
0.480985 0.251735 0.435377
0.546208 0.299872 0.478225
0.574634 0.342633 0.488178
0.610633 0.398094 0.506823
0.307638 0.320764 0.542077
0.307258 0.320126 0.541813
0.224047 0.192273 0.447682
0.293833 0.190515 0.419193
0.407808 0.235133 0.433678
0.496280 0.281677 0.467927
0.563381 0.331218 0.509082
0.605635 0.377682 0.537293
0.632745 0.424464 0.543223
0.426007 0.514448 0.638888
0.425781 0.514070 0.638711
0.316359 0.351019 0.520813
0.358459 0.314768 0.498744
0.460842 0.340240 0.518438
0.557655 0.386428 0.555923
0.622512 0.428256 0.589402
0.669301 0.466886 0.615120
0.690362 0.497636 0.622456
0.508217 0.652283 0.709026
0.508146 0.652145 0.708970
0.414359 0.510566 0.604459
0.449747 0.475201 0.593536
0.543433 0.492520 0.618795
0.633285 0.522657 0.650855
0.691803 0.548768 0.672496
0.732439 0.571440 0.689574
0.759807 0.592064 0.700717
0.545813 0.722897 0.739738
0.527701 0.697665 0.718613
0.484059 0.625235 0.661094
0.520027 0.604481 0.662643
0.605224 0.618136 0.690874
0.687984 0.639133 0.718065
0.744027 0.655306 0.733692
0.780766 0.667866 0.743183
0.806450 0.679952 0.750406
0.558157 0.754606 0.745063
0.538746 0.727761 0.720307
0.525864 0.697074 0.696382
0.565014 0.692524 0.705780
0.643947 0.708480 0.734498
0.722845 0.727175 0.760061
0.778787 0.739962 0.772625
0.813662 0.746953 0.778307
0.838403 0.752161 0.781875
0.553431 0.760734 0.733521
0.542705 0.747468 0.717940
0.547416 0.737113 0.712283
0.589072 0.745541 0.727707
0.664811 0.767141 0.758552
0.740366 0.787406 0.782872
0.800010 0.800605 0.799655
0.836782 0.805706 0.800858
0.860551 0.806862 0.800995
0.548970 0.767678 0.721864
0.543243 0.759530 0.712513
0.561017 0.762299 0.718581
0.599019 0.774028 0.734998
0.670211 0.799900 0.765857
0.745010 0.822823 0.792080
0.804320 0.837206 0.808677
0.843588 0.844458 0.813567
0.867914 0.846625 0.809288
0.551568 0.777116 0.716458
0.549413 0.773256 0.711403
0.570907 0.781287 0.722314
0.605056 0.793176 0.737359
0.670223 0.819254 0.765568
0.741294 0.844051 0.792716
0.801565 0.860140 0.810056
0.844098 0.869339 0.818274
0.869831 0.873139 0.816453
0.296371 0.286330 0.545649
0.295994 0.285668 0.545406
0.238265 0.201607 0.489493
0.284904 0.178014 0.448555
0.400780 0.222456 0.457686
0.491718 0.269251 0.489859
0.555188 0.313508 0.524588
0.595708 0.356400 0.548746
0.624221 0.404290 0.553858
0.353331 0.381963 0.587290
0.352992 0.381405 0.587022
0.280911 0.277905 0.521054
0.306463 0.223095 0.478321
0.417318 0.258834 0.489975
0.511456 0.304844 0.523103
0.577470 0.349476 0.558142
0.625557 0.393948 0.589681
0.649723 0.435094 0.592228
0.450580 0.541563 0.667893
0.450405 0.541266 0.667759
0.366942 0.423616 0.585122
0.378607 0.356086 0.551326
0.478742 0.373420 0.573930
0.572728 0.411535 0.606154
0.637795 0.450502 0.634554
0.683046 0.482482 0.657374
0.707465 0.509898 0.665972
0.516384 0.655559 0.721370
0.516313 0.655422 0.721313
0.446454 0.556708 0.648689
0.461157 0.503187 0.629845
0.552334 0.514342 0.657959
0.641993 0.541245 0.690452
0.703164 0.564364 0.712550
0.742024 0.583296 0.726726
0.771495 0.602052 0.738613
0.551919 0.724716 0.751725
0.551893 0.724658 0.751707
0.499106 0.646975 0.690540
0.525670 0.621684 0.690005
0.608006 0.631822 0.721117
0.693203 0.651248 0.751802
0.751581 0.666475 0.768344
0.788361 0.676832 0.778653
0.812884 0.687038 0.783732
0.569952 0.762270 0.766766
0.556250 0.743834 0.749200
0.528548 0.701952 0.714001
0.563937 0.698822 0.725477
0.643918 0.715704 0.760199
0.723895 0.734373 0.787738
0.782732 0.746513 0.805645
0.819258 0.753528 0.812625
0.841788 0.757192 0.813721
0.570121 0.773728 0.759643
0.557843 0.756797 0.743497
0.549012 0.738704 0.728103
0.584173 0.743671 0.742540
0.659702 0.767233 0.778310
0.737206 0.788795 0.806853
0.798183 0.802197 0.824457
0.835739 0.807413 0.832604
0.860600 0.809243 0.834301
0.564967 0.777292 0.747611
0.558250 0.768391 0.738447
0.562080 0.761198 0.734872
0.596230 0.772633 0.751255
0.663761 0.796095 0.783540
0.738399 0.819696 0.812258
0.800523 0.835335 0.832608
0.842959 0.843925 0.842651
0.869019 0.845793 0.842620
0.559650 0.781333 0.737050
0.556080 0.775955 0.731252
0.572361 0.780784 0.739046
0.602974 0.791712 0.753498
0.663791 0.814292 0.783391
0.734216 0.838956 0.812494
0.797833 0.857956 0.834635
0.841746 0.867196 0.844591
0.870211 0.871547 0.847029
0.344577 0.354701 0.588055
0.344229 0.354119 0.587791
0.341123 0.349440 0.585183
0.292505 0.211675 0.497106
0.405592 0.245789 0.507076
0.503346 0.290774 0.537187
0.568910 0.334033 0.569657
0.618009 0.376937 0.601220
0.642020 0.416383 0.604409
0.392021 0.433390 0.625895
0.391747 0.432934 0.625674
0.376114 0.410484 0.612256
0.320898 0.266995 0.523842
0.427522 0.288551 0.538916
0.526621 0.332062 0.571467
0.593959 0.374171 0.603795
0.644092 0.415028 0.632091
0.667100 0.448704 0.639437
0.465503 0.558261 0.681436
0.465363 0.558020 0.681338
0.434879 0.514188 0.656065
0.392862 0.395549 0.589048
0.489412 0.404194 0.613555
0.586775 0.439591 0.647350
0.649413 0.470200 0.672495
0.695087 0.499102 0.692717
0.724490 0.523837 0.707679
0.521969 0.658539 0.727259
0.521913 0.658429 0.727210
0.485320 0.604971 0.692956
0.468833 0.529809 0.655471
0.556385 0.535293 0.685141
0.648408 0.558929 0.721291
0.710504 0.578393 0.742511
0.750038 0.594909 0.756162
0.779818 0.611639 0.767194
0.554278 0.721599 0.754589
0.554248 0.721539 0.754565
0.518442 0.668870 0.718575
0.526496 0.634654 0.706908
0.607242 0.643654 0.741442
0.692610 0.661405 0.773737
0.755236 0.675822 0.794064
0.793078 0.685249 0.804096
0.817931 0.692127 0.809046
0.572164 0.759389 0.768410
0.572150 0.759356 0.768399
0.538926 0.711734 0.733416
0.558602 0.699622 0.735456
0.637173 0.718952 0.773402
0.719695 0.738426 0.805474
0.782203 0.751486 0.825396
0.820235 0.757294 0.834335
0.843177 0.759257 0.835762
0.583114 0.784072 0.777680
0.572005 0.768865 0.766587
0.551383 0.740059 0.739762
0.578254 0.741588 0.750759
0.649623 0.763142 0.786624
0.728383 0.785843 0.819638
0.793169 0.801417 0.841301
0.834970 0.808291 0.852535
0.859619 0.809592 0.854769
0.579123 0.788393 0.770075
0.570528 0.776738 0.759720
0.562387 0.761510 0.745524
0.590377 0.769020 0.759110
0.654412 0.791393 0.792511
0.729166 0.815454 0.824353
0.794263 0.832615 0.848476
0.838942 0.841588 0.859956
0.866158 0.844544 0.863240
0.573450 0.789576 0.759063
0.568477 0.783051 0.752241
0.572031 0.779429 0.749627
0.598944 0.788139 0.763553
0.655382 0.809155 0.792244
0.725261 0.834339 0.824585
0.790150 0.853505 0.849453
0.838098 0.865026 0.862644
0.869015 0.870016 0.868890
