output/ProPhoto/ProPhoto_to_PRO-Neg.Std_33grid.cube
TITLE "ProPhoto_to_PRO-Neg.Std"
# Input: ProPhoto RGB, gamma 1.8 (D50)
# Output: ProPhoto RGB, gamma 1.8 (D50) with film simulation look
# Use: Photoshop 3D LUT adjustment layer on standard ProPhoto document
# Source: FLog2C_to_PRO-Neg.Std_65grid_V.1.00.cube
# Generated from Fujifilm GFX ETERNA 55 F-Log2C LUT
LUT_3D_SIZE 5
0.000068 0.000066 0.000025
0.340306 0.136768 0.108783
0.683341 0.285795 0.366125
0.707069 0.336720 0.406130
0.707069 0.336720 0.406130
0.116431 0.199170 0.065401
0.178268 0.160789 0.054105
0.529536 0.268828 0.120508
0.690387 0.331362 0.288042
0.711939 0.369265 0.369514
0.313295 0.537810 0.176585
0.284774 0.452932 0.148967
0.493360 0.463077 0.155447
0.687483 0.506508 0.173044
0.730779 0.502628 0.197320
0.441392 0.757813 0.248820
0.409940 0.698429 0.229358
0.537614 0.676093 0.223897
0.693246 0.681101 0.228043
0.782358 0.687280 0.231663
0.513958 0.882401 0.289727
0.491470 0.843675 0.277013
0.570927 0.812393 0.267970
0.706826 0.799699 0.265928
0.806901 0.794977 0.266130
0.057124 0.029233 0.151348
0.229037 0.090777 0.168629
0.669724 0.267403 0.388510
0.711990 0.337519 0.435813
0.707684 0.337092 0.409976
0.224812 0.329678 0.318872
0.200068 0.200479 0.199615
0.509497 0.269127 0.274173
0.709290 0.340330 0.409311
0.728231 0.381446 0.457913
0.375378 0.626505 0.298689
0.314413 0.516027 0.226232
0.488002 0.489076 0.233069
0.674723 0.509184 0.287358
0.757308 0.521370 0.366456
0.466810 0.798963 0.277006
0.429611 0.736325 0.247892
0.521155 0.699381 0.239005
0.676904 0.690809 0.252340
0.787828 0.691141 0.291136
0.533832 0.916522 0.300931
0.510595 0.876627 0.287832
0.555466 0.846328 0.278647
0.691884 0.831522 0.275841
0.795120 0.823292 0.277962
0.208685 0.126657 0.542926
0.219355 0.097383 0.394093
0.593776 0.236476 0.522273
0.720803 0.294700 0.605449
0.734576 0.351648 0.559205
0.370213 0.447245 0.715692
0.266053 0.271036 0.506771
0.519477 0.291948 0.510183
0.725926 0.352428 0.590902
0.753478 0.392209 0.603562
0.487715 0.713199 0.701820
0.386043 0.568158 0.545302
0.514932 0.515323 0.514827
0.690766 0.521062 0.535090
0.790264 0.533047 0.581415
0.527292 0.822675 0.622356
0.482365 0.759774 0.547281
0.536169 0.710127 0.505496
0.691591 0.696643 0.505157
0.803337 0.694860 0.531294
0.553419 0.896444 0.547205
0.533346 0.868232 0.511936
0.554070 0.837001 0.483327
0.692817 0.822663 0.479559
0.796949 0.812000 0.490455
0.346265 0.266946 0.857169
0.281410 0.173673 0.707579
0.555938 0.236301 0.683811
0.753256 0.310263 0.763525
0.753754 0.349053 0.684960
0.453428 0.528107 0.908545
0.351435 0.371200 0.757227
0.529492 0.329496 0.708399
0.728175 0.371531 0.741504
0.778369 0.399149 0.746096
0.553057 0.758963 0.906724
0.465989 0.632405 0.777506
0.534521 0.548409 0.720654
0.705761 0.542091 0.720231
0.821066 0.550656 0.744217
0.568693 0.831999 0.818165
0.530355 0.779125 0.755042
0.556513 0.727570 0.718304
0.708876 0.709501 0.708922
0.815790 0.702141 0.712589
0.580893 0.885296 0.745455
0.560835 0.857703 0.711508
0.559519 0.825601 0.683430
0.692070 0.813207 0.679291
0.799038 0.802544 0.676091
0.410997 0.395185 0.935376
0.409288 0.390480 0.935068
0.535384 0.267889 0.841648
0.748849 0.329667 0.869315
0.783343 0.358959 0.833370
0.481623 0.571422 0.949107
0.464487 0.531013 0.945797
0.527168 0.378425 0.855335
0.724033 0.399625 0.859848
0.808776 0.420989 0.874032
0.558867 0.743979 0.961764
0.525340 0.686988 0.927167
0.543171 0.586423 0.859016
0.713671 0.568145 0.850379
0.832247 0.570582 0.859041
0.601602 0.846581 0.942280
0.558951 0.785431 0.877681
0.555258 0.733056 0.836605
0.705884 0.715847 0.832163
0.814785 0.704065 0.826254
0.602039 0.880634 0.866769
0.580381 0.850959 0.830586
0.561988 0.815192 0.796377
0.679333 0.803105 0.798458
0.792758 0.793747 0.793588
