output/ProPhoto/ProPhoto_to_Velvia_33grid.cube
TITLE "ProPhoto_to_Velvia"
# Input: ProPhoto RGB, gamma 1.8 (D50)
# Output: ProPhoto RGB, gamma 1.8 (D50) with film simulation look
# Use: Photoshop 3D LUT adjustment layer on standard ProPhoto document
# Source: FLog2C_to_Velvia_65grid_V.1.00.cube
# Generated from Fujifilm GFX ETERNA 55 F-Log2C LUT
LUT_3D_SIZE 5
0.000000 0.000000 0.000000
0.492787 0.193484 0.076340
0.726834 0.305073 0.403400
0.738790 0.361570 0.416223
0.738790 0.361570 0.416223
0.138556 0.237883 0.078107
0.191018 0.151276 0.051373
0.696634 0.318951 0.116020
0.726847 0.365599 0.260019
0.741320 0.400831 0.355977
0.375111 0.644019 0.211457
0.321527 0.552014 0.181248
0.554058 0.511453 0.171857
0.763543 0.537746 0.184477
0.766823 0.550378 0.188503
0.502913 0.863439 0.283501
0.465622 0.799414 0.262479
0.514828 0.684210 0.226160
0.763315 0.663779 0.223892
0.800578 0.660442 0.223590
0.540281 0.927595 0.304566
0.539414 0.926107 0.304077
0.516172 0.866145 0.284527
0.711651 0.788223 0.262355
0.837686 0.768792 0.258419
0.076292 0.031235 0.209420
0.345864 0.136022 0.166082
0.730235 0.288079 0.468050
0.742263 0.360527 0.455651
0.739360 0.361794 0.421396
0.255755 0.368762 0.380952
0.179465 0.180093 0.179716
0.623296 0.285055 0.249819
0.738011 0.357413 0.417624
0.752053 0.406661 0.459281
0.409401 0.696737 0.264307
0.344966 0.591627 0.198117
0.508818 0.515988 0.174436
0.762606 0.538470 0.220739
0.773346 0.544358 0.319307
0.535685 0.919704 0.301975
0.499844 0.858170 0.281771
0.492022 0.746686 0.245866
0.717757 0.712788 0.238514
0.815170 0.703372 0.239744
0.540281 0.927595 0.304566
0.540281 0.927595 0.304566
0.534591 0.917514 0.301258
0.668396 0.830066 0.275011
0.851406 0.827975 0.277375
0.285093 0.116814 0.782209
0.324331 0.130155 0.615781
0.762288 0.301079 0.707354
0.765803 0.306237 0.726720
0.759796 0.365507 0.599404
0.429114 0.456208 0.924847
0.289564 0.250991 0.675837
0.606705 0.282315 0.601003
0.762268 0.350316 0.642984
0.771889 0.405363 0.630116
0.529465 0.759716 0.797135
0.420109 0.608966 0.618244
0.509292 0.509719 0.509457
0.766615 0.528166 0.507382
0.793525 0.535132 0.554774
0.561243 0.893728 0.606992
0.523298 0.841038 0.540396
0.479375 0.731975 0.461641
0.683010 0.689414 0.436430
0.827085 0.686964 0.459877
0.560426 0.929988 0.470273
0.556883 0.929478 0.444835
0.550812 0.923144 0.423459
0.651475 0.866726 0.385133
0.827785 0.839434 0.389055
0.346762 0.181993 0.924214
0.346137 0.142236 0.917154
0.723437 0.287121 0.928130
0.799401 0.316891 0.928651
0.778830 0.352176 0.757661
0.446014 0.487919 0.942383
0.394157 0.350450 0.932602
0.600305 0.297914 0.849009
0.790501 0.361218 0.823949
0.794249 0.398666 0.800575
0.566531 0.758449 0.967762
0.513694 0.646907 0.952700
0.530185 0.523610 0.784502
0.758752 0.525614 0.735052
0.817424 0.533786 0.744279
0.611879 0.860779 0.959514
0.573644 0.821047 0.868339
0.521184 0.744818 0.757973
0.686006 0.686310 0.685832
0.848368 0.681589 0.672179
0.608589 0.923203 0.792932
0.591300 0.907861 0.740637
0.568614 0.882800 0.684388
0.641804 0.843388 0.620345
0.804223 0.812909 0.596664
0.381822 0.287022 0.928782
0.380453 0.282370 0.928577
0.626085 0.249592 0.927490
0.800370 0.318245 0.932074
0.804329 0.347924 0.924370
0.454769 0.509274 0.944108
0.440631 0.474821 0.941007
0.565969 0.318144 0.930897
0.810003 0.377656 0.936159
0.816816 0.401240 0.937412
0.552361 0.728466 0.964739
0.526910 0.673789 0.959146
0.537261 0.541442 0.946862
0.755160 0.530086 0.933207
0.845373 0.538300 0.922717
0.610843 0.849614 0.978726
0.584729 0.796089 0.972477
0.561362 0.745395 0.965929
0.691137 0.681721 0.907995
0.860680 0.673866 0.863399
0.632939 0.894474 0.983642
0.620515 0.877152 0.963819
0.597048 0.849835 0.914377
0.642423 0.821264 0.831972
0.787375 0.789077 0.788234
