output/ProPhoto/ProPhoto_to_ACROS_33grid.cube
TITLE "ProPhoto_to_ACROS"
# Input: ProPhoto RGB, gamma 1.8 (D50)
# Output: ProPhoto RGB, gamma 1.8 (D50) with film simulation look
# Use: Photoshop 3D LUT adjustment layer on standard ProPhoto document
# Source: FLog2C_to_ACROS_65grid_V.1.00.cube
# Generated from Fujifilm GFX ETERNA 55 F-Log2C LUT
LUT_3D_SIZE 33
0.000014 0.000014 0.000014
0.000795 0.000795 0.000795
0.004336 0.004336 0.004336
0.011570 0.011570 0.011570
0.022722 0.022722 0.022722
0.042423 0.042423 0.042423
0.068673 0.068673 0.068673
0.096526 0.096526 0.096526
0.127512 0.127512 0.127512
0.160976 0.160976 0.160976
0.195378 0.195378 0.195378
0.231242 0.231242 0.231242
0.269453 0.269453 0.269453
0.308639 0.308639 0.308639
0.344907 0.344907 0.344907
0.375663 0.375663 0.375663
0.400959 0.400959 0.400959
0.425058 0.425058 0.425058
0.447853 0.447853 0.447853
0.468720 0.468720 0.468720
0.481584 0.481584 0.481584
0.490667 0.490667 0.490667
0.490790 0.490790 0.490790
0.490790 0.490790 0.490790
0.490790 0.490790 0.490790
0.490790 0.490790 0.490790
0.490790 0.490790 0.490790
0.490790 0.490790 0.490790
0.490790 0.490790 0.490790
0.490790 0.490790 0.490790
0.490790 0.490790 0.490790
0.490790 0.490790 0.490790
0.490790 0.490790 0.490790
0.001328 0.001328 0.001328
0.001206 0.001206 0.001206
0.003333 0.003333 0.003333
0.010144 0.010144 0.010144
0.020671 0.020671 0.020671
0.038952 0.038952 0.038952
0.063156 0.063156 0.063156
0.090313 0.090313 0.090313
0.120451 0.120451 0.120451
0.153394 0.153394 0.153394
0.187700 0.187700 0.187700
0.223639 0.223639 0.223639
0.261987 0.261987 0.261987
0.302215 0.302215 0.302215
0.340500 0.340500 0.340500
0.373417 0.373417 0.373417
0.400145 0.400145 0.400145
0.425276 0.425276 0.425276
0.448038 0.448038 0.448038
0.468886 0.468886 0.468886
0.481659 0.481659 0.481659
0.490723 0.490723 0.490723
0.490790 0.490790 0.490790
0.490790 0.490790 0.490790
0.490790 0.490790 0.490790
0.490790 0.490790 0.490790
0.490790 0.490790 0.490790
0.490790 0.490790 0.490790
0.490790 0.490790 0.490790
0.490790 0.490790 0.490790
0.490790 0.490790 0.490790
0.490790 0.490790 0.490790
0.490790 0.490790 0.490790
0.005414 0.005414 0.005414
0.005111 0.005111 0.005111
0.006479 0.006479 0.006479
0.011247 0.011247 0.011247
0.017591 0.017591 0.017591
0.031447 0.031447 0.031447
0.051910 0.051910 0.051910
0.076064 0.076064 0.076064
0.101785 0.101785 0.101785
0.132458 0.132458 0.132458
0.163971 0.163971 0.163971
0.196142 0.196142 0.196142
0.229735 0.229735 0.229735
0.265354 0.265354 0.265354
0.302365 0.302365 0.302365
0.339180 0.339180 0.339180
0.369318 0.369318 0.369318
0.395178 0.395178 0.395178
0.418733 0.418733 0.418733
0.441238 0.441238 0.441238
0.462514 0.462514 0.462514
0.482529 0.482529 0.482529
0.487619 0.487619 0.487619
0.490790 0.490790 0.490790
0.490790 0.490790 0.490790
0.490790 0.490790 0.490790
0.490790 0.490790 0.490790
0.490790 0.490790 0.490790
0.490790 0.490790 0.490790
0.490790 0.490790 0.490790
0.490790 0.490790 0.490790
0.490790 0.490790 0.490790
0.490790 0.490790 0.490790
0.013227 0.013227 0.013227
0.012078 0.012078 0.012078
0.012961 0.012961 0.012961
0.016271 0.016271 0.016271
0.021672 0.021672 0.021672
0.032302 0.032302 0.032302
0.048100 0.048100 0.048100
0.067741 0.067741 0.067741
0.089007 0.089007 0.089007
0.112749 0.112749 0.112749
0.139508 0.139508 0.139508
0.168773 0.168773 0.168773
0.198620 0.198620 0.198620
0.229872 0.229872 0.229872
0.262853 0.262853 0.262853
0.297875 0.297875 0.297875
0.330875 0.330875 0.330875
0.359783 0.359783 0.359783
0.385304 0.385304 0.385304
0.407565 0.407565 0.407565
0.428692 0.428692 0.428692
0.448881 0.448881 0.448881
0.467811 0.467811 0.467811
0.483422 0.483422 0.483422
0.487940 0.487940 0.487940
0.490790 0.490790 0.490790
0.490790 0.490790 0.490790
0.490790 0.490790 0.490790
0.490790 0.490790 0.490790
0.490790 0.490790 0.490790
0.490790 0.490790 0.490790
0.490790 0.490790 0.490790
0.490790 0.490790 0.490790
0.024972 0.024972 0.024972
0.022957 0.022957 0.022957
0.022929 0.022929 0.022929
0.024716 0.024716 0.024716
0.030329 0.030329 0.030329
0.038763 0.038763 0.038763
0.052355 0.052355 0.052355
0.069984 0.069984 0.069984
0.089999 0.089999 0.089999
0.110976 0.110976 0.110976
0.133972 0.133972 0.133972
0.157869 0.157869 0.157869
0.182127 0.182127 0.182127
0.207613 0.207613 0.207613
0.234589 0.234589 0.234589
0.263450 0.263450 0.263450
0.294144 0.294144 0.294144
0.323976 0.323976 0.323976
0.351781 0.351781 0.351781
0.376046 0.376046 0.376046
0.397353 0.397353 0.397353
0.417381 0.417381 0.417381
0.436793 0.436793 0.436793
0.455239 0.455239 0.455239
0.471997 0.471997 0.471997
0.485172 0.485172 0.485172
0.488421 0.488421 0.488421
0.490790 0.490790 0.490790
0.490790 0.490790 0.490790
0.490790 0.490790 0.490790
0.490790 0.490790 0.490790
0.490790 0.490790 0.490790
0.490790 0.490790 0.490790
0.038790 0.038790 0.038790
0.036769 0.036769 0.036769
0.033113 0.033113 0.033113
0.035507 0.035507 0.035507
0.039348 0.039348 0.039348
0.047405 0.047405 0.047405
0.059074 0.059074 0.059074
0.075092 0.075092 0.075092
0.093516 0.093516 0.093516
0.113002 0.113002 0.113002
0.133752 0.133752 0.133752
0.155440 0.155440 0.155440
0.178654 0.178654 0.178654
0.203111 0.203111 0.203111
0.229007 0.229007 0.229007
0.256307 0.256307 0.256307
0.284401 0.284401 0.284401
0.312105 0.312105 0.312105
0.338810 0.338810 0.338810
0.364174 0.364174 0.364174
0.383310 0.383310 0.383310
0.400281 0.400281 0.400281
0.415923 0.415923 0.415923
0.431342 0.431342 0.431342
0.447253 0.447253 0.447253
0.462555 0.462555 0.462555
0.476615 0.476615 0.476615
0.488817 0.488817 0.488817
0.489897 0.489897 0.489897
0.490722 0.490722 0.490722
0.490836 0.490836 0.490836
0.490806 0.490806 0.490806
0.490790 0.490790 0.490790
0.059180 0.059180 0.059180
0.055731 0.055731 0.055731
0.050196 0.050196 0.050196
0.050231 0.050231 0.050231
0.053237 0.053237 0.053237
0.058635 0.058635 0.058635
0.069462 0.069462 0.069462
0.083622 0.083622 0.083622
0.100951 0.100951 0.100951
0.119062 0.119062 0.119062
0.139024 0.139024 0.139024
0.159994 0.159994 0.159994
0.181731 0.181731 0.181731
0.205370 0.205370 0.205370
0.230233 0.230233 0.230233
0.255629 0.255629 0.255629
0.281966 0.281966 0.281966
0.309719 0.309719 0.309719
0.336462 0.336462 0.336462
0.361910 0.361910 0.361910
0.383613 0.383613 0.383613
0.403145 0.403145 0.403145
0.417490 0.417490 0.417490
0.431387 0.431387 0.431387
0.444727 0.444727 0.444727
0.457693 0.457693 0.457693
0.470537 0.470537 0.470537
0.482572 0.482572 0.482572
0.491640 0.491640 0.491640
0.500303 0.500303 0.500303
0.500483 0.500483 0.500483
0.498829 0.498829 0.498829
0.497266 0.497266 0.497266
0.083806 0.083806 0.083806
0.079360 0.079360 0.079360
0.073250 0.073250 0.073250
0.070313 0.070313 0.070313
0.071729 0.071729 0.071729
0.075696 0.075696 0.075696
0.084766 0.084766 0.084766
0.097903 0.097903 0.097903
0.114106 0.114106 0.114106
0.130945 0.130945 0.130945
0.148630 0.148630 0.148630
0.168720 0.168720 0.168720
0.190285 0.190285 0.190285
0.212583 0.212583 0.212583
0.235784 0.235784 0.235784
0.259722 0.259722 0.259722
0.284019 0.284019 0.284019
0.310680 0.310680 0.310680
0.336619 0.336619 0.336619
0.361608 0.361608 0.361608
0.384673 0.384673 0.384673
0.405728 0.405728 0.405728
0.420953 0.420953 0.420953
0.435016 0.435016 0.435016
0.447445 0.447445 0.447445
0.459391 0.459391 0.459391
0.470747 0.470747 0.470747
0.481805 0.481805 0.481805
0.493080 0.493080 0.493080
0.504038 0.504038 0.504038
0.508989 0.508989 0.508989
0.512692 0.512692 0.512692
0.514440 0.514440 0.514440
0.110311 0.110311 0.110311
0.105394 0.105394 0.105394
0.097540 0.097540 0.097540
0.095328 0.095328 0.095328
0.094229 0.094229 0.094229
0.097225 0.097225 0.097225
0.104111 0.104111 0.104111
0.116569 0.116569 0.116569
0.131308 0.131308 0.131308
0.147585 0.147585 0.147585
0.164136 0.164136 0.164136
0.182644 0.182644 0.182644
0.202260 0.202260 0.202260
0.223463 0.223463 0.223463
0.245346 0.245346 0.245346
0.268241 0.268241 0.268241
0.292599 0.292599 0.292599
0.317009 0.317009 0.317009
0.341050 0.341050 0.341050
0.364718 0.364718 0.364718
0.387379 0.387379 0.387379
0.408506 0.408506 0.408506
0.426924 0.426924 0.426924
0.442171 0.442171 0.442171
0.453152 0.453152 0.453152
0.463995 0.463995 0.463995
0.474942 0.474942 0.474942
0.485556 0.485556 0.485556
0.495396 0.495396 0.495396
0.504843 0.504843 0.504843
0.514124 0.514124 0.514124
0.523147 0.523147 0.523147
0.528594 0.528594 0.528594
0.135825 0.135825 0.135825
0.131179 0.131179 0.131179
0.123760 0.123760 0.123760
0.120336 0.120336 0.120336
0.119754 0.119754 0.119754
0.120855 0.120855 0.120855
0.127735 0.127735 0.127735
0.138712 0.138712 0.138712
0.152181 0.152181 0.152181
0.167877 0.167877 0.167877
0.183466 0.183466 0.183466
0.199443 0.199443 0.199443
0.218162 0.218162 0.218162
0.237183 0.237183 0.237183
0.257888 0.257888 0.257888
0.279507 0.279507 0.279507
0.301448 0.301448 0.301448
0.324699 0.324699 0.324699
0.347542 0.347542 0.347542
0.369848 0.369848 0.369848
0.391760 0.391760 0.391760
0.412463 0.412463 0.412463
0.431601 0.431601 0.431601
0.447698 0.447698 0.447698
0.460528 0.460528 0.460528
0.471653 0.471653 0.471653
0.480985 0.480985 0.480985
0.490248 0.490248 0.490248
0.499613 0.499613 0.499613
0.508716 0.508716 0.508716
0.517475 0.517475 0.517475
0.525957 0.525957 0.525957
0.532801 0.532801 0.532801
0.161486 0.161486 0.161486
0.157762 0.157762 0.157762
0.149375 0.149375 0.149375
0.146577 0.146577 0.146577
0.145294 0.145294 0.145294
0.146399 0.146399 0.146399
0.151750 0.151750 0.151750
0.161885 0.161885 0.161885
0.174090 0.174090 0.174090
0.187629 0.187629 0.187629
0.203128 0.203128 0.203128
0.219622 0.219622 0.219622
0.236020 0.236020 0.236020
0.253119 0.253119 0.253119
0.271910 0.271910 0.271910
0.291615 0.291615 0.291615
0.311933 0.311933 0.311933
0.333679 0.333679 0.333679
0.355105 0.355105 0.355105
0.376148 0.376148 0.376148
0.397906 0.397906 0.397906
0.418169 0.418169 0.418169
0.436783 0.436783 0.436783
0.453572 0.453572 0.453572
0.468632 0.468632 0.468632
0.480154 0.480154 0.480154
0.488684 0.488684 0.488684
0.497298 0.497298 0.497298
0.506031 0.506031 0.506031
0.514460 0.514460 0.514460
0.522809 0.522809 0.522809
0.530969 0.530969 0.530969
0.538222 0.538222 0.538222
0.184638 0.184638 0.184638
0.180288 0.180288 0.180288
0.174366 0.174366 0.174366
0.171832 0.171832 0.171832
0.169046 0.169046 0.169046
0.170579 0.170579 0.170579
0.176184 0.176184 0.176184
0.184979 0.184979 0.184979
0.197172 0.197172 0.197172
0.210176 0.210176 0.210176
0.223318 0.223318 0.223318
0.239331 0.239331 0.239331
0.254937 0.254937 0.254937
0.271196 0.271196 0.271196
0.289447 0.289447 0.289447
0.307688 0.307688 0.307688
0.325933 0.325933 0.325933
0.344871 0.344871 0.344871
0.365001 0.365001 0.365001
0.385095 0.385095 0.385095
0.405065 0.405065 0.405065
0.424099 0.424099 0.424099
0.442081 0.442081 0.442081
0.458803 0.458803 0.458803
0.474642 0.474642 0.474642
0.486864 0.486864 0.486864
0.496507 0.496507 0.496507
0.505381 0.505381 0.505381
0.513218 0.513218 0.513218
0.520783 0.520783 0.520783
0.528633 0.528633 0.528633
0.536351 0.536351 0.536351
0.543529 0.543529 0.543529
0.208366 0.208366 0.208366
0.204967 0.204967 0.204967
0.198525 0.198525 0.198525
0.195537 0.195537 0.195537
0.193177 0.193177 0.193177
0.195176 0.195176 0.195176
0.200382 0.200382 0.200382
0.209158 0.209158 0.209158
0.220331 0.220331 0.220331
0.232289 0.232289 0.232289
0.245188 0.245188 0.245188
0.258927 0.258927 0.258927
0.273725 0.273725 0.273725
0.288482 0.288482 0.288482
0.306183 0.306183 0.306183
0.323672 0.323672 0.323672
0.340889 0.340889 0.340889
0.357874 0.357874 0.357874
0.376248 0.376248 0.376248
0.394628 0.394628 0.394628
0.413323 0.413323 0.413323
0.431409 0.431409 0.431409
0.448900 0.448900 0.448900
0.465451 0.465451 0.465451
0.481239 0.481239 0.481239
0.494619 0.494619 0.494619
0.506429 0.506429 0.506429
0.515695 0.515695 0.515695
0.522502 0.522502 0.522502
0.529253 0.529253 0.529253
0.536192 0.536192 0.536192
0.542875 0.542875 0.542875
0.549623 0.549623 0.549623
0.230365 0.230365 0.230365
0.225985 0.225985 0.225985
0.222913 0.222913 0.222913
0.219918 0.219918 0.219918
0.217506 0.217506 0.217506
0.218760 0.218760 0.218760
0.224479 0.224479 0.224479
0.232805 0.232805 0.232805
0.243117 0.243117 0.243117
0.253983 0.253983 0.253983
0.266190 0.266190 0.266190
0.279734 0.279734 0.279734
0.293525 0.293525 0.293525
0.307344 0.307344 0.307344
0.323627 0.323627 0.323627
0.339854 0.339854 0.339854
0.356116 0.356116 0.356116
0.372422 0.372422 0.372422
0.388755 0.388755 0.388755
0.405181 0.405181 0.405181
0.422220 0.422220 0.422220
0.439660 0.439660 0.439660
0.457106 0.457106 0.457106
0.473207 0.473207 0.473207
0.488543 0.488543 0.488543
0.502231 0.502231 0.502231
0.514975 0.514975 0.514975
0.524620 0.524620 0.524620
0.531610 0.531610 0.531610
0.538239 0.538239 0.538239
0.544462 0.544462 0.544462
0.550661 0.550661 0.550661
0.556976 0.556976 0.556976
0.252966 0.252966 0.252966
0.250997 0.250997 0.250997
0.246909 0.246909 0.246909
0.242988 0.242988 0.242988
0.241152 0.241152 0.241152
0.243074 0.243074 0.243074
0.247889 0.247889 0.247889
0.255865 0.255865 0.255865
0.265387 0.265387 0.265387
0.275477 0.275477 0.275477
0.287248 0.287248 0.287248
0.299387 0.299387 0.299387
0.312382 0.312382 0.312382
0.326294 0.326294 0.326294
0.340059 0.340059 0.340059
0.355617 0.355617 0.355617
0.371378 0.371378 0.371378
0.387088 0.387088 0.387088
0.402333 0.402333 0.402333
0.417817 0.417817 0.417817
0.433711 0.433711 0.433711
0.449898 0.449898 0.449898
0.465893 0.465893 0.465893
0.481269 0.481269 0.481269
0.496138 0.496138 0.496138
0.509669 0.509669 0.509669
0.522577 0.522577 0.522577
0.532365 0.532365 0.532365
0.540121 0.540121 0.540121
0.547383 0.547383 0.547383
0.553507 0.553507 0.553507
0.559422 0.559422 0.559422
0.565120 0.565120 0.565120
0.274699 0.274699 0.274699
0.272405 0.272405 0.272405
0.269255 0.269255 0.269255
0.265850 0.265850 0.265850
0.265309 0.265309 0.265309
0.267759 0.267759 0.267759
0.272545 0.272545 0.272545
0.279111 0.279111 0.279111
0.288387 0.288387 0.288387
0.297859 0.297859 0.297859
0.308725 0.308725 0.308725
0.319817 0.319817 0.319817
0.332195 0.332195 0.332195
0.345408 0.345408 0.345408
0.358892 0.358892 0.358892
0.373387 0.373387 0.373387
0.387927 0.387927 0.387927
0.402343 0.402343 0.402343
0.416944 0.416944 0.416944
0.431550 0.431550 0.431550
0.446072 0.446072 0.446072
0.460964 0.460964 0.460964
0.475570 0.475570 0.475570
0.490061 0.490061 0.490061
0.504129 0.504129 0.504129
0.517441 0.517441 0.517441
0.530307 0.530307 0.530307
0.540642 0.540642 0.540642
0.549729 0.549729 0.549729
0.557512 0.557512 0.557512
0.563001 0.563001 0.563001
0.568331 0.568331 0.568331
0.573562 0.573562 0.573562
0.295979 0.295979 0.295979
0.294578 0.294578 0.294578
0.291718 0.291718 0.291718
0.289020 0.289020 0.289020
0.289542 0.289542 0.289542
0.291408 0.291408 0.291408
0.296365 0.296365 0.296365
0.302589 0.302589 0.302589
0.311195 0.311195 0.311195
0.320362 0.320362 0.320362
0.330005 0.330005 0.330005
0.340421 0.340421 0.340421
0.352049 0.352049 0.352049
0.364258 0.364258 0.364258
0.376957 0.376957 0.376957
0.390611 0.390611 0.390611
0.404312 0.404312 0.404312
0.417912 0.417912 0.417912
0.431710 0.431710 0.431710
0.445563 0.445563 0.445563
0.459193 0.459193 0.459193
0.473112 0.473112 0.473112
0.486651 0.486651 0.486651
0.500297 0.500297 0.500297
0.513517 0.513517 0.513517
0.525978 0.525978 0.525978
0.538076 0.538076 0.538076
0.548806 0.548806 0.548806
0.558928 0.558928 0.558928
0.566943 0.566943 0.566943
0.572117 0.572117 0.572117
0.577133 0.577133 0.577133
0.582056 0.582056 0.582056
0.317143 0.317143 0.317143
0.316058 0.316058 0.316058
0.313816 0.313816 0.313816
0.312740 0.312740 0.312740
0.312751 0.312751 0.312751
0.314858 0.314858 0.314858
0.319744 0.319744 0.319744
0.325991 0.325991 0.325991
0.333745 0.333745 0.333745
0.342485 0.342485 0.342485
0.351225 0.351225 0.351225
0.360950 0.360950 0.360950
0.371687 0.371687 0.371687
0.382712 0.382712 0.382712
0.394504 0.394504 0.394504
0.407321 0.407321 0.407321
0.420545 0.420545 0.420545
0.433543 0.433543 0.433543
0.446377 0.446377 0.446377
0.459661 0.459661 0.459661
0.472736 0.472736 0.472736
0.485885 0.485885 0.485885
0.498658 0.498658 0.498658
0.511449 0.511449 0.511449
0.523787 0.523787 0.523787
0.535044 0.535044 0.535044
0.545956 0.545956 0.545956
0.556780 0.556780 0.556780
0.567334 0.567334 0.567334
0.575371 0.575371 0.575371
0.580866 0.580866 0.580866
0.586192 0.586192 0.586192
0.590918 0.590918 0.590918
0.337912 0.337912 0.337912
0.337032 0.337032 0.337032
0.335542 0.335542 0.335542
0.334334 0.334334 0.334334
0.335669 0.335669 0.335669
0.338323 0.338323 0.338323
0.343239 0.343239 0.343239
0.348937 0.348937 0.348937
0.356141 0.356141 0.356141
0.364111 0.364111 0.364111
0.372480 0.372480 0.372480
0.381681 0.381681 0.381681
0.391235 0.391235 0.391235
0.401763 0.401763 0.401763
0.412869 0.412869 0.412869
0.424423 0.424423 0.424423
0.437134 0.437134 0.437134
0.449440 0.449440 0.449440
0.461351 0.461351 0.461351
0.473914 0.473914 0.473914
0.486222 0.486222 0.486222
0.498590 0.498590 0.498590
0.510581 0.510581 0.510581
0.522290 0.522290 0.522290
0.533672 0.533672 0.533672
0.544862 0.544862 0.544862
0.555713 0.555713 0.555713
0.565967 0.565967 0.565967
0.575923 0.575923 0.575923
0.583641 0.583641 0.583641
0.589695 0.589695 0.589695
0.595568 0.595568 0.595568
0.599985 0.599985 0.599985
0.357112 0.357112 0.357112
0.356907 0.356907 0.356907
0.356423 0.356423 0.356423
0.356734 0.356734 0.356734
0.358186 0.358186 0.358186
0.361001 0.361001 0.361001
0.365889 0.365889 0.365889
0.371247 0.371247 0.371247
0.378033 0.378033 0.378033
0.385230 0.385230 0.385230
0.393030 0.393030 0.393030
0.401609 0.401609 0.401609
0.410905 0.410905 0.410905
0.420615 0.420615 0.420615
0.431151 0.431151 0.431151
0.442114 0.442114 0.442114
0.453675 0.453675 0.453675
0.465265 0.465265 0.465265
0.476645 0.476645 0.476645
0.488189 0.488189 0.488189
0.499555 0.499555 0.499555
0.511161 0.511161 0.511161
0.522481 0.522481 0.522481
0.533617 0.533617 0.533617
0.544471 0.544471 0.544471
0.555170 0.555170 0.555170
0.565540 0.565540 0.565540
0.575357 0.575357 0.575357
0.584897 0.584897 0.584897
0.592405 0.592405 0.592405
0.598818 0.598818 0.598818
0.604879 0.604879 0.604879
0.608860 0.608860 0.608860
0.377376 0.377376 0.377376
0.377337 0.377337 0.377337
0.377459 0.377459 0.377459
0.378045 0.378045 0.378045
0.379896 0.379896 0.379896
0.383121 0.383121 0.383121
0.387593 0.387593 0.387593
0.392848 0.392848 0.392848
0.398859 0.398859 0.398859
0.405609 0.405609 0.405609
0.412652 0.412652 0.412652
0.420925 0.420925 0.420925
0.429947 0.429947 0.429947
0.438777 0.438777 0.438777
0.448899 0.448899 0.448899
0.459209 0.459209 0.459209
0.469620 0.469620 0.469620
0.480702 0.480702 0.480702
0.491566 0.491566 0.491566
0.502003 0.502003 0.502003
0.512540 0.512540 0.512540
0.523454 0.523454 0.523454
0.534249 0.534249 0.534249
0.544982 0.544982 0.544982
0.555387 0.555387 0.555387
0.565480 0.565480 0.565480
0.575262 0.575262 0.575262
0.584702 0.584702 0.584702
0.593883 0.593883 0.593883
0.601256 0.601256 0.601256
0.607930 0.607930 0.607930
0.613941 0.613941 0.613941
0.617449 0.617449 0.617449
0.397206 0.397206 0.397206
0.397374 0.397374 0.397374
0.397773 0.397773 0.397773
0.398660 0.398660 0.398660
0.400271 0.400271 0.400271
0.403663 0.403663 0.403663
0.407791 0.407791 0.407791
0.412927 0.412927 0.412927
0.419019 0.419019 0.419019
0.425575 0.425575 0.425575
0.431681 0.431681 0.431681
0.439435 0.439435 0.439435
0.447873 0.447873 0.447873
0.456596 0.456596 0.456596
0.465673 0.465673 0.465673
0.475312 0.475312 0.475312
0.485237 0.485237 0.485237
0.495674 0.495674 0.495674
0.505748 0.505748 0.505748
0.515475 0.515475 0.515475
0.525630 0.525630 0.525630
0.536154 0.536154 0.536154
0.546470 0.546470 0.546470
0.556557 0.556557 0.556557
0.566487 0.566487 0.566487
0.576264 0.576264 0.576264
0.585597 0.585597 0.585597
0.594237 0.594237 0.594237
0.602642 0.602642 0.602642
0.609879 0.609879 0.609879
0.616760 0.616760 0.616760
0.622658 0.622658 0.622658
0.626164 0.626164 0.626164
0.416543 0.416543 0.416543
0.416617 0.416617 0.416617
0.416941 0.416941 0.416941
0.418211 0.418211 0.418211
0.420353 0.420353 0.420353
0.423488 0.423488 0.423488
0.427240 0.427240 0.427240
0.432284 0.432284 0.432284
0.438153 0.438153 0.438153
0.444171 0.444171 0.444171
0.449741 0.449741 0.449741
0.457186 0.457186 0.457186
0.465238 0.465238 0.465238
0.473536 0.473536 0.473536
0.481879 0.481879 0.481879
0.491137 0.491137 0.491137
0.500565 0.500565 0.500565
0.510208 0.510208 0.510208
0.519598 0.519598 0.519598
0.528757 0.528757 0.528757
0.538507 0.538507 0.538507
0.548417 0.548417 0.548417
0.558215 0.558215 0.558215
0.567790 0.567790 0.567790
0.577304 0.577304 0.577304
0.586677 0.586677 0.586677
0.595508 0.595508 0.595508
0.603639 0.603639 0.603639
0.611540 0.611540 0.611540
0.618601 0.618601 0.618601
0.625449 0.625449 0.625449
0.631089 0.631089 0.631089
0.634726 0.634726 0.634726
0.434211 0.434211 0.434211
0.434547 0.434547 0.434547
0.435624 0.435624 0.435624
0.437194 0.437194 0.437194
0.439805 0.439805 0.439805
0.442804 0.442804 0.442804
0.446252 0.446252 0.446252
0.450548 0.450548 0.450548
0.456082 0.456082 0.456082
0.461616 0.461616 0.461616
0.467463 0.467463 0.467463
0.474396 0.474396 0.474396
0.481858 0.481858 0.481858
0.489701 0.489701 0.489701
0.497901 0.497901 0.497901
0.506728 0.506728 0.506728
0.515519 0.515519 0.515519
0.524418 0.524418 0.524418
0.533310 0.533310 0.533310
0.542079 0.542079 0.542079
0.551203 0.551203 0.551203
0.560202 0.560202 0.560202
0.569604 0.569604 0.569604
0.578845 0.578845 0.578845
0.587909 0.587909 0.587909
0.596744 0.596744 0.596744
0.605196 0.605196 0.605196
0.613273 0.613273 0.613273
0.621053 0.621053 0.621053
0.627647 0.627647 0.627647
0.634069 0.634069 0.634069
0.639374 0.639374 0.639374
0.643407 0.643407 0.643407
0.452345 0.452345 0.452345
0.452712 0.452712 0.452712
0.453590 0.453590 0.453590
0.455514 0.455514 0.455514
0.457991 0.457991 0.457991
0.460809 0.460809 0.460809
0.464130 0.464130 0.464130
0.468112 0.468112 0.468112
0.473229 0.473229 0.473229
0.478337 0.478337 0.478337
0.484185 0.484185 0.484185
0.490722 0.490722 0.490722
0.497824 0.497824 0.497824
0.505284 0.505284 0.505284
0.512934 0.512934 0.512934
0.521246 0.521246 0.521246
0.529594 0.529594 0.529594
0.537959 0.537959 0.537959
0.546382 0.546382 0.546382
0.554624 0.554624 0.554624
0.563413 0.563413 0.563413
0.571969 0.571969 0.571969
0.581009 0.581009 0.581009
0.589794 0.589794 0.589794
0.598352 0.598352 0.598352
0.606668 0.606668 0.606668
0.614787 0.614787 0.614787
0.622702 0.622702 0.622702
0.630197 0.630197 0.630197
0.636557 0.636557 0.636557
0.642746 0.642746 0.642746
0.647949 0.647949 0.647949
0.652366 0.652366 0.652366
0.469351 0.469351 0.469351
0.469559 0.469559 0.469559
0.470899 0.470899 0.470899
0.472848 0.472848 0.472848
0.475237 0.475237 0.475237
0.477933 0.477933 0.477933
0.481006 0.481006 0.481006
0.485029 0.485029 0.485029
0.489655 0.489655 0.489655
0.494272 0.494272 0.494272
0.500029 0.500029 0.500029
0.506406 0.506406 0.506406
0.513368 0.513368 0.513368
0.520033 0.520033 0.520033
0.527042 0.527042 0.527042
0.534915 0.534915 0.534915
0.542969 0.542969 0.542969
0.550954 0.550954 0.550954
0.558809 0.558809 0.558809
0.566566 0.566566 0.566566
0.575323 0.575323 0.575323
0.583840 0.583840 0.583840
0.592332 0.592332 0.592332
0.600572 0.600572 0.600572
0.608623 0.608623 0.608623
0.616444 0.616444 0.616444
0.624250 0.624250 0.624250
0.631912 0.631912 0.631912
0.639091 0.639091 0.639091
0.645418 0.645418 0.645418
0.651576 0.651576 0.651576
0.656876 0.656876 0.656876
0.661686 0.661686 0.661686
0.485889 0.485889 0.485889
0.486396 0.486396 0.486396
0.487613 0.487613 0.487613
0.489358 0.489358 0.489358
0.491502 0.491502 0.491502
0.494030 0.494030 0.494030
0.496838 0.496838 0.496838
0.500933 0.500933 0.500933
0.505289 0.505289 0.505289
0.509901 0.509901 0.509901
0.515289 0.515289 0.515289
0.521433 0.521433 0.521433
0.527896 0.527896 0.527896
0.534007 0.534007 0.534007
0.540892 0.540892 0.540892
0.548354 0.548354 0.548354
0.556000 0.556000 0.556000
0.563504 0.563504 0.563504
0.571030 0.571030 0.571030
