output/ProPhoto/ProPhoto_to_Velvia_33grid.cube
TITLE "ProPhoto_to_Velvia"
# Input: ProPhoto RGB, gamma 1.8 (D50)
# Output: ProPhoto RGB, gamma 1.8 (D50) with film simulation look
# Use: Photoshop 3D LUT adjustment layer on standard ProPhoto document
# Source: FLog2C_to_Velvia_65grid_V.1.00.cube
# Generated from Fujifilm GFX ETERNA 55 F-Log2C LUT
LUT_3D_SIZE 9
0.000000 0.000000 0.000000
0.086026 0.033776 0.012703
0.492787 0.193484 0.076340
0.710012 0.280015 0.246815
0.726834 0.305073 0.403400
0.737056 0.353895 0.416613
0.738790 0.361570 0.416223
0.738790 0.361570 0.416223
0.738790 0.361570 0.416223
0.014343 0.024625 0.008087
0.018509 0.013468 0.004606
0.302352 0.118731 0.044588
0.633305 0.248665 0.105492
0.712609 0.282374 0.281032
0.726353 0.303295 0.404040
0.735590 0.345985 0.415517
0.738790 0.361570 0.416223
0.738790 0.361570 0.416223
0.138556 0.237883 0.078107
0.097396 0.167217 0.054904
0.191018 0.151276 0.051373
0.460763 0.226217 0.081281
0.696634 0.318951 0.116020
0.716035 0.343718 0.143534
0.726847 0.365599 0.260019
0.734332 0.382364 0.315710
0.741320 0.400831 0.355977
0.281108 0.482628 0.158466
0.245458 0.421421 0.138369
0.218567 0.364577 0.119779
0.403391 0.359857 0.121177
0.593759 0.403902 0.139032
0.737665 0.448867 0.156417
0.742290 0.461448 0.160395
0.744059 0.463993 0.179426
0.745893 0.461374 0.219493
0.375111 0.644019 0.211457
0.350577 0.601898 0.197627
0.321527 0.552014 0.181248
0.388935 0.506134 0.167414
0.554058 0.511453 0.171857
0.719192 0.529713 0.180977
0.763543 0.537746 0.184477
0.769646 0.560001 0.191533
0.766823 0.550378 0.188503
0.448711 0.770381 0.252947
0.430130 0.738479 0.242472
0.402113 0.690378 0.226678
0.396957 0.637481 0.209617
0.531236 0.599573 0.199400
0.668742 0.597706 0.201244
0.781946 0.603915 0.205498
0.782499 0.602132 0.204953
0.787147 0.616935 0.209680
0.502913 0.863439 0.283501
0.488718 0.839068 0.275500
0.465622 0.799414 0.262479
0.439809 0.752716 0.247163
0.514828 0.684210 0.226160
0.638139 0.665041 0.221986
0.763315 0.663779 0.223892
0.799928 0.657935 0.222790
0.800578 0.660442 0.223590
0.539959 0.927042 0.304384
0.533236 0.915500 0.300595
0.516670 0.887057 0.291256
0.496272 0.852037 0.279757
0.505356 0.770834 0.253784
0.619122 0.736346 0.244360
0.735949 0.724121 0.242428
0.818181 0.719001 0.242349
0.817718 0.712486 0.240289
0.540281 0.927595 0.304566
0.540281 0.927595 0.304566
0.539414 0.926107 0.304077
0.535712 0.919751 0.301991
0.516172 0.866145 0.284527
0.607985 0.809366 0.267515
0.711651 0.788223 0.262355
0.813513 0.778966 0.261184
0.837686 0.768792 0.258419
0.006706 0.002746 0.018409
0.054006 0.021212 0.013787
0.415968 0.163324 0.065666
0.706305 0.277549 0.194182
0.724649 0.296478 0.397832
0.735200 0.344699 0.415149
0.738790 0.361570 0.416223
0.738790 0.361570 0.416223
0.738790 0.361570 0.416223
0.026987 0.039788 0.038109
0.015176 0.015429 0.013694
0.272586 0.107090 0.044767
0.579244 0.227455 0.109063
0.709504 0.280455 0.241713
0.724182 0.294974 0.395518
0.731775 0.329724 0.408457
0.738866 0.361484 0.417208
0.738790 0.361570 0.416223
0.177115 0.304084 0.099843
0.120310 0.206557 0.067821
0.179013 0.164964 0.055437
0.437018 0.222126 0.079361
0.655910 0.303133 0.110539
0.716406 0.339778 0.169411
0.728428 0.366451 0.280960
0.734678 0.381363 0.325323
0.741588 0.402430 0.355258
0.311015 0.533974 0.175325
0.273394 0.469383 0.154117
0.234451 0.399706 0.131259
0.388449 0.374106 0.125395
0.566672 0.400238 0.137266
0.726707 0.442352 0.154140
0.741008 0.453705 0.163131
0.746645 0.464859 0.219152
0.749246 0.464563 0.260827
0.401334 0.689041 0.226239
0.373519 0.641285 0.210559
0.340139 0.583976 0.191743
0.377727 0.529015 0.174578
0.536313 0.522980 0.175174
0.688912 0.540016 0.183535
0.767931 0.553586 0.189499
0.768141 0.555398 0.190218
0.767733 0.551406 0.200676
0.466257 0.800505 0.262837
0.448678 0.770324 0.252928
0.419221 0.719751 0.236323
0.396330 0.664959 0.218438
0.513293 0.614606 0.203906
0.644623 0.605660 0.203298
0.772548 0.616888 0.209358
0.790347 0.626414 0.212714
0.793739 0.638684 0.216627
0.517522 0.888521 0.291737
0.502079 0.862007 0.283031
0.478739 0.821935 0.269874
0.454087 0.779554 0.255959
0.495097 0.701260 0.231344
0.615306 0.676999 0.225401
0.739818 0.671952 0.226013
0.803764 0.669840 0.226605
0.808109 0.682155 0.230560
0.540281 0.927595 0.304566
0.539547 0.926334 0.304152
0.525619 0.902422 0.296301
0.508619 0.873236 0.286718
0.493537 0.795983 0.261710
0.598408 0.750596 0.248592
0.709213 0.734616 0.245284
0.809988 0.729214 0.245409
0.821168 0.721438 0.243175
0.540281 0.927595 0.304566
0.540281 0.927595 0.304566
0.540281 0.927595 0.304566
0.537743 0.923237 0.303135
0.523925 0.896032 0.294227
0.589132 0.825595 0.272446
0.688657 0.800079 0.265760
0.793776 0.789495 0.264160
0.838907 0.778850 0.261617
0.076292 0.031235 0.209420
0.054901 0.022255 0.129116
0.345864 0.136022 0.166082
0.682640 0.268429 0.313151
0.730235 0.288079 0.468050
0.736118 0.313450 0.481188
0.742263 0.360527 0.455651
0.740896 0.362253 0.437322
0.739360 0.361794 0.421396
0.135689 0.082384 0.355662
0.076918 0.037723 0.207549
0.258013 0.101724 0.187932
0.542674 0.213456 0.272227
0.722361 0.284264 0.394390
0.735644 0.293317 0.513207
0.740758 0.318563 0.514776
0.746101 0.358119 0.496373
0.746238 0.366923 0.481265
0.255755 0.368762 0.380952
0.174326 0.255125 0.250767
0.179465 0.180093 0.179716
0.418510 0.215873 0.189911
0.623296 0.285055 0.249819
0.725371 0.331855 0.331209
0.738011 0.357413 0.417624
0.746302 0.380481 0.454053
0.752053 0.406661 0.459281
0.340253 0.557832 0.312204
0.292002 0.487224 0.233885
0.246228 0.415543 0.174903
0.367481 0.372382 0.151626
0.539336 0.387808 0.177270
0.709455 0.426984 0.227112
0.745200 0.441052 0.285885
0.754013 0.455326 0.357174
0.759458 0.464432 0.394047
0.409401 0.696737 0.264307
0.380139 0.650071 0.228798
0.344966 0.591627 0.198117
0.357880 0.531037 0.175638
0.508818 0.515988 0.174436
0.651183 0.523522 0.189688
0.762606 0.538470 0.220739
0.768724 0.539900 0.265462
0.773346 0.544358 0.319307
0.479838 0.823786 0.270699
0.457284 0.785099 0.257779
0.425031 0.729725 0.239597
0.395920 0.676391 0.222109
0.494917 0.631327 0.208967
0.617815 0.622183 0.208042
0.746920 0.627065 0.212899
0.790372 0.625320 0.224726
0.791668 0.623788 0.257092
0.535685 0.919704 0.301975
0.524982 0.901328 0.295942
0.499844 0.858170 0.281771
0.472143 0.810611 0.266156
0.492022 0.746686 0.245866
0.604902 0.720705 0.239153
0.717757 0.712788 0.238514
0.812686 0.711326 0.239826
0.815170 0.703372 0.239744
0.540281 0.927595 0.304566
0.540281 0.927595 0.304566
0.539601 0.926427 0.304183
0.529053 0.908317 0.298236
0.503093 0.846661 0.278109
0.588322 0.792654 0.261890
0.691999 0.778517 0.258947
0.798383 0.779083 0.260946
0.840755 0.781257 0.262412
0.540281 0.927595 0.304566
0.540281 0.927595 0.304566
0.540281 0.927595 0.304566
0.540281 0.927595 0.304566
0.534591 0.917514 0.301258
0.573432 0.856895 0.282269
0.668396 0.830066 0.275011
0.771519 0.824315 0.274821
0.851406 0.827975 0.277375
0.194311 0.079555 0.533374
0.151911 0.062195 0.416967
0.314123 0.124491 0.372483
0.611554 0.241154 0.479006
0.746690 0.294504 0.599681
0.755576 0.298790 0.662735
0.749537 0.331862 0.569724
0.753692 0.373310 0.536671
0.751873 0.371591 0.521733
0.256470 0.139464 0.683632
0.197209 0.091678 0.535340
0.276717 0.110480 0.443082
0.526979 0.208076 0.475434
0.732216 0.288607 0.541627
0.749218 0.296663 0.616706
0.752896 0.312128 0.625028
0.753308 0.349631 0.576100
0.757862 0.381555 0.557186
0.360233 0.431559 0.704973
0.279065 0.315192 0.575439
0.228957 0.208826 0.459633
0.424265 0.222269 0.421791
0.611913 0.280707 0.441637
0.739772 0.332043 0.485452
0.749590 0.351426 0.538262
0.757609 0.379187 0.561321
0.763581 0.411843 0.550316
0.417681 0.600805 0.625442
0.357900 0.518144 0.528211
0.299235 0.434567 0.438364
0.377310 0.378993 0.377508
0.536130 0.386451 0.373569
0.700657 0.420095 0.398955
0.756353 0.436393 0.434408
0.764235 0.449433 0.483259
0.770326 0.463430 0.508545
0.459776 0.718595 0.539334
0.419944 0.660670 0.479518
0.375790 0.596142 0.413694
0.364686 0.530691 0.358108
0.501622 0.508959 0.336885
0.636664 0.513514 0.344875
0.765964 0.531247 0.370392
0.777370 0.532257 0.405030
0.782832 0.538825 0.446044
0.506618 0.830184 0.466349
0.477698 0.785267 0.430327
0.438410 0.724077 0.381709
0.404865 0.669623 0.343716
0.478659 0.619655 0.310541
0.599838 0.608483 0.310860
0.726462 0.613057 0.325942
0.794129 0.615661 0.349796
0.798734 0.615210 0.383273
0.541033 0.908891 0.406397
0.529291 0.891671 0.386115
0.499944 0.844578 0.353687
0.470068 0.795093 0.327831
0.471339 0.731709 0.294710
0.579639 0.704096 0.286810
0.689509 0.695707 0.294157
0.800746 0.697198 0.312760
0.818022 0.692003 0.335388
0.545223 0.928078 0.351007
0.544167 0.927820 0.342298
0.540801 0.924029 0.329785
0.526269 0.900017 0.316465
0.502109 0.854050 0.297564
0.571817 0.805912 0.280802
0.670490 0.785763 0.280656
0.775650 0.779138 0.289864
0.836466 0.773354 0.304367
0.540969 0.927571 0.311862
0.540590 0.927295 0.309513
0.540425 0.927519 0.306510
0.540279 0.927392 0.305719
0.538063 0.923607 0.304322
0.576645 0.906154 0.298891
0.665287 0.878751 0.291766
0.757415 0.864052 0.290466
0.845445 0.855599 0.295248
0.285093 0.116814 0.782209
0.284314 0.116476 0.780063
0.324331 0.130155 0.615781
0.572820 0.226837 0.647392
0.762288 0.301079 0.707354
0.772375 0.305328 0.771447
0.765803 0.306237 0.726720
0.759855 0.340280 0.638662
0.759796 0.365507 0.599404
0.348895 0.198470 0.924054
0.335567 0.177512 0.897729
0.309732 0.125642 0.683461
0.520381 0.206475 0.658339
0.722023 0.285214 0.678157
0.763104 0.301822 0.712779
0.768544 0.311622 0.737808
0.763443 0.338390 0.668101
0.764361 0.377684 0.619231
0.429114 0.456208 0.924847
0.379779 0.390803 0.835610
0.289564 0.250991 0.675837
0.437303 0.237238 0.607863
0.606705 0.282315 0.601003
0.754706 0.336407 0.615060
0.762268 0.350316 0.642984
0.769249 0.372898 0.663505
0.771889 0.405363 0.630116
0.513373 0.660623 0.927050
0.429544 0.557103 0.767740
0.358966 0.461046 0.649812
0.397721 0.393919 0.567449
0.542227 0.391194 0.543619
0.693032 0.416603 0.542971
0.769752 0.436596 0.558806
0.775675 0.445954 0.589616
0.782033 0.463131 0.608089
0.529465 0.759716 0.797135
0.475144 0.686178 0.705213
0.420109 0.608966 0.618244
0.390014 0.539377 0.548677
0.509292 0.509719 0.509457
0.633974 0.510130 0.500796
0.766615 0.528166 0.507382
0.788892 0.529754 0.527365
0.793525 0.535132 0.554774
0.546099 0.835650 0.691822
0.518476 0.798489 0.642577
0.474723 0.733082 0.582746
0.437142 0.675192 0.535047
0.486270 0.620207 0.484581
0.599300 0.605630 0.468352
0.719943 0.607376 0.469729
0.801060 0.612308 0.481528
0.808180 0.610564 0.502176
0.561243 0.893728 0.606992
0.548452 0.876929 0.581506
0.523298 0.841038 0.540396
0.495560 0.797502 0.508217
0.479375 0.731975 0.461641
0.579510 0.699368 0.440948
0.683010 0.689414 0.436430
0.792617 0.690419 0.444086
0.827085 0.686964 0.459877
0.568482 0.928131 0.536052
0.563335 0.922732 0.520039
0.553067 0.909581 0.496617
0.536674 0.884908 0.473016
0.514927 0.848936 0.447025
0.568252 0.800247 0.415326
0.662667 0.779109 0.408192
0.764029 0.770626 0.411620
0.836861 0.765808 0.422273
0.560426 0.929988 0.470273
0.558836 0.929467 0.460201
0.556883 0.929478 0.444835
0.554692 0.928426 0.431819
0.550812 0.923144 0.423459
0.567878 0.896956 0.397905
0.651475 0.866726 0.385133
0.739528 0.850023 0.383403
0.827785 0.839434 0.389055
0.335398 0.146094 0.914260
0.334969 0.145683 0.913161
0.353792 0.143535 0.844215
0.555886 0.221248 0.810942
0.761559 0.301353 0.819090
0.785335 0.310780 0.848195
0.786965 0.312007 0.857229
0.771680 0.325677 0.742136
0.767451 0.361173 0.668869
0.360397 0.241976 0.926752
0.360195 0.241240 0.926720
0.348983 0.147693 0.896252
0.517566 0.206495 0.816441
0.697274 0.276215 0.801114
0.778056 0.308175 0.806276
0.782394 0.314860 0.825708
0.776894 0.333448 0.768470
0.772968 0.368184 0.694992
0.438876 0.470201 0.940988
0.438703 0.469769 0.940955
0.357837 0.303439 0.861947
0.450006 0.257687 0.762941
0.602980 0.288311 0.732027
0.767211 0.343087 0.727615
0.776147 0.354501 0.736263
0.782243 0.372900 0.754529
0.781812 0.400608 0.710991
0.521537 0.662045 0.958021
0.496606 0.606749 0.952625
0.415490 0.488402 0.827877
0.416784 0.409694 0.724059
0.548476 0.398863 0.680390
0.686399 0.417300 0.667106
0.783235 0.439504 0.669270
0.788074 0.445932 0.686587
0.793808 0.459569 0.704087
0.575492 0.776980 0.970207
0.541770 0.719947 0.935837
0.466838 0.625625 0.796215
0.421355 0.553751 0.708939
0.517955 0.515973 0.651199
0.635551 0.512290 0.630693
0.761682 0.525415 0.626493
0.801320 0.529597 0.632759
0.804905 0.533559 0.651312
0.584696 0.827364 0.906321
0.560981 0.802477 0.850182
0.515672 0.746324 0.761601
0.473587 0.686239 0.697502
0.499411 0.624669 0.631395
0.604269 0.605725 0.603769
0.716686 0.605086 0.593961
0.807443 0.610367 0.595474
0.819483 0.608473 0.607551
0.585370 0.874305 0.798424
0.571929 0.860598 0.763656
0.548159 0.833286 0.709482
0.523463 0.799487 0.667343
0.497325 0.737072 0.614214
0.585304 0.699663 0.578258
0.682661 0.687245 0.566246
0.788827 0.687333 0.564039
0.837558 0.684875 0.569784
0.588739 0.913500 0.710198
0.580852 0.905860 0.687211
0.566125 0.888859 0.651893
0.550853 0.868908 0.621949
0.533589 0.843978 0.593677
0.574045 0.799612 0.553543
0.662488 0.775312 0.536752
0.758114 0.764816 0.529925
0.836309 0.758425 0.533134
0.586398 0.933455 0.635264
0.584036 0.933029 0.621852
0.577668 0.928108 0.597599
0.567959 0.916006 0.575645
0.557365 0.900632 0.558990
0.567823 0.886161 0.528410
0.645625 0.854838 0.506305
0.728413 0.836665 0.498317
0.815963 0.825889 0.496280
0.346762 0.181993 0.924214
0.346657 0.181368 0.924193
0.346137 0.142236 0.917154
0.539565 0.215742 0.925172
0.723437 0.287121 0.928130
0.799342 0.316672 0.927239
0.799401 0.316891 0.928651
0.788864 0.324082 0.856320
0.778830 0.352176 0.757661
0.375106 0.292179 0.929311
0.374898 0.291503 0.929275
0.345243 0.174010 0.923892
0.508616 0.205481 0.923725
0.675186 0.268759 0.912227
0.793578 0.315297 0.896378
0.794769 0.320114 0.897733
0.794214 0.334424 0.879016
0.784193 0.362989 0.780160
0.446014 0.487919 0.942383
0.445856 0.487532 0.942352
0.394157 0.350450 0.932602
0.462835 0.283041 0.902043
0.600305 0.297914 0.849009
0.753066 0.344253 0.828809
0.790501 0.361218 0.823949
0.795126 0.375666 0.836151
0.794249 0.398666 0.800575
0.517490 0.653370 0.956805
0.517398 0.653166 0.956786
0.457636 0.516457 0.944279
0.441539 0.431148 0.873233
0.555798 0.409340 0.805834
0.682295 0.420807 0.780817
0.796926 0.445245 0.770925
0.801074 0.448259 0.774391
0.806452 0.460550 0.793191
0.566531 0.758449 0.967762
0.554527 0.733069 0.965204
0.513694 0.646907 0.952700
0.460130 0.571057 0.863936
0.530185 0.523610 0.784502
0.637726 0.514996 0.748247
0.758752 0.525614 0.735052
0.815098 0.531622 0.732846
0.817424 0.533786 0.744279
0.598021 0.823435 0.975658
0.583738 0.794659 0.970992
0.557171 0.753527 0.936769
0.514270 0.698978 0.857683
0.515420 0.631030 0.768806
0.611997 0.608137 0.730328
0.717197 0.604818 0.708645
0.813296 0.610350 0.700091
0.831899 0.608435 0.705097
0.611879 0.860779 0.959514
0.598120 0.846938 0.925850
0.573644 0.821047 0.868339
0.550007 0.793220 0.818808
0.521184 0.744818 0.757973
0.595322 0.702673 0.708922
0.686006 0.686310 0.685832
0.787300 0.684216 0.674905
0.848368 0.681589 0.672179
0.609774 0.894332 0.872502
0.601001 0.886698 0.847182
0.584596 0.870500 0.804092
0.567278 0.851497 0.762914
0.552422 0.834260 0.729114
0.581207 0.795743 0.679523
0.662964 0.769637 0.653532
0.751782 0.756746 0.639818
0.832938 0.749572 0.634124
0.608589 0.923203 0.792932
0.602756 0.918499 0.774145
0.591300 0.907861 0.740637
0.579238 0.895230 0.708893
0.568614 0.882800 0.684388
0.572063 0.874006 0.648916
0.641804 0.843388 0.620345
0.719955 0.824361 0.603465
0.804223 0.812909 0.596664
0.362368 0.235701 0.926066
0.362231 0.235009 0.926027
0.345167 0.173038 0.924008
0.497125 0.199365 0.925459
0.671421 0.266900 0.928999
0.800366 0.317101 0.932515
0.800246 0.317392 0.932472
0.801613 0.324874 0.932103
0.792723 0.348854 0.852491
0.390344 0.338929 0.931943
0.390142 0.338312 0.931906
0.362624 0.249903 0.927163
0.471585 0.200231 0.925052
0.639036 0.257544 0.928502
0.790635 0.316222 0.931596
0.800921 0.324039 0.930675
0.803593 0.335810 0.932396
0.798517 0.361482 0.874701
0.453035 0.505083 0.943755
0.452909 0.504777 0.943730
0.412420 0.401561 0.935923
0.445113 0.302959 0.930051
0.591982 0.309329 0.926251
0.738268 0.346414 0.921668
0.806700 0.371258 0.912360
0.809428 0.381263 0.916901
0.809222 0.400149 0.893488
0.512988 0.643245 0.956197
0.512896 0.643041 0.956177
0.470368 0.546574 0.946993
0.446257 0.450339 0.939325
0.563657 0.421646 0.925429
0.680716 0.427409 0.889521
0.802183 0.449867 0.869133
0.816056 0.453501 0.864306
0.820569 0.463046 0.879464
0.558987 0.742382 0.966434
0.558939 0.742279 0.966424
0.522373 0.663951 0.958065
0.489371 0.590534 0.950469
0.547381 0.533929 0.921356
0.644280 0.520943 0.867710
0.758077 0.527578 0.841361
0.830208 0.535543 0.832558
0.830762 0.535043 0.837590
0.593726 0.814623 0.974633
0.582434 0.791415 0.971786
0.561276 0.747246 0.966877
0.541877 0.707762 0.959336
0.536500 0.640029 0.913305
0.622748 0.612872 0.856348
0.719846 0.606704 0.825259
0.818520 0.610981 0.809702
0.845021 0.607184 0.803021
0.612040 0.852052 0.979004
0.603485 0.834755 0.976672
0.589115 0.807923 0.967831
0.573592 0.783399 0.948943
0.547500 0.748427 0.892676
0.605358 0.703531 0.836271
0.689375 0.685433 0.802870
0.784847 0.680627 0.781147
0.858807 0.679100 0.771510
0.624881 0.881161 0.975344
0.618657 0.872005 0.966458
0.602897 0.854324 0.931870
0.585703 0.835977 0.891861
0.573035 0.824833 0.856611
0.588134 0.789318 0.800578
0.664162 0.762095 0.766362
0.746413 0.747712 0.745728
0.829407 0.740132 0.733042
0.626509 0.907867 0.922655
0.619995 0.902239 0.904086
0.607649 0.890840 0.870371
0.594690 0.878552 0.835415
0.582680 0.864780 0.808673
0.581689 0.861501 0.767859
0.640500 0.831336 0.728616
0.714460 0.813340 0.707411
0.794347 0.800601 0.693017
0.381822 0.287022 0.928782
0.381704 0.286390 0.928749
0.380453 0.282370 0.928577
0.450154 0.186170 0.923940
0.626085 0.249592 0.927490
0.791234 0.313767 0.932173
0.800370 0.318245 0.932074
0.801573 0.324606 0.932966
0.804329 0.347924 0.924370
0.403012 0.372584 0.934055
0.402850 0.372066 0.934020
0.396510 0.354972 0.932940
0.432864 0.210280 0.925563
0.600436 0.249866 0.927290
0.761932 0.309324 0.931724
0.802267 0.327979 0.932855
0.804126 0.337817 0.933552
0.807639 0.360430 0.930058
0.454769 0.509274 0.944108
0.454654 0.508996 0.944086
0.440631 0.474821 0.941007
0.422035 0.327089 0.930899
0.565969 0.318144 0.930897
0.707767 0.346741 0.933440
0.810003 0.377656 0.936159
0.813282 0.384941 0.936440
0.816816 0.401240 0.937412
0.509832 0.636275 0.955499
0.509753 0.636099 0.955483
0.485389 0.581223 0.950340
0.443285 0.473658 0.941174
0.547631 0.431014 0.938447
0.667305 0.432611 0.938778
0.795907 0.453658 0.940690
0.828884 0.459824 0.934798
0.830511 0.465734 0.937081
0.552361 0.728466 0.964739
0.552316 0.728370 0.964729
0.526910 0.673789 0.959146
0.496320 0.606148 0.952489
0.537261 0.541442 0.946862
0.643900 0.526684 0.946034
0.755160 0.530086 0.933207
0.843068 0.540425 0.923894
0.845373 0.538300 0.922717
0.585416 0.797589 0.972478
0.585383 0.797522 0.972470
0.558064 0.740449 0.966191
0.541285 0.704852 0.962252
0.535374 0.646241 0.956482
0.628256 0.616965 0.949378
0.721163 0.608406 0.926578
0.820676 0.611251 0.911054
0.858777 0.608225 0.898333
0.610843 0.849614 0.978726
0.600665 0.828844 0.976302
0.584729 0.796089 0.972477
0.572166 0.770042 0.969444
0.561362 0.745395 0.965929
0.609024 0.700069 0.934995
0.691137 0.681721 0.907995
0.780186 0.674539 0.881853
0.860680 0.673866 0.863399
0.622420 0.873035 0.981618
0.615937 0.860105 0.979638
0.607037 0.841857 0.977827
0.597437 0.823330 0.973259
0.586807 0.810162 0.952857
0.594427 0.781968 0.908352
0.664357 0.753189 0.869020
0.741124 0.737972 0.845504
0.824900 0.731038 0.828201
0.632939 0.894474 0.983642
0.629202 0.888825 0.978646
0.620515 0.877152 0.963819
0.608689 0.863496 0.938686
0.597048 0.849835 0.914377
0.595051 0.854201 0.876124
0.642423 0.821264 0.831972
0.711534 0.801937 0.807083
0.787375 0.789077 0.788234
