output/ProPhoto/ProPhoto_to_CLASSIC-CHROME_33grid.cube
TITLE "ProPhoto_to_CLASSIC-CHROME"
# Input: ProPhoto RGB, gamma 1.8 (D50)
# Output: ProPhoto RGB, gamma 1.8 (D50) with film simulation look
# Use: Photoshop 3D LUT adjustment layer on standard ProPhoto document
# Source: FLog2C_to_CLASSIC-CHROME_65grid_V.1.00.cube
# Generated from Fujifilm GFX ETERNA 55 F-Log2C LUT
LUT_3D_SIZE 33
0.000020 0.000013 0.000007
0.001028 0.000440 0.000166
0.009204 0.003659 0.001370
0.033326 0.013114 0.004974
0.077382 0.030446 0.011729
0.145001 0.057037 0.022408
0.229040 0.090220 0.036137
0.325422 0.128287 0.053796
0.416926 0.164970 0.074034
0.493524 0.196623 0.095300
0.557416 0.224653 0.122774
0.609543 0.249658 0.155564
0.655171 0.274707 0.193720
0.682901 0.295787 0.236338
0.689624 0.310581 0.275784
0.694070 0.326185 0.307075
0.696698 0.339062 0.320218
0.699733 0.353218 0.334687
0.703369 0.368385 0.349682
0.707756 0.384443 0.364407
0.710918 0.395127 0.374445
0.713433 0.403278 0.382384
0.713467 0.403390 0.382491
0.713467 0.403390 0.382491
0.713467 0.403390 0.382491
0.713467 0.403390 0.382491
0.713467 0.403390 0.382491
0.713467 0.403390 0.382491
0.713467 0.403390 0.382491
0.713467 0.403390 0.382491
0.713467 0.403390 0.382491
0.713467 0.403390 0.382491
0.713467 0.403390 0.382491
0.000507 0.000870 0.000288
0.000496 0.000696 0.000234
0.006832 0.002705 0.001014
0.028193 0.011096 0.004279
0.068345 0.026879 0.010339
0.131115 0.051575 0.020198
0.213901 0.084199 0.033474
0.305108 0.120251 0.050152
0.396989 0.156926 0.069095
0.478059 0.190069 0.090580
0.544715 0.218882 0.116557
0.599312 0.244605 0.148288
0.647223 0.270073 0.186368
0.678903 0.292319 0.229724
0.689184 0.308761 0.271123
0.693690 0.325088 0.305365
0.696589 0.338605 0.319706
0.699762 0.353356 0.334810
0.703398 0.368525 0.349798
0.707787 0.384586 0.364532
0.710935 0.395201 0.374517
0.713449 0.403329 0.382433
0.713467 0.403390 0.382491
0.713467 0.403390 0.382491
0.713467 0.403390 0.382491
0.713467 0.403390 0.382491
0.713467 0.403390 0.382491
0.713467 0.403390 0.382491
0.713467 0.403390 0.382491
0.713467 0.403390 0.382491
0.713467 0.403390 0.382491
0.713467 0.403390 0.382491
0.713467 0.403390 0.382491
0.002576 0.004421 0.001452
0.002059 0.003533 0.001160
0.004364 0.003368 0.001146
0.020594 0.008419 0.003139
0.052659 0.020798 0.007934
0.104416 0.041088 0.015957
0.173098 0.068117 0.027019
0.257039 0.101201 0.041197
0.344985 0.136042 0.057713
0.427847 0.169432 0.076072
0.498740 0.198977 0.097472
0.557443 0.224942 0.123289
0.607492 0.248777 0.153928
0.650786 0.272114 0.190068
0.681378 0.293342 0.230087
0.688827 0.307897 0.269362
0.692253 0.322266 0.299083
0.695797 0.335774 0.317049
0.699252 0.349313 0.330699
0.702234 0.364316 0.344505
0.706495 0.380411 0.360129
0.711161 0.396759 0.376022
0.712568 0.400850 0.380020
0.713467 0.403390 0.382491
0.713467 0.403390 0.382491
0.713467 0.403390 0.382491
0.713467 0.403390 0.382491
0.713467 0.403390 0.382491
0.713467 0.403390 0.382491
0.713467 0.403390 0.382491
0.713467 0.403390 0.382491
0.713467 0.403390 0.382491
0.713467 0.403390 0.382491
0.007807 0.013403 0.004401
0.006826 0.011720 0.003848
0.005975 0.009941 0.003266
0.013930 0.009572 0.003292
0.039769 0.017310 0.006359
0.081384 0.033020 0.012351
0.141001 0.056042 0.021431
0.211549 0.083684 0.032661
0.291295 0.115105 0.047185
0.373045 0.147403 0.063010
0.444884 0.176453 0.080854
0.508597 0.203181 0.101532
0.562156 0.226930 0.125586
0.607726 0.248915 0.153794
0.647604 0.270484 0.187183
0.680658 0.291887 0.224227
0.687807 0.304706 0.261015
0.692190 0.317604 0.290265
0.695320 0.330414 0.312000
0.697938 0.342729 0.324109
0.701080 0.355900 0.337261
0.704462 0.369602 0.350720
0.708132 0.384813 0.365838
0.711427 0.397901 0.378462
0.712662 0.401358 0.381127
0.713467 0.403390 0.382491
0.713467 0.403390 0.382491
0.713467 0.403390 0.382491
0.713467 0.403390 0.382491
0.713467 0.403390 0.382491
0.713467 0.403390 0.382491
0.713467 0.403390 0.382491
0.713467 0.403390 0.382491
0.018097 0.031071 0.010202
0.016658 0.028600 0.009391
0.014802 0.025413 0.008348
0.014607 0.021510 0.007089
0.031174 0.022758 0.007781
0.066312 0.032176 0.011584
0.115617 0.049828 0.018352
0.179709 0.073905 0.027724
0.249526 0.101083 0.038581
0.327437 0.131806 0.052321
0.399939 0.161009 0.066914
0.465222 0.187833 0.083891
0.520016 0.210882 0.102734
0.567252 0.231666 0.125662
0.608535 0.251200 0.152736
0.645602 0.270425 0.183128
0.677042 0.289797 0.218331
0.686684 0.302475 0.252269
0.690335 0.314031 0.282431
0.693460 0.325907 0.304501
0.696192 0.337127 0.318324
0.698822 0.348377 0.329602
0.701867 0.361128 0.342629
0.705164 0.374108 0.355417
0.708680 0.387125 0.367992
0.711625 0.397800 0.378018
0.712660 0.400989 0.380610
0.713467 0.403390 0.382491
0.713467 0.403390 0.382491
0.713467 0.403390 0.382491
0.713467 0.403390 0.382491
0.713467 0.403390 0.382491
0.713467 0.403390 0.382491
0.032136 0.055173 0.018116
0.029601 0.050821 0.016687
0.025373 0.043562 0.014303
0.023187 0.039278 0.012900
0.031090 0.037641 0.012484
0.057268 0.042134 0.014397
0.100624 0.053734 0.019054
0.156356 0.072320 0.026258
0.221545 0.096529 0.035562
0.290635 0.122758 0.046079
0.360965 0.150514 0.058021
0.424920 0.176941 0.071358
0.481124 0.201020 0.086724
0.530188 0.222782 0.104512
0.573001 0.243100 0.125301
0.611060 0.262684 0.149235
0.646129 0.281958 0.177004
0.671965 0.299118 0.210036
0.687846 0.313666 0.243083
0.691683 0.325099 0.273900
0.693881 0.333549 0.294277
0.695550 0.341198 0.310869
0.697867 0.349523 0.322091
0.700466 0.358540 0.333444
0.703831 0.369376 0.345594
0.707140 0.380472 0.357502
0.710034 0.391798 0.369562
0.712714 0.401902 0.380032
0.713109 0.402694 0.381307
0.713410 0.403300 0.382238
0.713463 0.403398 0.382425
0.713466 0.403392 0.382469
0.713467 0.403390 0.382491
0.052070 0.089397 0.029353
0.049034 0.084186 0.027642
0.043230 0.074220 0.024369
0.038628 0.066262 0.021757
0.039309 0.061421 0.020210
0.055797 0.060529 0.020165
0.091056 0.066590 0.022765
0.141469 0.079825 0.028086
0.199886 0.099369 0.035631
0.263345 0.122147 0.044363
0.331011 0.148086 0.054452
0.394116 0.173808 0.065273
0.450982 0.197720 0.077420
0.500983 0.220045 0.091722
0.544270 0.240906 0.108099
0.582734 0.260634 0.126696
0.617462 0.279599 0.149178
0.649986 0.299792 0.175453
0.674250 0.317377 0.203915
0.687659 0.331426 0.234102
0.692946 0.342486 0.262024
0.696622 0.352432 0.287397
0.698176 0.358654 0.300369
0.700106 0.365178 0.312614
0.702907 0.372330 0.323833
0.705462 0.379932 0.335074
0.707429 0.388715 0.346812
0.709561 0.397290 0.358048
0.712157 0.404498 0.367568
0.714690 0.411431 0.376732
0.714946 0.411206 0.378757
0.714755 0.409523 0.379059
0.714612 0.408204 0.379334
0.075733 0.130024 0.042692
0.071379 0.122549 0.040238
0.064477 0.110698 0.036347
0.057321 0.098412 0.032313
0.054300 0.091336 0.030002
0.062619 0.087249 0.028797
0.088329 0.089051 0.029775
0.132161 0.097792 0.033398
0.187038 0.112696 0.039318
0.244878 0.131122 0.046476
0.306264 0.152475 0.054675
0.367486 0.176787 0.063955
0.424871 0.200737 0.073816
0.475534 0.223036 0.084841
0.519306 0.243701 0.097494
0.558055 0.263307 0.112125
0.593944 0.282578 0.129599
0.626149 0.302247 0.152034
0.656651 0.321811 0.176706
0.685666 0.341228 0.203249
0.691979 0.352910 0.230820
0.695430 0.363210 0.257506
0.698043 0.370836 0.278162
0.700490 0.377543 0.295130
0.702390 0.382685 0.305581
0.704418 0.388317 0.316238
0.706822 0.394766 0.327502
0.709335 0.401523 0.338582
0.711982 0.410231 0.349654
0.714558 0.418872 0.360462
0.715996 0.422491 0.366277
0.717266 0.425138 0.371230
0.717914 0.426195 0.374776
0.102941 0.176737 0.058030
0.098353 0.168860 0.055444
0.089486 0.153636 0.050445
0.082375 0.141426 0.046436
0.075894 0.129838 0.042634
0.077631 0.122644 0.040343
0.093765 0.118963 0.039384
0.130991 0.124239 0.041679
0.178462 0.133682 0.045606
0.232193 0.148069 0.051318
0.290523 0.167103 0.058645
0.349173 0.188776 0.066832
0.404914 0.210822 0.075189
0.455581 0.232500 0.083868
0.499756 0.252609 0.093514
0.539113 0.272147 0.105188
0.575555 0.292223 0.118922
0.606901 0.311030 0.135638
0.636824 0.329690 0.154941
0.665350 0.348165 0.176363
0.682574 0.362876 0.201342
0.695879 0.376309 0.226951
0.700032 0.386926 0.252180
0.703088 0.394698 0.272612
0.704400 0.398434 0.285404
0.705928 0.402444 0.297156
0.707614 0.406818 0.307619
0.709350 0.411669 0.318057
0.711528 0.418191 0.328926
0.713761 0.424609 0.339643
0.716296 0.430842 0.350437
0.718751 0.436979 0.360823
0.720195 0.440496 0.367783
0.130966 0.224852 0.073828
0.125854 0.216075 0.070946
0.116482 0.199984 0.065663
0.108210 0.185783 0.061000
0.100785 0.172922 0.056778
0.098452 0.163570 0.053744
0.107658 0.156067 0.051452
0.135321 0.157190 0.052214
0.177636 0.164147 0.055153
0.227976 0.175015 0.059583
0.281382 0.189845 0.065403
0.337607 0.208794 0.072627
0.390896 0.228075 0.079926
0.439529 0.247909 0.087407
0.483773 0.267665 0.095241
0.523779 0.286508 0.103858
0.560002 0.304349 0.113962
0.591954 0.322764 0.126743
0.621594 0.340677 0.142027
0.649471 0.358049 0.159492
0.674443 0.375000 0.180473
0.693156 0.389724 0.202376
0.699440 0.400561 0.225331
0.704068 0.409435 0.247014
0.706913 0.416117 0.266756
0.709078 0.420789 0.282026
0.710338 0.423087 0.291892
0.711759 0.425883 0.301803
0.713413 0.430070 0.311906
0.714953 0.434209 0.321702
0.717179 0.440063 0.332567
0.719430 0.445833 0.343248
0.721161 0.450214 0.352030
0.159682 0.274153 0.090015
0.155244 0.266534 0.087514
0.145328 0.249510 0.081925
0.135742 0.233051 0.076520
0.126855 0.217781 0.071506
0.121763 0.206371 0.067778
0.126334 0.198602 0.065338
0.146456 0.196236 0.064847
0.181512 0.199702 0.066489
0.227354 0.207658 0.069822
0.276536 0.219324 0.074473
0.329658 0.234908 0.080506
0.381540 0.252039 0.087072
0.429642 0.269758 0.093751
0.472097 0.286870 0.100247
0.511039 0.303448 0.106870
0.547247 0.319912 0.114197
0.579617 0.337742 0.123872
0.609417 0.354730 0.135277
0.637360 0.371086 0.148473
0.662660 0.387388 0.165648
0.683512 0.402061 0.183999
0.698133 0.414643 0.203338
0.706643 0.425670 0.224884
0.709930 0.435150 0.248483
0.712291 0.440521 0.265585
0.713823 0.442500 0.276278
0.715283 0.444744 0.286720
0.716406 0.447154 0.296770
0.717483 0.449447 0.306768
0.719254 0.453705 0.316918
0.721027 0.457923 0.326907
0.722888 0.461921 0.336348
0.187307 0.321582 0.105588
0.182745 0.313751 0.103017
0.173980 0.298702 0.098076
0.164856 0.283038 0.092933
0.154729 0.265647 0.087223
0.148437 0.253787 0.083336
0.148394 0.243540 0.080042
0.161747 0.237363 0.078228
0.192008 0.238672 0.079072
0.232718 0.242875 0.081065
0.277326 0.251500 0.084604
0.326883 0.265228 0.089915
0.376623 0.279585 0.095503
0.422713 0.294557 0.101319
0.465375 0.310479 0.107345
0.503382 0.325176 0.112940
0.537685 0.339550 0.118573
0.569066 0.355497 0.125496
0.597800 0.371068 0.133863
0.625104 0.386334 0.143867
0.651698 0.402099 0.156697
0.675990 0.417235 0.171791
0.697720 0.431736 0.189443
0.708773 0.442542 0.207434
0.712680 0.450892 0.226037
0.715334 0.457290 0.243615
0.717087 0.462087 0.260077
0.718641 0.465047 0.273297
0.719856 0.465637 0.281815
0.720956 0.466267 0.290414
0.721943 0.468788 0.300935
0.723106 0.471421 0.311438
0.724649 0.474754 0.321385
0.214479 0.368234 0.120906
0.210410 0.361247 0.118612
0.201793 0.346453 0.113755
0.192278 0.330117 0.108391
0.182398 0.313154 0.102821
0.175090 0.300210 0.098574
0.172973 0.290165 0.095319
0.181645 0.282281 0.092894
0.205622 0.279517 0.092326
0.241473 0.281527 0.093501
0.282790 0.287413 0.096072
0.328400 0.296615 0.099847
0.375229 0.309228 0.104794
0.418943 0.321492 0.109619
0.460420 0.335326 0.114974
0.497566 0.349253 0.120302
0.531582 0.362836 0.125483
0.563059 0.375835 0.130457
0.592184 0.390741 0.136790
0.619625 0.405551 0.144114
0.644833 0.420028 0.154009
0.668938 0.434295 0.165818
0.692061 0.448327 0.179383
0.704801 0.459390 0.194224
0.712347 0.468927 0.210219
0.717665 0.477207 0.228059
0.721839 0.484802 0.247263
0.723916 0.488184 0.261294
0.723791 0.487069 0.269087
0.723912 0.486250 0.277088
0.724843 0.487221 0.286750
0.725717 0.488119 0.296393
0.727137 0.490279 0.305896
0.239616 0.411387 0.135075
0.235518 0.404353 0.132765
0.228266 0.391901 0.128677
0.219140 0.376236 0.123534
0.210067 0.360659 0.118419
0.201597 0.346029 0.113616
0.197485 0.334819 0.109963
0.202353 0.325518 0.107033
0.221354 0.320421 0.105641
0.251949 0.319526 0.105789
0.290098 0.323133 0.107550
0.332832 0.330773 0.110746
0.376198 0.339867 0.114516
0.418705 0.349736 0.118584
0.459482 0.363011 0.123596
0.495948 0.375081 0.128343
0.529444 0.387380 0.133117
0.560297 0.400078 0.137893
0.587361 0.412888 0.142877
0.613311 0.425675 0.148224
0.638238 0.438725 0.154580
0.661631 0.452190 0.163073
0.683898 0.465726 0.173935
0.700972 0.477008 0.185944
0.715947 0.487315 0.199122
0.722235 0.495836 0.214567
0.725511 0.503643 0.231491
0.727487 0.507311 0.245234
0.728351 0.507734 0.255916
0.729160 0.508014 0.266139
0.729666 0.507448 0.274210
0.730194 0.506998 0.282447
0.731006 0.507996 0.291370
0.262713 0.451028 0.148091
0.259662 0.445791 0.146371
0.252731 0.433897 0.142466
0.243762 0.418507 0.137412
0.234693 0.402932 0.132299
0.226824 0.389335 0.127835
0.220211 0.375251 0.123229
0.222997 0.366018 0.120294
0.238175 0.360970 0.118864
0.265019 0.358801 0.118535
0.299419 0.360189 0.119514
0.337986 0.364600 0.121609
0.379060 0.371641 0.124642
0.420354 0.380654 0.128355
0.459079 0.390671 0.132412
0.494786 0.401594 0.136769
0.527729 0.413229 0.141318
0.558171 0.425128 0.145910
0.585375 0.436087 0.150180
0.610927 0.447616 0.154745
0.634722 0.459819 0.159711
0.657804 0.472216 0.165770
0.680176 0.484455 0.172663
0.699875 0.495568 0.181738
0.718576 0.506181 0.192313
0.725105 0.514376 0.204454
0.728842 0.521877 0.218020
0.730935 0.526434 0.231129
0.732060 0.529278 0.243828
0.733172 0.531031 0.255649
0.733793 0.529533 0.263655
0.734356 0.527956 0.271721
0.734744 0.527524 0.280205
0.284259 0.487999 0.160230
0.281400 0.483094 0.158619
0.275633 0.473206 0.155373
0.267499 0.459246 0.150789
0.259378 0.445308 0.146212
0.251125 0.431110 0.141551
0.243813 0.416878 0.136889
0.244039 0.406570 0.133578
0.254628 0.399432 0.131417
0.278158 0.396207 0.130701
0.309724 0.396418 0.131279
0.345600 0.398868 0.132651
0.384733 0.404234 0.135111
0.424296 0.411610 0.138328
0.462051 0.420004 0.141873
0.496494 0.429561 0.145741
0.528575 0.439976 0.149858
0.558544 0.450493 0.153982
0.585256 0.460323 0.157822
0.610264 0.470861 0.161881
0.633764 0.481831 0.166074
0.656058 0.492474 0.170707
0.677561 0.502803 0.175505
0.696955 0.513315 0.182229
0.715685 0.523540 0.189776
0.724108 0.531699 0.199455
0.731140 0.539409 0.210604
0.734756 0.545370 0.222938
0.736982 0.550492 0.236347
0.738499 0.553059 0.247955
0.738548 0.550897 0.254340
0.738605 0.548706 0.260929
0.738632 0.547506 0.268657
0.304131 0.522096 0.171427
0.301800 0.518099 0.170114
0.296360 0.508770 0.167050
0.289077 0.496277 0.162948
0.281499 0.483269 0.158677
0.273362 0.469284 0.154085
0.266269 0.456191 0.149792
0.264766 0.445619 0.146376
0.272796 0.437929 0.144006
0.292765 0.433113 0.142750
0.321107 0.432032 0.142850
0.354451 0.432623 0.143607
0.391281 0.437030 0.145724
0.428909 0.442946 0.148427
0.465668 0.449842 0.151481
0.499688 0.458069 0.154860
0.530717 0.467121 0.158565
0.559747 0.476273 0.162270
0.586224 0.485331 0.165806
0.610668 0.494739 0.169468
0.633751 0.504168 0.173137
0.655103 0.513424 0.176937
0.675688 0.522433 0.180714
0.694470 0.532212 0.185643
0.712691 0.541692 0.190717
0.723908 0.549487 0.198120
0.734665 0.557028 0.206628
0.738908 0.563434 0.217270
0.741460 0.569441 0.229547
0.743005 0.572173 0.239901
0.743003 0.570281 0.246266
0.743023 0.568411 0.252812
0.742963 0.566957 0.259451
0.322110 0.552937 0.181554
0.320003 0.549325 0.180368
0.315176 0.541052 0.177651
0.308818 0.530139 0.174067
0.301516 0.517610 0.169953
0.294036 0.504763 0.165735
0.287517 0.492931 0.161854
0.285065 0.482828 0.158578
0.291212 0.474690 0.156051
0.307861 0.468770 0.154409
0.333141 0.466252 0.153987
0.364221 0.465730 0.154435
0.398462 0.469317 0.156193
0.434415 0.473664 0.158343
0.470062 0.479246 0.160934
0.503885 0.486157 0.163885
0.533605 0.493996 0.167255
0.561775 0.502064 0.170609
0.588192 0.510332 0.173852
0.611873 0.518548 0.177202
0.634315 0.526594 0.180536
0.654912 0.535051 0.183868
0.674791 0.543350 0.187158
0.693272 0.552006 0.190676
0.710975 0.560359 0.194240
0.725244 0.567659 0.199541
0.739108 0.574734 0.205398
0.742730 0.580466 0.213488
0.744877 0.585895 0.223117
0.746291 0.588611 0.232012
0.746935 0.588552 0.239578
0.747605 0.588459 0.247579
0.747395 0.586379 0.253087
0.338608 0.581230 0.190853
0.336709 0.577977 0.189783
0.332362 0.570525 0.187335
0.326553 0.560558 0.184064
0.320338 0.549890 0.180562
0.313159 0.537579 0.176511
0.306868 0.526361 0.172830
0.303561 0.516244 0.169544
0.308017 0.508017 0.166978
0.322401 0.501852 0.165232
0.345561 0.498762 0.164621
0.374319 0.498960 0.165198
0.406277 0.499350 0.166019
0.440986 0.502570 0.167701
0.475065 0.507162 0.169961
0.507554 0.512727 0.172664
0.537088 0.520001 0.175695
0.564837 0.527088 0.178621
0.590991 0.533983 0.181443
0.613859 0.541831 0.184681
0.635714 0.549583 0.187894
0.656065 0.557092 0.190956
0.675476 0.564279 0.193927
0.693081 0.570860 0.196764
0.710011 0.577539 0.199759
0.725527 0.585193 0.203741
0.740591 0.592613 0.207785
0.744742 0.597791 0.213282
0.748393 0.602750 0.219537
0.750519 0.605978 0.226544
0.751583 0.607922 0.234400
0.752680 0.609782 0.242953
0.752149 0.606507 0.247709
0.353076 0.606049 0.199017
0.351396 0.603166 0.198069
0.347444 0.596382 0.195838
0.342442 0.587800 0.193016
0.336766 0.578068 0.189816
0.330339 0.567038 0.186190
0.324502 0.556849 0.182844
0.320483 0.546744 0.179559
0.323329 0.538181 0.176868
0.335707 0.531833 0.175045
0.356961 0.528903 0.174486
0.384038 0.528063 0.174737
0.414514 0.527911 0.175318
0.447859 0.530742 0.176884
0.480817 0.534569 0.178935
0.512649 0.539317 0.181327
0.541620 0.545270 0.183904
0.568475 0.551238 0.186538
0.594015 0.557206 0.189196
0.616097 0.563704 0.191896
0.637324 0.570237 0.194623
0.657040 0.577029 0.197481
0.675707 0.583457 0.200236
0.692843 0.589339 0.202849
0.709345 0.595419 0.205612
0.724941 0.602226 0.208851
0.739620 0.608787 0.212099
0.746023 0.614013 0.216015
0.752205 0.619073 0.220149
0.755032 0.622615 0.225512
0.756261 0.625380 0.232068
0.757378 0.627607 0.239013
0.756901 0.624445 0.242941
0.366643 0.629299 0.206667
0.365120 0.626684 0.205803
0.361709 0.620834 0.203873
0.357338 0.613345 0.201406
0.352055 0.604289 0.198438
0.346470 0.594719 0.195295
0.340907 0.584961 0.192087
0.336344 0.574955 0.188828
0.337549 0.565824 0.185935
0.348582 0.560035 0.184289
0.368290 0.556744 0.183640
0.393798 0.555151 0.183628
0.423097 0.555277 0.184235
0.455188 0.557681 0.185731
0.487305 0.560783 0.187546
0.518231 0.564691 0.189590
0.546670 0.569292 0.191743
0.572479 0.574367 0.194211
0.597014 0.579506 0.196691
0.618684 0.584432 0.198789
0.639246 0.589801 0.201098
0.658259 0.595851 0.203748
0.676215 0.601727 0.206350
0.693025 0.607404 0.208900
0.709097 0.613023 0.211507
0.724272 0.618620 0.214239
0.738237 0.624112 0.216967
0.747561 0.629629 0.219798
0.756581 0.634981 0.222601
0.759651 0.638521 0.226589
0.760900 0.641451 0.231415
0.761905 0.643428 0.236291
0.761662 0.641018 0.239389
0.379789 0.651832 0.214086
0.378415 0.649477 0.213310
0.375159 0.643897 0.211472
0.370706 0.636260 0.208962
0.365572 0.627449 0.206074
0.360556 0.618872 0.203243
0.355084 0.609340 0.200106
0.350487 0.599615 0.196942
0.350864 0.591223 0.194306
0.360127 0.585544 0.192674
0.378221 0.581433 0.191754
0.402213 0.579416 0.191567
0.430651 0.579674 0.192225
0.461983 0.581869 0.193647
0.492668 0.584080 0.195211
0.522536 0.587290 0.196996
0.551403 0.591164 0.198895
0.575884 0.595573 0.201074
0.599550 0.600142 0.203320
0.621589 0.604907 0.205627
0.641908 0.609636 0.207929
0.660559 0.614302 0.210218
0.677991 0.619282 0.212559
0.694427 0.624427 0.214916
0.710084 0.629627 0.217328
0.724981 0.634866 0.219796
0.738892 0.640109 0.222339
0.750741 0.645564 0.225161
0.762244 0.650868 0.227954
0.764645 0.653900 0.230516
0.765557 0.656501 0.233144
0.766151 0.658022 0.235771
0.765878 0.656643 0.238281
0.390841 0.670763 0.220340
0.389550 0.668548 0.219612
0.386534 0.663372 0.217910
0.382592 0.656615 0.215684
0.378125 0.648966 0.213161
0.373436 0.640948 0.210512
0.368124 0.631841 0.207501
0.363714 0.622746 0.204557
0.363572 0.615105 0.202158
0.371212 0.609182 0.200442
0.387516 0.604624 0.199347
0.410423 0.602588 0.199151
0.437867 0.602715 0.199784
0.467760 0.604117 0.200953
0.497681 0.605887 0.202377
0.526932 0.608742 0.203987
0.555310 0.612145 0.205735
0.579496 0.615800 0.207655
0.602686 0.619843 0.209774
0.624622 0.624235 0.212095
0.644360 0.628135 0.214250
0.662748 0.631760 0.216317
0.679704 0.636084 0.218474
0.695842 0.640628 0.220640
0.711123 0.645437 0.222932
0.725745 0.650347 0.225281
0.739770 0.655342 0.227730
0.753049 0.660540 0.230380
0.766008 0.665616 0.233001
0.768103 0.668185 0.234463
0.769672 0.670579 0.235857
0.770567 0.671965 0.237399
0.770364 0.671616 0.239341
0.400303 0.686925 0.225710
0.399274 0.685166 0.225126
0.396871 0.681065 0.223758
0.393496 0.675301 0.221839
0.389557 0.668551 0.219613
0.385138 0.660992 0.217107
0.380469 0.652927 0.214438
0.375983 0.644613 0.211729
0.375240 0.637123 0.209376
0.381510 0.631104 0.207621
0.396257 0.626929 0.206618
0.418479 0.624751 0.206426
0.444327 0.623953 0.206766
0.472724 0.624539 0.207660
0.502326 0.626345 0.209052
0.531173 0.629134 0.210578
0.558927 0.632131 0.212235
0.583459 0.634970 0.213978
0.606080 0.638393 0.215930
0.627347 0.642133 0.218003
0.646403 0.645289 0.220009
0.664665 0.648313 0.222031
0.681201 0.652050 0.224034
0.697132 0.655876 0.226015
0.712047 0.660343 0.228377
0.726392 0.664951 0.230853
0.740100 0.669585 0.233208
0.753172 0.674245 0.235430
0.765369 0.678665 0.237563
0.769379 0.681081 0.238908
0.773245 0.683427 0.240229
0.775313 0.684999 0.241524
0.775350 0.685678 0.242833
0.409651 0.702945 0.230979
0.408710 0.701338 0.230445
0.406464 0.697498 0.229169
0.403501 0.692429 0.227490
0.399951 0.686354 0.225480
0.395566 0.678859 0.222991
0.391183 0.671270 0.220493
0.387134 0.663696 0.218027
0.385395 0.656232 0.215664
0.390896 0.650843 0.214090
0.404360 0.646921 0.213158
0.425280 0.644483 0.212887
0.450043 0.643615 0.213189
0.477336 0.643995 0.213992
0.506224 0.645340 0.215173
0.534815 0.647748 0.216637
0.561786 0.650199 0.218221
0.586645 0.652566 0.219894
0.608729 0.655501 0.221768
0.629892 0.658634 0.223734
0.648273 0.661231 0.225543
0.666259 0.663837 0.227384
0.682568 0.667304 0.229299
0.698534 0.670753 0.231205
0.713162 0.674938 0.233561
0.727321 0.679155 0.235974
0.740663 0.683335 0.238179
0.753389 0.687458 0.240227
0.764793 0.691282 0.242139
0.771157 0.694033 0.243560
0.777322 0.696696 0.244946
0.780083 0.698494 0.246053
0.780249 0.699626 0.246949
0.418193 0.717561 0.235800
0.417264 0.715964 0.235276
0.415466 0.712904 0.234255
0.412940 0.708603 0.232821
0.409190 0.702184 0.230700
0.404654 0.694403 0.228139
0.400809 0.687754 0.225960
0.397081 0.680654 0.223649
0.394859 0.673822 0.221459
0.399607 0.669091 0.220066
0.411998 0.665022 0.219089
0.431502 0.662745 0.218842
0.455836 0.662611 0.219371
0.481926 0.662333 0.219924
0.509863 0.662993 0.220868
0.538184 0.664858 0.222287
0.564303 0.666841 0.223837
0.589446 0.668977 0.225515
0.611107 0.671385 0.227390
0.632195 0.673893 0.229319
0.649996 0.676172 0.230826
0.667481 0.678633 0.232407
0.683961 0.682014 0.234332
0.700141 0.685375 0.236255
0.714483 0.689188 0.238427
0.728529 0.692939 0.240587
0.741382 0.696604 0.242734
0.753639 0.700193 0.244861
0.764750 0.703728 0.246842
0.773477 0.707203 0.248489
0.781961 0.710581 0.250096
0.784868 0.712364 0.251089
0.785035 0.713350 0.251776
0.426320 0.731480 0.240402
0.425616 0.730282 0.240001
0.423928 0.727408 0.239038
0.421280 0.722886 0.237535
0.417567 0.716525 0.235440
0.413826 0.710103 0.233330
0.410204 0.703872 0.231289
0.406302 0.696679 0.228939
0.404449 0.690462 0.226948
0.407560 0.685525 0.225458
0.418852 0.681487 0.224487
0.436993 0.679498 0.224323
0.460392 0.678912 0.224734
0.485762 0.678270 0.225158
0.512994 0.678860 0.226084
0.541181 0.680424 0.227419
0.566615 0.682206 0.228984
0.591626 0.684250 0.230726
