output/ProPhoto/ProPhoto_to_ACROS_33grid.cube
TITLE "ProPhoto_to_ACROS"
# Input: ProPhoto RGB, gamma 1.8 (D50)
# Output: ProPhoto RGB, gamma 1.8 (D50) with film simulation look
# Use: Photoshop 3D LUT adjustment layer on standard ProPhoto document
# Source: FLog2C_to_ACROS_65grid_V.1.00.cube
# Generated from Fujifilm GFX ETERNA 55 F-Log2C LUT
LUT_3D_SIZE 9
0.000014 0.000014 0.000014
0.022722 0.022722 0.022722
0.127512 0.127512 0.127512
0.269453 0.269453 0.269453
0.400959 0.400959 0.400959
0.481584 0.481584 0.481584
0.490790 0.490790 0.490790
0.490790 0.490790 0.490790
0.490790 0.490790 0.490790
0.024972 0.024972 0.024972
0.030329 0.030329 0.030329
0.089999 0.089999 0.089999
0.182127 0.182127 0.182127
0.294144 0.294144 0.294144
0.397353 0.397353 0.397353
0.471997 0.471997 0.471997
0.490790 0.490790 0.490790
0.490790 0.490790 0.490790
0.110311 0.110311 0.110311
0.094229 0.094229 0.094229
0.131308 0.131308 0.131308
0.202260 0.202260 0.202260
0.292599 0.292599 0.292599
0.387379 0.387379 0.387379
0.453152 0.453152 0.453152
0.495396 0.495396 0.495396
0.528594 0.528594 0.528594
0.208366 0.208366 0.208366
0.193177 0.193177 0.193177
0.220331 0.220331 0.220331
0.273725 0.273725 0.273725
0.340889 0.340889 0.340889
0.413323 0.413323 0.413323
0.481239 0.481239 0.481239
0.522502 0.522502 0.522502
0.549623 0.549623 0.549623
0.295979 0.295979 0.295979
0.289542 0.289542 0.289542
0.311195 0.311195 0.311195
0.352049 0.352049 0.352049
0.404312 0.404312 0.404312
0.459193 0.459193 0.459193
0.513517 0.513517 0.513517
0.558928 0.558928 0.558928
0.582056 0.582056 0.582056
0.377376 0.377376 0.377376
0.379896 0.379896 0.379896
0.398859 0.398859 0.398859
0.429947 0.429947 0.429947
0.469620 0.469620 0.469620
0.512540 0.512540 0.512540
0.555387 0.555387 0.555387
0.593883 0.593883 0.593883
0.617449 0.617449 0.617449
0.452345 0.452345 0.452345
0.457991 0.457991 0.457991
0.473229 0.473229 0.473229
0.497824 0.497824 0.497824
0.529594 0.529594 0.529594
0.563413 0.563413 0.563413
0.598352 0.598352 0.598352
0.630197 0.630197 0.630197
0.652366 0.652366 0.652366
0.516884 0.516884 0.516884
0.521453 0.521453 0.521453
0.535263 0.535263 0.535263
0.554926 0.554926 0.554926
0.580789 0.580789 0.580789
0.609512 0.609512 0.609512
0.637828 0.637828 0.637828
0.663251 0.663251 0.663251
0.685574 0.685574 0.685574
0.568037 0.568037 0.568037
0.573280 0.573280 0.573280
0.585615 0.585615 0.585615
0.603761 0.603761 0.603761
0.625666 0.625666 0.625666
0.648863 0.648863 0.648863
0.672731 0.672731 0.672731
0.695130 0.695130 0.695130
0.715231 0.715231 0.715231
0.003990 0.003990 0.003990
0.016088 0.016088 0.016088
0.103676 0.103676 0.103676
0.234691 0.234691 0.234691
0.377136 0.377136 0.377136
0.469626 0.469626 0.469626
0.490790 0.490790 0.490790
0.490790 0.490790 0.490790
0.490790 0.490790 0.490790
0.041989 0.041989 0.041989
0.037084 0.037084 0.037084
0.088057 0.088057 0.088057
0.172432 0.172432 0.172432
0.272719 0.272719 0.272719
0.372677 0.372677 0.372677
0.448142 0.448142 0.448142
0.490780 0.490780 0.490780
0.490790 0.490790 0.490790
0.152116 0.152116 0.152116
0.119725 0.119725 0.119725
0.145212 0.145212 0.145212
0.209776 0.209776 0.209776
0.291572 0.291572 0.291572
0.379465 0.379465 0.379465
0.450327 0.450327 0.450327
0.490423 0.490423 0.490423
0.525128 0.525128 0.525128
0.259835 0.259835 0.259835
0.230179 0.230179 0.230179
0.244805 0.244805 0.244805
0.291394 0.291394 0.291394
0.351708 0.351708 0.351708
0.418563 0.418563 0.418563
0.482263 0.482263 0.482263
0.527223 0.527223 0.527223
0.553194 0.553194 0.553194
0.347276 0.347276 0.347276
0.330553 0.330553 0.330553
0.341814 0.341814 0.341814
0.374599 0.374599 0.374599
0.420511 0.420511 0.420511
0.471329 0.471329 0.471329
0.522691 0.522691 0.522691
0.568109 0.568109 0.568109
0.593448 0.593448 0.593448
0.419664 0.419664 0.419664
0.416388 0.416388 0.416388
0.427305 0.427305 0.427305
0.451486 0.451486 0.451486
0.486643 0.486643 0.486643
0.526410 0.526410 0.526410
0.566972 0.566972 0.566972
0.605256 0.605256 0.605256
0.632755 0.632755 0.632755
0.484416 0.484416 0.484416
0.485066 0.485066 0.485066
0.496129 0.496129 0.496129
0.516630 0.516630 0.516630
0.544005 0.544005 0.544005
0.576021 0.576021 0.576021
0.609283 0.609283 0.609283
0.640630 0.640630 0.640630
0.667032 0.667032 0.667032
0.538156 0.538156 0.538156
0.541143 0.541143 0.541143
0.551710 0.551710 0.551710
0.568266 0.568266 0.568266
0.591591 0.591591 0.591591
0.618139 0.618139 0.618139
0.645485 0.645485 0.645485
0.672322 0.672322 0.672322
0.696025 0.696025 0.696025
0.580216 0.580216 0.580216
0.584005 0.584005 0.584005
0.594101 0.594101 0.594101
0.610520 0.610520 0.610520
0.629808 0.629808 0.629808
0.653220 0.653220 0.653220
0.676635 0.676635 0.676635
0.700454 0.700454 0.700454
0.721541 0.721541 0.721541
0.019119 0.019119 0.019119
0.018957 0.018957 0.018957
0.080505 0.080505 0.080505
0.190157 0.190157 0.190157
0.318697 0.318697 0.318697
0.422478 0.422478 0.422478
0.488069 0.488069 0.488069
0.491829 0.491829 0.491829
0.491186 0.491186 0.491186
0.081085 0.081085 0.081085
0.053045 0.053045 0.053045
0.095777 0.095777 0.095777
0.172197 0.172197 0.172197
0.264720 0.264720 0.264720
0.363527 0.363527 0.363527
0.430353 0.430353 0.430353
0.482986 0.482986 0.482986
0.494551 0.494551 0.494551
0.231687 0.231687 0.231687
0.164395 0.164395 0.164395
0.176232 0.176232 0.176232
0.231687 0.231687 0.231687
0.305453 0.305453 0.305453
0.386104 0.386104 0.386104
0.457729 0.457729 0.457729
0.497715 0.497715 0.497715
0.530066 0.530066 0.530066
0.339834 0.339834 0.339834
0.288670 0.288670 0.288670
0.291716 0.291716 0.291716
0.328542 0.328542 0.328542
0.381366 0.381366 0.381366
0.439814 0.439814 0.439814
0.497839 0.497839 0.497839
0.543134 0.543134 0.543134
0.567371 0.567371 0.567371
0.422102 0.422102 0.422102
0.393075 0.393075 0.393075
0.397225 0.397225 0.397225
0.422719 0.422719 0.422719
0.459516 0.459516 0.459516
0.502922 0.502922 0.502922
0.547384 0.547384 0.547384
0.587939 0.587939 0.587939
0.615353 0.615353 0.615353
0.485940 0.485940 0.485940
0.476249 0.476249 0.476249
0.484699 0.484699 0.484699
0.503954 0.503954 0.503954
0.531655 0.531655 0.531655
0.564112 0.564112 0.564112
0.599054 0.599054 0.599054
0.631615 0.631615 0.631615
0.658193 0.658193 0.658193
0.545643 0.545643 0.545643
0.546058 0.546058 0.546058
0.554008 0.554008 0.554008
0.569474 0.569474 0.569474
0.592023 0.592023 0.592023
0.617937 0.617937 0.617937
0.644527 0.644527 0.644527
0.671642 0.671642 0.671642
0.695583 0.695583 0.695583
0.599500 0.599500 0.599500
0.601969 0.601969 0.601969
0.609192 0.609192 0.609192
0.622450 0.622450 0.622450
0.641541 0.641541 0.641541
0.662793 0.662793 0.662793
0.684696 0.684696 0.684696
0.707850 0.707850 0.707850
0.728998 0.728998 0.728998
0.642791 0.642791 0.642791
0.645536 0.645536 0.645536
0.653682 0.653682 0.653682
0.666355 0.666355 0.666355
0.683039 0.683039 0.683039
0.701319 0.701319 0.701319
0.719861 0.719861 0.719861
0.740212 0.740212 0.740212
0.759000 0.759000 0.759000
0.050235 0.050235 0.050235
0.035749 0.035749 0.035749
0.080921 0.080921 0.080921
0.166233 0.166233 0.166233
0.268393 0.268393 0.268393
0.375648 0.375648 0.375648
0.453270 0.453270 0.453270
0.496977 0.496977 0.496977
0.495946 0.495946 0.495946
0.130983 0.130983 0.130983
0.087667 0.087667 0.087667
0.108811 0.108811 0.108811
0.179909 0.179909 0.179909
0.265300 0.265300 0.265300
0.358618 0.358618 0.358618
0.427705 0.427705 0.427705
0.476253 0.476253 0.476253
0.505421 0.505421 0.505421
0.308649 0.308649 0.308649
0.222501 0.222501 0.222501
0.210461 0.210461 0.210461
0.259545 0.259545 0.259545
0.325208 0.325208 0.325208
0.396797 0.396797 0.396797
0.463895 0.463895 0.463895
0.505780 0.505780 0.505780
0.534934 0.534934 0.534934
0.414771 0.414771 0.414771
0.343489 0.343489 0.343489
0.331470 0.331470 0.331470
0.363219 0.363219 0.363219
0.408602 0.408602 0.408602
0.459744 0.459744 0.459744
0.511430 0.511430 0.511430
0.555375 0.555375 0.555375
0.578985 0.578985 0.578985
0.480199 0.480199 0.480199
0.437090 0.437090 0.437090
0.436829 0.436829 0.436829
0.458843 0.458843 0.458843
0.490170 0.490170 0.490170
0.527314 0.527314 0.527314
0.566682 0.566682 0.566682
0.603096 0.603096 0.603096
0.630490 0.630490 0.630490
0.536037 0.536037 0.536037
0.513303 0.513303 0.513303
0.520499 0.520499 0.520499
0.538185 0.538185 0.538185
0.562296 0.562296 0.562296
0.590956 0.590956 0.590956
0.620716 0.620716 0.620716
0.649860 0.649860 0.649860
0.675154 0.675154 0.675154
0.583496 0.583496 0.583496
0.578704 0.578704 0.578704
0.586250 0.586250 0.586250
0.601243 0.601243 0.601243
0.621435 0.621435 0.621435
0.644569 0.644569 0.644569
0.668182 0.668182 0.668182
0.692681 0.692681 0.692681
0.714469 0.714469 0.714469
0.629085 0.629085 0.629085
0.631707 0.631707 0.631707
0.640486 0.640486 0.640486
0.652731 0.652731 0.652731
0.670522 0.670522 0.670522
0.689719 0.689719 0.689719
0.709954 0.709954 0.709954
0.730393 0.730393 0.730393
0.749481 0.749481 0.749481
0.667196 0.667196 0.667196
0.672112 0.672112 0.672112
0.682912 0.682912 0.682912
0.696003 0.696003 0.696003
0.711342 0.711342 0.711342
0.729024 0.729024 0.729024
0.746462 0.746462 0.746462
0.764129 0.764129 0.764129
0.779852 0.779852 0.779852
0.093661 0.093661 0.093661
0.092650 0.092650 0.092650
0.091180 0.091180 0.091180
0.169002 0.169002 0.169002
0.255791 0.255791 0.255791
0.347056 0.347056 0.347056
0.415176 0.415176 0.415176
0.473812 0.473812 0.473812
0.497568 0.497568 0.497568
0.190607 0.190607 0.190607
0.171816 0.171816 0.171816
0.128436 0.128436 0.128436
0.193829 0.193829 0.193829
0.272303 0.272303 0.272303
0.357126 0.357126 0.357126
0.430687 0.430687 0.430687
0.475073 0.475073 0.475073
0.512794 0.512794 0.512794
0.352989 0.352989 0.352989
0.298730 0.298730 0.298730
0.245450 0.245450 0.245450
0.286944 0.286944 0.286944
0.344490 0.344490 0.344490
0.407491 0.407491 0.407491
0.469620 0.469620 0.469620
0.514475 0.514475 0.514475
0.539723 0.539723 0.539723
0.488169 0.488169 0.488169
0.402904 0.402904 0.402904
0.363992 0.363992 0.363992
0.391933 0.391933 0.391933
0.431766 0.431766 0.431766
0.476304 0.476304 0.476304
0.523264 0.523264 0.523264
0.564484 0.564484 0.564484
0.589470 0.589470 0.589470
0.535606 0.535606 0.535606
0.480622 0.480622 0.480622
0.465335 0.465335 0.465335
0.485061 0.485061 0.485061
0.513318 0.513318 0.513318
0.546864 0.546864 0.546864
0.581629 0.581629 0.581629
0.615063 0.615063 0.615063
0.642406 0.642406 0.642406
0.576839 0.576839 0.576839
0.543233 0.543233 0.543233
0.543524 0.543524 0.543524
0.560481 0.560481 0.560481
0.583926 0.583926 0.583926
0.609971 0.609971 0.609971
0.636542 0.636542 0.636542
0.663942 0.663942 0.663942
0.687728 0.687728 0.687728
0.613116 0.613116 0.613116
0.599064 0.599064 0.599064
0.607233 0.607233 0.607233
0.621218 0.621218 0.621218
0.640811 0.640811 0.640811
0.662863 0.662863 0.662863
0.684976 0.684976 0.684976
0.707361 0.707361 0.707361
0.727976 0.727976 0.727976
0.644416 0.644416 0.644416
0.645274 0.645274 0.645274
0.657219 0.657219 0.657219
0.671880 0.671880 0.671880
0.689340 0.689340 0.689340
0.708134 0.708134 0.708134
0.726887 0.726887 0.726887
0.745974 0.745974 0.745974
0.762935 0.762935 0.762935
0.676719 0.676719 0.676719
0.682081 0.682081 0.682081
0.694382 0.694382 0.694382
0.709939 0.709939 0.709939
0.727423 0.727423 0.727423
0.745520 0.745520 0.745520
0.761812 0.761812 0.761812
0.778290 0.778290 0.778290
0.792431 0.792431 0.792431
0.159125 0.159125 0.159125
0.158481 0.158481 0.158481
0.108828 0.108828 0.108828
0.178243 0.178243 0.178243
0.257231 0.257231 0.257231
0.342031 0.342031 0.342031
0.416069 0.416069 0.416069
0.464787 0.464787 0.464787
0.504916 0.504916 0.504916
0.248983 0.248983 0.248983
0.248510 0.248510 0.248510
0.161193 0.161193 0.161193
0.214775 0.214775 0.214775
0.285043 0.285043 0.285043
0.361654 0.361654 0.361654
0.433846 0.433846 0.433846
0.478438 0.478438 0.478438
0.513069 0.513069 0.513069
0.389920 0.389920 0.389920
0.389655 0.389655 0.389655
0.279475 0.279475 0.279475
0.314774 0.314774 0.314774
0.364244 0.364244 0.364244
0.421392 0.421392 0.421392
0.477746 0.477746 0.477746
0.522305 0.522305 0.522305
0.547424 0.547424 0.547424
0.510691 0.510691 0.510691
0.465362 0.465362 0.465362
0.391253 0.391253 0.391253
0.416499 0.416499 0.416499
0.452113 0.452113 0.452113
0.492846 0.492846 0.492846
0.534664 0.534664 0.534664
0.573399 0.573399 0.573399
0.600130 0.600130 0.600130
0.589845 0.589845 0.589845
0.525509 0.525509 0.525509
0.484275 0.484275 0.484275
0.505793 0.505793 0.505793
0.532933 0.532933 0.532933
0.563079 0.563079 0.563079
0.593945 0.593945 0.593945
0.625167 0.625167 0.625167
0.651630 0.651630 0.651630
0.608751 0.608751 0.608751
0.575294 0.575294 0.575294
0.558878 0.558878 0.558878
0.576487 0.576487 0.576487
0.599535 0.599535 0.599535
0.624873 0.624873 0.624873
0.649576 0.649576 0.649576
0.674773 0.674773 0.674773
0.697819 0.697819 0.697819
0.634341 0.634341 0.634341
0.614040 0.614040 0.614040
0.619021 0.619021 0.619021
0.635673 0.635673 0.635673
0.654714 0.654714 0.654714
0.675899 0.675899 0.675899
0.697277 0.697277 0.697277
0.718515 0.718515 0.718515
0.738043 0.738043 0.738043
0.657553 0.657553 0.657553
0.650038 0.650038 0.650038
0.663563 0.663563 0.663563
0.680985 0.680985 0.680985
0.700480 0.700480 0.700480
0.719275 0.719275 0.719275
0.737598 0.737598 0.737598
0.755425 0.755425 0.755425
0.771288 0.771288 0.771288
0.679948 0.679948 0.679948
0.683656 0.683656 0.683656
0.697401 0.697401 0.697401
0.715176 0.715176 0.715176
0.734611 0.734611 0.734611
0.752813 0.752813 0.752813
0.769564 0.769564 0.769564
0.785690 0.785690 0.785690
0.799844 0.799844 0.799844
0.226942 0.226942 0.226942
0.226403 0.226403 0.226403
0.145406 0.145406 0.145406
0.197260 0.197260 0.197260
0.269311 0.269311 0.269311
0.345638 0.345638 0.345638
0.420101 0.420101 0.420101
0.466323 0.466323 0.466323
0.504528 0.504528 0.504528
0.300777 0.300777 0.300777
0.300385 0.300385 0.300385
0.206605 0.206605 0.206605
0.243885 0.243885 0.243885
0.305019 0.305019 0.305019
0.372290 0.372290 0.372290
0.439713 0.439713 0.439713
0.486506 0.486506 0.486506
0.517871 0.517871 0.517871
0.422444 0.422444 0.422444
0.422201 0.422201 0.422201
0.312936 0.312936 0.312936
0.341277 0.341277 0.341277
0.384921 0.384921 0.384921
0.435735 0.435735 0.435735
0.486744 0.486744 0.486744
0.531150 0.531150 0.531150
0.556460 0.556460 0.556460
0.525455 0.525455 0.525455
0.525333 0.525333 0.525333
0.414443 0.414443 0.414443
0.438293 0.438293 0.438293
0.470052 0.470052 0.470052
0.506787 0.506787 0.506787
0.544955 0.544955 0.544955
0.581321 0.581321 0.581321
0.610857 0.610857 0.610857
0.599126 0.599126 0.599126
0.567046 0.567046 0.567046
0.500197 0.500197 0.500197
0.521364 0.521364 0.521364
0.547375 0.547375 0.547375
0.575553 0.575553 0.575553
0.605828 0.605828 0.605828
0.634612 0.634612 0.634612
0.660465 0.660465 0.660465
0.639253 0.639253 0.639253
0.600774 0.600774 0.600774
0.569790 0.569790 0.569790
0.589431 0.589431 0.589431
0.612096 0.612096 0.612096
0.636014 0.636014 0.636014
0.660306 0.660306 0.660306
0.683902 0.683902 0.683902
0.704949 0.704949 0.704949
0.651757 0.651757 0.651757
0.630729 0.630729 0.630729
0.623103 0.623103 0.623103
0.643270 0.643270 0.643270
0.664678 0.664678 0.664678
0.685723 0.685723 0.685723
0.706302 0.706302 0.706302
0.726436 0.726436 0.726436
0.744017 0.744017 0.744017
0.669469 0.669469 0.669469
0.656445 0.656445 0.656445
0.663570 0.663570 0.663570
0.683857 0.683857 0.683857
0.704982 0.704982 0.704982
0.725505 0.725505 0.725505
0.743801 0.743801 0.743801
0.760718 0.760718 0.760718
0.776067 0.776067 0.776067
0.686200 0.686200 0.686200
0.682426 0.682426 0.682426
0.695938 0.695938 0.695938
0.714813 0.714813 0.714813
0.735480 0.735480 0.735480
0.755167 0.755167 0.755167
0.773048 0.773048 0.773048
0.788746 0.788746 0.788746
0.802638 0.802638 0.802638
0.286358 0.286358 0.286358
0.285934 0.285934 0.285934
0.217721 0.217721 0.217721
0.227995 0.227995 0.227995
0.289777 0.289777 0.289777
0.357557 0.357557 0.357557
0.425466 0.425466 0.425466
0.475941 0.475941 0.475941
0.508716 0.508716 0.508716
0.345428 0.345428 0.345428
0.345099 0.345099 0.345099
0.270942 0.270942 0.270942
0.275227 0.275227 0.275227
0.328836 0.328836 0.328836
0.387920 0.387920 0.387920
0.447659 0.447659 0.447659
0.497795 0.497795 0.497795
0.525569 0.525569 0.525569
0.447845 0.447845 0.447845
0.447646 0.447646 0.447646
0.361531 0.361531 0.361531
0.364556 0.364556 0.364556
0.405660 0.405660 0.405660
0.451107 0.451107 0.451107
0.497157 0.497157 0.497157
0.539744 0.539744 0.539744
0.567197 0.567197 0.567197
0.534139 0.534139 0.534139
0.534025 0.534025 0.534025
0.446696 0.446696 0.446696
0.454578 0.454578 0.454578
0.485709 0.485709 0.485709
0.520531 0.520531 0.520531
0.555206 0.555206 0.555206
0.589758 0.589758 0.589758
0.618774 0.618774 0.618774
0.600655 0.600655 0.600655
0.600590 0.600590 0.600590
0.516812 0.516812 0.516812
0.533234 0.533234 0.533234
0.559018 0.559018 0.559018
0.587386 0.587386 0.587386
0.615187 0.615187 0.615187
0.642919 0.642919 0.642919
0.667610 0.667610 0.667610
0.649268 0.649268 0.649268
0.623875 0.623875 0.623875
0.572635 0.572635 0.572635
0.596925 0.596925 0.596925
0.620470 0.620470 0.620470
0.644883 0.644883 0.644883
0.668232 0.668232 0.668232
0.690867 0.690867 0.690867
0.711645 0.711645 0.711645
0.668370 0.668370 0.668370
0.644869 0.644869 0.644869
0.621055 0.621055 0.621055
0.644710 0.644710 0.644710
0.668510 0.668510 0.668510
0.691493 0.691493 0.691493
0.712041 0.712041 0.712041
0.731019 0.731019 0.731019
0.748453 0.748453 0.748453
0.679213 0.679213 0.679213
0.665733 0.665733 0.665733
0.660448 0.660448 0.660448
0.682402 0.682402 0.682402
0.704779 0.704779 0.704779
0.726849 0.726849 0.726849
0.745672 0.745672 0.745672
0.763308 0.763308 0.763308
0.778065 0.778065 0.778065
0.692672 0.692672 0.692672
0.684025 0.684025 0.684025
0.692159 0.692159 0.692159
0.711775 0.711775 0.711775
0.733002 0.733002 0.733002
0.754277 0.754277 0.754277
0.773216 0.773216 0.773216
0.789455 0.789455 0.789455
0.803188 0.803188 0.803188
0.335483 0.335483 0.335483
0.335132 0.335132 0.335132
0.332012 0.332012 0.332012
0.262579 0.262579 0.262579
0.316163 0.316163 0.316163
0.375633 0.375633 0.375633
0.436203 0.436203 0.436203
0.488033 0.488033 0.488033
0.517798 0.517798 0.517798
0.383377 0.383377 0.383377
0.383102 0.383102 0.383102
0.366806 0.366806 0.366806
0.305160 0.305160 0.305160
0.352591 0.352591 0.352591
0.405916 0.405916 0.405916
0.459330 0.459330 0.459330
0.507451 0.507451 0.507451
0.536657 0.536657 0.536657
0.464508 0.464508 0.464508
0.464342 0.464342 0.464342
0.430064 0.430064 0.430064
0.385496 0.385496 0.385496
0.424232 0.424232 0.424232
0.466090 0.466090 0.466090
0.507940 0.507940 0.507940
0.547679 0.547679 0.547679
0.578213 0.578213 0.578213
0.538828 0.538828 0.538828
0.538729 0.538729 0.538729
0.491263 0.491263 0.491263
0.469060 0.469060 0.469060
0.500040 0.500040 0.500040
0.533015 0.533015 0.533015
0.565527 0.565527 0.565527
0.598399 0.598399 0.598399
0.626317 0.626317 0.626317
0.597628 0.597628 0.597628
0.597564 0.597564 0.597564
0.541761 0.541761 0.541761
0.541452 0.541452 0.541452
0.569365 0.569365 0.569365
0.597258 0.597258 0.597258
0.623688 0.623688 0.623688
0.650204 0.650204 0.650204
0.673757 0.673757 0.673757
0.642928 0.642928 0.642928
0.642887 0.642887 0.642887
0.584326 0.584326 0.584326
0.597300 0.597300 0.597300
0.625878 0.625878 0.625878
0.651481 0.651481 0.651481
0.674269 0.674269 0.674269
0.696601 0.696601 0.696601
0.715816 0.715816 0.715816
0.677603 0.677603 0.677603
0.657762 0.657762 0.657762
0.620899 0.620899 0.620899
0.641489 0.641489 0.641489
0.668645 0.668645 0.668645
0.692768 0.692768 0.692768
0.714569 0.714569 0.714569
0.733678 0.733678 0.733678
0.750495 0.750495 0.750495
0.687922 0.687922 0.687922
0.672711 0.672711 0.672711
0.654991 0.654991 0.654991
0.677569 0.677569 0.677569
0.702493 0.702493 0.702493
0.725687 0.725687 0.725687
0.745943 0.745943 0.745943
0.763340 0.763340 0.763340
0.778977 0.778977 0.778977
0.696828 0.696828 0.696828
0.687874 0.687874 0.687874
0.685895 0.685895 0.685895
0.706886 0.706886 0.706886
0.729158 0.729158 0.729158
0.751522 0.751522 0.751522
0.771672 0.771672 0.771672
0.788058 0.788058 0.788058
0.802984 0.802984 0.802984
