output/ProPhoto/ProPhoto_to_ETERNA_33grid.cube
TITLE "ProPhoto_to_ETERNA"
# Input: ProPhoto RGB, gamma 1.8 (D50)
# Output: ProPhoto RGB, gamma 1.8 (D50) with film simulation look
# Use: Photoshop 3D LUT adjustment layer on standard ProPhoto document
# Source: FLog2C_to_ETERNA_65grid_V.1.00.cube
# Generated from Fujifilm GFX ETERNA 55 F-Log2C LUT
LUT_3D_SIZE 33
0.002052 0.001979 0.001973
0.010200 0.004686 0.003593
0.036951 0.015099 0.009074
0.069035 0.027815 0.015003
0.106650 0.042774 0.022161
0.155506 0.062553 0.031926
0.216879 0.088245 0.043357
0.285514 0.117296 0.057559
0.355862 0.147917 0.070669
0.423662 0.177867 0.083101
0.487411 0.206195 0.095949
0.546317 0.234151 0.108221
0.600714 0.261223 0.119244
0.640465 0.283331 0.127875
0.656653 0.297029 0.133269
0.659811 0.306581 0.140452
0.665245 0.317148 0.164819
0.670423 0.328541 0.185381
0.675262 0.340411 0.202980
0.679502 0.352133 0.218458
0.681499 0.359865 0.228070
0.682387 0.365730 0.234915
0.682399 0.365810 0.235007
0.682399 0.365810 0.235007
0.682399 0.365810 0.235007
0.682399 0.365810 0.235007
0.682399 0.365810 0.235007
0.682399 0.365810 0.235007
0.682399 0.365810 0.235007
0.682399 0.365810 0.235007
0.682399 0.365810 0.235007
0.682399 0.365810 0.235007
0.682399 0.365810 0.235007
0.004873 0.008029 0.002974
0.006570 0.006263 0.002643
0.032141 0.013169 0.007741
0.062593 0.025248 0.013557
0.100018 0.040270 0.020989
0.146938 0.059236 0.030535
0.203842 0.082846 0.040903
0.270968 0.111043 0.055086
0.341255 0.141500 0.068060
0.409353 0.171284 0.081043
0.474012 0.200103 0.093689
0.534602 0.228578 0.105667
0.591106 0.256334 0.117065
0.635308 0.280133 0.126680
0.656345 0.295858 0.132679
0.659446 0.305742 0.138979
0.665096 0.316767 0.164225
0.670471 0.328648 0.185534
0.675300 0.340508 0.203092
0.679531 0.352231 0.218578
0.681503 0.359916 0.228127
0.682393 0.365766 0.234957
0.682399 0.365810 0.235007
0.682399 0.365810 0.235007
0.682399 0.365810 0.235007
0.682399 0.365810 0.235007
0.682399 0.365810 0.235007
0.682399 0.365810 0.235007
0.682399 0.365810 0.235007
0.682399 0.365810 0.235007
0.682399 0.365810 0.235007
0.682399 0.365810 0.235007
0.682399 0.365810 0.235007
0.016177 0.027618 0.009108
0.014548 0.024388 0.008013
0.025521 0.021314 0.007627
0.054408 0.026651 0.011881
0.087069 0.036298 0.018057
0.127388 0.051595 0.026721
0.174573 0.070974 0.036473
0.236597 0.096230 0.047933
0.300280 0.123037 0.059564
0.366012 0.152295 0.072347
0.428960 0.180179 0.084140
0.487962 0.206930 0.095392
0.543833 0.233311 0.106388
0.595829 0.258606 0.117380
0.636936 0.280560 0.126152
0.656029 0.295084 0.130463
0.659618 0.304360 0.139336
0.663940 0.314541 0.157784
0.668581 0.325310 0.179755
0.673389 0.336697 0.197422
0.677803 0.348520 0.213685
0.681831 0.360493 0.229017
0.682180 0.363761 0.232740
0.682399 0.365810 0.235007
0.682399 0.365810 0.235007
0.682399 0.365810 0.235007
0.682399 0.365810 0.235007
0.682399 0.365810 0.235007
0.682399 0.365810 0.235007
0.682399 0.365810 0.235007
0.682399 0.365810 0.235007
0.682399 0.365810 0.235007
0.682399 0.365810 0.235007
0.033073 0.056700 0.018617
0.031733 0.054406 0.017864
0.031155 0.049279 0.016210
0.051325 0.047121 0.016076
0.079585 0.049961 0.018706
0.113770 0.057878 0.023835
0.154046 0.070231 0.031039
0.204467 0.088098 0.040637
0.260544 0.110019 0.051711
0.321559 0.133522 0.063097
0.380689 0.158706 0.075004
0.438006 0.184083 0.086325
0.492770 0.208747 0.097040
0.544558 0.233395 0.107407
0.592571 0.257062 0.117005
0.635064 0.279406 0.125423
0.652180 0.292199 0.130263
0.658292 0.301430 0.137766
0.661464 0.310119 0.149838
0.665881 0.320045 0.170013
0.670412 0.330408 0.187696
0.675005 0.341022 0.204081
0.679515 0.351846 0.217833
0.683177 0.361081 0.229499
0.682843 0.363974 0.232881
0.682399 0.365810 0.235007
0.682399 0.365810 0.235007
0.682399 0.365810 0.235007
0.682399 0.365810 0.235007
0.682399 0.365810 0.235007
0.682399 0.365810 0.235007
0.682399 0.365810 0.235007
0.682399 0.365810 0.235007
0.050502 0.086632 0.028445
0.047906 0.082167 0.026979
0.045073 0.077094 0.025315
0.053770 0.070150 0.023202
0.077330 0.071985 0.024327
0.106081 0.075280 0.026670
0.140464 0.083106 0.031331
0.183058 0.095096 0.038069
0.233327 0.111976 0.047395
0.289021 0.131846 0.057484
0.344987 0.153708 0.068102
0.399161 0.175427 0.078201
0.449623 0.195887 0.087639
0.498675 0.216605 0.097077
0.545773 0.237412 0.106436
0.589520 0.257601 0.115574
0.629374 0.276971 0.123830
0.648213 0.289578 0.128675
0.657204 0.299105 0.134204
0.660274 0.306825 0.144187
0.664430 0.315685 0.160430
0.669036 0.324974 0.179132
0.672616 0.334302 0.193700
0.676060 0.343871 0.207896
0.679359 0.353944 0.220958
0.682003 0.362078 0.231235
0.682287 0.364181 0.233371
0.682399 0.365810 0.235007
0.682399 0.365810 0.235007
0.682399 0.365810 0.235007
0.682399 0.365810 0.235007
0.682399 0.365810 0.235007
0.682399 0.365810 0.235007
0.068391 0.117363 0.038535
0.065701 0.112754 0.037022
0.060672 0.104100 0.034182
0.063533 0.099859 0.032852
0.079724 0.095503 0.031685
0.104393 0.098320 0.033096
0.133829 0.101909 0.035384
0.170337 0.109800 0.039806
0.214908 0.123198 0.046617
0.264639 0.138436 0.054583
0.316982 0.156955 0.063946
0.367434 0.176018 0.073136
0.416682 0.195044 0.082447
0.464443 0.214202 0.091453
0.510176 0.233620 0.099974
0.553375 0.252661 0.108155
0.593102 0.270725 0.115994
0.628693 0.287557 0.123056
0.652174 0.300496 0.127752
0.657655 0.307729 0.129068
0.660781 0.313589 0.136869
0.663590 0.319215 0.148063
0.667356 0.325998 0.165854
0.671125 0.333012 0.183440
0.674684 0.340638 0.197384
0.677968 0.348490 0.210691
0.680342 0.356936 0.222196
0.682371 0.364506 0.232239
0.682374 0.365194 0.233726
0.682394 0.365721 0.234826
0.682399 0.365810 0.235007
0.682399 0.365810 0.235007
0.682399 0.365810 0.235007
0.086485 0.148439 0.048739
0.083865 0.143940 0.047262
0.078108 0.134062 0.044018
0.075501 0.126957 0.041703
0.086663 0.121973 0.040246
0.106567 0.120740 0.040149
0.132342 0.123284 0.041516
0.163711 0.128361 0.044262
0.202798 0.137957 0.049138
0.247206 0.150088 0.055489
0.295627 0.165622 0.063300
0.344635 0.182298 0.071434
0.391951 0.199212 0.079668
0.437304 0.216636 0.087816
0.481097 0.234591 0.095996
0.523101 0.252570 0.104053
0.562944 0.269894 0.111575
0.600304 0.287340 0.118791
0.631952 0.303000 0.125072
0.656569 0.316443 0.130159
0.661131 0.323087 0.131636
0.662290 0.328342 0.133304
0.664699 0.333132 0.140265
0.667473 0.338154 0.150190
0.671020 0.343646 0.166051
0.674515 0.349395 0.182004
0.678003 0.355825 0.196412
0.681077 0.361992 0.210183
0.681951 0.367051 0.219113
0.682984 0.372022 0.227821
0.683263 0.372040 0.230142
0.683230 0.370987 0.230805
0.683002 0.370014 0.231185
0.105972 0.181893 0.059723
0.102793 0.176429 0.057929
0.097389 0.167162 0.054886
0.090916 0.155441 0.051042
0.097046 0.150133 0.049411
0.113188 0.146838 0.048575
0.134525 0.146971 0.048951
0.162118 0.149906 0.050500
0.196722 0.155965 0.053689
0.236825 0.165472 0.058498
0.280399 0.176919 0.064453
0.325566 0.191998 0.071386
0.371117 0.207547 0.079109
0.415365 0.223611 0.086708
0.458098 0.240293 0.094159
0.499092 0.257045 0.101622
0.537878 0.273246 0.109044
0.574260 0.290020 0.115923
0.608265 0.306241 0.122524
0.640077 0.321822 0.128909
0.654748 0.332023 0.132191
0.664906 0.340394 0.134697
0.666295 0.344578 0.135792
0.667749 0.348671 0.138125
0.669309 0.352737 0.143055
0.671537 0.357096 0.151534
0.675157 0.362012 0.167387
0.678418 0.367035 0.183716
0.679870 0.372823 0.195685
0.681429 0.378582 0.207923
0.682661 0.381171 0.215014
0.683791 0.383081 0.221024
0.684418 0.383818 0.225181
0.126192 0.216613 0.071123
0.122487 0.210254 0.069035
0.115671 0.198550 0.065192
0.110507 0.189531 0.062232
0.110485 0.179972 0.059160
0.122714 0.175835 0.057988
0.140105 0.172013 0.057014
0.164967 0.174128 0.058098
0.194772 0.178355 0.060113
0.230760 0.185426 0.063570
0.271250 0.195049 0.068351
0.314152 0.207287 0.074269
0.356188 0.220345 0.080474
0.398521 0.234615 0.087281
0.440024 0.249551 0.094280
0.479990 0.265209 0.101270
0.518063 0.281667 0.108171
0.554153 0.297871 0.115005
0.588447 0.313432 0.121576
0.621045 0.328378 0.127880
0.646359 0.341450 0.133133
0.665434 0.352644 0.137292
0.668875 0.359365 0.138809
0.671258 0.364205 0.139956
0.672178 0.366408 0.140472
0.673274 0.369053 0.142683
0.674669 0.372391 0.147927
0.676252 0.376042 0.155317
0.678445 0.380815 0.168522
0.680706 0.385500 0.183006
0.682673 0.389940 0.195114
0.684686 0.394332 0.207115
0.685953 0.396832 0.215492
0.147508 0.253209 0.083139
0.143716 0.246699 0.081001
0.136594 0.234477 0.076988
0.129620 0.222504 0.073057
0.126918 0.213000 0.069970
0.135121 0.205481 0.067656
0.150050 0.201692 0.066644
0.170766 0.200708 0.066637
0.197086 0.203209 0.067871
0.228940 0.208200 0.070204
0.266607 0.216182 0.073944
0.306205 0.225627 0.078547
0.346172 0.237043 0.084002
0.386138 0.249507 0.089893
0.425866 0.263137 0.096065
0.464602 0.277377 0.102477
0.501920 0.291854 0.109048
0.537378 0.307004 0.115282
0.571227 0.322526 0.121631
0.603521 0.337986 0.127942
0.632185 0.351511 0.133649
0.655346 0.363646 0.138438
0.668065 0.373172 0.141492
0.674842 0.379722 0.143487
0.675051 0.383217 0.144313
0.675389 0.385936 0.144934
0.675827 0.387609 0.145318
0.676481 0.389513 0.146982
0.677688 0.392301 0.152254
0.678911 0.395096 0.158255
0.681224 0.399180 0.170260
0.683672 0.403292 0.184024
0.685600 0.406402 0.195785
0.170038 0.291905 0.095844
0.166388 0.285640 0.093787
0.158327 0.271806 0.089245
0.150703 0.258709 0.084945
0.145605 0.247624 0.081321
0.150400 0.238431 0.078425
0.161998 0.232547 0.076687
0.179921 0.231043 0.076457
0.201993 0.231575 0.076964
0.230349 0.232851 0.077848
0.264530 0.239104 0.080620
0.302967 0.247746 0.084588
0.340086 0.257737 0.088992
0.378957 0.268761 0.094196
0.416007 0.280515 0.099465
0.452614 0.292870 0.104986
0.488825 0.305846 0.110807
0.523417 0.320144 0.116850
0.556791 0.334472 0.122954
0.588833 0.348604 0.128978
0.618072 0.362565 0.134658
0.644124 0.375554 0.139812
0.666161 0.387617 0.144343
0.676891 0.396190 0.147388
0.677780 0.401580 0.149062
0.678301 0.404573 0.149935
0.678559 0.405608 0.150175
0.678967 0.407010 0.150591
0.679538 0.408855 0.151265
0.680092 0.410593 0.151945
0.681694 0.413107 0.157535
0.683371 0.415563 0.163910
0.685047 0.417967 0.172474
0.192596 0.330626 0.108558
0.188600 0.323769 0.106306
0.181379 0.311374 0.102236
0.173910 0.298543 0.098024
0.165955 0.284278 0.093344
0.167185 0.273722 0.089966
0.176376 0.266181 0.087660
0.190400 0.261870 0.086466
0.211188 0.261071 0.086511
0.236756 0.260588 0.086760
0.267269 0.265311 0.088814
0.302341 0.272407 0.091847
0.338065 0.279856 0.095348
0.374866 0.290256 0.099916
0.411611 0.301422 0.104940
0.446690 0.312553 0.109902
0.480525 0.323996 0.114912
0.514101 0.336706 0.120398
0.546299 0.350095 0.125883
0.577148 0.363370 0.131263
0.606087 0.376311 0.136613
0.632818 0.388793 0.141739
0.657019 0.400754 0.146584
0.671516 0.410499 0.150343
0.679465 0.418657 0.153273
0.682485 0.423023 0.154791
0.682335 0.424826 0.155376
0.682469 0.426015 0.155683
0.682731 0.426258 0.155622
0.682931 0.426507 0.155627
0.683426 0.428208 0.156487
0.683942 0.429963 0.157430
0.684952 0.431859 0.161416
0.214587 0.368389 0.120957
0.211164 0.362510 0.119027
0.203765 0.349803 0.114855
0.195877 0.336266 0.110410
0.188120 0.322524 0.105900
0.186374 0.311058 0.102194
0.192717 0.301500 0.099201
0.205134 0.296599 0.097790
0.222298 0.293379 0.096996
0.244580 0.291862 0.096843
0.272768 0.295020 0.098303
0.304956 0.299551 0.100333
0.339023 0.306919 0.103460
0.373930 0.314294 0.106778
0.409296 0.323936 0.110986
0.443518 0.334407 0.115581
0.476281 0.345022 0.120241
0.507334 0.355384 0.124717
0.538057 0.368138 0.129949
0.568001 0.380907 0.135190
0.597319 0.393235 0.140300
0.623589 0.404950 0.145234
0.647130 0.416061 0.150002
0.665270 0.426297 0.154109
0.680433 0.435984 0.157833
0.686008 0.442104 0.159938
0.686628 0.446252 0.161174
0.687038 0.447741 0.161577
0.687166 0.446483 0.161157
0.687165 0.445437 0.160871
0.686907 0.445608 0.161056
0.686742 0.445721 0.161182
0.686979 0.446713 0.161852
0.236219 0.405525 0.133150
0.232581 0.399277 0.131099
0.226162 0.388253 0.127479
0.217649 0.373640 0.122681
0.209592 0.359807 0.118139
0.206676 0.348324 0.114413
0.211165 0.338590 0.111339
0.220727 0.331915 0.109317
0.235486 0.327098 0.107971
0.255360 0.324533 0.107433
0.281391 0.325849 0.108251
0.311268 0.329557 0.109924
0.342541 0.334179 0.111973
0.375815 0.340248 0.114647
0.409725 0.349066 0.118357
0.442668 0.358369 0.122322
0.474541 0.368195 0.126544
0.505277 0.378456 0.130987
0.534294 0.389208 0.135394
0.562232 0.400046 0.139880
0.589008 0.411152 0.144572
0.614896 0.422368 0.149266
0.639907 0.433494 0.153905
0.661500 0.443912 0.158325
0.681467 0.453866 0.162593
0.688823 0.460907 0.165126
0.691588 0.466827 0.167010
0.692578 0.468772 0.167613
0.692116 0.467618 0.167220
0.691733 0.466588 0.166862
0.691596 0.465583 0.166503
0.691469 0.464635 0.166140
0.691451 0.464549 0.166047
0.257569 0.442180 0.145185
0.254629 0.437132 0.143528
0.248032 0.425807 0.139810
0.239817 0.411702 0.135178
0.231667 0.397624 0.130556
0.226190 0.385278 0.126523
0.229591 0.375073 0.123284
0.237995 0.367786 0.121048
0.250199 0.362218 0.119420
0.268117 0.358340 0.118425
0.291540 0.358727 0.118891
0.318549 0.360968 0.120027
0.348763 0.364399 0.121622
0.380623 0.369317 0.123776
0.411333 0.375442 0.126431
0.443344 0.383872 0.129948
0.474048 0.392835 0.133707
0.503449 0.402058 0.137601
0.531983 0.411478 0.141501
0.559127 0.421170 0.145601
0.584762 0.431162 0.149958
0.609744 0.441639 0.154317
0.634024 0.452113 0.158599
0.655400 0.461641 0.162719
0.675703 0.470766 0.166751
0.686133 0.477868 0.169616
0.693968 0.484316 0.172132
0.697021 0.487051 0.173110
0.697295 0.487639 0.173201
0.697210 0.487645 0.173090
0.696528 0.485803 0.172380
0.695996 0.484000 0.171686
0.695879 0.483055 0.171338
0.278214 0.477626 0.156824
0.275293 0.472612 0.155178
0.269204 0.462163 0.151747
0.261465 0.448878 0.147384
0.253755 0.435613 0.143029
0.248160 0.423617 0.139107
0.248771 0.411803 0.135316
0.255354 0.403407 0.132700
0.266118 0.397677 0.130998
0.281983 0.392909 0.129682
0.302880 0.391220 0.129437
0.328105 0.391895 0.130031
0.356615 0.394781 0.131404
0.386269 0.398948 0.133231
0.415744 0.403844 0.135333
0.446463 0.410904 0.138258
0.476020 0.418535 0.141448
0.504422 0.426400 0.144774
0.531081 0.434365 0.148125
0.556892 0.442993 0.151791
0.581851 0.452042 0.155699
0.605652 0.461384 0.159665
0.628677 0.470604 0.163594
0.650044 0.479625 0.167382
0.670705 0.488390 0.171087
0.685055 0.495701 0.174269
0.698196 0.502624 0.177320
0.702671 0.506497 0.178685
0.703513 0.509005 0.179317
0.703692 0.509575 0.179416
0.702631 0.506585 0.178535
0.701627 0.503760 0.177687
0.701374 0.502122 0.177157
0.297512 0.510757 0.167702
0.294896 0.506266 0.166227
0.289182 0.496459 0.163007
0.282161 0.484410 0.159051
0.274775 0.471701 0.154879
0.268028 0.458980 0.150709
0.268084 0.448092 0.147210
0.273210 0.439110 0.144386
0.282614 0.432676 0.142438
0.296632 0.427030 0.140810
0.314873 0.423904 0.140060
0.338434 0.423305 0.140210
0.365221 0.425164 0.141214
0.393278 0.428320 0.142672
0.421792 0.432430 0.144465
0.450613 0.437725 0.146688
0.478765 0.444528 0.149469
0.505963 0.451565 0.152402
0.531669 0.458418 0.155324
0.556642 0.465996 0.158537
0.580920 0.473834 0.161887
0.603521 0.482047 0.165489
0.625415 0.490121 0.169112
0.646776 0.498438 0.172606
0.667553 0.506548 0.176037
0.684365 0.513784 0.179182
0.700618 0.520801 0.182268
0.706004 0.525303 0.183880
0.708336 0.529022 0.185050
0.709257 0.529879 0.185382
0.708266 0.526742 0.184554
0.707300 0.523672 0.183747
0.706949 0.521469 0.183042
0.315516 0.541657 0.177848
0.313316 0.537882 0.176608
0.308384 0.529424 0.173831
0.301877 0.518253 0.170163
0.294481 0.505555 0.165994
0.287952 0.493463 0.162030
0.286606 0.482969 0.158640
0.290864 0.473640 0.155693
0.299079 0.466200 0.153405
0.311693 0.460250 0.151659
0.328245 0.456607 0.150713
0.349540 0.454484 0.150334
0.374590 0.455063 0.150892
0.401421 0.457363 0.152044
0.428689 0.460575 0.153513
0.455538 0.464210 0.155127
0.482216 0.470597 0.157664
0.508295 0.476871 0.160235
0.533623 0.482816 0.162789
0.557873 0.489371 0.165563
0.581398 0.496024 0.168404
0.603122 0.503282 0.171684
0.624317 0.510421 0.175002
0.645199 0.517646 0.178167
0.665405 0.524722 0.181289
0.683146 0.531680 0.184182
0.700402 0.538455 0.187009
0.706945 0.542953 0.188769
0.711717 0.546986 0.190323
0.713768 0.548047 0.190859
0.713143 0.546123 0.190374
0.712527 0.544222 0.189898
0.712055 0.541227 0.188917
0.333323 0.572235 0.187888
0.331193 0.568581 0.186688
0.326473 0.560481 0.184028
0.320402 0.550054 0.180605
0.314467 0.539874 0.177262
0.306892 0.526583 0.172900
0.303944 0.514843 0.169091
0.307651 0.505519 0.166138
0.315197 0.497888 0.163780
0.327081 0.492158 0.162092
0.342775 0.488045 0.160980
0.361796 0.485264 0.160352
0.384602 0.484745 0.160517
0.410374 0.486366 0.161425
0.436280 0.488703 0.162581
0.461738 0.491610 0.163927
0.486880 0.496258 0.165839
0.511657 0.501031 0.167832
0.535998 0.505889 0.169940
0.559394 0.512073 0.172518
0.582166 0.518310 0.175184
0.603858 0.524422 0.178024
0.624715 0.530485 0.180892
0.643946 0.536558 0.183566
0.662704 0.542674 0.186276
0.680915 0.549387 0.189216
0.698657 0.555938 0.192116
0.707739 0.560832 0.194092
0.716180 0.565506 0.195975
0.719568 0.567101 0.196667
0.719366 0.566483 0.196502
0.719159 0.565848 0.196332
0.718104 0.562051 0.195131
0.349591 0.600169 0.197060
0.347760 0.597026 0.196028
0.343454 0.589633 0.193600
0.338009 0.580286 0.190531
0.331803 0.569622 0.187030
0.324732 0.557271 0.182976
0.321112 0.545609 0.179184
0.324442 0.537077 0.176481
0.330786 0.528999 0.173963
0.341126 0.522815 0.172107
0.355599 0.518292 0.170845
0.373805 0.515171 0.170091
0.395092 0.513406 0.169828
0.419269 0.514178 0.170433
0.443604 0.515785 0.171321
0.467948 0.517996 0.172416
0.492087 0.520794 0.173708
0.515983 0.524777 0.175404
0.539529 0.529291 0.177331
0.561826 0.534537 0.179539
0.583604 0.539721 0.181810
0.604596 0.544752 0.184196
0.624736 0.550014 0.186686
0.643589 0.555701 0.189217
0.662009 0.561398 0.191783
0.680033 0.567300 0.194458
0.697336 0.573071 0.197093
0.709523 0.578443 0.199305
0.721328 0.583653 0.201460
0.725230 0.585641 0.202258
0.725261 0.586022 0.202381
0.725179 0.586009 0.202382
0.723882 0.581878 0.201125
0.365043 0.626699 0.205770
0.363285 0.623682 0.204780
0.359281 0.616806 0.202522
0.354007 0.607750 0.199549
0.348216 0.597807 0.196284
0.341873 0.586505 0.192576
0.337702 0.575478 0.188981
0.340667 0.567128 0.186333
0.345808 0.558556 0.183641
0.354704 0.551990 0.181642
0.368409 0.547289 0.180310
0.385651 0.543544 0.179339
0.405738 0.541075 0.178828
0.428243 0.540814 0.179071
0.451336 0.541855 0.179752
0.474659 0.543147 0.180529
0.497873 0.544438 0.181317
0.520943 0.548107 0.182879
0.543593 0.552234 0.184626
0.564930 0.556296 0.186400
0.585695 0.560373 0.188256
0.605710 0.564436 0.190220
0.625196 0.569177 0.192449
0.644072 0.574661 0.194924
0.662337 0.579920 0.197347
0.679896 0.584875 0.199667
0.696795 0.589905 0.202002
0.711876 0.595646 0.204412
0.726585 0.601252 0.206776
0.730406 0.603538 0.207648
0.730785 0.604748 0.208039
0.730830 0.605007 0.208142
0.729507 0.600837 0.206917
0.378974 0.650613 0.213622
0.377483 0.648054 0.212782
0.373951 0.641990 0.210791
0.369218 0.633866 0.208124
0.363933 0.624792 0.205144
0.357125 0.612932 0.201251
0.353084 0.602641 0.197895
0.354670 0.594200 0.195200
0.360324 0.586776 0.192883
0.368533 0.579695 0.190710
0.380503 0.574089 0.189062
0.396527 0.570207 0.188028
0.415768 0.567690 0.187485
0.437444 0.566364 0.187369
0.459818 0.566578 0.187769
0.482133 0.567388 0.188369
0.504233 0.568638 0.189118
0.526145 0.571153 0.190280
0.547887 0.573981 0.191561
0.569175 0.577240 0.193042
0.589206 0.580647 0.194621
0.607979 0.584147 0.196274
0.626684 0.588253 0.198218
0.645213 0.592763 0.200392
0.662953 0.597291 0.202553
0.679910 0.601817 0.204659
0.696244 0.606530 0.206831
0.711482 0.611852 0.209170
0.726365 0.617059 0.211479
0.731180 0.619332 0.212384
0.734230 0.621066 0.213036
0.736143 0.621476 0.213256
0.735143 0.618307 0.212323
0.392347 0.673576 0.221162
0.390942 0.671163 0.220370
0.387673 0.665553 0.218528
0.383503 0.658394 0.216177
0.378008 0.648959 0.213079
0.371534 0.637788 0.209412
0.367318 0.628138 0.206260
0.368578 0.620328 0.203764
0.373789 0.612858 0.201425
0.381397 0.605766 0.199240
0.392190 0.599814 0.197465
0.407508 0.595965 0.196430
0.425787 0.592861 0.195682
0.446267 0.590799 0.195308
0.467900 0.590294 0.195461
0.489212 0.590614 0.195884
0.510483 0.591439 0.196478
0.531382 0.592803 0.197248
0.552381 0.594813 0.198240
0.573347 0.597465 0.199487
0.592570 0.600390 0.200853
0.610689 0.603444 0.202303
0.628892 0.607031 0.204038
0.646941 0.610820 0.205945
0.664075 0.614779 0.207863
0.680513 0.618812 0.209762
0.696400 0.623115 0.211764
0.711588 0.627872 0.213925
0.726447 0.632544 0.216074
0.732555 0.634729 0.217009
0.738118 0.636755 0.217870
0.741373 0.637283 0.218191
0.740717 0.635198 0.217574
0.404648 0.694699 0.228098
0.403433 0.692614 0.227413
0.400626 0.687795 0.225831
0.396624 0.680922 0.223574
0.391130 0.671489 0.220477
0.385599 0.661905 0.217331
0.380815 0.652729 0.214324
0.382260 0.644750 0.211776
0.386271 0.637116 0.209370
0.393493 0.630555 0.207350
0.404153 0.625081 0.205726
0.418470 0.620586 0.204468
0.435423 0.616636 0.203427
0.454592 0.614145 0.202894
0.475381 0.613159 0.202876
0.495900 0.612526 0.202978
0.516511 0.612474 0.203276
0.536529 0.613136 0.203803
0.556805 0.614809 0.204667
0.577135 0.617104 0.205757
0.595908 0.619733 0.206998
0.614102 0.622474 0.208353
0.631838 0.625813 0.209970
0.649258 0.629256 0.211689
0.665795 0.632723 0.213387
0.681829 0.636178 0.215081
0.697274 0.639901 0.216855
0.712114 0.643879 0.218696
0.726247 0.647675 0.220475
0.734423 0.649663 0.221486
0.742371 0.651607 0.222481
0.746490 0.652275 0.222903
0.746217 0.651447 0.222652
0.416225 0.714573 0.234623
0.415108 0.712656 0.233993
0.412438 0.708074 0.232489
0.408389 0.701122 0.230206
0.403479 0.692691 0.227438
0.398491 0.684125 0.224625
0.394237 0.675472 0.221794
0.393955 0.667305 0.219165
0.397978 0.659707 0.216770
0.404904 0.653626 0.214900
0.415001 0.647955 0.213204
0.428312 0.642747 0.211703
0.444343 0.638494 0.210550
0.462619 0.635981 0.209994
0.482369 0.634498 0.209798
0.502442 0.633269 0.209698
0.522374 0.632707 0.209819
0.541841 0.632710 0.210122
0.561586 0.634082 0.210875
0.581384 0.635922 0.211791
0.599605 0.638392 0.212950
0.617573 0.640948 0.214218
0.634677 0.643751 0.215601
0.651530 0.646584 0.217049
0.667598 0.649567 0.218556
0.683319 0.652563 0.220097
0.698312 0.655831 0.221695
0.712738 0.659245 0.223314
0.726222 0.662385 0.224846
0.736358 0.664420 0.225983
0.746256 0.666418 0.227117
0.750752 0.667257 0.227609
0.751078 0.667189 0.227593
0.426958 0.733000 0.240673
0.425892 0.731172 0.240073
0.423326 0.726767 0.238626
0.419685 0.720516 0.236574
0.415352 0.713076 0.234131
0.410580 0.704869 0.231437
0.406427 0.696700 0.228762
0.405098 0.688485 0.226105
0.409513 0.681123 0.223791
0.415771 0.675236 0.221974
0.425011 0.668783 0.220016
0.437519 0.663201 0.218383
0.453026 0.659047 0.217253
0.470415 0.656525 0.216680
0.489227 0.654615 0.216330
0.509025 0.653145 0.216145
0.528290 0.652168 0.216119
0.547428 0.651548 0.216213
0.566686 0.652616 0.216856
0.585862 0.654030 0.217617
0.603523 0.656457 0.218726
0.620939 0.658862 0.219893
0.637448 0.660798 0.220937
0.653765 0.662797 0.222047
0.669491 0.665419 0.223421
0.684975 0.668049 0.224846
0.699459 0.671005 0.226320
0.713417 0.674052 0.227806
0.726596 0.676850 0.229232
0.738261 0.679092 0.230514
0.749678 0.681305 0.231803
0.754210 0.682148 0.232289
0.755316 0.682299 0.232364
0.437119 0.750444 0.246401
0.436135 0.748755 0.245846
0.433774 0.744702 0.244515
0.430430 0.738960 0.242630
0.426397 0.732038 0.240357
0.422043 0.724470 0.237873
0.417671 0.716576 0.235284
0.416596 0.708375 0.232634
0.419807 0.701279 0.230391
0.425868 0.695020 0.228453
0.434534 0.688158 0.226355
0.446434 0.682734 0.224764
0.461023 0.678500 0.223595
0.477910 0.675766 0.222944
0.496161 0.673568 0.222492
0.515427 0.671852 0.222217
0.534080 0.670708 0.222124
0.553013 0.670076 0.222208
0.571769 0.670869 0.222751
