output/ProPhoto/ProPhoto_to_PRO-Neg.Std_33grid.cube
TITLE "ProPhoto_to_PRO-Neg.Std"
# Input: ProPhoto RGB, gamma 1.8 (D50)
# Output: ProPhoto RGB, gamma 1.8 (D50) with film simulation look
# Use: Photoshop 3D LUT adjustment layer on standard ProPhoto document
# Source: FLog2C_to_PRO-Neg.Std_65grid_V.1.00.cube
# Generated from Fujifilm GFX ETERNA 55 F-Log2C LUT
LUT_3D_SIZE 9
0.000068 0.000066 0.000025
0.072479 0.029903 0.024402
0.340306 0.136768 0.108783
0.612802 0.245944 0.251786
0.683341 0.285795 0.366125
0.703896 0.329377 0.402042
0.707069 0.336720 0.406130
0.707069 0.336720 0.406130
0.707069 0.336720 0.406130
0.031431 0.053390 0.017534
0.048766 0.046300 0.015557
0.206164 0.093702 0.052147
0.455579 0.185810 0.142167
0.642812 0.259017 0.274247
0.682258 0.284271 0.365160
0.700698 0.322267 0.398007
0.707069 0.336720 0.406130
0.707069 0.336720 0.406130
0.116431 0.199170 0.065401
0.094295 0.156261 0.051346
0.178268 0.160789 0.054105
0.353977 0.208714 0.073250
0.529536 0.268828 0.120508
0.658827 0.316572 0.205343
0.690387 0.331362 0.288042
0.700811 0.348661 0.331927
0.711939 0.369265 0.369514
0.223105 0.382896 0.125721
0.191174 0.328008 0.107699
0.218957 0.301086 0.099415
0.345446 0.316841 0.106506
0.490505 0.353069 0.120876
0.611190 0.388219 0.136096
0.698225 0.415415 0.175347
0.709519 0.416137 0.227702
0.714001 0.418176 0.267471
0.313295 0.537810 0.176585
0.287385 0.493311 0.161974
0.284774 0.452932 0.148967
0.372744 0.446047 0.147988
0.493360 0.463077 0.155447
0.600007 0.485838 0.164707
0.687483 0.506508 0.173044
0.730127 0.514642 0.181046
0.730779 0.502628 0.197320
0.386438 0.663441 0.217834
0.367501 0.630913 0.207154
0.352915 0.590089 0.193858
0.414027 0.573236 0.189236
0.513467 0.574482 0.191128
0.608865 0.584998 0.196110
0.687150 0.598516 0.201857
0.751620 0.608086 0.206164
0.757330 0.600189 0.203810
0.441392 0.757813 0.248820
0.427109 0.733284 0.240766
0.409940 0.698429 0.229358
0.453934 0.681003 0.224305
0.537614 0.676093 0.223897
0.622774 0.676626 0.225406
0.693246 0.681101 0.228043
0.753556 0.687249 0.231099
0.782358 0.687280 0.231663
0.481662 0.826953 0.271521
0.471949 0.810277 0.266046
0.455079 0.779759 0.256036
0.486209 0.765716 0.251900
0.557598 0.755019 0.249417
0.634836 0.749108 0.248673
0.701347 0.746325 0.248867
0.757151 0.746683 0.249950
0.798031 0.746336 0.250586
0.513958 0.882401 0.289727
0.506517 0.869626 0.285533
0.491470 0.843675 0.277013
0.511290 0.828896 0.272499
0.570927 0.812393 0.267970
0.642173 0.802923 0.265953
0.706826 0.799699 0.265928
0.760430 0.795956 0.265628
0.806901 0.794977 0.266130
0.015401 0.007415 0.040833
0.056963 0.023056 0.043965
0.279625 0.112381 0.097999
0.563457 0.225708 0.214473
0.677613 0.278085 0.355556
0.700497 0.321018 0.396704
0.707069 0.336720 0.406130
0.707069 0.336720 0.406130
0.707069 0.336720 0.406130
0.051836 0.075204 0.071768
0.051726 0.052525 0.050673
0.191997 0.091097 0.081297
0.422236 0.174697 0.149674
0.605104 0.246018 0.249094
0.677534 0.277319 0.354087
0.694594 0.307790 0.385730
0.707067 0.336712 0.406131
0.707069 0.336720 0.406130
0.147793 0.249821 0.099708
0.109767 0.184318 0.071183
0.179004 0.174167 0.072724
0.344672 0.212397 0.103788
0.511418 0.266527 0.157335
0.642876 0.314362 0.229996
0.693784 0.335470 0.306191
0.702334 0.349134 0.339421
0.711964 0.370173 0.368050
0.253221 0.434459 0.142745
0.217386 0.372922 0.122454
0.226025 0.329448 0.108622
0.340227 0.330863 0.112266
0.479049 0.357038 0.131561
0.599199 0.389600 0.166848
0.695777 0.418703 0.216828
0.716443 0.424236 0.270349
0.721478 0.425921 0.304048
0.340934 0.585262 0.192165
0.312856 0.537024 0.176327
0.296136 0.485178 0.159464
0.370850 0.468485 0.155120
0.483924 0.474421 0.158863
0.590781 0.491424 0.166887
0.676229 0.507101 0.183149
0.733847 0.518726 0.214032
0.740566 0.514276 0.248146
0.410007 0.703921 0.231125
0.389291 0.668343 0.219443
0.364762 0.619231 0.203366
0.413252 0.598133 0.197201
0.505053 0.592537 0.196743
0.598355 0.596052 0.199419
0.674897 0.601147 0.202447
0.741323 0.609142 0.207343
0.763815 0.607195 0.219025
0.456762 0.784202 0.257484
0.443087 0.760723 0.249775
0.420312 0.720490 0.236573
0.451319 0.700593 0.230557
0.528324 0.691442 0.228666
0.611613 0.690569 0.229659
0.682789 0.691121 0.231032
0.743781 0.692740 0.232648
0.784466 0.692521 0.233391
0.493910 0.847982 0.278426
0.482910 0.829097 0.272225
0.464508 0.797417 0.261824
0.482348 0.779530 0.256288
0.547362 0.767556 0.253288
0.622689 0.759642 0.251845
0.690139 0.756573 0.251937
0.746031 0.755948 0.252689
0.798238 0.762498 0.255697
0.521339 0.895074 0.293888
0.514403 0.883165 0.289978
0.500215 0.858787 0.281974
0.506501 0.838129 0.275408
0.560799 0.822040 0.270927
0.631089 0.812337 0.268797
0.695788 0.807118 0.268115
0.749573 0.803790 0.267932
0.796309 0.802761 0.268408
0.057124 0.029233 0.151348
0.059759 0.025610 0.120384
0.229037 0.090777 0.168629
0.495523 0.195920 0.271717
0.669724 0.267403 0.388510
0.695567 0.296477 0.429610
0.711990 0.337519 0.435813
0.709575 0.338281 0.421748
0.707684 0.337092 0.409976
0.113373 0.118263 0.243265
0.078684 0.074017 0.163972
0.193255 0.096331 0.174934
0.404334 0.169753 0.243319
0.584117 0.238651 0.334501
0.688838 0.280443 0.433191
0.702175 0.302494 0.459848
0.715972 0.337779 0.467834
0.717076 0.345311 0.459907
0.224812 0.329678 0.318872
0.159739 0.235169 0.223026
0.200068 0.200479 0.199615
0.350121 0.223625 0.223724
0.509497 0.269127 0.274173
0.636562 0.312987 0.339502
0.709290 0.340330 0.409311
0.717554 0.355854 0.441430
0.728231 0.381446 0.457913
0.308961 0.497394 0.314210
0.259901 0.422035 0.250890
0.247982 0.361576 0.213798
0.351325 0.351219 0.217562
0.484825 0.368024 0.245728
0.600097 0.393512 0.285907
0.692702 0.418033 0.334646
0.732928 0.429535 0.386057
0.738131 0.435682 0.414821
0.375378 0.626505 0.298689
0.343818 0.576791 0.260278
0.314413 0.516027 0.226232
0.380092 0.490582 0.220595
0.488002 0.489076 0.233069
0.591702 0.497380 0.256360
0.674723 0.509184 0.287358
0.742838 0.521355 0.328144
0.757308 0.521370 0.366456
0.426148 0.723399 0.283865
0.405405 0.689785 0.261716
0.377123 0.641096 0.235362
0.415254 0.614320 0.227963
0.503388 0.602244 0.230713
0.595414 0.600669 0.242644
0.672978 0.603519 0.261487
0.738157 0.608579 0.287674
0.778460 0.610975 0.321967
0.466810 0.798963 0.277006
0.452951 0.775861 0.265287
0.429611 0.736325 0.247892
0.446924 0.712392 0.240087
0.521155 0.699381 0.239005
0.604193 0.693838 0.242951
0.676904 0.690809 0.252340
0.737376 0.690453 0.267627
0.787828 0.691141 0.291136
0.502520 0.862602 0.284192
0.492383 0.845258 0.278116
0.473564 0.812998 0.267158
0.477092 0.790918 0.260055
0.538061 0.779082 0.257127
0.614864 0.771135 0.256211
0.684595 0.767254 0.258324
0.742208 0.763389 0.264277
0.792367 0.762091 0.276982
0.533832 0.916522 0.300931
0.526050 0.903161 0.296544
0.510595 0.876627 0.287832
0.505136 0.855152 0.280863
0.555466 0.846328 0.278647
0.625135 0.838198 0.276981
0.691884 0.831522 0.275841
0.748006 0.826977 0.275651
0.795120 0.823292 0.277962
0.126224 0.069798 0.332327
0.098195 0.050041 0.259522
0.211337 0.086098 0.262633
0.443826 0.175351 0.354553
0.629409 0.248583 0.458659
0.703168 0.280878 0.537539
0.715829 0.317688 0.512947
0.727574 0.354936 0.509794
0.725105 0.351199 0.494321
0.193379 0.174033 0.451687
0.144786 0.121976 0.345710
0.206632 0.111498 0.301436
0.392961 0.170175 0.349192
0.567192 0.234876 0.422266
0.693491 0.284359 0.505987
0.713819 0.300804 0.541434
0.724978 0.335364 0.530079
0.733363 0.364037 0.528376
0.314495 0.406575 0.561730
0.235899 0.299455 0.430495
0.229642 0.231779 0.355103
0.363045 0.241147 0.358234
0.513380 0.278597 0.394310
0.635604 0.316749 0.448089
0.718932 0.345608 0.504285
0.733261 0.361767 0.532768
0.742874 0.392838 0.536268
0.384897 0.563154 0.552065
0.323056 0.475199 0.456547
0.284802 0.395415 0.383272
0.372841 0.374132 0.372290
0.496998 0.382943 0.385686
0.607980 0.402729 0.414835
0.695571 0.421603 0.452912
0.748779 0.435885 0.494039
0.755503 0.444069 0.517187
0.428990 0.665714 0.515983
0.390337 0.610466 0.455180
0.347051 0.541715 0.393514
0.399648 0.510780 0.377817
0.500846 0.502288 0.378328
0.600110 0.505737 0.393236
0.681348 0.513450 0.417965
0.751138 0.524797 0.449488
0.774328 0.526844 0.480975
0.465413 0.746451 0.485091
0.440436 0.710445 0.445075
0.405419 0.657684 0.394583
0.428576 0.626844 0.374456
0.512092 0.611766 0.370277
0.602845 0.608131 0.377296
0.679181 0.607590 0.392843
0.743131 0.610612 0.414826
0.791080 0.613762 0.443662
0.495171 0.811418 0.455399
0.478315 0.786961 0.427746
0.451367 0.746474 0.388347
0.455623 0.717620 0.368148
0.525614 0.704067 0.361523
0.608368 0.696239 0.363954
0.681422 0.692448 0.374056
0.742579 0.691059 0.390392
0.794920 0.692210 0.413708
0.519637 0.864857 0.425302
0.508382 0.848185 0.407311
0.487846 0.817014 0.377377
0.481204 0.791397 0.358470
0.536704 0.777800 0.352226
0.613583 0.769555 0.352306
0.684893 0.764100 0.359555
0.744577 0.760862 0.373064
0.794812 0.760112 0.390653
0.537689 0.905479 0.393731
0.530673 0.895026 0.382239
0.516618 0.873122 0.363561
0.505610 0.850609 0.347430
0.548122 0.839513 0.342334
0.618640 0.831083 0.341765
0.688801 0.825064 0.347999
0.746797 0.821191 0.356995
0.795125 0.817589 0.370809
0.208685 0.126657 0.542926
0.207555 0.125409 0.540348
0.219355 0.097383 0.394093
0.415993 0.167731 0.445797
0.593776 0.236476 0.522273
0.714189 0.283940 0.607375
0.720803 0.294700 0.605449
0.729679 0.329450 0.575233
0.734576 0.351648 0.559205
0.271341 0.236558 0.643934
0.254790 0.215395 0.611561
0.229581 0.137515 0.447891
0.389944 0.178610 0.460608
0.554849 0.236356 0.512512
0.682607 0.284556 0.576958
0.729030 0.305277 0.624827
0.733174 0.329346 0.598785
0.742004 0.364610 0.581004
0.370213 0.447245 0.715692
0.324212 0.382065 0.641674
0.266053 0.271036 0.506771
0.378415 0.263863 0.489073
0.519477 0.291948 0.510183
0.636842 0.324088 0.547105
0.725926 0.352428 0.590902
0.747644 0.365005 0.620399
0.753478 0.392209 0.603562
0.464070 0.640800 0.751732
0.388546 0.530852 0.640328
0.325230 0.430702 0.537642
0.394235 0.398991 0.512737
0.510203 0.399894 0.513587
0.615763 0.412505 0.529801
0.701828 0.428902 0.557191
0.762609 0.442560 0.590536
0.770453 0.450802 0.606927
0.487715 0.713199 0.701820
0.441441 0.647869 0.629190
0.386043 0.568158 0.545302
0.419558 0.529990 0.522119
0.514932 0.515323 0.514827
0.610198 0.515945 0.519047
0.690766 0.521062 0.535090
0.757322 0.529852 0.557417
0.790264 0.533047 0.581415
0.509457 0.773718 0.660677
0.481529 0.734694 0.614968
0.440504 0.676561 0.549880
0.448115 0.640460 0.521848
0.524617 0.622200 0.510362
0.613525 0.615892 0.509080
0.689368 0.614840 0.517001
0.751450 0.615302 0.532164
0.802335 0.617979 0.553044
0.527292 0.822675 0.622356
0.511983 0.801685 0.595551
0.482365 0.759774 0.547281
0.474026 0.726950 0.515875
0.536169 0.710127 0.505496
0.617729 0.701257 0.501164
0.691591 0.696643 0.505157
0.751108 0.694418 0.515406
0.803337 0.694860 0.531294
0.541405 0.862426 0.584288
0.531895 0.849236 0.567627
0.512495 0.821912 0.534692
0.498807 0.795007 0.507556
0.546492 0.780723 0.497373
0.621347 0.772086 0.491796
0.692959 0.765836 0.493147
0.752519 0.762763 0.500940
0.801611 0.760026 0.511517
0.553419 0.896444 0.547205
0.546684 0.886721 0.536349
0.533346 0.868232 0.511936
0.519777 0.846555 0.490278
0.554070 0.837001 0.483327
0.622942 0.828518 0.479657
0.692817 0.822663 0.479559
0.750727 0.817423 0.483976
0.796949 0.812000 0.490455
0.289843 0.198194 0.739097
0.289461 0.197507 0.738457
0.242952 0.124270 0.548030
0.401396 0.169634 0.549744
0.570056 0.232222 0.599364
0.698993 0.281818 0.661581
0.737542 0.299327 0.702382
0.737834 0.320153 0.648935
0.744591 0.352850 0.619081
0.332526 0.298502 0.780549
0.332291 0.297919 0.780407
0.262084 0.179138 0.598274
0.390914 0.194490 0.574541
0.548514 0.243284 0.603362
0.670667 0.286937 0.650330
0.743609 0.314591 0.697488
0.745967 0.329554 0.677005
0.749688 0.360461 0.642061
0.414923 0.487865 0.824090
0.414760 0.487475 0.824071
0.307111 0.318720 0.643816
0.393793 0.291802 0.610762
0.525787 0.308847 0.614327
0.640054 0.335299 0.638787
0.728105 0.361710 0.668973
0.763485 0.374442 0.696695
0.765541 0.393625 0.672516
0.495208 0.660593 0.849023
0.455894 0.601659 0.793591
0.366540 0.468370 0.663373
0.411161 0.423989 0.631864
0.520431 0.417294 0.624062
0.623463 0.425009 0.632048
0.706873 0.438583 0.649051
0.771356 0.451584 0.672436
0.785272 0.455956 0.688468
0.537845 0.758459 0.838546
0.490735 0.690778 0.767353
0.427025 0.598321 0.673107
0.438106 0.550257 0.640476
0.526683 0.532820 0.628004
0.620327 0.528411 0.626577
0.698719 0.530725 0.634999
0.764255 0.536895 0.649817
0.805909 0.541074 0.668167
0.540679 0.790649 0.778545
0.517278 0.758529 0.739656
0.474985 0.697742 0.675723
0.466717 0.654571 0.640767
0.537092 0.634790 0.627460
0.623305 0.625128 0.623114
0.697997 0.622303 0.624964
0.760313 0.621830 0.633897
0.812350 0.624789 0.647395
0.549245 0.826202 0.733549
0.535951 0.808458 0.709795
0.510515 0.772439 0.669744
0.493235 0.736871 0.636502
0.548372 0.718927 0.625235
0.627350 0.708066 0.618207
0.700280 0.702508 0.615796
0.759854 0.699954 0.621135
0.810726 0.699362 0.630572
0.559406 0.860419 0.696076
0.549750 0.847227 0.679291
0.532156 0.822647 0.650244
0.516621 0.797730 0.624269
0.556064 0.784273 0.617125
0.628924 0.774867 0.610899
0.700141 0.768177 0.608187
0.759738 0.764411 0.610498
0.806047 0.759297 0.614028
0.568441 0.890155 0.661420
0.561657 0.880871 0.649428
0.548412 0.862275 0.627460
0.533742 0.840991 0.603989
0.557692 0.830809 0.599256
0.624501 0.823846 0.594946
0.694234 0.818290 0.593375
0.752841 0.812548 0.592939
0.798629 0.807068 0.593056
0.346265 0.266946 0.857169
0.346041 0.266312 0.857040
0.281410 0.173673 0.707579
0.397492 0.184328 0.663897
0.555938 0.236301 0.683811
0.678949 0.281300 0.723295
0.753256 0.310263 0.763525
0.752910 0.321850 0.734871
0.753754 0.349053 0.684960
0.381200 0.356728 0.878859
0.381011 0.356215 0.878804
0.302458 0.238199 0.732745
0.396285 0.220941 0.685483
0.542837 0.256203 0.693880
0.661552 0.293824 0.722238
0.754440 0.327002 0.757511
0.763546 0.335676 0.764419
0.761934 0.361379 0.709782
0.453428 0.528107 0.908545
0.453277 0.527743 0.908526
0.351435 0.371200 0.757227
0.405420 0.323212 0.716140
0.529492 0.329496 0.708399
0.639819 0.349683 0.718608
0.728175 0.371531 0.741504
0.779205 0.386920 0.763177
0.778369 0.399149 0.746096
0.514749 0.668279 0.917222
0.514690 0.668127 0.917254
0.412307 0.513812 0.771730
0.426034 0.451482 0.728263
0.528314 0.436681 0.718698
0.630841 0.440330 0.719443
0.711493 0.450539 0.727837
0.777824 0.461968 0.744185
0.799975 0.465538 0.760016
0.553057 0.758963 0.906724
0.529788 0.726060 0.870255
0.465989 0.632405 0.777506
0.453540 0.571478 0.731605
0.534521 0.548409 0.720654
0.627442 0.541238 0.716387
0.705761 0.542091 0.720231
0.769668 0.545910 0.729195
0.821066 0.550656 0.744217
0.568745 0.808622 0.872471
0.542023 0.771560 0.829151
0.505130 0.718524 0.773487
0.483922 0.670777 0.732412
0.546119 0.648961 0.719157
0.630653 0.635979 0.714180
0.706214 0.631409 0.713974
0.767313 0.629868 0.716937
0.820267 0.630928 0.727008
0.568693 0.831999 0.818165
0.553766 0.810978 0.794576
0.530355 0.779125 0.755042
0.508996 0.744573 0.724405
0.556513 0.727570 0.718304
0.634420 0.715477 0.712244
0.708876 0.709501 0.708922
0.767454 0.705285 0.708276
0.815790 0.702141 0.712589
0.574162 0.858791 0.779595
0.564875 0.846287 0.763392
0.547629 0.821987 0.736001
0.529992 0.796610 0.707812
0.559318 0.783885 0.703819
0.630635 0.775065 0.700101
0.702801 0.768432 0.695878
0.761741 0.762737 0.694427
0.808108 0.757969 0.694258
0.580893 0.885296 0.745455
0.574154 0.876245 0.733492
0.560835 0.857703 0.711508
0.545968 0.836517 0.688226
0.559519 0.825601 0.683430
0.621555 0.818366 0.681537
0.692070 0.813207 0.679291
0.751980 0.808693 0.676910
0.799038 0.802544 0.676091
0.388425 0.334047 0.927643
0.388242 0.333501 0.927609
0.339614 0.256061 0.845838
0.398410 0.212241 0.769224
0.544892 0.247863 0.766822
0.666127 0.287379 0.787677
0.761494 0.321660 0.820067
0.771437 0.329792 0.822971
0.766938 0.351348 0.757846
0.416921 0.412774 0.934569
0.416750 0.412319 0.934534
0.362620 0.319871 0.857488
0.400738 0.255079 0.783146
0.538409 0.275492 0.777194
0.654360 0.306164 0.788763
0.746536 0.335243 0.813395
0.780235 0.348010 0.837111
0.776342 0.366388 0.782367
0.475461 0.557041 0.948034
0.475340 0.556761 0.948008
0.408456 0.441670 0.867401
0.413488 0.358177 0.800766
0.529837 0.352180 0.788912
0.640188 0.366485 0.792008
0.725586 0.384625 0.802328
0.792579 0.401797 0.823764
0.793831 0.408072 0.815203
0.524847 0.669928 0.955998
0.524782 0.669779 0.955998
0.458923 0.567115 0.867508
0.437478 0.481764 0.807904
0.531270 0.458567 0.794384
0.632789 0.457185 0.792012
0.714285 0.463430 0.796143
0.781508 0.472617 0.807952
0.813340 0.477878 0.821431
0.560567 0.752647 0.952277
0.560537 0.752563 0.952310
0.499862 0.665294 0.860032
0.468931 0.595597 0.809092
0.540600 0.567215 0.795563
0.632283 0.555142 0.791911
0.710795 0.554190 0.789581
0.773633 0.555962 0.794708
0.829485 0.560940 0.805785
0.584932 0.813126 0.937490
0.565590 0.786506 0.905718
0.526413 0.732151 0.842481
0.498707 0.685768 0.802165
0.552267 0.661702 0.795045
0.635273 0.647986 0.788537
0.712129 0.641565 0.786732
0.772784 0.638743 0.786237
0.823446 0.637350 0.789861
0.588029 0.840007 0.893290
0.570718 0.817117 0.862742
0.545314 0.781933 0.821422
0.522318 0.749229 0.785921
0.558257 0.732379 0.784915
0.635580 0.721342 0.782383
0.709816 0.714256 0.776928
0.769543 0.709305 0.776022
0.816725 0.703653 0.773919
0.587552 0.859266 0.846204
0.577668 0.846168 0.828700
0.559760 0.820931 0.800486
0.541998 0.796104 0.771776
0.558729 0.781187 0.768018
0.626917 0.773359 0.766590
0.700206 0.766381 0.763104
0.760301 0.761239 0.760247
0.807189 0.755782 0.757276
0.591353 0.881724 0.810101
0.584630 0.872089 0.799879
0.571155 0.853818 0.776699
0.556770 0.833359 0.754366
0.560572 0.820075 0.747400
0.617198 0.813059 0.748145
0.686467 0.807677 0.746433
0.748454 0.803931 0.742172
0.796944 0.798204 0.739882
0.410997 0.395185 0.935376
0.410819 0.394695 0.935345
0.409288 0.390480 0.935068
0.397455 0.251283 0.854163
0.535384 0.267889 0.841648
0.655652 0.299707 0.848638
0.748849 0.329667 0.869315
0.788303 0.344228 0.886606
0.783343 0.358959 0.833370
0.436495 0.462122 0.940343
0.436342 0.461734 0.940312
0.427807 0.439848 0.938572
0.402721 0.296668 0.861382
0.530381 0.298538 0.847249
0.648541 0.322938 0.851997
0.737796 0.347675 0.865107
0.791958 0.364614 0.882141
0.790918 0.374711 0.853774
0.481623 0.571422 0.949107
0.481525 0.571195 0.949086
0.464487 0.531013 0.945797
0.421294 0.397423 0.870539
0.527168 0.378425 0.855335
0.637768 0.386582 0.853118
0.724033 0.399625 0.859848
0.795042 0.416114 0.872291
0.808776 0.420989 0.874032
0.525139 0.669136 0.958650
0.525081 0.669009 0.958637
0.500723 0.618671 0.947343
0.450840 0.515110 0.872668
0.532302 0.482492 0.857929
0.633187 0.475736 0.854587
0.715933 0.478846 0.854166
0.782445 0.485885 0.861043
0.823892 0.491074 0.871439
0.558867 0.743979 0.961764
0.558833 0.743894 0.961781
0.525340 0.686988 0.927167
0.484768 0.620038 0.867983
0.543171 0.586423 0.859016
0.633267 0.571984 0.851969
0.713671 0.568145 0.850379
0.777545 0.567570 0.852867
0.832247 0.570582 0.859041
0.583166 0.801183 0.954406
0.583141 0.801124 0.954414
0.543766 0.741697 0.900516
0.512880 0.695680 0.855538
0.552732 0.672469 0.853501
0.635748 0.659064 0.847687
0.713396 0.650474 0.845988
0.774872 0.646451 0.843517
0.823664 0.643329 0.841932
0.601602 0.846581 0.942280
0.587752 0.824442 0.926244
0.558951 0.785431 0.877681
0.534996 0.751426 0.840516
0.555258 0.733056 0.836605
0.629406 0.722686 0.835422
0.705884 0.715847 0.832163
0.766919 0.710125 0.828669
0.814785 0.704065 0.826254
0.602742 0.864009 0.908983
0.589607 0.846194 0.886745
0.570358 0.820591 0.853057
0.552612 0.795793 0.824666
0.558183 0.779417 0.818232
0.620316 0.770282 0.819080
0.693847 0.764681 0.815813
0.755663 0.759175 0.812509
0.804857 0.754367 0.809952
0.602039 0.880634 0.866769
0.594218 0.869834 0.853885
0.580381 0.850959 0.830586
0.566091 0.830977 0.807740
0.561988 0.815192 0.796377
0.611105 0.808502 0.800012
0.679333 0.803105 0.798458
0.742569 0.798825 0.796176
0.792758 0.793747 0.793588
