output/ProPhoto/ProPhoto_to_PROVIA_33grid.cube
TITLE "ProPhoto_to_PROVIA"
# Input: ProPhoto RGB, gamma 1.8 (D50)
# Output: ProPhoto RGB, gamma 1.8 (D50) with film simulation look
# Use: Photoshop 3D LUT adjustment layer on standard ProPhoto document
# Source: FLog2C_to_PROVIA_65grid_V.1.00.cube
# Generated from Fujifilm GFX ETERNA 55 F-Log2C LUT
LUT_3D_SIZE 9
0.000066 0.000051 0.000019
0.111922 0.044083 0.019517
0.449017 0.176655 0.090154
0.709579 0.280708 0.239914
0.722425 0.298814 0.370810
0.732854 0.338963 0.399907
0.734594 0.345967 0.403826
0.734594 0.345967 0.403826
0.734594 0.345967 0.403826
0.032880 0.056443 0.018533
0.048840 0.042799 0.014429
0.283900 0.116108 0.044674
0.564596 0.223679 0.121313
0.711131 0.282262 0.263412
0.722262 0.297499 0.369569
0.731077 0.331980 0.396492
0.734594 0.345967 0.403826
0.734594 0.345967 0.403826
0.130402 0.223884 0.073510
0.101291 0.173902 0.057099
0.197066 0.166016 0.056120
0.428651 0.224369 0.079797
0.633587 0.296209 0.108370
0.714798 0.331198 0.175500
0.723050 0.343022 0.273287
0.729598 0.358464 0.319801
0.736732 0.378140 0.357677
0.240717 0.413281 0.135697
0.206913 0.355244 0.116641
0.204335 0.312598 0.102910
0.375561 0.324941 0.109640
0.566662 0.369571 0.127773
0.708368 0.412094 0.144408
0.734038 0.425134 0.155836
0.737001 0.428194 0.206194
0.739719 0.428751 0.246125
0.337396 0.579267 0.190196
0.310647 0.533342 0.175117
0.280059 0.480073 0.157632
0.369801 0.460748 0.152634
0.536815 0.477386 0.160785
0.674654 0.504674 0.172189
0.759486 0.525372 0.180544
0.761139 0.528455 0.181737
0.758040 0.516990 0.184615
0.414902 0.712336 0.233888
0.394879 0.677958 0.222600
0.365803 0.628039 0.206210
0.387119 0.592865 0.195171
0.527066 0.587539 0.195503
0.655894 0.598138 0.201135
0.752731 0.606343 0.205641
0.786865 0.615290 0.209160
0.786134 0.614602 0.208929
0.471435 0.809395 0.265756
0.457580 0.785608 0.257946
0.433450 0.744180 0.244344
0.420070 0.707684 0.232453
0.520371 0.684747 0.226411
0.640495 0.673161 0.224604
0.737260 0.673414 0.226425
0.803513 0.675907 0.228505
0.806133 0.676740 0.228820
0.513043 0.880831 0.289212
0.502474 0.862686 0.283254
0.483921 0.830831 0.272795
0.465451 0.798393 0.262149
0.513614 0.760468 0.250566
0.628119 0.739106 0.245380
0.724898 0.733009 0.245047
0.797529 0.732160 0.246101
0.823057 0.729281 0.245682
0.536801 0.921620 0.302604
0.534124 0.917024 0.301095
0.522077 0.896342 0.294304
0.506660 0.869872 0.285614
0.512330 0.825343 0.271371
0.613332 0.794664 0.262891
0.713032 0.784699 0.261257
0.789862 0.780425 0.261218
0.837276 0.777871 0.261277
0.020251 0.008346 0.055187
0.084292 0.033160 0.043554
0.382094 0.150219 0.082773
0.679139 0.268007 0.199375
0.720453 0.292671 0.358774
0.730752 0.330718 0.395121
0.734594 0.345967 0.403826
0.734594 0.345967 0.403826
0.734594 0.345967 0.403826
0.051055 0.074685 0.073524
0.045380 0.046478 0.044266
0.254717 0.106099 0.064694
0.524272 0.208675 0.127885
0.704575 0.280207 0.237303
0.720243 0.291857 0.357433
0.727392 0.318186 0.386119
0.734592 0.345957 0.403824
0.734594 0.345967 0.403826
0.156888 0.268628 0.092572
0.117375 0.201325 0.067269
0.186378 0.175517 0.059604
0.406223 0.222173 0.081934
0.605711 0.288326 0.127400
0.716342 0.332574 0.199517
0.724795 0.345422 0.289479
0.730207 0.358934 0.328297
0.736994 0.378984 0.356588
0.273384 0.469367 0.154112
0.234674 0.402906 0.132290
0.210572 0.341728 0.112340
0.361352 0.337210 0.113235
0.543706 0.368783 0.126980
0.684049 0.407903 0.145920
0.735731 0.426626 0.184787
0.740483 0.433214 0.245418
0.743665 0.435503 0.283233
0.368018 0.631841 0.207459
0.338695 0.581497 0.190929
0.301481 0.517595 0.169947
0.361169 0.485291 0.160352
0.518433 0.488960 0.164089
0.653051 0.507386 0.172568
0.750018 0.525617 0.180420
0.761425 0.529292 0.192461
0.762486 0.526136 0.224932
0.436931 0.750156 0.246306
0.415661 0.713639 0.234316
0.384490 0.660122 0.216744
0.383806 0.619456 0.203667
0.508769 0.604922 0.200749
0.637652 0.608164 0.203961
0.734889 0.617355 0.208730
0.787515 0.622529 0.211438
0.787807 0.618880 0.211174
0.486647 0.835512 0.274332
0.472029 0.810416 0.266091
0.447400 0.768130 0.252207
0.426271 0.728994 0.239377
0.501369 0.700348 0.231137
0.620108 0.684581 0.227892
0.719606 0.683071 0.229145
0.797136 0.692679 0.233652
0.813594 0.699632 0.236164
0.523084 0.898070 0.294872
0.513135 0.880988 0.289263
0.494503 0.849001 0.278761
0.475442 0.816247 0.268006
0.497856 0.776675 0.255564
0.605948 0.750614 0.248711
0.706203 0.742174 0.247631
0.783489 0.739551 0.248173
0.824951 0.741580 0.249594
0.538500 0.924537 0.303562
0.536972 0.921915 0.302701
0.529072 0.908351 0.298247
0.513895 0.882293 0.289692
0.503414 0.841802 0.276551
0.592151 0.806456 0.266361
0.693412 0.792213 0.263330
0.771888 0.786984 0.262980
0.833265 0.785939 0.263751
0.080340 0.033889 0.219111
0.078488 0.031624 0.161820
0.316054 0.124377 0.178315
0.605841 0.238203 0.266083
0.722028 0.285627 0.391211
0.730052 0.306901 0.437264
0.737084 0.345466 0.435916
0.735827 0.346695 0.419667
0.734913 0.346050 0.407722
0.128405 0.115740 0.302096
0.084916 0.067000 0.205457
0.240900 0.103247 0.184000
0.493749 0.197251 0.236861
0.695515 0.276360 0.331830
0.728339 0.292308 0.442860
0.734477 0.312041 0.469473
0.740673 0.345052 0.470940
0.741651 0.352861 0.462444
0.238745 0.344416 0.355199
0.167692 0.244086 0.244403
0.194459 0.195107 0.194217
0.396718 0.225804 0.202730
0.589972 0.283602 0.248778
0.718151 0.330994 0.318622
0.733562 0.344760 0.399296
0.741040 0.362349 0.439414
0.747614 0.387398 0.453427
0.325798 0.527527 0.322979
0.274241 0.448935 0.254159
0.231414 0.374192 0.202156
0.355765 0.352619 0.185949
0.531868 0.372882 0.206799
0.667892 0.403954 0.249213
0.741441 0.425819 0.301426
0.749786 0.434396 0.366927
0.754750 0.441748 0.400649
0.395826 0.667053 0.287713
0.362778 0.614469 0.248871
0.321824 0.546568 0.213512
0.354336 0.502869 0.190499
0.501507 0.495652 0.193713
0.633062 0.505153 0.214770
0.733110 0.520968 0.248431
0.767039 0.528115 0.292000
0.771523 0.530174 0.342065
0.450608 0.771032 0.268725
0.430780 0.738080 0.251469
0.399148 0.684564 0.229151
0.381793 0.637867 0.212089
0.488731 0.611457 0.205566
0.615482 0.608173 0.211791
0.713817 0.613796 0.227410
0.783801 0.619957 0.252425
0.792294 0.617699 0.288348
0.496226 0.851926 0.279911
0.483476 0.830061 0.272585
0.460059 0.789864 0.259344
0.436849 0.749547 0.246109
0.484419 0.714727 0.235517
0.602903 0.702592 0.233359
0.702910 0.700088 0.235072
0.779043 0.701085 0.242458
0.813732 0.699408 0.259099
0.532101 0.913550 0.299955
0.524153 0.899906 0.295475
0.507660 0.871589 0.286177
0.488069 0.837953 0.275133
0.490062 0.802259 0.263684
0.592249 0.782859 0.258813
0.693514 0.775663 0.258064
0.772520 0.772958 0.258550
0.827223 0.772316 0.260572
0.540281 0.927595 0.304566
0.539940 0.927010 0.304374
0.537386 0.922625 0.302934
0.528843 0.907957 0.298118
0.511926 0.877040 0.287980
0.576319 0.839462 0.276717
0.677877 0.827218 0.274245
0.762522 0.826731 0.275438
0.829479 0.831135 0.277984
0.164834 0.073366 0.447604
0.133156 0.056511 0.361715
0.278317 0.110196 0.309299
0.544325 0.214419 0.368820
0.728457 0.286888 0.475634
0.742670 0.294712 0.567231
0.743191 0.324649 0.526535
0.748672 0.360640 0.514316
0.746762 0.357900 0.500575
0.223297 0.170455 0.556445
0.170247 0.117830 0.434888
0.241681 0.109398 0.344613
0.472108 0.190575 0.364147
0.668873 0.266728 0.432774
0.736953 0.295716 0.518836
0.744465 0.308754 0.562476
0.747988 0.340899 0.541473
0.752626 0.368624 0.534635
0.342802 0.422065 0.652207
0.256851 0.307546 0.502913
0.226939 0.225855 0.389378
0.400906 0.238605 0.364737
0.583986 0.286804 0.390682
0.717318 0.331994 0.440567
0.744705 0.347584 0.502033
0.752542 0.365638 0.539044
0.758712 0.396514 0.539615
0.412898 0.592630 0.621244
0.344905 0.498617 0.510694
0.282762 0.408500 0.415220
0.370049 0.371443 0.369723
0.532164 0.381717 0.368277
0.663808 0.406464 0.392029
0.748420 0.428620 0.431783
0.761866 0.437015 0.483379
0.767453 0.447911 0.512509
0.455052 0.702645 0.558769
0.414338 0.646183 0.490187
0.364035 0.571648 0.418926
0.369916 0.518688 0.368578
0.502197 0.503538 0.351020
0.630483 0.509525 0.359710
0.729398 0.521558 0.385201
0.778307 0.530122 0.421802
0.783202 0.532603 0.464566
0.489844 0.787216 0.506038
0.464267 0.751473 0.461162
0.427990 0.698223 0.405535
0.399373 0.647855 0.363195
0.485553 0.616490 0.338655
0.609942 0.610528 0.338577
0.708825 0.613791 0.354541
0.785221 0.619278 0.381346
0.801874 0.618215 0.413299
0.519115 0.856187 0.456633
0.502553 0.832623 0.427115
0.474688 0.790907 0.385048
0.450217 0.752538 0.354521
0.478414 0.714722 0.326929
0.591764 0.700681 0.322282
0.693086 0.697687 0.330871
0.770982 0.698328 0.348590
0.819080 0.699009 0.375634
0.541296 0.908808 0.408955
0.532180 0.895809 0.391588
0.512139 0.865226 0.362098
0.491506 0.832098 0.339182
0.482610 0.797430 0.318426
0.573258 0.776238 0.308679
0.677661 0.769370 0.313139
0.759873 0.767610 0.325687
0.823234 0.767674 0.346770
0.545684 0.927465 0.358459
0.544048 0.925966 0.350825
0.540577 0.921843 0.339273
0.525982 0.897898 0.325103
0.510501 0.871749 0.313204
0.560573 0.842929 0.300804
0.663271 0.832276 0.302060
0.748106 0.828395 0.310257
0.813594 0.825214 0.324925
0.258709 0.125528 0.695932
0.257734 0.124494 0.693562
0.269692 0.108834 0.470687
0.503110 0.198850 0.484379
0.700160 0.276147 0.554252
0.751981 0.296988 0.637075
0.753190 0.303844 0.637889
0.752724 0.334792 0.593456
0.753773 0.355831 0.569104
0.310680 0.233478 0.777563
0.292530 0.211634 0.739431
0.260692 0.129830 0.523987
0.459175 0.190413 0.502283
0.647056 0.260997 0.540241
0.747812 0.301251 0.600163
0.756520 0.310774 0.653586
0.755893 0.333464 0.618788
0.759475 0.368096 0.593092
0.408083 0.462284 0.839461
0.357228 0.390886 0.754654
0.274904 0.266884 0.581534
0.411166 0.257078 0.525433
0.583059 0.294205 0.527924
0.714109 0.334806 0.556314
0.756782 0.353051 0.594982
0.764216 0.365971 0.634121
0.766979 0.394581 0.611439
0.502566 0.669803 0.864350
0.422023 0.556219 0.737766
0.342471 0.445157 0.610297
0.389950 0.394385 0.542093
0.538381 0.394214 0.520243
0.664111 0.411695 0.525404
0.755641 0.433899 0.548242
0.773966 0.441141 0.583699
0.779049 0.452860 0.605993
0.522829 0.749208 0.789391
0.473317 0.681960 0.706159
0.414914 0.599271 0.615648
0.397471 0.537162 0.547228
0.513743 0.514160 0.513968
0.634824 0.515715 0.506096
0.730715 0.525825 0.518728
0.789057 0.534000 0.538879
0.794870 0.534899 0.568469
0.541856 0.813262 0.728922
0.511928 0.773558 0.675016
0.469386 0.714935 0.603748
0.434144 0.662147 0.547937
0.497375 0.625855 0.506571
0.613937 0.616433 0.492041
0.710748 0.616840 0.493430
0.786825 0.622050 0.509089
0.814440 0.621636 0.529682
0.557251 0.864950 0.671322
0.540934 0.843613 0.639963
0.509887 0.801270 0.584980
0.481856 0.761147 0.540694
0.490625 0.720090 0.498589
0.595015 0.703541 0.476940
0.695010 0.698756 0.476208
0.772376 0.698452 0.484990
0.825965 0.700515 0.501102
0.567221 0.902681 0.615284
0.558152 0.891687 0.594265
0.539501 0.866334 0.559639
0.518706 0.836644 0.525472
0.501131 0.800994 0.491562
0.576828 0.777657 0.464526
0.678199 0.769643 0.459581
0.759799 0.766397 0.463705
0.822575 0.766158 0.477784
0.572728 0.929966 0.558525
0.568358 0.925217 0.545831
0.558376 0.913391 0.520013
0.543586 0.891315 0.498296
0.528596 0.868526 0.477700
0.560727 0.839138 0.450766
0.659207 0.828377 0.440435
0.744127 0.822332 0.442030
0.808366 0.818101 0.451754
0.340926 0.189658 0.901274
0.340684 0.189034 0.900903
0.291280 0.125683 0.664432
0.478869 0.191278 0.618300
0.667617 0.264403 0.646657
0.761188 0.301557 0.698944
0.768805 0.307603 0.745426
0.762019 0.324534 0.675775
0.762390 0.355451 0.636010
0.372326 0.291219 0.921282
0.372137 0.290605 0.921255
0.296151 0.169961 0.709635
0.453478 0.198438 0.643320
0.630647 0.259856 0.648369
0.756601 0.308080 0.683418
0.767958 0.316504 0.728502
0.767330 0.332367 0.704954
0.766579 0.362112 0.659308
0.449292 0.497040 0.941495
0.449112 0.496595 0.941466
0.331076 0.315569 0.753228
0.422139 0.280963 0.672729
0.581566 0.305059 0.651775
0.707959 0.340481 0.657735
0.769758 0.362417 0.680940
0.775692 0.371423 0.712751
0.776637 0.393378 0.687281
0.532194 0.686663 0.957735
0.497145 0.626271 0.921650
0.399921 0.485839 0.771734
0.410295 0.418885 0.688818
0.544326 0.409168 0.650524
0.666210 0.422061 0.641640
0.759324 0.441119 0.650599
0.786999 0.448365 0.672862
0.791401 0.455620 0.693455
0.579297 0.793294 0.954088
0.529969 0.723860 0.876689
0.462007 0.627492 0.771429
0.426627 0.559172 0.695717
0.523638 0.529120 0.647957
0.640701 0.525889 0.629082
0.733781 0.531898 0.630010
0.797858 0.539361 0.640388
0.807672 0.540220 0.659907
0.578495 0.828604 0.874289
0.554258 0.796199 0.832388
0.509367 0.734556 0.758430
0.470909 0.679034 0.700394
0.511711 0.637089 0.646818
0.622063 0.624171 0.622074
0.715652 0.622148 0.614538
0.790385 0.625113 0.618583
0.827729 0.626631 0.631347
0.582607 0.862204 0.814720
0.570768 0.848338 0.789036
0.543706 0.812371 0.740841
0.515514 0.772461 0.696751
0.509585 0.728990 0.645635
0.604972 0.710010 0.615036
0.700505 0.703825 0.601524
0.777063 0.702440 0.601531
0.833532 0.703802 0.610431
0.585927 0.889755 0.760909
0.579008 0.882570 0.742935
0.563719 0.864068 0.710118
0.544490 0.837791 0.676965
0.525112 0.806937 0.642586
0.585653 0.780935 0.607584
0.683006 0.771434 0.590310
0.762778 0.766864 0.586400
0.823352 0.764013 0.588555
0.589037 0.914071 0.710243
0.583893 0.908530 0.696916
0.574492 0.898268 0.672765
0.563247 0.885105 0.646251
0.548776 0.864021 0.624573
0.565884 0.834606 0.591896
0.657473 0.823098 0.570986
0.742094 0.816109 0.565207
0.804823 0.811851 0.566591
0.362985 0.244128 0.926452
0.362836 0.243497 0.926412
0.331301 0.166696 0.856183
0.465974 0.193217 0.753348
0.642980 0.258069 0.745975
0.765208 0.305478 0.772348
0.779816 0.313921 0.809828
0.775369 0.324509 0.770253
0.771068 0.350643 0.706913
0.390437 0.339849 0.931482
0.390242 0.339256 0.931456
0.345334 0.228985 0.878776
0.451455 0.215782 0.776094
0.617670 0.264209 0.752149
0.749101 0.311237 0.765161
0.779054 0.325522 0.791856
0.782122 0.335806 0.799717
0.776815 0.361262 0.732082
0.463980 0.531500 0.945701
0.463813 0.531102 0.945668
0.392834 0.375209 0.900149
0.432293 0.309370 0.801355
0.578571 0.320389 0.759643
0.702186 0.349809 0.750272
0.783523 0.374810 0.761581
0.787886 0.380323 0.781897
0.788128 0.396613 0.762879
0.533876 0.689148 0.960189
0.533793 0.688968 0.960170
0.452497 0.531033 0.902966
0.433268 0.449548 0.814017
0.549492 0.427764 0.760085
0.668374 0.435000 0.739577
0.760592 0.450201 0.738686
0.799745 0.457767 0.752108
0.803214 0.462651 0.768241
0.581154 0.788695 0.971624
0.566033 0.757581 0.967305
0.505546 0.659887 0.895801
0.457301 0.583486 0.816175
0.533235 0.545233 0.761935
0.645967 0.537072 0.734114
0.737151 0.540187 0.725237
0.804973 0.547474 0.726981
0.819695 0.547428 0.739295
0.604416 0.837577 0.974960
0.582733 0.807533 0.939977
0.544428 0.754872 0.877307
0.505907 0.699250 0.819863
0.526045 0.650616 0.760725
0.628343 0.633840 0.728721
0.720623 0.630037 0.713446
0.794529 0.631575 0.711974
0.840397 0.632941 0.716637
0.602661 0.859088 0.920138
0.590410 0.845992 0.891562
0.567728 0.817447 0.848259
0.542868 0.782013 0.810280
0.528781 0.740668 0.762725
0.613778 0.718700 0.725867
0.708432 0.709685 0.708817
0.781269 0.706596 0.701586
0.838624 0.706675 0.699402
0.601794 0.880641 0.865880
0.594813 0.874326 0.846395
0.581138 0.858344 0.816838
0.564710 0.837011 0.786474
0.545358 0.808881 0.754760
0.591020 0.781602 0.716791
0.684952 0.770754 0.695552
0.762601 0.765631 0.683549
0.821782 0.761131 0.679717
0.603832 0.903194 0.820246
0.597979 0.897375 0.804733
0.588476 0.886794 0.782357
0.577755 0.874505 0.757893
0.565593 0.858909 0.734416
0.571077 0.831312 0.701470
0.654993 0.817716 0.677407
0.738766 0.811381 0.664566
0.801706 0.806171 0.658928
0.381068 0.302095 0.929807
0.380910 0.301488 0.929773
0.360733 0.234515 0.926437
0.460370 0.208310 0.882874
0.625011 0.258818 0.844993
0.755266 0.306849 0.845352
0.789832 0.322066 0.864504
0.791883 0.329991 0.868702
0.783098 0.350588 0.789065
0.409300 0.392669 0.935271
0.409107 0.392123 0.935236
0.378483 0.302407 0.929770
0.450592 0.242529 0.895288
0.606628 0.274277 0.850937
0.734202 0.315240 0.843913
0.790621 0.336967 0.852822
0.795157 0.344404 0.873415
0.789009 0.364130 0.810640
0.474906 0.557160 0.947951
0.474766 0.556835 0.947918
0.427505 0.441436 0.938651
0.442715 0.344791 0.911281
0.575247 0.339554 0.856742
0.696775 0.361130 0.834436
0.789064 0.386912 0.832812
0.799264 0.391791 0.842361
0.800573 0.402747 0.835555
0.532817 0.686683 0.960277
0.532740 0.686517 0.960262
0.485362 0.581193 0.950283
0.453235 0.481228 0.914577
0.552411 0.448590 0.854433
0.668090 0.448835 0.824831
0.760194 0.460396 0.815247
0.811750 0.469068 0.816949
0.814690 0.471800 0.830547
0.576189 0.778543 0.970143
0.576146 0.778454 0.970132
0.534704 0.690918 0.960399
0.489943 0.612025 0.916026
0.540780 0.562258 0.852780
0.649504 0.550377 0.820112
0.738922 0.549691 0.803266
0.809819 0.555581 0.799579
0.831406 0.556793 0.804094
0.601925 0.831601 0.976229
0.594894 0.817060 0.974831
0.567831 0.765468 0.959608
0.534954 0.716873 0.912457
0.538290 0.666366 0.853787
0.634374 0.645112 0.816789
0.725373 0.638426 0.798495
0.797994 0.638649 0.788815
0.850268 0.638890 0.787826
0.614811 0.857875 0.979253
0.606071 0.843919 0.969082
0.585504 0.817894 0.930627
0.562038 0.785984 0.891462
0.542587 0.747862 0.849535
0.616036 0.723754 0.812187
0.709451 0.714268 0.788649
0.781805 0.709028 0.775620
0.839145 0.706654 0.770796
0.616474 0.876195 0.947007
0.608845 0.868206 0.928901
0.594741 0.853110 0.896025
0.579875 0.834590 0.867207
0.561603 0.808871 0.837990
0.592960 0.780650 0.800395
0.683025 0.769617 0.774414
0.760387 0.762468 0.760647
0.819725 0.757953 0.752923
0.615639 0.895170 0.899459
0.610455 0.889572 0.887288
0.600235 0.878922 0.862279
0.589614 0.866417 0.839648
0.578808 0.852996 0.818254
0.575953 0.827198 0.786649
0.651381 0.812654 0.759145
0.735024 0.806155 0.742358
0.797736 0.800838 0.732583
0.402583 0.363229 0.933346
0.402421 0.362664 0.933308
0.400875 0.358093 0.933009
0.436529 0.231605 0.926310
0.604772 0.266265 0.919359
0.735922 0.308898 0.911513
0.800035 0.333632 0.914047
0.802579 0.339396 0.923172
0.796648 0.355123 0.869776
0.427870 0.441056 0.938786
0.427703 0.440597 0.938752
0.419285 0.418912 0.936899
0.431972 0.274414 0.928537
0.590157 0.289118 0.922710
0.719152 0.323626 0.910394
0.798927 0.350796 0.910025
0.804416 0.355967 0.916032
0.802115 0.369609 0.886406
0.481083 0.571529 0.949128
0.480970 0.571267 0.949108
0.462617 0.528143 0.945604
0.435310 0.381744 0.934727
0.567729 0.361969 0.925995
0.690078 0.376590 0.905681
0.783701 0.397778 0.896668
0.810829 0.405041 0.897545
0.812782 0.412548 0.898916
0.531214 0.683082 0.960170
0.531145 0.682933 0.960155
0.506724 0.629369 0.954837
0.462284 0.516355 0.944543
0.552286 0.471382 0.927005
0.667172 0.466477 0.897634
0.757226 0.471865 0.882795
0.822730 0.482536 0.877757
0.825470 0.482870 0.881867
0.570629 0.766819 0.969113
0.570587 0.766731 0.969103
0.543226 0.708950 0.962792
0.510829 0.638407 0.955724
0.546453 0.583260 0.929232
0.649509 0.564816 0.891933
0.740789 0.561603 0.872182
0.811530 0.565901 0.863629
0.842111 0.565333 0.863589
0.596430 0.820171 0.975282
0.596409 0.820129 0.975277
0.572686 0.771199 0.969420
0.551067 0.725989 0.963933
0.546446 0.679111 0.928238
0.635346 0.656160 0.888855
0.726598 0.647036 0.866473
0.796954 0.644209 0.852133
0.851971 0.642942 0.846397
0.613176 0.854433 0.979120
0.606776 0.841502 0.977393
0.594989 0.817404 0.974550
0.576243 0.786453 0.954482
0.555196 0.751266 0.920371
0.613144 0.725050 0.879518
0.704444 0.714537 0.854282
0.778699 0.709226 0.838245
0.836080 0.705090 0.828716
0.621755 0.871791 0.981243
0.617616 0.863430 0.980213
0.606666 0.849435 0.960013
0.592594 0.831677 0.933548
0.576153 0.809560 0.905520
0.592315 0.779059 0.867304
0.677253 0.766769 0.840392
0.755634 0.759881 0.821343
0.815704 0.755420 0.810157
0.625969 0.888429 0.964401
0.620646 0.882447 0.952698
0.610682 0.871682 0.929778
0.599897 0.860268 0.904335
0.589697 0.847470 0.884777
0.580986 0.824505 0.853989
0.647552 0.808571 0.823856
0.727644 0.800234 0.805680
0.793545 0.795954 0.794080
