output/ProPhoto/ProPhoto_to_ETERNA-BB_33grid.cube
TITLE "ProPhoto_to_ETERNA-BB"
# Input: ProPhoto RGB, gamma 1.8 (D50)
# Output: ProPhoto RGB, gamma 1.8 (D50) with film simulation look
# Use: Photoshop 3D LUT adjustment layer on standard ProPhoto document
# Source: FLog2C_to_ETERNA-BB_65grid_V.1.00.cube
# Generated from Fujifilm GFX ETERNA 55 F-Log2C LUT
LUT_3D_SIZE 5
0.000037 0.000030 0.000018
0.236749 0.100436 0.064738
0.472494 0.261275 0.222561
0.548090 0.358862 0.311965
0.548090 0.358862 0.311965
0.082257 0.136565 0.052395
0.123081 0.113803 0.050969
0.374988 0.212239 0.128891
0.534056 0.351883 0.264174
0.590840 0.417753 0.339281
0.270488 0.436888 0.183260
0.266760 0.376745 0.172214
0.467719 0.447697 0.245625
0.650707 0.566196 0.337913
0.697942 0.599868 0.363990
0.390838 0.622817 0.270043
0.417855 0.611926 0.281181
0.585240 0.670874 0.348420
0.730875 0.735492 0.399155
0.790343 0.766137 0.420228
0.441532 0.697641 0.304732
0.483316 0.712163 0.326285
0.635699 0.779047 0.381408
0.764374 0.826843 0.421068
0.819637 0.844163 0.435030
0.033942 0.023153 0.078024
0.150721 0.062091 0.083219
0.428287 0.207195 0.194400
0.554288 0.363338 0.331968
0.549290 0.360044 0.315058
0.197215 0.274223 0.269754
0.150203 0.150480 0.149583
0.379768 0.228983 0.210917
0.553253 0.365265 0.331472
0.623603 0.450349 0.412185
0.383389 0.568759 0.406275
0.347641 0.477569 0.324802
0.509436 0.510590 0.363718
0.678120 0.593333 0.435245
0.750035 0.642910 0.478461
0.449205 0.682099 0.425768
0.462431 0.665727 0.403360
0.602988 0.710304 0.439334
0.741432 0.759404 0.478512
0.805279 0.782640 0.498926
0.467889 0.724675 0.395964
0.496842 0.734000 0.396904
0.626881 0.790336 0.437268
0.759862 0.837625 0.475875
0.822799 0.855348 0.493470
0.144293 0.098689 0.332464
0.135645 0.074227 0.211184
0.393674 0.180534 0.269306
0.510511 0.279730 0.357380
0.593884 0.397667 0.430326
0.354591 0.433665 0.543513
0.230524 0.235586 0.360715
0.419150 0.280423 0.376583
0.586608 0.389467 0.470701
0.660697 0.480737 0.524015
0.495645 0.677664 0.656781
0.440711 0.570151 0.558742
0.577011 0.577227 0.576719
0.724625 0.628701 0.617069
0.791674 0.665413 0.642927
0.519640 0.736516 0.655561
0.528289 0.720373 0.632800
0.650793 0.751108 0.658296
0.780892 0.786067 0.679553
0.842499 0.799388 0.681864
0.532134 0.767608 0.642324
0.555743 0.775077 0.642129
0.667783 0.818916 0.675263
0.795076 0.857848 0.702321
0.855842 0.869633 0.699527
0.246194 0.213764 0.498340
0.190887 0.133168 0.410789
0.396251 0.203959 0.397741
0.546208 0.299872 0.478225
0.610633 0.398094 0.506823
0.426007 0.514448 0.638888
0.316359 0.351019 0.520813
0.460842 0.340240 0.518438
0.622512 0.428256 0.589402
0.690362 0.497636 0.622456
0.545813 0.722897 0.739738
0.484059 0.625235 0.661094
0.605224 0.618136 0.690874
0.744027 0.655306 0.733692
0.806450 0.679952 0.750406
0.553431 0.760734 0.733521
0.547416 0.737113 0.712283
0.664811 0.767141 0.758552
0.800010 0.800605 0.799655
0.860551 0.806862 0.800995
0.551568 0.777116 0.716458
0.570907 0.781287 0.722314
0.670223 0.819254 0.765568
0.801565 0.860140 0.810056
0.869831 0.873139 0.816453
0.344577 0.354701 0.588055
0.341123 0.349440 0.585183
0.405592 0.245789 0.507076
0.568910 0.334033 0.569657
0.642020 0.416383 0.604409
0.465503 0.558261 0.681436
0.434879 0.514188 0.656065
0.489412 0.404194 0.613555
0.649413 0.470200 0.672495
0.724490 0.523837 0.707679
0.554278 0.721599 0.754589
0.518442 0.668870 0.718575
0.607242 0.643654 0.741442
0.755236 0.675822 0.794064
0.817931 0.692127 0.809046
0.583114 0.784072 0.777680
0.551383 0.740059 0.739762
0.649623 0.763142 0.786624
0.793169 0.801417 0.841301
0.859619 0.809592 0.854769
0.573450 0.789576 0.759063
0.572031 0.779429 0.749627
0.655382 0.809155 0.792244
0.790150 0.853505 0.849453
0.869015 0.870016 0.868890
