output/ProPhoto/ProPhoto_to_ACROS_33grid.cube
TITLE "ProPhoto_to_ACROS"
# Input: ProPhoto RGB, gamma 1.8 (D50)
# Output: ProPhoto RGB, gamma 1.8 (D50) with film simulation look
# Use: Photoshop 3D LUT adjustment layer on standard ProPhoto document
# Source: FLog2C_to_ACROS_65grid_V.1.00.cube
# Generated from Fujifilm GFX ETERNA 55 F-Log2C LUT
LUT_3D_SIZE 5
0.000014 0.000014 0.000014
0.127512 0.127512 0.127512
0.400959 0.400959 0.400959
0.490790 0.490790 0.490790
0.490790 0.490790 0.490790
0.110311 0.110311 0.110311
0.131308 0.131308 0.131308
0.292599 0.292599 0.292599
0.453152 0.453152 0.453152
0.528594 0.528594 0.528594
0.295979 0.295979 0.295979
0.311195 0.311195 0.311195
0.404312 0.404312 0.404312
0.513517 0.513517 0.513517
0.582056 0.582056 0.582056
0.452345 0.452345 0.452345
0.473229 0.473229 0.473229
0.529594 0.529594 0.529594
0.598352 0.598352 0.598352
0.652366 0.652366 0.652366
0.568037 0.568037 0.568037
0.585615 0.585615 0.585615
0.625666 0.625666 0.625666
0.672731 0.672731 0.672731
0.715231 0.715231 0.715231
0.019119 0.019119 0.019119
0.080505 0.080505 0.080505
0.318697 0.318697 0.318697
0.488069 0.488069 0.488069
0.491186 0.491186 0.491186
0.231687 0.231687 0.231687
0.176232 0.176232 0.176232
0.305453 0.305453 0.305453
0.457729 0.457729 0.457729
0.530066 0.530066 0.530066
0.422102 0.422102 0.422102
0.397225 0.397225 0.397225
0.459516 0.459516 0.459516
0.547384 0.547384 0.547384
0.615353 0.615353 0.615353
0.545643 0.545643 0.545643
0.554008 0.554008 0.554008
0.592023 0.592023 0.592023
0.644527 0.644527 0.644527
0.695583 0.695583 0.695583
0.642791 0.642791 0.642791
0.653682 0.653682 0.653682
0.683039 0.683039 0.683039
0.719861 0.719861 0.719861
0.759000 0.759000 0.759000
0.093661 0.093661 0.093661
0.091180 0.091180 0.091180
0.255791 0.255791 0.255791
0.415176 0.415176 0.415176
0.497568 0.497568 0.497568
0.352989 0.352989 0.352989
0.245450 0.245450 0.245450
0.344490 0.344490 0.344490
0.469620 0.469620 0.469620
0.539723 0.539723 0.539723
0.535606 0.535606 0.535606
0.465335 0.465335 0.465335
0.513318 0.513318 0.513318
0.581629 0.581629 0.581629
0.642406 0.642406 0.642406
0.613116 0.613116 0.613116
0.607233 0.607233 0.607233
0.640811 0.640811 0.640811
0.684976 0.684976 0.684976
0.727976 0.727976 0.727976
0.676719 0.676719 0.676719
0.694382 0.694382 0.694382
0.727423 0.727423 0.727423
0.761812 0.761812 0.761812
0.792431 0.792431 0.792431
0.226942 0.226942 0.226942
0.145406 0.145406 0.145406
0.269311 0.269311 0.269311
0.420101 0.420101 0.420101
0.504528 0.504528 0.504528
0.422444 0.422444 0.422444
0.312936 0.312936 0.312936
0.384921 0.384921 0.384921
0.486744 0.486744 0.486744
0.556460 0.556460 0.556460
0.599126 0.599126 0.599126
0.500197 0.500197 0.500197
0.547375 0.547375 0.547375
0.605828 0.605828 0.605828
0.660465 0.660465 0.660465
0.651757 0.651757 0.651757
0.623103 0.623103 0.623103
0.664678 0.664678 0.664678
0.706302 0.706302 0.706302
0.744017 0.744017 0.744017
0.686200 0.686200 0.686200
0.695938 0.695938 0.695938
0.735480 0.735480 0.735480
0.773048 0.773048 0.773048
0.802638 0.802638 0.802638
0.335483 0.335483 0.335483
0.332012 0.332012 0.332012
0.316163 0.316163 0.316163
0.436203 0.436203 0.436203
0.517798 0.517798 0.517798
0.464508 0.464508 0.464508
0.430064 0.430064 0.430064
0.424232 0.424232 0.424232
0.507940 0.507940 0.507940
0.578213 0.578213 0.578213
0.597628 0.597628 0.597628
0.541761 0.541761 0.541761
0.569365 0.569365 0.569365
0.623688 0.623688 0.623688
0.673757 0.673757 0.673757
0.677603 0.677603 0.677603
0.620899 0.620899 0.620899
0.668645 0.668645 0.668645
0.714569 0.714569 0.714569
0.750495 0.750495 0.750495
0.696828 0.696828 0.696828
0.685895 0.685895 0.685895
0.729158 0.729158 0.729158
0.771672 0.771672 0.771672
0.802984 0.802984 0.802984
