output/ProPhoto/ProPhoto_to_ETERNA_33grid.cube
TITLE "ProPhoto_to_ETERNA"
# Input: ProPhoto RGB, gamma 1.8 (D50)
# Output: ProPhoto RGB, gamma 1.8 (D50) with film simulation look
# Use: Photoshop 3D LUT adjustment layer on standard ProPhoto document
# Source: FLog2C_to_ETERNA_65grid_V.1.00.cube
# Generated from Fujifilm GFX ETERNA 55 F-Log2C LUT
LUT_3D_SIZE 9
0.002052 0.001979 0.001973
0.106650 0.042774 0.022161
0.355862 0.147917 0.070669
0.600714 0.261223 0.119244
0.665245 0.317148 0.164819
0.681499 0.359865 0.228070
0.682399 0.365810 0.235007
0.682399 0.365810 0.235007
0.682399 0.365810 0.235007
0.050502 0.086632 0.028445
0.077330 0.071985 0.024327
0.233327 0.111976 0.047395
0.449623 0.195887 0.087639
0.629374 0.276971 0.123830
0.664430 0.315685 0.160430
0.679359 0.353944 0.220958
0.682399 0.365810 0.235007
0.682399 0.365810 0.235007
0.126192 0.216613 0.071123
0.110485 0.179972 0.059160
0.194772 0.178355 0.060113
0.356188 0.220345 0.080474
0.518063 0.281667 0.108171
0.646359 0.341450 0.133133
0.672178 0.366408 0.140472
0.678445 0.380815 0.168522
0.685953 0.396832 0.215492
0.214587 0.368389 0.120957
0.188120 0.322524 0.105900
0.222298 0.293379 0.096996
0.339023 0.306919 0.103460
0.476281 0.345022 0.120241
0.597319 0.393235 0.140300
0.680433 0.435984 0.157833
0.687166 0.446483 0.161157
0.686979 0.446713 0.161852
0.297512 0.510757 0.167702
0.274775 0.471701 0.154879
0.282614 0.432676 0.142438
0.365221 0.425164 0.141214
0.478765 0.444528 0.149469
0.580920 0.473834 0.161887
0.667553 0.506548 0.176037
0.708336 0.529022 0.185050
0.706949 0.521469 0.183042
0.365043 0.626699 0.205770
0.348216 0.597807 0.196284
0.345808 0.558556 0.183641
0.405738 0.541075 0.178828
0.497873 0.544438 0.181317
0.585695 0.560373 0.188256
0.662337 0.579920 0.197347
0.726585 0.601252 0.206776
0.729507 0.600837 0.206917
0.416225 0.714573 0.234623
0.403479 0.692691 0.227438
0.397978 0.659707 0.216770
0.444343 0.638494 0.210550
0.522374 0.632707 0.209819
0.599605 0.638392 0.212950
0.667598 0.649567 0.218556
0.726222 0.662385 0.224846
0.751078 0.667189 0.227593
0.455898 0.782677 0.256984
0.446562 0.766659 0.251725
0.439034 0.737354 0.242215
0.476303 0.714503 0.235339
0.545658 0.705736 0.233485
0.615636 0.706633 0.234844
0.676026 0.710265 0.237386
0.729732 0.717080 0.241442
0.766449 0.722102 0.244834
0.484868 0.832395 0.273309
0.477608 0.819940 0.269219
0.470014 0.795977 0.261426
0.503537 0.776142 0.255464
0.565463 0.765471 0.252871
0.629072 0.762784 0.252945
0.685202 0.763656 0.254320
0.734398 0.765394 0.256441
0.777338 0.769204 0.259595
0.029456 0.013440 0.079182
0.091557 0.036166 0.069144
0.305009 0.124706 0.073078
0.551963 0.237155 0.108833
0.660643 0.307315 0.146580
0.678865 0.352607 0.219062
0.682399 0.365810 0.235007
0.682399 0.365810 0.235007
0.682399 0.365810 0.235007
0.072342 0.106162 0.102207
0.078689 0.079682 0.077479
0.216023 0.109121 0.085139
0.419388 0.186229 0.110040
0.594854 0.263108 0.129466
0.660029 0.305598 0.143786
0.674526 0.340441 0.202150
0.682403 0.365801 0.235000
0.682399 0.365810 0.235007
0.151754 0.252421 0.123551
0.121366 0.200385 0.093539
0.192784 0.187962 0.089898
0.343701 0.222811 0.102222
0.497261 0.277888 0.120630
0.625157 0.335310 0.137660
0.673134 0.368933 0.146480
0.679900 0.382571 0.181160
0.686578 0.398395 0.216477
0.244788 0.417896 0.149973
0.210638 0.360478 0.124404
0.228560 0.317958 0.110578
0.333600 0.321125 0.112717
0.463952 0.353056 0.124142
0.579781 0.395285 0.140850
0.671467 0.437540 0.157708
0.689090 0.454493 0.163763
0.692627 0.455178 0.180409
0.324618 0.557159 0.183194
0.299270 0.513723 0.168677
0.293623 0.465262 0.153036
0.363924 0.448679 0.148693
0.470320 0.459999 0.154094
0.568613 0.483447 0.164192
0.652357 0.510882 0.176422
0.706384 0.534864 0.186535
0.710724 0.536105 0.187231
0.386211 0.663040 0.217702
0.368246 0.632200 0.207577
0.355860 0.588238 0.193298
0.404704 0.564905 0.186440
0.491329 0.561412 0.186611
0.575629 0.570887 0.191201
0.649879 0.587237 0.198856
0.713791 0.605900 0.207453
0.733233 0.611535 0.210427
0.431614 0.740994 0.243298
0.418501 0.718481 0.235906
0.404074 0.681291 0.223780
0.441754 0.656047 0.216143
0.515044 0.647654 0.214479
0.589971 0.650041 0.216432
0.656720 0.657921 0.220670
0.714198 0.668054 0.226050
0.750519 0.675543 0.230092
0.466227 0.800403 0.262804
0.456598 0.783883 0.257380
0.442703 0.753373 0.247408
0.472641 0.729308 0.240043
0.537523 0.718287 0.237382
0.605347 0.715919 0.237634
0.665866 0.718162 0.239538
0.718665 0.724351 0.243201
0.763741 0.729229 0.246716
0.492325 0.845184 0.277508
0.485032 0.832678 0.273402
0.473835 0.808745 0.265576
0.497969 0.785902 0.258527
0.556035 0.774385 0.255594
0.618832 0.769168 0.254827
0.675621 0.770012 0.256092
0.724184 0.771151 0.257898
0.767465 0.774772 0.260789
0.073682 0.042444 0.193399
0.087501 0.036476 0.164306
0.258052 0.101838 0.175982
0.487463 0.200097 0.205999
0.657535 0.285490 0.226548
0.676854 0.328594 0.239714
0.685926 0.366270 0.262385
0.684583 0.367285 0.249194
0.683221 0.366046 0.238338
0.124181 0.141365 0.252646
0.095731 0.100435 0.188571
0.210798 0.115009 0.181752
0.400525 0.181437 0.209949
0.571926 0.253062 0.241771
0.673545 0.304503 0.256533
0.682428 0.334918 0.272569
0.689306 0.366726 0.292304
0.690121 0.373015 0.288152
0.224114 0.327582 0.320891
0.162632 0.239116 0.229231
0.207854 0.208122 0.207728
0.346976 0.231516 0.216684
0.494630 0.279901 0.237702
0.619262 0.331521 0.259082
0.687640 0.370559 0.267631
0.692350 0.389295 0.282252
0.698091 0.410473 0.303607
0.307152 0.487795 0.333717
0.258589 0.414549 0.268280
0.255782 0.355875 0.233055
0.348547 0.345006 0.231521
0.473333 0.367363 0.244082
0.581241 0.401200 0.257915
0.670238 0.437085 0.271212
0.704503 0.459091 0.276183
0.708312 0.465698 0.290611
0.368783 0.605851 0.330904
0.337662 0.558306 0.288950
0.320068 0.503364 0.254395
0.381948 0.477698 0.247638
0.481504 0.479772 0.252629
0.574205 0.494958 0.261706
0.653431 0.517014 0.272762
0.715430 0.538002 0.280677
0.726011 0.544437 0.281454
0.414736 0.694014 0.320813
0.394831 0.663479 0.293321
0.373583 0.618215 0.264022
0.417315 0.589968 0.259237
0.500212 0.581986 0.261145
0.580825 0.585901 0.267655
0.653309 0.598131 0.274928
0.712739 0.609969 0.279755
0.746403 0.618456 0.282731
0.448922 0.760136 0.306160
0.436131 0.740253 0.289072
0.416151 0.704481 0.266503
0.447973 0.677493 0.263782
0.518983 0.666158 0.265341
0.592683 0.664776 0.269185
0.656438 0.667964 0.273539
0.711690 0.674786 0.277577
0.754451 0.681546 0.281792
0.476728 0.813353 0.294058
0.467606 0.798684 0.284019
0.452067 0.771623 0.268518
0.472582 0.745836 0.264565
0.534339 0.733543 0.265969
0.602462 0.729027 0.268911
0.661421 0.728516 0.271119
0.713334 0.731228 0.274271
0.757455 0.735600 0.277207
0.500702 0.857975 0.289031
0.493690 0.846330 0.283106
0.481035 0.824818 0.273326
0.494115 0.801886 0.268344
0.546901 0.789011 0.266884
0.610865 0.783567 0.267605
0.666179 0.781065 0.267748
0.714363 0.781106 0.268808
0.757071 0.782534 0.270447
0.136013 0.088703 0.349836
0.111159 0.066137 0.290075
0.227807 0.094022 0.262568
0.435941 0.176007 0.293606
0.615731 0.254339 0.328209
0.682763 0.301395 0.329055
0.691475 0.348205 0.330253
0.698124 0.381424 0.340161
0.695877 0.378612 0.323965
0.191414 0.187020 0.430900
0.150735 0.142167 0.345242
0.212759 0.128428 0.288772
0.385701 0.182056 0.303588
0.550994 0.247660 0.333803
0.674772 0.304189 0.356394
0.691934 0.330852 0.351525
0.697473 0.365611 0.355124
0.701890 0.389594 0.362531
0.307754 0.408621 0.528839
0.232980 0.301646 0.414524
0.233016 0.236806 0.343366
0.356510 0.248308 0.335603
0.498015 0.288800 0.351239
0.616427 0.333956 0.367648
0.695382 0.373279 0.378910
0.705015 0.395486 0.375713
0.711863 0.422795 0.388745
0.379310 0.556891 0.537647
0.320094 0.470814 0.451472
0.291991 0.393785 0.386823
0.371791 0.372680 0.371209
0.487097 0.385426 0.373563
0.588271 0.411405 0.380550
0.673467 0.441954 0.389033
0.720319 0.464666 0.391456
0.723799 0.474866 0.394313
0.420264 0.647187 0.516734
0.385947 0.597539 0.465912
0.351852 0.533970 0.409825
0.404363 0.503122 0.394534
0.498119 0.498412 0.391937
0.586887 0.508385 0.393818
0.662280 0.525382 0.397849
0.724889 0.542891 0.402924
0.742946 0.550433 0.398074
0.453019 0.716864 0.499375
0.431404 0.686309 0.464631
0.401153 0.639997 0.416786
0.437799 0.608740 0.407563
0.517081 0.598221 0.404190
0.595999 0.598553 0.403468
0.663693 0.605975 0.405095
0.720471 0.615113 0.406184
0.761005 0.623574 0.405050
0.479137 0.773100 0.478867
0.464579 0.752630 0.454206
0.440475 0.716849 0.416046
0.463671 0.688790 0.409219
0.532334 0.676711 0.407355
0.604750 0.673400 0.406421
0.666936 0.674707 0.406604
0.720628 0.678733 0.405984
0.766520 0.685276 0.406550
0.499391 0.817578 0.456455
0.489372 0.803332 0.439265
0.471027 0.777349 0.407027
0.484826 0.751967 0.403001
0.543447 0.739806 0.402442
0.611798 0.734831 0.403340
0.671390 0.733590 0.402397
0.722397 0.734779 0.402352
0.766469 0.737827 0.402483
0.514112 0.851988 0.429437
0.507675 0.843002 0.417490
0.494305 0.823783 0.394241
0.501176 0.802782 0.389272
0.552120 0.790575 0.391269
0.617648 0.785689 0.393791
0.674772 0.783267 0.394112
0.724009 0.783093 0.394304
0.765458 0.782756 0.393948
0.205926 0.143520 0.522214
0.205080 0.142352 0.520547
0.221300 0.106885 0.375702
0.404718 0.171629 0.385574
0.577298 0.242262 0.418162
0.697353 0.298118 0.440870
0.697843 0.319953 0.411215
0.702187 0.357965 0.397860
0.703035 0.377677 0.389427
0.255618 0.243070 0.583671
0.241385 0.223885 0.557490
0.227306 0.152576 0.416181
0.379603 0.190894 0.410819
0.537582 0.248806 0.432924
0.664763 0.303019 0.455382
0.705811 0.332687 0.451809
0.705987 0.360131 0.426852
0.709767 0.391418 0.420768
0.357053 0.451984 0.653937
0.311944 0.384657 0.588726
0.265247 0.275670 0.478924
0.369639 0.269839 0.457145
0.503885 0.301295 0.463219
0.616503 0.339750 0.472942
0.702520 0.378192 0.482218
0.718600 0.398106 0.473024
0.720957 0.422515 0.457533
0.444174 0.623918 0.693665
0.379548 0.528627 0.602651
0.325517 0.432135 0.516627
0.391738 0.399673 0.496210
0.500555 0.404262 0.491323
0.596831 0.424481 0.493569
0.678770 0.449102 0.497380
0.733710 0.471331 0.499032
0.739086 0.483263 0.488986
0.467053 0.687438 0.656848
0.428895 0.632353 0.601185
0.383317 0.563824 0.533805
0.425013 0.526193 0.519544
0.515059 0.515402 0.514919
0.599884 0.522080 0.512192
0.672170 0.534090 0.512034
0.732934 0.549117 0.513767
0.760259 0.557714 0.505762
0.487031 0.739263 0.626887
0.464624 0.706916 0.594141
0.430104 0.658771 0.538807
0.455291 0.624283 0.530816
0.531187 0.610928 0.527028
0.609073 0.609430 0.524838
0.674217 0.612858 0.522355
0.729715 0.620872 0.520756
0.773290 0.627855 0.518860
0.504537 0.782516 0.602486
0.491104 0.763713 0.580888
0.466318 0.729136 0.540603
0.478833 0.699297 0.530939
0.543193 0.685597 0.529611
0.616133 0.680952 0.529845
0.678311 0.681054 0.527757
0.731117 0.683941 0.526344
0.776264 0.688900 0.523954
0.518674 0.818025 0.578421
0.509848 0.805538 0.564243
0.492678 0.782007 0.534259
0.496742 0.757519 0.524767
0.553415 0.745035 0.528864
0.622448 0.739951 0.529453
0.682175 0.738547 0.527955
0.732870 0.739052 0.526376
0.775798 0.740806 0.523775
0.530169 0.847671 0.554203
0.523670 0.838749 0.542638
0.511166 0.821751 0.520239
0.510448 0.803108 0.510367
0.559001 0.791927 0.517790
0.625912 0.788034 0.523161
0.683924 0.785640 0.522270
0.733024 0.784222 0.520751
0.773309 0.783308 0.516397
0.267537 0.206664 0.660778
0.267258 0.206047 0.660464
0.237133 0.137369 0.509304
0.387934 0.177808 0.490197
0.551090 0.240421 0.508474
0.679938 0.295887 0.530045
0.715221 0.322364 0.520745
0.710662 0.349048 0.472694
0.712930 0.379067 0.453861
0.310387 0.304078 0.698158
0.310130 0.303478 0.698000
0.252650 0.190914 0.545542
0.378131 0.206096 0.518570
0.528470 0.255352 0.527241
0.651241 0.304820 0.544723
0.720952 0.340758 0.547498
0.718550 0.360658 0.511178
0.718395 0.388451 0.482909
0.395202 0.488323 0.744518
0.395043 0.487977 0.744474
0.296273 0.322368 0.591248
0.381522 0.296370 0.564399
0.509884 0.317954 0.563072
0.617324 0.349637 0.565962
0.702985 0.385792 0.570199
0.733972 0.405541 0.562334
0.733380 0.425357 0.533863
0.467058 0.636675 0.769354
0.435477 0.589890 0.725456
0.356733 0.471405 0.614353
0.406868 0.427823 0.597023
0.510696 0.424411 0.588119
0.605357 0.438184 0.587332
0.684223 0.459079 0.588232
0.742891 0.478510 0.586920
0.753072 0.488186 0.573063
0.507556 0.724493 0.765379
0.466940 0.666159 0.705926
0.414192 0.589759 0.629628
0.439094 0.546528 0.612870
0.525384 0.533380 0.607753
0.609188 0.535098 0.604414
0.679490 0.543666 0.602500
0.738819 0.555075 0.601004
0.775974 0.564703 0.596047
0.512776 0.754788 0.719499
0.491309 0.724498 0.686639
0.456651 0.674808 0.635564
0.466974 0.637585 0.619618
0.538468 0.621900 0.617993
0.617512 0.619132 0.617100
0.682086 0.621276 0.613174
0.737805 0.626506 0.611553
0.782833 0.633377 0.608364
0.522645 0.787637 0.686702
0.510192 0.769742 0.668394
0.487268 0.737980 0.631350
0.488877 0.707884 0.617512
0.549761 0.692619 0.620548
0.624073 0.687659 0.621414
0.686637 0.687062 0.620777
0.738834 0.689629 0.616916
0.783267 0.692470 0.613950
0.533331 0.817903 0.662170
0.524749 0.806128 0.648018
0.508100 0.783000 0.620961
0.503736 0.760476 0.607534
0.557553 0.748212 0.617677
0.627403 0.743356 0.621555
0.688727 0.741614 0.620846
0.739039 0.740497 0.617562
0.780749 0.740877 0.614347
0.542955 0.844473 0.640227
0.536427 0.835386 0.629365
0.524032 0.818877 0.607201
0.514159 0.799688 0.589884
0.560534 0.790111 0.604954
0.625674 0.785686 0.612165
0.686080 0.784121 0.613729
0.735709 0.782542 0.612962
0.776992 0.781254 0.608214
0.319214 0.272757 0.762838
0.318974 0.272158 0.762671
0.260539 0.184295 0.634425
0.378992 0.194038 0.592151
0.534393 0.246349 0.596848
0.658598 0.296193 0.610219
0.732233 0.332985 0.613128
0.724691 0.350401 0.562840
0.722572 0.376482 0.520763
0.356234 0.362326 0.784644
0.356026 0.361817 0.784562
0.279208 0.244157 0.654001
0.377722 0.230248 0.616928
0.521877 0.268155 0.615304
0.639570 0.310437 0.623096
0.728787 0.350607 0.628716
0.732739 0.366225 0.601271
0.730407 0.389879 0.555447
0.426398 0.520348 0.814042
0.426262 0.520036 0.814022
0.333944 0.378431 0.682450
0.388980 0.328820 0.651550
0.511452 0.337471 0.645371
0.616196 0.364672 0.644113
0.701958 0.394530 0.646793
0.748255 0.417342 0.638240
0.746219 0.430993 0.607955
0.481526 0.642232 0.821152
0.481463 0.642084 0.821171
0.395303 0.512464 0.702684
0.417965 0.456498 0.675664
0.517030 0.445841 0.666993
0.610734 0.454033 0.663358
0.685635 0.469657 0.660366
0.747894 0.486871 0.658687
0.767863 0.496763 0.647852
0.519141 0.725520 0.816445
0.499058 0.695933 0.789041
0.444107 0.615631 0.710965
0.448165 0.565181 0.684413
0.529351 0.547820 0.679935
0.614154 0.546532 0.676597
0.684073 0.552916 0.674452
0.742737 0.562054 0.671873
0.787704 0.573014 0.668097
0.536747 0.772699 0.793636
0.512390 0.737477 0.758721
0.479689 0.691086 0.709825
0.475210 0.650482 0.687324
0.541252 0.632544 0.685697
0.621534 0.627894 0.687007
0.686737 0.629058 0.683426
0.742724 0.633160 0.681031
0.788953 0.638908 0.678446
0.539688 0.795161 0.754757
0.525176 0.774497 0.732782
0.503233 0.743457 0.699627
0.493655 0.713609 0.680037
0.551149 0.698887 0.686962
0.626394 0.693685 0.690978
0.691598 0.692261 0.691454
0.743381 0.693378 0.687062
0.786199 0.694847 0.682329
0.546272 0.818857 0.728450
0.536757 0.806016 0.712272
0.520609 0.783766 0.686071
0.507529 0.759882 0.665229
0.554895 0.747659 0.677423
0.626137 0.743992 0.685605
0.689194 0.742076 0.688630
0.740717 0.741695 0.685801
0.782595 0.740953 0.681710
0.553389 0.842393 0.703716
0.547328 0.833878 0.694185
0.534565 0.816988 0.671747
0.521021 0.798034 0.649960
0.557976 0.786481 0.666026
0.621135 0.782457 0.675452
0.683932 0.781219 0.679245
0.735284 0.779937 0.679801
0.777083 0.778747 0.675831
0.362783 0.338377 0.836076
0.362585 0.337850 0.836010
0.314016 0.263346 0.755480
0.373181 0.220184 0.683889
0.521391 0.258384 0.677049
0.642119 0.301658 0.681551
0.733867 0.342279 0.684127
0.741133 0.357792 0.656004
0.735568 0.379514 0.598484
0.393604 0.414731 0.848602
0.393423 0.414286 0.848549
0.337932 0.326501 0.765659
0.375617 0.260881 0.699160
0.514508 0.285186 0.692179
0.629852 0.321200 0.692826
0.719481 0.357334 0.693931
0.748826 0.376903 0.682200
0.742517 0.395512 0.628246
0.447592 0.543050 0.859705
0.447492 0.542801 0.859722
0.385816 0.444833 0.777439
0.394397 0.364159 0.723870
0.510630 0.361387 0.714751
0.614548 0.380762 0.709466
0.697144 0.405844 0.707314
0.759193 0.430055 0.703424
0.759485 0.439408 0.676923
0.489106 0.644922 0.848073
0.489048 0.644785 0.848089
0.434166 0.556122 0.783698
0.424307 0.482996 0.737436
0.517019 0.465553 0.728259
0.611495 0.469710 0.724679
0.686702 0.481446 0.720801
0.749413 0.496762 0.717569
0.779511 0.507409 0.708464
0.522411 0.721283 0.840446
0.522375 0.721204 0.840450
0.470305 0.640100 0.776462
0.455110 0.583963 0.741524
0.529272 0.562765 0.736157
0.616078 0.559840 0.735154
0.685965 0.562528 0.731284
0.744557 0.570058 0.728370
0.793250 0.579747 0.724846
0.548677 0.778577 0.836617
0.532104 0.752759 0.817049
0.495792 0.699713 0.765609
0.478525 0.661814 0.735473
0.540508 0.641400 0.740610
0.621190 0.635877 0.741088
0.688699 0.636280 0.739890
0.745024 0.638661 0.736891
0.790520 0.642034 0.733185
0.555785 0.803515 0.813292
0.539586 0.780435 0.789375
0.515521 0.746794 0.752166
0.496940 0.716864 0.723458
0.546625 0.700881 0.736012
0.623107 0.696575 0.743469
0.689871 0.695435 0.742435
0.743133 0.695163 0.739600
0.786641 0.695618 0.736736
0.557730 0.821231 0.780390
0.547651 0.807404 0.764334
0.531110 0.784150 0.738917
0.514601 0.760321 0.712197
0.550447 0.745992 0.725246
0.619717 0.742020 0.734689
0.685644 0.741418 0.737606
0.738630 0.739720 0.738246
0.781114 0.739462 0.733794
0.562424 0.840598 0.755586
0.555736 0.831635 0.744429
0.542891 0.813974 0.723524
0.529046 0.795097 0.700536
0.553242 0.781773 0.710938
0.613696 0.778273 0.722568
0.678480 0.777446 0.729584
0.731437 0.776739 0.730257
0.774843 0.776133 0.728602
0.395027 0.395461 0.878255
0.394874 0.395012 0.878282
0.393339 0.391271 0.877605
0.367452 0.256202 0.758528
0.508491 0.276857 0.746192
0.628703 0.313395 0.744668
0.719849 0.350050 0.743395
0.757158 0.371309 0.731635
0.750113 0.386941 0.676740
0.416637 0.457306 0.873250
0.416506 0.456946 0.873281
0.409100 0.438455 0.872038
0.375547 0.301495 0.768958
0.505234 0.307093 0.757181
0.620376 0.335865 0.753369
0.707940 0.367866 0.749541
0.759150 0.391508 0.740735
0.757337 0.404225 0.702478
0.454217 0.557661 0.861505
0.454139 0.557459 0.861537
0.438468 0.520201 0.861040
0.399518 0.402268 0.782394
0.505386 0.387172 0.772113
0.610720 0.399697 0.765237
0.692351 0.419410 0.760579
0.758297 0.441240 0.755969
0.772334 0.451097 0.738401
0.489753 0.645939 0.848938
0.489704 0.645825 0.848950
0.467157 0.596670 0.845836
0.430987 0.511950 0.789155
0.513357 0.486043 0.780353
0.608749 0.485750 0.774020
0.686258 0.494090 0.771687
0.748115 0.506892 0.766679
0.788266 0.517823 0.760067
0.519726 0.714731 0.841994
0.519691 0.714653 0.842001
0.491229 0.659411 0.829050
0.458964 0.601662 0.783103
0.524984 0.576025 0.784885
0.613812 0.570983 0.784039
0.686133 0.573152 0.779887
0.744688 0.578867 0.776432
0.793268 0.586126 0.772149
0.544842 0.769370 0.838991
0.544817 0.769316 0.838994
0.510721 0.709457 0.812844
0.483158 0.667918 0.772602
0.534502 0.648367 0.782206
0.617455 0.642385 0.786926
0.687294 0.641803 0.785859
0.742943 0.643035 0.781466
0.789082 0.644829 0.777556
0.565527 0.813175 0.837641
0.552978 0.789479 0.832080
0.526431 0.749986 0.796438
0.505109 0.719324 0.764649
0.539788 0.701372 0.773329
0.614521 0.696667 0.781589
0.684396 0.696183 0.784404
0.739411 0.695728 0.782653
0.784257 0.695770 0.779509
0.568974 0.825613 0.824989
0.557998 0.810101 0.808667
0.540002 0.785117 0.780722
0.522686 0.760439 0.754745
0.544897 0.744892 0.759485
0.609656 0.739452 0.771386
0.678607 0.738993 0.777763
0.733022 0.738686 0.777600
0.777924 0.737584 0.776288
0.570786 0.840646 0.797760
0.563795 0.830677 0.787370
0.550482 0.812274 0.766257
0.536427 0.792938 0.743695
0.547446 0.778092 0.745689
0.604380 0.774143 0.758915
0.670986 0.774043 0.767806
0.726380 0.773780 0.771613
0.771038 0.772756 0.770351
