output/ProPhoto/ProPhoto_to_Velvia_33grid.cube
TITLE "ProPhoto_to_Velvia"
# Input: ProPhoto RGB, gamma 1.8 (D50)
# Output: ProPhoto RGB, gamma 1.8 (D50) with film simulation look
# Use: Photoshop 3D LUT adjustment layer on standard ProPhoto document
# Source: FLog2C_to_Velvia_65grid_V.1.00.cube
# Generated from Fujifilm GFX ETERNA 55 F-Log2C LUT
LUT_3D_SIZE 33
0.000000 0.000000 0.000000
0.000012 0.000006 0.000002
0.004399 0.001729 0.000649
0.028678 0.011267 0.004231
0.086026 0.033776 0.012703
0.176911 0.069460 0.026087
0.283673 0.111377 0.041832
0.388404 0.152498 0.057867
0.492787 0.193484 0.076340
0.596945 0.234391 0.101531
0.681067 0.267454 0.140401
0.706175 0.277459 0.188925
0.710012 0.280015 0.246815
0.715088 0.283963 0.310824
0.720429 0.288897 0.367382
0.725041 0.296269 0.400339
0.726834 0.305073 0.403400
0.729189 0.316128 0.406883
0.731968 0.329177 0.410984
0.734905 0.343896 0.415339
0.737056 0.353895 0.416613
0.738766 0.361466 0.416230
0.738790 0.361570 0.416223
0.738790 0.361570 0.416223
0.738790 0.361570 0.416223
0.738790 0.361570 0.416223
0.738790 0.361570 0.416223
0.738790 0.361570 0.416223
0.738790 0.361570 0.416223
0.738790 0.361570 0.416223
0.738790 0.361570 0.416223
0.738790 0.361570 0.416223
0.738790 0.361570 0.416223
0.000000 0.000000 0.000000
0.000010 0.000008 0.000007
0.002577 0.001028 0.000385
0.022736 0.008937 0.003356
0.073695 0.028935 0.010883
0.158911 0.062392 0.023432
0.263203 0.103340 0.038810
0.365502 0.143506 0.054286
0.469400 0.184301 0.071623
0.575712 0.226051 0.095532
0.666917 0.261890 0.132559
0.705346 0.277080 0.178190
0.709000 0.279316 0.234797
0.714172 0.283221 0.300693
0.719797 0.288204 0.360672
0.724847 0.295579 0.399584
0.726775 0.304749 0.403355
0.729212 0.316248 0.406898
0.731989 0.329304 0.410974
0.734930 0.344031 0.415328
0.737070 0.353963 0.416588
0.738777 0.361513 0.416227
0.738790 0.361570 0.416223
0.738790 0.361570 0.416223
0.738790 0.361570 0.416223
0.738790 0.361570 0.416223
0.738790 0.361570 0.416223
0.738790 0.361570 0.416223
0.738790 0.361570 0.416223
0.738790 0.361570 0.416223
0.738790 0.361570 0.416223
0.738790 0.361570 0.416223
0.738790 0.361570 0.416223
0.000700 0.001196 0.000410
0.000674 0.001140 0.000453
0.000944 0.000623 0.000220
0.013071 0.005148 0.001932
0.051916 0.020387 0.007659
0.122862 0.048239 0.018117
0.213157 0.083691 0.031433
0.313711 0.123171 0.046321
0.410269 0.161083 0.061202
0.508162 0.199522 0.079230
0.606396 0.238104 0.105022
0.679919 0.267004 0.140552
0.705899 0.277341 0.185614
0.709311 0.279580 0.241291
0.713901 0.283151 0.301086
0.719615 0.287729 0.358924
0.723884 0.294357 0.392201
0.726287 0.302478 0.402689
0.728226 0.312539 0.405207
0.730405 0.324757 0.408085
0.733606 0.339283 0.412126
0.737392 0.355074 0.416727
0.738259 0.359063 0.416453
0.738790 0.361570 0.416223
0.738790 0.361570 0.416223
0.738790 0.361570 0.416223
0.738790 0.361570 0.416223
0.738790 0.361570 0.416223
0.738790 0.361570 0.416223
0.738790 0.361570 0.416223
0.738790 0.361570 0.416223
0.738790 0.361570 0.416223
0.738790 0.361570 0.416223
0.003880 0.006660 0.002187
0.003284 0.005636 0.001851
0.002585 0.004438 0.001457
0.005149 0.003440 0.001186
0.031320 0.012552 0.004692
0.086864 0.034163 0.012825
0.168864 0.066300 0.024899
0.258786 0.101606 0.038158
0.350598 0.137654 0.051770
0.440928 0.173120 0.066109
0.530971 0.208479 0.084287
0.621039 0.243857 0.110330
0.684547 0.268825 0.144352
0.705921 0.277350 0.185820
0.709193 0.279467 0.236661
0.713154 0.282742 0.290488
0.718464 0.286644 0.347813
0.722593 0.291887 0.384258
0.725567 0.298744 0.403776
0.727261 0.307619 0.404357
0.729337 0.318147 0.406474
0.731696 0.329933 0.409426
0.734700 0.343660 0.413145
0.737467 0.356038 0.416275
0.738262 0.359462 0.416335
0.738790 0.361570 0.416223
0.738790 0.361570 0.416223
0.738790 0.361570 0.416223
0.738790 0.361570 0.416223
0.738790 0.361570 0.416223
0.738790 0.361570 0.416223
0.738790 0.361570 0.416223
0.738790 0.361570 0.416223
0.014343 0.024625 0.008087
0.012497 0.021455 0.007046
0.010426 0.017899 0.005877
0.007490 0.012776 0.004197
0.018509 0.013468 0.004606
0.060089 0.025968 0.009552
0.130584 0.052113 0.019499
0.216327 0.085128 0.031953
0.302352 0.118731 0.044588
0.391346 0.153652 0.057704
0.474991 0.186494 0.070127
0.555210 0.217992 0.083986
0.633305 0.248665 0.105492
0.687856 0.270118 0.136413
0.705345 0.277197 0.176477
0.708186 0.279352 0.225975
0.712609 0.282374 0.281032
0.717130 0.285836 0.333402
0.721366 0.290128 0.375512
0.724433 0.296019 0.398112
0.726353 0.303295 0.404040
0.728076 0.311991 0.405034
0.730372 0.322342 0.408366
0.732953 0.333770 0.412151
0.735590 0.345985 0.415517
0.737820 0.356396 0.417847
0.738380 0.359340 0.417067
0.738790 0.361570 0.416223
0.738790 0.361570 0.416223
0.738790 0.361570 0.416223
0.738790 0.361570 0.416223
0.738790 0.361570 0.416223
0.738790 0.361570 0.416223
0.032142 0.055185 0.018119
0.029307 0.050316 0.016521
0.023386 0.040148 0.013182
0.020348 0.034934 0.011470
0.020046 0.031537 0.010375
0.043775 0.034082 0.011590
0.102437 0.048854 0.017641
0.180890 0.075548 0.027988
0.266655 0.107174 0.040036
0.350201 0.138734 0.051995
0.429141 0.169265 0.063501
0.503338 0.198269 0.074405
0.573287 0.225824 0.084839
0.644965 0.254109 0.098268
0.693677 0.273662 0.118943
0.704137 0.279013 0.147470
0.706793 0.282753 0.187289
0.710248 0.286092 0.236051
0.714358 0.290184 0.286471
0.718823 0.295918 0.334493
0.722171 0.301287 0.362939
0.725061 0.306805 0.383625
0.726833 0.313269 0.391243
0.728800 0.320657 0.397936
0.731062 0.329834 0.402301
0.733475 0.339774 0.406443
0.736053 0.350386 0.411220
0.738393 0.360159 0.415152
0.738591 0.360921 0.415747
0.738758 0.361523 0.416211
0.738788 0.361607 0.416267
0.738789 0.361583 0.416238
0.738790 0.361570 0.416223
0.061311 0.105264 0.034562
0.056501 0.097005 0.031851
0.047213 0.081059 0.026615
0.040715 0.069903 0.022952
0.036520 0.062572 0.020546
0.041803 0.058222 0.019217
0.082081 0.062652 0.021340
0.153203 0.079107 0.028193
0.233823 0.104583 0.038211
0.314776 0.132436 0.048985
0.392795 0.161100 0.059913
0.462368 0.187880 0.070014
0.527511 0.213249 0.079559
0.594432 0.239893 0.089539
0.657492 0.265518 0.099374
0.701968 0.284244 0.109091
0.704293 0.287342 0.123996
0.706517 0.291720 0.152596
0.709508 0.297119 0.191869
0.713462 0.303626 0.238215
0.717633 0.310650 0.281911
0.721837 0.317695 0.321295
0.723986 0.322720 0.335651
0.726112 0.328200 0.348197
0.728194 0.334446 0.358135
0.730367 0.341238 0.367713
0.732782 0.349459 0.377228
0.735170 0.357642 0.386470
0.736956 0.364134 0.394184
0.738707 0.370430 0.401340
0.739035 0.370134 0.404945
0.739097 0.368597 0.407806
0.739178 0.367339 0.410232
0.097762 0.167845 0.055110
0.090990 0.156219 0.051293
0.080894 0.138885 0.045602
0.069375 0.119109 0.039108
0.062494 0.107295 0.035229
0.058895 0.099198 0.032584
0.075990 0.095934 0.031765
0.132183 0.101837 0.034660
0.210849 0.119534 0.042031
0.288522 0.141007 0.050703
0.361710 0.164312 0.059857
0.427500 0.189096 0.069237
0.490515 0.213722 0.078487
0.552270 0.237833 0.087547
0.615584 0.262912 0.096943
0.671346 0.285830 0.105461
0.704219 0.300759 0.110899
0.707351 0.305539 0.116011
0.708993 0.310645 0.132877
0.711551 0.317020 0.163398
0.714993 0.324438 0.202631
0.718953 0.331865 0.243842
0.722270 0.337186 0.275705
0.725039 0.342214 0.300757
0.726504 0.346642 0.312900
0.728225 0.351625 0.324373
0.730355 0.357511 0.334710
0.732549 0.363661 0.344974
0.735034 0.371396 0.355927
0.737581 0.379221 0.366448
0.738829 0.382451 0.372284
0.739777 0.384719 0.377192
0.740319 0.385520 0.381335
0.138556 0.237883 0.078107
0.131948 0.226538 0.074381
0.118658 0.203721 0.066890
0.107900 0.185251 0.060825
0.097396 0.167217 0.054904
0.090128 0.154687 0.050790
0.090166 0.144860 0.047632
0.125767 0.144370 0.047979
0.191018 0.151276 0.051373
0.265819 0.165178 0.057417
0.336933 0.183766 0.064962
0.400488 0.205013 0.073164
0.460763 0.226217 0.081281
0.518680 0.248037 0.089522
0.577545 0.270519 0.097994
0.637331 0.294119 0.106831
0.696634 0.318951 0.116020
0.707164 0.326376 0.118546
0.712482 0.332350 0.120804
0.713929 0.337326 0.125156
0.716035 0.343718 0.143534
0.718810 0.350678 0.173278
0.722119 0.358372 0.208325
0.725066 0.363746 0.239421
0.726847 0.365599 0.260019
0.728614 0.368319 0.277456
0.730351 0.372335 0.290273
0.732198 0.376751 0.302919
0.734332 0.382364 0.315710
0.736461 0.387877 0.328264
0.738305 0.392953 0.338691
0.740140 0.398022 0.348614
0.741320 0.400831 0.355977
0.180130 0.309261 0.101543
0.172291 0.295802 0.097124
0.158429 0.272002 0.089309
0.146163 0.250943 0.082395
0.134844 0.231511 0.076014
0.126157 0.216595 0.071117
0.118237 0.201712 0.066239
0.132864 0.197289 0.065000
0.183418 0.198169 0.066034
0.250259 0.204882 0.069401
0.318507 0.217358 0.074795
0.380200 0.232814 0.081068
0.439351 0.250764 0.088094
0.493091 0.269567 0.095262
0.548424 0.290196 0.103040
0.606019 0.311511 0.111099
0.663593 0.332490 0.119065
0.702777 0.348682 0.125064
0.718144 0.357665 0.128206
0.719062 0.362203 0.129596
0.720197 0.367150 0.131759
0.721591 0.372741 0.137606
0.723903 0.379636 0.157296
0.726311 0.384876 0.183436
0.728590 0.388410 0.210265
0.730392 0.390856 0.232229
0.731363 0.391823 0.246472
0.732567 0.393414 0.260742
0.734310 0.396670 0.274146
0.736143 0.399990 0.287239
0.738109 0.404732 0.299344
0.739995 0.409382 0.311167
0.741415 0.412861 0.321123
0.218434 0.375024 0.123135
0.213061 0.365800 0.120106
0.199403 0.342350 0.112407
0.187391 0.321728 0.105636
0.174722 0.299976 0.098494
0.164277 0.282044 0.092606
0.155130 0.266262 0.087425
0.155814 0.259007 0.085101
0.183178 0.252369 0.083324
0.240309 0.250798 0.083709
0.304339 0.258562 0.087352
0.366938 0.271083 0.092591
0.422602 0.285185 0.098246
0.476783 0.299062 0.103844
0.527978 0.315741 0.110259
0.580058 0.333334 0.116995
0.634033 0.351656 0.124019
0.690670 0.372139 0.131784
0.715672 0.382724 0.135681
0.725268 0.388531 0.137705
0.725845 0.392932 0.139053
0.726674 0.397399 0.140525
0.728031 0.402297 0.143283
0.729653 0.407471 0.151424
0.731848 0.412695 0.171472
0.733449 0.415073 0.191387
0.734218 0.415030 0.206238
0.735099 0.415462 0.220972
0.736106 0.416576 0.234006
0.737200 0.417714 0.247459
0.738683 0.420992 0.260090
0.740196 0.424187 0.272496
0.741626 0.426966 0.284261
0.251263 0.431387 0.141641
0.245883 0.422150 0.138609
0.235784 0.404812 0.132916
0.224964 0.386235 0.126816
0.212855 0.365445 0.119990
0.202598 0.347835 0.114208
0.193626 0.332431 0.109150
0.187192 0.320418 0.105213
0.196571 0.308222 0.101407
0.240408 0.301946 0.099998
0.296753 0.303435 0.101381
0.355432 0.311288 0.104947
0.411088 0.321089 0.109160
0.462499 0.332503 0.113848
0.512067 0.346651 0.119383
0.560397 0.360588 0.124850
0.609950 0.375328 0.130616
0.665463 0.393376 0.137568
0.704167 0.406517 0.142596
0.731359 0.416537 0.146372
0.732583 0.420261 0.147539
0.733427 0.423868 0.148661
0.733890 0.427396 0.149750
0.734991 0.431527 0.151361
0.736429 0.435829 0.155060
0.737453 0.438269 0.162687
0.738498 0.439635 0.176183
0.739277 0.440047 0.190325
0.739396 0.438851 0.200966
0.739718 0.437772 0.212555
0.740756 0.439227 0.225013
0.741785 0.440791 0.237862
0.742951 0.442794 0.250201
0.281108 0.482628 0.158466
0.276616 0.474916 0.155934
0.266948 0.458317 0.150484
0.256672 0.440674 0.144691
0.245458 0.421421 0.138369
0.236340 0.405767 0.133229
0.228334 0.392021 0.128716
0.220831 0.379044 0.124456
0.218567 0.364577 0.119779
0.245468 0.353778 0.116652
0.294893 0.351318 0.116579
0.350426 0.353687 0.118250
0.403391 0.359857 0.121177
0.453030 0.367527 0.124580
0.500907 0.377865 0.128831
0.547071 0.390492 0.133792
0.593759 0.403902 0.139032
0.643030 0.417490 0.144410
0.694429 0.433154 0.150501
0.733182 0.445752 0.155347
0.737665 0.448867 0.156417
0.739878 0.451531 0.157290
0.740424 0.453868 0.158021
0.741283 0.457339 0.159108
0.742290 0.461448 0.160395
0.743147 0.464502 0.161966
0.743947 0.466971 0.166574
0.744265 0.466844 0.172847
0.744059 0.463993 0.179426
0.744030 0.461521 0.187768
0.744545 0.461094 0.197683
0.745143 0.460764 0.208537
0.745893 0.461374 0.219493
0.307432 0.527822 0.173305
0.303449 0.520985 0.171060
0.295476 0.507296 0.166565
0.285646 0.490418 0.161024
0.275628 0.473218 0.155376
0.266708 0.457905 0.150348
0.258618 0.444014 0.145787
0.250920 0.430798 0.141448
0.243985 0.416087 0.136637
0.255864 0.401972 0.132246
0.296435 0.395312 0.130653
0.348166 0.395402 0.131464
0.398417 0.398415 0.133269
0.446688 0.403198 0.135669
0.491918 0.410913 0.138987
0.536981 0.420233 0.142843
0.581977 0.430805 0.147120
0.626765 0.442399 0.151735
0.676517 0.456689 0.157324
0.716394 0.468595 0.161957
0.738779 0.475767 0.164714
0.747587 0.479915 0.166208
0.748473 0.482241 0.166947
0.749175 0.484666 0.167712
0.749810 0.487086 0.168474
0.750431 0.489450 0.169221
0.751078 0.491810 0.169979
0.750735 0.491443 0.170251
0.749861 0.489031 0.171428
0.749276 0.486763 0.174299
0.749122 0.484540 0.179358
0.749041 0.482529 0.186301
0.749417 0.481974 0.194890
0.330902 0.568117 0.186535
0.327580 0.562415 0.184663
0.320167 0.549686 0.180484
0.311188 0.534271 0.175422
0.302668 0.519643 0.170619
0.294185 0.505080 0.165838
0.285764 0.490621 0.161090
0.279230 0.479403 0.157407
0.270726 0.464538 0.152528
0.270691 0.448588 0.147400
0.299736 0.438619 0.144566
0.345268 0.434998 0.144046
0.394066 0.435469 0.144958
0.441369 0.438466 0.146718
0.483470 0.442875 0.148884
0.526043 0.450104 0.151987
0.569403 0.459153 0.155709
0.613253 0.469294 0.159811
0.660616 0.477963 0.163558
0.703752 0.486544 0.167210
0.741617 0.494624 0.170604
0.752503 0.498175 0.171961
0.752736 0.499810 0.172472
0.754157 0.504942 0.174093
0.755759 0.510549 0.175865
0.756518 0.513086 0.176668
0.757068 0.514870 0.177233
0.757095 0.515038 0.177294
0.756831 0.514359 0.177134
0.756388 0.512831 0.176900
0.755538 0.509233 0.177007
0.754727 0.505849 0.178117
0.754368 0.503876 0.181430
0.353417 0.606773 0.199228
0.350433 0.601650 0.197545
0.344306 0.591130 0.194091
0.335794 0.576516 0.189293
0.327169 0.561708 0.184431
0.319038 0.547748 0.179848
0.310899 0.533774 0.175260
0.303982 0.521900 0.171360
0.297333 0.510471 0.167608
0.290430 0.493924 0.162207
0.306268 0.480792 0.158180
0.344794 0.474017 0.156516
0.390683 0.471270 0.156308
0.436185 0.471830 0.157214
0.478926 0.475153 0.159005
0.521020 0.480804 0.161562
0.561602 0.486690 0.164198
0.601964 0.492702 0.166899
0.645416 0.498353 0.169581
0.688977 0.505062 0.172627
0.732283 0.512593 0.175950
0.748061 0.515408 0.177189
0.756983 0.517013 0.177895
0.758683 0.520970 0.179161
0.759800 0.525036 0.180447
0.761217 0.530385 0.182139
0.762621 0.535656 0.183807
0.763260 0.538082 0.184574
0.763563 0.539269 0.184950
0.763355 0.538496 0.184709
0.762232 0.534171 0.183420
0.761111 0.529965 0.182280
0.760250 0.526828 0.182031
0.375111 0.644019 0.211457
0.372536 0.639597 0.210005
0.366335 0.628951 0.206510
0.357926 0.614513 0.201770
0.350577 0.601898 0.197627
0.341727 0.586703 0.192638
0.334061 0.573541 0.188316
0.327342 0.562006 0.184529
0.321527 0.552014 0.181248
0.313170 0.536652 0.176211
0.317057 0.522045 0.171562
0.346975 0.511067 0.168415
0.388935 0.506134 0.167414
0.432872 0.505060 0.167735
0.475430 0.506312 0.168827
0.515899 0.508981 0.170376
0.554058 0.511453 0.171857
0.592500 0.514384 0.173521
0.632811 0.517974 0.175459
0.675557 0.523295 0.178022
0.719192 0.529713 0.180977
0.742548 0.532662 0.182418
0.762822 0.535259 0.183688
0.763185 0.536507 0.184084
0.763543 0.537746 0.184477
0.765207 0.543860 0.186413
0.766871 0.549938 0.188340
0.768314 0.555183 0.190004
0.769646 0.560001 0.191533
0.769971 0.561263 0.191933
0.768909 0.557635 0.190780
0.767871 0.554061 0.189645
0.766823 0.550378 0.188503
0.394976 0.678124 0.222655
0.392388 0.673681 0.221196
0.386372 0.663352 0.217805
0.379894 0.652230 0.214153
0.371913 0.638528 0.209654
0.363284 0.623713 0.204790
0.356077 0.611340 0.200727
0.349713 0.600414 0.197140
0.343527 0.589792 0.193652
0.335935 0.576488 0.189286
0.332170 0.561453 0.184408
0.351696 0.546763 0.179927
0.389326 0.540754 0.178496
0.430979 0.537182 0.177952
0.471958 0.535171 0.177946
0.510368 0.534207 0.178277
0.547103 0.534218 0.178925
0.584469 0.535237 0.179937
0.622354 0.537222 0.181295
0.663520 0.541291 0.183404
0.705147 0.546314 0.185851
0.737682 0.550219 0.187776
0.765816 0.553726 0.189494
0.766864 0.552735 0.189210
0.767791 0.552096 0.189032
0.768775 0.555348 0.190066
0.769748 0.558543 0.191082
0.772125 0.566717 0.193679
0.774688 0.575484 0.196467
0.775830 0.579648 0.197791
0.775481 0.579042 0.197594
0.775109 0.578345 0.197369
0.773980 0.574232 0.196062
0.413806 0.710454 0.233270
0.411648 0.706748 0.232053
0.406576 0.698041 0.229194
0.399612 0.686084 0.225269
0.392484 0.673847 0.221251
0.384751 0.660569 0.216891
0.377056 0.647357 0.212553
0.370194 0.635576 0.208685
0.364011 0.624962 0.205200
0.357057 0.613006 0.201274
0.350240 0.598668 0.196585
0.358552 0.584720 0.192201
0.390777 0.574638 0.189372
0.428817 0.566602 0.187321
0.467861 0.560944 0.186094
0.505341 0.557198 0.185497
0.541091 0.556236 0.185795
0.576906 0.556370 0.186473
0.612460 0.557394 0.187458
0.651775 0.560066 0.189062
0.691244 0.563560 0.190958
0.729572 0.568069 0.193173
0.760386 0.571550 0.194926
0.767311 0.570447 0.194735
0.772782 0.569643 0.194605
0.772661 0.569965 0.194703
0.772559 0.570314 0.194809
0.774484 0.576383 0.196743
0.776457 0.582552 0.198710
0.778046 0.587841 0.200395
0.779320 0.592368 0.201835
0.780537 0.596679 0.203208
0.779977 0.594065 0.202379
0.431777 0.741307 0.243401
0.429832 0.737968 0.242304
0.425254 0.730108 0.239723
0.419136 0.719605 0.236275
0.412119 0.707558 0.232319
0.404545 0.694553 0.228050
0.396747 0.681166 0.223654
0.390060 0.669684 0.219884
0.383534 0.658481 0.216205
0.377136 0.647495 0.212598
0.370159 0.634562 0.208358
0.369524 0.620114 0.203706
0.392966 0.607065 0.199802
0.426443 0.594452 0.196200
0.463078 0.586180 0.194076
0.500049 0.580824 0.192932
0.535494 0.578158 0.192659
0.570192 0.577084 0.192912
0.604669 0.577063 0.193524
0.641657 0.578544 0.194684
0.679235 0.580814 0.196132
0.718241 0.584108 0.197957
0.749617 0.586699 0.199426
0.766273 0.587107 0.199910
0.777818 0.587064 0.200147
0.777403 0.585717 0.199718
0.777088 0.584715 0.199398
0.778188 0.588332 0.200551
0.779274 0.591884 0.201683
0.780871 0.597174 0.203369
0.782701 0.603236 0.205302
0.784339 0.608594 0.207012
0.784139 0.607414 0.206639
0.448711 0.770381 0.252947
0.447005 0.767452 0.251985
0.442848 0.760315 0.249641
0.436837 0.749995 0.246253
0.430130 0.738479 0.242472
0.422891 0.726052 0.238392
0.415690 0.713687 0.234332
0.409042 0.702274 0.230585
0.402113 0.690378 0.226678
0.396767 0.681200 0.223665
0.389838 0.669272 0.219749
0.384480 0.653866 0.214733
0.396957 0.637481 0.209617
0.426197 0.620778 0.204631
0.460083 0.610853 0.201919
0.496124 0.604062 0.200280
0.531236 0.599573 0.199400
0.564667 0.597390 0.199259
0.598380 0.596384 0.199525
0.632903 0.596722 0.200257
0.668742 0.597706 0.201244
0.706491 0.599341 0.202500
0.739268 0.601361 0.203800
0.765862 0.603442 0.205008
0.781946 0.603915 0.205498
0.782080 0.601632 0.204788
0.782171 0.599946 0.204263
0.782336 0.601046 0.204610
0.782499 0.602132 0.204953
0.783907 0.606746 0.206425
0.785690 0.612385 0.208226
0.787155 0.616990 0.209697
0.787147 0.616935 0.209680
0.462526 0.794100 0.260734
0.460883 0.791279 0.259808
0.456989 0.784594 0.257613
0.451716 0.775540 0.254640
0.445726 0.765256 0.251264
0.439751 0.754997 0.247895
0.433586 0.744414 0.244420
0.427581 0.734103 0.241035
0.421614 0.723859 0.237672
0.415276 0.712977 0.234099
0.409306 0.702722 0.230732
0.401484 0.686461 0.225412
0.402083 0.666555 0.219020
0.425659 0.646775 0.212961
0.457616 0.635329 0.209717
0.492393 0.627106 0.207582
0.527104 0.621086 0.206187
0.559242 0.618013 0.205722
0.592324 0.615933 0.205617
0.625608 0.614836 0.205853
0.660339 0.614773 0.206469
0.696268 0.615676 0.207438
0.729859 0.617186 0.208576
0.761471 0.619130 0.209830
0.779266 0.619236 0.210234
0.783525 0.617311 0.209721
0.786523 0.615811 0.209315
0.786446 0.615328 0.209163
0.786373 0.614878 0.209020
0.787332 0.617988 0.210014
0.788448 0.621624 0.211174
0.789349 0.624511 0.212097
0.789662 0.625400 0.212382
0.476375 0.817876 0.268541
0.474808 0.815186 0.267658
0.471164 0.808931 0.265604
0.466510 0.800939 0.262980
0.461193 0.791810 0.259983
0.455582 0.782177 0.256820
0.449380 0.771530 0.253324
0.444008 0.762307 0.250295
0.437979 0.751955 0.246897
0.431944 0.741594 0.243495
0.426935 0.732994 0.240671
0.418561 0.717936 0.235731
0.412965 0.695456 0.228439
0.425863 0.673679 0.221598
0.456014 0.659122 0.217317
0.488754 0.649451 0.214672
0.522786 0.642455 0.212936
0.554759 0.638125 0.212051
0.587135 0.634839 0.211533
0.619071 0.632433 0.211313
0.652510 0.631539 0.211624
0.686760 0.631708 0.212311
0.721257 0.632670 0.213276
0.755739 0.634239 0.214454
0.775174 0.634133 0.214816
0.785217 0.632874 0.214629
0.791164 0.631461 0.214311
0.790803 0.629728 0.213761
0.790457 0.628052 0.213229
0.790997 0.629948 0.213834
0.791562 0.631946 0.214471
0.792109 0.633747 0.215047
0.792628 0.635225 0.215521
0.489838 0.840991 0.276131
0.488469 0.838640 0.275359
0.485345 0.833277 0.273598
0.480933 0.825701 0.271110
0.475444 0.816278 0.268016
0.469229 0.805608 0.264513
0.462885 0.794716 0.260937
0.457657 0.785740 0.257989
0.451774 0.775639 0.254673
0.446891 0.767256 0.251921
0.442372 0.759496 0.249373
0.436988 0.750190 0.246318
0.425911 0.724714 0.237997
0.428566 0.700769 0.230333
0.455368 0.681824 0.224587
0.485450 0.671370 0.221639
0.518922 0.663488 0.219595
0.551243 0.657678 0.218227
0.582506 0.653148 0.217279
0.612960 0.649575 0.216648
0.644999 0.647996 0.216701
0.677694 0.647389 0.217096
0.711916 0.647716 0.217838
0.746452 0.648672 0.218807
0.769173 0.648805 0.219300
0.787502 0.648682 0.219633
0.796330 0.647450 0.219428
0.795663 0.645017 0.218652
0.795080 0.642892 0.217974
0.795328 0.643969 0.218316
0.795573 0.645025 0.218652
0.795959 0.646314 0.219064
0.796507 0.647865 0.219562
0.502913 0.863439 0.283501
0.501655 0.861280 0.282792
0.498650 0.856120 0.281098
0.494170 0.848428 0.278573
0.488718 0.839068 0.275500
0.482609 0.828579 0.272055
0.476784 0.818578 0.268772
0.471226 0.809036 0.265639
0.465622 0.799414 0.262479
0.461120 0.791686 0.259942
0.456734 0.784156 0.257469
0.451236 0.774696 0.254363
0.439809 0.752716 0.247163
0.436845 0.728431 0.239321
0.453991 0.706712 0.232555
0.482248 0.693812 0.228784
0.514828 0.684210 0.226160
0.547404 0.677103 0.224365
0.577461 0.671674 0.223097
0.607491 0.667275 0.222181
0.638139 0.665041 0.221986
0.669343 0.663553 0.222060
0.703218 0.663277 0.222587
0.737357 0.663608 0.223335
0.763315 0.663779 0.223892
0.787807 0.664141 0.224493
0.797971 0.662695 0.224244
0.799085 0.660051 0.223437
0.799928 0.657935 0.222790
0.799829 0.657933 0.222788
0.799736 0.657942 0.222789
0.800016 0.658855 0.223081
0.800578 0.660442 0.223590
0.515219 0.884566 0.290438
0.513995 0.882466 0.289748
0.510991 0.877308 0.288055
0.506726 0.869985 0.285651
0.501690 0.861340 0.282812
0.496145 0.851819 0.279686
0.490303 0.841789 0.276393
0.484658 0.832097 0.273210
0.479273 0.822853 0.270175
0.474172 0.814095 0.267300
0.469265 0.805669 0.264533
0.463429 0.795636 0.261239
0.456120 0.782857 0.257044
0.447371 0.756212 0.248375
0.454964 0.732605 0.240881
0.481042 0.715808 0.235819
0.511559 0.704627 0.232647
0.544164 0.696374 0.230472
0.572984 0.690399 0.228997
0.603017 0.685543 0.227921
0.632051 0.682437 0.227408
0.662141 0.680123 0.227185
0.695157 0.679242 0.227489
0.728488 0.678968 0.228014
0.757362 0.678876 0.228531
0.786098 0.679179 0.229186
0.797213 0.677467 0.228869
0.801880 0.675026 0.228196
0.804956 0.673003 0.227622
0.804499 0.671830 0.227245
0.804059 0.670701 0.226881
0.804302 0.671417 0.227111
0.804871 0.673011 0.227623
0.524060 0.899745 0.295422
0.523198 0.898265 0.294936
0.521128 0.894712 0.293769
0.517996 0.889335 0.292004
0.513820 0.882166 0.289650
0.508762 0.873481 0.286798
0.503031 0.863642 0.283568
0.497685 0.854463 0.280554
0.492325 0.845261 0.277533
0.487042 0.836190 0.274554
0.481997 0.827529 0.271710
0.476961 0.818883 0.268872
0.470742 0.808162 0.265352
0.459156 0.782771 0.257052
0.459686 0.759154 0.249467
0.480766 0.738707 0.243162
0.508021 0.726209 0.239511
0.540188 0.716489 0.236844
0.568731 0.709632 0.235070
