output/ProPhoto/ProPhoto_to_PRO-Neg.Std_33grid.cube
TITLE "ProPhoto_to_PRO-Neg.Std"
# Input: ProPhoto RGB, gamma 1.8 (D50)
# Output: ProPhoto RGB, gamma 1.8 (D50) with film simulation look
# Use: Photoshop 3D LUT adjustment layer on standard ProPhoto document
# Source: FLog2C_to_PRO-Neg.Std_65grid_V.1.00.cube
# Generated from Fujifilm GFX ETERNA 55 F-Log2C LUT
LUT_3D_SIZE 33
0.000068 0.000066 0.000025
0.004145 0.001868 0.001155
0.016703 0.007246 0.005600
0.038902 0.016482 0.012066
0.072479 0.029903 0.024402
0.120609 0.049326 0.039245
0.182590 0.074521 0.058557
0.258246 0.104319 0.081958
0.340306 0.136768 0.108783
0.423064 0.169125 0.137745
0.496446 0.198601 0.174100
0.557846 0.223482 0.211885
0.612802 0.245944 0.251786
0.653702 0.263274 0.293815
0.671162 0.271862 0.330272
0.677960 0.277415 0.356399
0.683341 0.285795 0.366125
0.688237 0.295681 0.375651
0.693400 0.307194 0.385628
0.699662 0.320228 0.395963
0.703896 0.329377 0.402042
0.707027 0.336620 0.406077
0.707069 0.336720 0.406130
0.707069 0.336720 0.406130
0.707069 0.336720 0.406130
0.707069 0.336720 0.406130
0.707069 0.336720 0.406130
0.707069 0.336720 0.406130
0.707069 0.336720 0.406130
0.707069 0.336720 0.406130
0.707069 0.336720 0.406130
0.707069 0.336720 0.406130
0.707069 0.336720 0.406130
0.002275 0.003867 0.001282
0.002753 0.002749 0.000925
0.013667 0.006096 0.003350
0.033830 0.014351 0.010619
0.065536 0.027352 0.021914
0.111309 0.045673 0.036570
0.170439 0.069566 0.053372
0.242576 0.098159 0.076766
0.321489 0.129362 0.102067
0.405167 0.162070 0.131593
0.482085 0.192678 0.167158
0.545661 0.218463 0.203494
0.602794 0.241820 0.243656
0.648111 0.260820 0.287193
0.670627 0.271348 0.326220
0.677512 0.276861 0.355259
0.683185 0.285498 0.365824
0.688286 0.295779 0.375733
0.693449 0.307296 0.385680
0.699701 0.320341 0.396023
0.703913 0.329440 0.402067
0.707046 0.336665 0.406101
0.707069 0.336720 0.406130
0.707069 0.336720 0.406130
0.707069 0.336720 0.406130
0.707069 0.336720 0.406130
0.707069 0.336720 0.406130
0.707069 0.336720 0.406130
0.707069 0.336720 0.406130
0.707069 0.336720 0.406130
0.707069 0.336720 0.406130
0.707069 0.336720 0.406130
0.707069 0.336720 0.406130
0.008752 0.014830 0.004874
0.008088 0.013385 0.004399
0.013345 0.012679 0.004274
0.028892 0.016022 0.007053
0.055159 0.024471 0.016626
0.091999 0.038293 0.029407
0.141199 0.057944 0.045216
0.204214 0.082892 0.065029
0.274199 0.110574 0.086410
0.351789 0.141306 0.111673
0.430009 0.172054 0.140842
0.497091 0.198960 0.174105
0.555100 0.222463 0.209125
0.607574 0.243948 0.247272
0.650321 0.261766 0.287678
0.669571 0.270700 0.324678
0.675607 0.275849 0.350258
0.681606 0.283334 0.363956
0.687510 0.292731 0.373420
0.692211 0.303260 0.382352
0.698684 0.316206 0.392620
0.705725 0.330466 0.403073
0.706532 0.334289 0.404928
0.707069 0.336720 0.406130
0.707069 0.336720 0.406130
0.707069 0.336720 0.406130
0.707069 0.336720 0.406130
0.707069 0.336720 0.406130
0.707069 0.336720 0.406130
0.707069 0.336720 0.406130
0.707069 0.336720 0.406130
0.707069 0.336720 0.406130
0.707069 0.336720 0.406130
0.018072 0.030605 0.010052
0.017062 0.029002 0.009524
0.017271 0.026465 0.008712
0.028039 0.026671 0.009070
0.049209 0.031513 0.012004
0.080168 0.041145 0.020895
0.121357 0.054989 0.033228
0.171670 0.073065 0.050418
0.233179 0.095972 0.071310
0.300402 0.121288 0.092762
0.370181 0.148397 0.117962
0.440481 0.176149 0.146280
0.501895 0.200779 0.177200
0.555507 0.222556 0.209651
0.604226 0.242543 0.244570
0.649287 0.261381 0.281647
0.666347 0.269124 0.318310
0.674554 0.274450 0.344569
0.679569 0.279953 0.361938
0.684220 0.288064 0.368704
0.688891 0.297372 0.377188
0.693633 0.307690 0.386276
0.700032 0.320023 0.395730
0.705507 0.331045 0.403643
0.706552 0.334516 0.405280
0.707069 0.336720 0.406130
0.707069 0.336720 0.406130
0.707069 0.336720 0.406130
0.707069 0.336720 0.406130
0.707069 0.336720 0.406130
0.707069 0.336720 0.406130
0.707069 0.336720 0.406130
0.707069 0.336720 0.406130
0.031431 0.053390 0.017534
0.029522 0.050088 0.016450
0.026370 0.044744 0.014695
0.032538 0.043242 0.014294
0.048766 0.046300 0.015557
0.074164 0.051402 0.018237
0.108603 0.061770 0.024635
0.152967 0.075561 0.036127
0.206164 0.093702 0.052147
0.266156 0.115009 0.069980
0.330272 0.138832 0.090910
0.396266 0.163516 0.114725
0.455579 0.185810 0.142167
0.509332 0.206304 0.172809
0.557226 0.224947 0.204327
0.600435 0.242146 0.237488
0.642812 0.259017 0.274247
0.662253 0.267449 0.308140
0.672160 0.272855 0.336629
0.677487 0.277663 0.355451
0.682258 0.284271 0.365160
0.686841 0.292130 0.372326
0.690953 0.301113 0.380831
0.695366 0.311005 0.389198
0.700698 0.322267 0.398007
0.705148 0.331863 0.404753
0.706302 0.334629 0.405559
0.707069 0.336720 0.406130
0.707069 0.336720 0.406130
0.707069 0.336720 0.406130
0.707069 0.336720 0.406130
0.707069 0.336720 0.406130
0.707069 0.336720 0.406130
0.048058 0.081789 0.026859
0.045527 0.077466 0.025440
0.040010 0.067974 0.022324
0.041333 0.064576 0.021248
0.053087 0.064257 0.021309
0.074237 0.069338 0.023286
0.103875 0.074956 0.025906
0.141881 0.085854 0.030937
0.190656 0.101125 0.041065
0.242653 0.117741 0.054455
0.300502 0.137540 0.070620
0.361346 0.159110 0.089502
0.419031 0.180440 0.110206
0.471870 0.200387 0.134641
0.519752 0.218669 0.162679
0.563084 0.235432 0.191697
0.604835 0.251481 0.221549
0.641522 0.265881 0.254805
0.666135 0.275754 0.287166
0.673468 0.279067 0.317087
0.677737 0.282670 0.337351
0.681228 0.286629 0.353639
0.685951 0.292687 0.363257
0.690386 0.299359 0.372590
0.694036 0.307534 0.380984
0.697906 0.316450 0.388955
0.702415 0.326257 0.396929
0.706474 0.335264 0.403910
0.706791 0.336026 0.405122
0.707029 0.336619 0.405991
0.707069 0.336720 0.406130
0.707069 0.336720 0.406130
0.707069 0.336720 0.406130
0.068346 0.116487 0.038254
0.065071 0.110882 0.036413
0.058638 0.099839 0.032787
0.055471 0.092473 0.030382
0.062617 0.091037 0.030011
0.078915 0.091055 0.030254
0.104122 0.095582 0.032129
0.138476 0.103273 0.035255
0.180107 0.115453 0.040196
0.226963 0.128853 0.046674
0.280780 0.145490 0.057194
0.337228 0.164252 0.071621
0.391214 0.182926 0.088004
0.442934 0.201856 0.107402
0.490836 0.219913 0.129072
0.534128 0.236308 0.152073
0.573716 0.251389 0.177895
0.611429 0.266082 0.205385
0.643859 0.278602 0.234641
0.669130 0.288245 0.265371
0.676532 0.291830 0.292504
0.680580 0.294504 0.317114
0.683756 0.298789 0.329852
0.687051 0.303555 0.341107
0.690563 0.309012 0.350236
0.694253 0.315164 0.359657
0.698511 0.323172 0.370327
0.702409 0.331068 0.380458
0.705102 0.337368 0.388189
0.707969 0.343606 0.395754
0.708415 0.343577 0.398555
0.708441 0.342257 0.400073
0.708423 0.341136 0.401163
0.090967 0.155295 0.050995
0.086979 0.148462 0.048752
0.080255 0.136942 0.044969
0.072638 0.123593 0.040588
0.075818 0.119975 0.039464
0.088081 0.118408 0.039125
0.108309 0.120379 0.040061
0.139636 0.127226 0.042784
0.177526 0.136122 0.046347
0.219529 0.146485 0.050522
0.266659 0.159504 0.055797
0.317527 0.175910 0.063578
0.369607 0.193208 0.074692
0.419509 0.210283 0.089171
0.466005 0.226870 0.105694
0.509334 0.242596 0.123861
0.550174 0.257123 0.145339
0.585806 0.270673 0.169355
0.620559 0.284095 0.194165
0.654786 0.297295 0.219727
0.669815 0.303285 0.246705
0.680565 0.307823 0.272606
0.683691 0.309647 0.293675
0.686849 0.312427 0.310753
0.690094 0.317060 0.320459
0.693315 0.322084 0.330654
0.696551 0.327803 0.341950
0.699776 0.333866 0.352561
0.703133 0.341709 0.361698
0.706449 0.349606 0.370796
0.708378 0.352899 0.376330
0.709999 0.355312 0.381074
0.710801 0.356268 0.384794
0.116431 0.199170 0.065401
0.112493 0.192418 0.063184
0.103438 0.176781 0.058050
0.096405 0.164594 0.054049
0.094295 0.156261 0.051346
0.102097 0.152380 0.050197
0.118589 0.151703 0.050208
0.144687 0.155128 0.051710
0.178268 0.160789 0.054105
0.217235 0.169242 0.057548
0.260640 0.180686 0.062080
0.306152 0.194773 0.067526
0.353977 0.208714 0.073250
0.402468 0.224454 0.081311
0.447640 0.239486 0.092208
0.489605 0.254004 0.105608
0.529536 0.268828 0.120508
0.565629 0.281940 0.139506
0.599926 0.294623 0.159824
0.632568 0.306832 0.181055
0.658827 0.316572 0.205343
0.679023 0.324378 0.229672
0.684027 0.327248 0.253542
0.688021 0.329634 0.273724
0.690387 0.331362 0.288042
0.692706 0.334074 0.300809
0.694956 0.338258 0.311278
0.697405 0.342835 0.321460
0.700811 0.348661 0.331927
0.704256 0.354410 0.342354
0.707209 0.360159 0.352941
0.710067 0.365896 0.362919
0.711939 0.369265 0.369514
0.142194 0.243606 0.079989
0.137475 0.235492 0.077325
0.128635 0.220247 0.072320
0.119708 0.204900 0.067281
0.114591 0.194331 0.063823
0.119258 0.189250 0.062247
0.132215 0.185851 0.061325
0.154069 0.187363 0.062124
0.184502 0.192265 0.064177
0.219550 0.199151 0.066990
0.259473 0.207359 0.070369
0.301022 0.218933 0.074883
0.345878 0.231177 0.079719
0.390275 0.244917 0.085050
0.433717 0.258644 0.090843
0.475145 0.271853 0.098341
0.514162 0.284549 0.108669
0.550508 0.297549 0.121408
0.583913 0.309659 0.136612
0.615031 0.321044 0.153750
0.644878 0.331891 0.173055
0.669019 0.340787 0.193585
0.681661 0.345805 0.215756
0.689484 0.348814 0.236551
0.692271 0.349640 0.255636
0.694759 0.351158 0.271212
0.696667 0.353427 0.282338
0.698656 0.356116 0.293059
0.701016 0.359904 0.303014
0.703331 0.363692 0.312610
0.706215 0.369011 0.323877
0.709121 0.374245 0.335023
0.711495 0.378273 0.344159
0.170198 0.291857 0.095831
0.165723 0.284175 0.093308
0.155146 0.265829 0.087286
0.146357 0.250757 0.082337
0.138140 0.235772 0.077423
0.139309 0.228985 0.075255
0.148000 0.223373 0.073562
0.166740 0.225166 0.074389
0.191948 0.226966 0.075337
0.223750 0.230461 0.076971
0.261702 0.238051 0.080062
0.300706 0.247115 0.083684
0.341569 0.258665 0.088162
0.382930 0.269286 0.092393
0.423936 0.280662 0.096879
0.464036 0.292173 0.101459
0.502576 0.303743 0.106597
0.537479 0.315735 0.114561
0.570067 0.326939 0.124284
0.601030 0.337655 0.135567
0.630713 0.348254 0.151198
0.657384 0.357526 0.168176
0.680171 0.365199 0.186018
0.692166 0.369598 0.205218
0.694731 0.370900 0.225764
0.696974 0.371777 0.242026
0.698814 0.372347 0.253794
0.700570 0.373502 0.265013
0.702379 0.375661 0.275542
0.704264 0.377765 0.286230
0.706966 0.381664 0.297033
0.709650 0.385474 0.307566
0.712091 0.389156 0.317527
0.197319 0.338575 0.111169
0.192931 0.331021 0.108689
0.184247 0.316072 0.103781
0.174554 0.299373 0.098298
0.163742 0.280547 0.092119
0.161791 0.272091 0.089378
0.167459 0.265840 0.087437
0.181747 0.262590 0.086579
0.204798 0.263519 0.087198
0.234319 0.265475 0.088275
0.266462 0.269087 0.089963
0.303932 0.277787 0.093398
0.341095 0.286179 0.096767
0.381023 0.295974 0.100666
0.420676 0.307232 0.105045
0.458546 0.317320 0.109043
0.494367 0.327088 0.112914
0.527566 0.338090 0.117165
0.559651 0.347945 0.121965
0.590501 0.357366 0.128715
0.619092 0.366605 0.137950
0.646562 0.375646 0.149945
0.672715 0.384496 0.164946
0.687606 0.389437 0.180287
0.695194 0.391856 0.196022
0.699833 0.392987 0.211283
0.702337 0.393256 0.225996
0.704283 0.393704 0.238982
0.705345 0.394087 0.249291
0.706328 0.394377 0.259704
0.707967 0.396705 0.271320
0.709778 0.399123 0.282998
0.712064 0.402177 0.293722
0.223105 0.382896 0.125721
0.219278 0.376316 0.123560
0.210897 0.361906 0.118829
0.201016 0.344960 0.113265
0.191174 0.328008 0.107699
0.186329 0.317041 0.104117
0.188458 0.308116 0.101274
0.199591 0.302797 0.099705
0.218957 0.301086 0.099415
0.245049 0.301806 0.100023
0.275150 0.304459 0.101342
0.309009 0.309547 0.103533
0.345446 0.316841 0.106506
0.381643 0.324259 0.109546
0.418946 0.333026 0.113061
0.455674 0.343224 0.117035
0.490505 0.353069 0.120876
0.522455 0.361388 0.124191
0.553355 0.370741 0.127814
0.583048 0.379883 0.131403
0.611190 0.388219 0.136096
0.638342 0.396380 0.143038
0.664581 0.404370 0.152268
0.683382 0.410394 0.163106
0.698225 0.415415 0.175347
0.704945 0.417632 0.189222
0.707433 0.418290 0.204506
0.708950 0.417761 0.217617
0.709519 0.416137 0.227702
0.710255 0.414950 0.237923
0.711354 0.415689 0.247678
0.712404 0.416355 0.257580
0.714001 0.418176 0.267471
0.247377 0.424570 0.139404
0.243534 0.417961 0.137234
0.236215 0.405410 0.133113
0.225878 0.387661 0.127285
0.217121 0.372620 0.122347
0.209596 0.358583 0.117746
0.210157 0.349539 0.114846
0.218371 0.343171 0.112900
0.234925 0.340539 0.112269
0.257683 0.339413 0.112223
0.284934 0.339886 0.112780
0.317127 0.343693 0.114509
0.351034 0.349205 0.116841
0.384473 0.354563 0.119147
0.420133 0.362445 0.122318
0.454485 0.370948 0.125682
0.487941 0.379640 0.129106
0.520545 0.388389 0.132544
0.550049 0.395964 0.135560
0.578322 0.403660 0.138597
0.605168 0.411608 0.141687
0.631063 0.419263 0.144942
0.656170 0.426704 0.149485
0.679057 0.433196 0.155879
0.700748 0.439298 0.164347
0.708790 0.441596 0.174033
0.711895 0.442613 0.185281
0.713849 0.441833 0.196148
0.714747 0.439744 0.206293
0.715563 0.438035 0.216659
0.716228 0.437134 0.225895
0.717060 0.436329 0.235449
0.718249 0.437008 0.245292
0.269584 0.462737 0.151935
0.266839 0.458026 0.150389
0.260120 0.446484 0.146599
0.250333 0.429644 0.141070
0.241106 0.413796 0.135867
0.234118 0.401081 0.131697
0.231644 0.390118 0.128143
0.237453 0.382389 0.125730
0.251105 0.378416 0.124626
0.270910 0.375732 0.124030
0.296226 0.375679 0.124374
0.324836 0.377595 0.125422
0.356370 0.381202 0.127083
0.389465 0.386140 0.129222
0.421219 0.391429 0.131474
0.454378 0.398982 0.134489
0.487362 0.407099 0.137698
0.519641 0.415409 0.140968
0.547695 0.422009 0.143627
0.575208 0.428824 0.146353
0.602181 0.435864 0.149146
0.627203 0.443162 0.151988
0.651042 0.450446 0.154832
0.673188 0.455664 0.157558
0.694593 0.460486 0.161203
0.705511 0.463278 0.166671
0.713794 0.465528 0.174633
0.717801 0.465482 0.182729
0.719297 0.464184 0.190760
0.720400 0.462739 0.199539
0.720376 0.460617 0.207830
0.720526 0.458563 0.216411
0.721281 0.457883 0.225323
0.292157 0.501511 0.164667
0.289121 0.496294 0.162954
0.282449 0.484832 0.159190
0.273638 0.469701 0.154222
0.265009 0.454872 0.149353
0.257509 0.441773 0.145054
0.252957 0.429545 0.141069
0.256646 0.421007 0.138369
0.267562 0.416026 0.136904
0.284964 0.411982 0.135832
0.307608 0.410470 0.135660
0.334506 0.411105 0.136256
0.364165 0.413390 0.137447
0.394946 0.417351 0.139215
0.425873 0.422681 0.141443
0.458538 0.428297 0.143814
0.490208 0.434902 0.146499
0.520499 0.441754 0.149251
0.547633 0.447806 0.151702
0.574116 0.454306 0.154290
0.599929 0.461098 0.156963
0.624182 0.467223 0.159402
0.647593 0.473159 0.161771
0.669179 0.478097 0.163825
0.690116 0.482902 0.165911
0.704763 0.486402 0.168355
0.718278 0.489676 0.171970
0.723415 0.490326 0.176644
0.725100 0.489877 0.183012
0.726079 0.488352 0.189860
0.725594 0.484845 0.195173
0.725233 0.481515 0.201208
0.725614 0.479867 0.208617
0.313295 0.537810 0.176585
0.310523 0.533051 0.175022
0.304202 0.522197 0.171459
0.295961 0.508047 0.166813
0.287385 0.493311 0.161974
0.279717 0.480069 0.157627
0.273454 0.466950 0.153335
0.275985 0.459197 0.150873
0.284774 0.452932 0.148967
0.300381 0.448593 0.147773
0.320250 0.445441 0.147028
0.344636 0.444622 0.147111
0.372744 0.446047 0.147988
0.401936 0.448807 0.149329
0.431694 0.452487 0.150995
0.463082 0.457056 0.152991
0.493360 0.463077 0.155447
0.522385 0.468949 0.157848
0.549416 0.473744 0.159885
0.575188 0.479573 0.162233
0.600007 0.485838 0.164707
0.623480 0.491614 0.167007
0.646279 0.497248 0.169255
0.667136 0.501897 0.171159
0.687483 0.506508 0.173044
0.704709 0.509942 0.174578
0.721434 0.513331 0.176297
0.727286 0.514324 0.178072
0.730127 0.514642 0.181046
0.731571 0.513090 0.184520
0.731089 0.508917 0.187809
0.730680 0.504879 0.191975
0.730779 0.502628 0.197320
0.333133 0.571880 0.187771
0.330604 0.567539 0.186346
0.324833 0.557637 0.183095
0.317120 0.544393 0.178746
0.308975 0.530400 0.174152
0.300780 0.516270 0.169513
0.294612 0.504202 0.165560
0.295198 0.495905 0.162900
0.302348 0.488992 0.160765
0.316086 0.484457 0.159480
0.333989 0.480482 0.158439
0.355275 0.478056 0.157955
0.382346 0.478835 0.158596
0.409782 0.479817 0.159329
0.438181 0.482002 0.160481
0.467914 0.485949 0.162234
0.497001 0.491570 0.164526
0.525265 0.496314 0.166540
0.552474 0.499779 0.168144
0.577636 0.504824 0.170220
0.601814 0.510279 0.172414
0.624565 0.516495 0.174827
0.646560 0.522371 0.177122
0.666581 0.526349 0.178787
0.686064 0.530233 0.180416
0.704210 0.533132 0.181713
0.721946 0.536032 0.183007
0.729033 0.537179 0.183605
0.734348 0.538029 0.184345
0.736856 0.536702 0.185051
0.736646 0.533194 0.186412
0.736505 0.529782 0.189018
0.736172 0.526478 0.191982
0.351909 0.604146 0.198365
0.349641 0.600259 0.197089
0.344472 0.591385 0.194175
0.337599 0.579566 0.190295
0.330318 0.567050 0.186185
0.321800 0.552402 0.181376
0.315529 0.540503 0.177477
0.313692 0.530327 0.174184
0.319212 0.523479 0.172049
0.331425 0.518996 0.170759
0.348428 0.515426 0.169831
0.368055 0.512487 0.169153
0.391777 0.510352 0.168804
0.418404 0.511891 0.169690
0.446088 0.514035 0.170803
0.474177 0.516475 0.172035
0.501493 0.519600 0.173489
0.528733 0.523137 0.175088
0.555727 0.526976 0.176792
0.580162 0.531804 0.178772
0.603801 0.536717 0.180773
0.626124 0.541497 0.182714
0.647475 0.545943 0.184537
0.666693 0.549283 0.185976
0.685336 0.552609 0.187403
0.702840 0.555815 0.188773
0.719950 0.558996 0.190132
0.730079 0.560396 0.190791
0.739622 0.561701 0.191421
0.743773 0.561006 0.191426
0.744089 0.558870 0.191218
0.744404 0.556768 0.191353
0.743415 0.551710 0.191697
0.369696 0.634703 0.208398
0.367654 0.631192 0.207246
0.362850 0.622935 0.204534
0.356687 0.612344 0.201057
0.349579 0.600133 0.197048
0.341466 0.586172 0.192464
0.334631 0.574050 0.188486
0.332106 0.564399 0.185354
0.336238 0.557715 0.183255
0.346504 0.552073 0.181567
0.361646 0.547934 0.180429
0.380425 0.544709 0.179642
0.402598 0.542034 0.179090
0.427616 0.543120 0.179798
0.453941 0.544118 0.180513
0.480825 0.545427 0.181353
0.507110 0.547305 0.182382
0.533389 0.550101 0.183716
0.559448 0.553401 0.185219
0.583061 0.557357 0.186898
0.606074 0.561301 0.188570
0.627954 0.565046 0.190166
0.648706 0.568737 0.191730
0.667636 0.572244 0.193207
0.685865 0.575671 0.194649
0.702944 0.578922 0.196016
0.719460 0.582048 0.197337
0.732683 0.583588 0.198095
0.745556 0.585130 0.198849
0.750353 0.584753 0.198840
0.751160 0.583425 0.198485
0.751771 0.581776 0.198083
0.750457 0.576248 0.196726
0.386438 0.663441 0.217834
0.384497 0.660107 0.216739
0.380140 0.652621 0.214282
0.374530 0.642987 0.211118
0.367501 0.630913 0.207154
0.360005 0.618046 0.202929
0.353343 0.606334 0.199085
0.350111 0.597298 0.196142
0.352915 0.590089 0.193858
0.361215 0.583294 0.191775
0.375135 0.579135 0.190613
0.393023 0.575676 0.189735
0.414027 0.573236 0.189236
0.437201 0.573040 0.189500
0.462244 0.572863 0.189811
0.487938 0.573334 0.190355
0.513467 0.574482 0.191128
0.538647 0.576618 0.192223
0.563427 0.579159 0.193452
0.586492 0.582062 0.194777
0.608865 0.584998 0.196110
0.630220 0.587881 0.197415
0.650404 0.591205 0.198844
0.669213 0.594976 0.200393
0.687150 0.598516 0.201857
0.703948 0.601692 0.203188
0.720335 0.604620 0.204437
0.736137 0.606345 0.205299
0.751620 0.608086 0.206164
0.756416 0.607845 0.206188
0.757807 0.606986 0.205948
0.758677 0.605397 0.205469
0.757330 0.600189 0.203810
0.402043 0.690242 0.226634
0.400280 0.687212 0.225639
0.396101 0.680034 0.223282
0.390470 0.670361 0.220106
0.384119 0.659454 0.216525
0.376793 0.646875 0.212395
0.370332 0.635638 0.208706
0.366341 0.626590 0.205750
0.368298 0.619696 0.203557
0.375873 0.613884 0.201780
0.388538 0.609220 0.200438
0.405221 0.605697 0.199520
0.425055 0.603208 0.198985
0.447205 0.601631 0.198786
0.470443 0.600686 0.198818
0.494791 0.600746 0.199202
0.519809 0.601576 0.199855
0.543772 0.603368 0.200811
0.567553 0.605363 0.201840
0.590617 0.607465 0.202901
0.612383 0.609652 0.203976
0.632826 0.611873 0.205046
0.652138 0.614288 0.206163
0.670515 0.616834 0.207310
0.688125 0.619503 0.208487
0.704960 0.622263 0.209681
0.721389 0.625017 0.210870
0.737289 0.627728 0.212038
0.752865 0.630413 0.213194
0.758238 0.630052 0.213190
0.761826 0.629210 0.212999
0.764210 0.627430 0.212489
0.763472 0.622985 0.211080
0.416129 0.714432 0.234576
0.414447 0.711542 0.233628
0.410551 0.704849 0.231430
0.405659 0.696448 0.228672
0.399499 0.685869 0.225198
0.392499 0.673845 0.221250
0.386372 0.663329 0.217797
0.382452 0.654920 0.215048
0.383053 0.647979 0.212824
0.389639 0.642355 0.211094
0.401342 0.637785 0.209769
0.416779 0.634127 0.208789
0.435406 0.630957 0.208016
0.456369 0.628561 0.207533
0.478408 0.627297 0.207439
0.501788 0.627176 0.207743
0.525846 0.627748 0.208291
0.549265 0.628981 0.209052
0.572398 0.630262 0.209834
0.595007 0.631525 0.210612
0.615905 0.633054 0.211455
0.635736 0.634748 0.212339
0.654334 0.636465 0.213216
0.672257 0.638227 0.214100
0.689538 0.640383 0.215102
0.706297 0.642771 0.216171
0.722601 0.645415 0.217317
0.738348 0.648450 0.218578
0.753789 0.651470 0.219831
0.760396 0.651061 0.219834
0.766453 0.650525 0.219786
0.770155 0.648917 0.219355
0.769867 0.645392 0.218242
0.429204 0.736885 0.241949
0.427799 0.734472 0.241156
0.424504 0.728814 0.239299
0.419832 0.720793 0.236665
0.413763 0.710367 0.233242
0.407820 0.700158 0.229890
0.402302 0.690648 0.226767
0.397411 0.681653 0.223818
0.396877 0.674214 0.221420
0.402619 0.669043 0.219826
0.413365 0.665038 0.218669
0.427484 0.660516 0.217393
0.444888 0.656616 0.216366
0.464811 0.654077 0.215819
0.486292 0.652883 0.215734
0.508619 0.652617 0.215970
0.531741 0.652787 0.216368
0.555211 0.653308 0.216895
0.577581 0.653679 0.217368
0.599214 0.654041 0.217837
0.619316 0.655081 0.218504
0.638901 0.656388 0.219254
0.656875 0.657897 0.220047
0.674353 0.659502 0.220867
0.691265 0.661466 0.221795
0.707798 0.663569 0.222765
0.723636 0.665765 0.223754
0.738768 0.668043 0.224760
0.753278 0.670199 0.225718
0.762669 0.670494 0.225993
0.771821 0.670797 0.226268
0.776675 0.669924 0.226089
0.776587 0.667659 0.225375
0.441392 0.757813 0.248820
0.440068 0.755540 0.248074
0.436907 0.750112 0.246291
0.432447 0.742454 0.243777
0.427109 0.733284 0.240766
0.421674 0.723951 0.237702
0.416206 0.714529 0.234608
0.411284 0.705635 0.231691
0.409940 0.698429 0.229358
0.414717 0.693737 0.227907
0.424046 0.689081 0.226523
0.437220 0.684451 0.225199
0.453934 0.681003 0.224305
0.472944 0.678707 0.223819
0.493639 0.677255 0.223636
0.515154 0.676532 0.223709
0.537614 0.676093 0.223897
0.560720 0.675912 0.224188
0.582143 0.675778 0.224478
0.603198 0.675836 0.224834
0.622774 0.676626 0.225406
0.642201 0.677609 0.226045
0.659574 0.678613 0.226662
0.676725 0.679724 0.227313
0.693246 0.681101 0.228043
0.709478 0.682577 0.228804
0.724844 0.684136 0.229579
0.739564 0.685751 0.230362
0.753556 0.687249 0.231099
0.765081 0.688076 0.231579
0.776372 0.688922 0.232063
0.781685 0.688571 0.232056
0.782358 0.687280 0.231663
0.452387 0.776691 0.255018
0.451106 0.774492 0.254296
0.448436 0.769907 0.252791
0.444668 0.763438 0.250667
0.439676 0.754864 0.247852
0.433900 0.744942 0.244594
0.428614 0.735863 0.241613
0.424366 0.728109 0.239070
0.422412 0.721606 0.236956
0.425987 0.716156 0.235246
0.434095 0.711048 0.233702
0.446686 0.707155 0.232606
0.463094 0.704855 0.232074
0.481009 0.702350 0.231504
0.500773 0.700390 0.231142
0.521703 0.699069 0.231010
0.543423 0.697903 0.230949
0.565876 0.697031 0.231005
0.586472 0.696951 0.231294
0.607078 0.697165 0.231686
0.626399 0.697702 0.232168
0.645446 0.698330 0.232682
0.662465 0.698513 0.233026
0.679357 0.698839 0.233419
0.695387 0.699251 0.233830
0.711239 0.699775 0.234277
0.726197 0.700625 0.234816
0.740687 0.701623 0.235397
0.754570 0.702662 0.235983
0.767285 0.703696 0.236548
0.779764 0.704754 0.237119
0.785234 0.704630 0.237184
0.787189 0.703910 0.236995
0.462779 0.794533 0.260877
0.461765 0.792793 0.260305
0.459332 0.788615 0.258934
0.455655 0.782301 0.256860
0.450756 0.773888 0.254098
0.445698 0.765204 0.251247
0.440679 0.756590 0.248418
0.436620 0.749331 0.246037
0.434222 0.742548 0.243828
0.436370 0.736703 0.241974
0.443874 0.732228 0.240625
0.455797 0.729029 0.239743
0.471245 0.726682 0.239182
0.488516 0.724055 0.238562
0.507476 0.721774 0.238083
0.527625 0.719825 0.237735
0.548541 0.718180 0.237505
0.570141 0.717020 0.237450
