output/ProPhoto/ProPhoto_to_CLASSIC-Neg._33grid.cube
TITLE "ProPhoto_to_CLASSIC-Neg."
# Input: ProPhoto RGB, gamma 1.8 (D50)
# Output: ProPhoto RGB, gamma 1.8 (D50) with film simulation look
# Use: Photoshop 3D LUT adjustment layer on standard ProPhoto document
# Source: FLog2C_to_CLASSIC-Neg._65grid_V.1.00.cube
# Generated from Fujifilm GFX ETERNA 55 F-Log2C LUT
LUT_3D_SIZE 33
0.000016 0.000016 0.000008
0.002035 0.000819 0.000306
0.014497 0.005793 0.002175
0.035273 0.014095 0.005274
0.065067 0.025922 0.009703
0.115444 0.046044 0.017230
0.191180 0.076460 0.028594
0.302781 0.121129 0.045296
0.420911 0.168821 0.063094
0.508235 0.204461 0.076362
0.565122 0.228757 0.085351
0.603251 0.246127 0.092645
0.630458 0.259586 0.101781
0.649087 0.270344 0.115486
0.657606 0.277597 0.133174
0.661888 0.283989 0.151714
0.664873 0.292402 0.166326
0.668511 0.302294 0.181679
0.672614 0.313413 0.197991
0.676997 0.325427 0.215253
0.680050 0.333716 0.226602
0.682393 0.340180 0.235000
0.682424 0.340268 0.235113
0.682424 0.340268 0.235113
0.682424 0.340268 0.235113
0.682424 0.340268 0.235113
0.682424 0.340268 0.235113
0.682424 0.340268 0.235113
0.682424 0.340268 0.235113
0.682424 0.340268 0.235113
0.682424 0.340268 0.235113
0.682424 0.340268 0.235113
0.682424 0.340268 0.235113
0.000722 0.001238 0.000406
0.000599 0.000726 0.000243
0.011598 0.004591 0.001724
0.032036 0.012791 0.004785
0.059721 0.023850 0.008922
0.105484 0.042135 0.015762
0.173145 0.069310 0.025915
0.278352 0.111399 0.041654
0.397514 0.159314 0.059551
0.492159 0.197774 0.073883
0.554912 0.224216 0.083671
0.596408 0.242908 0.091064
0.625833 0.257179 0.099730
0.646567 0.268752 0.112893
0.657305 0.276930 0.130754
0.661607 0.283345 0.150567
0.664759 0.292111 0.165845
0.668543 0.302393 0.181819
0.672643 0.313508 0.198112
0.677026 0.325528 0.215372
0.680065 0.333770 0.226660
0.682407 0.340220 0.235051
0.682424 0.340268 0.235113
0.682424 0.340268 0.235113
0.682424 0.340268 0.235113
0.682424 0.340268 0.235113
0.682424 0.340268 0.235113
0.682424 0.340268 0.235113
0.682424 0.340268 0.235113
0.682424 0.340268 0.235113
0.682424 0.340268 0.235113
0.682424 0.340268 0.235113
0.682424 0.340268 0.235113
0.004475 0.007643 0.002751
0.003837 0.006568 0.002253
0.006002 0.005136 0.001734
0.024613 0.010773 0.003955
0.049261 0.019983 0.007450
0.085007 0.034033 0.012725
0.137549 0.054908 0.020543
0.222683 0.088952 0.033275
0.328769 0.131402 0.049148
0.434953 0.174339 0.065166
0.513394 0.206646 0.077169
0.565747 0.229066 0.085455
0.601490 0.245346 0.092157
0.628296 0.258447 0.100696
0.647507 0.269118 0.112802
0.657207 0.276651 0.129475
0.660511 0.282395 0.147599
0.663530 0.290075 0.162828
0.666751 0.299259 0.177186
0.671060 0.309801 0.192859
0.675779 0.321770 0.209919
0.680612 0.334505 0.227314
0.681732 0.338054 0.232107
0.682424 0.340268 0.235113
0.682424 0.340268 0.235113
0.682424 0.340268 0.235113
0.682424 0.340268 0.235113
0.682424 0.340268 0.235113
0.682424 0.340268 0.235113
0.682424 0.340268 0.235113
0.682424 0.340268 0.235113
0.682424 0.340268 0.235113
0.682424 0.340268 0.235113
0.013679 0.023319 0.008619
0.012640 0.021617 0.007605
0.010750 0.018295 0.006291
0.018107 0.016553 0.005568
0.038933 0.021056 0.007452
0.067647 0.030288 0.011064
0.110803 0.046294 0.017149
0.171553 0.069945 0.026046
0.259687 0.104798 0.039113
0.363828 0.145864 0.054520
0.454941 0.182498 0.068203
0.522082 0.210263 0.078510
0.569176 0.230458 0.086000
0.601961 0.245512 0.092327
0.626212 0.257496 0.100007
0.646131 0.268408 0.110987
0.655051 0.274818 0.126194
0.659432 0.280559 0.142368
0.662390 0.286887 0.157664
0.665738 0.295000 0.169921
0.669157 0.303984 0.184112
0.672640 0.313566 0.198965
0.676853 0.325086 0.214785
0.680673 0.335342 0.228594
0.681769 0.338394 0.232653
0.682424 0.340268 0.235113
0.682424 0.340268 0.235113
0.682424 0.340268 0.235113
0.682424 0.340268 0.235113
0.682424 0.340268 0.235113
0.682424 0.340268 0.235113
0.682424 0.340268 0.235113
0.682424 0.340268 0.235113
0.026474 0.045217 0.016193
0.024430 0.041760 0.014772
0.022250 0.038057 0.013309
0.020539 0.032303 0.010853
0.034293 0.032669 0.010961
0.057783 0.037702 0.013034
0.089662 0.046745 0.016635
0.138139 0.063280 0.023016
0.208080 0.090086 0.033126
0.301150 0.126157 0.046705
0.396456 0.163820 0.060826
0.475938 0.195561 0.072699
0.533365 0.218554 0.081296
0.574043 0.235334 0.087588
0.603485 0.248155 0.093103
0.626083 0.258574 0.099673
0.644352 0.267706 0.109239
0.653325 0.273746 0.121998
0.658356 0.278863 0.136928
0.661119 0.284097 0.151477
0.663983 0.290920 0.164242
0.666956 0.298561 0.176621
0.670479 0.307548 0.189995
0.674112 0.317099 0.203587
0.678030 0.327538 0.217837
0.681299 0.336227 0.229360
0.681951 0.338520 0.232597
0.682424 0.340268 0.235113
0.682424 0.340268 0.235113
0.682424 0.340268 0.235113
0.682424 0.340268 0.235113
0.682424 0.340268 0.235113
0.682424 0.340268 0.235113
0.039412 0.067245 0.024491
0.037275 0.063732 0.022459
0.033524 0.057335 0.020044
0.030463 0.051974 0.018119
0.036021 0.050390 0.016832
0.053171 0.052085 0.017443
0.078955 0.057362 0.019622
0.117648 0.068757 0.024081
0.173562 0.087549 0.031318
0.251814 0.116053 0.042164
0.341746 0.150424 0.055131
0.427061 0.183639 0.067619
0.495484 0.210771 0.077781
0.544743 0.230758 0.085231
0.580620 0.245872 0.090906
0.608141 0.257989 0.096274
0.628548 0.267382 0.102539
0.645003 0.275547 0.111154
0.655908 0.281677 0.122056
0.659377 0.285026 0.135477
0.662072 0.288856 0.147987
0.664568 0.293080 0.160100
0.666873 0.299150 0.171239
0.669375 0.305745 0.182947
0.672529 0.313670 0.195641
0.675819 0.322009 0.208209
0.678991 0.330835 0.220776
0.681845 0.338853 0.232065
0.682151 0.339592 0.233709
0.682385 0.340170 0.234915
0.682424 0.340268 0.235113
0.682424 0.340268 0.235113
0.682424 0.340268 0.235113
0.054264 0.092723 0.032956
0.051934 0.088774 0.031359
0.046830 0.080083 0.028071
0.043081 0.073641 0.025928
0.042023 0.069317 0.023672
0.053372 0.068892 0.022942
0.073838 0.071869 0.024079
0.103979 0.078682 0.026819
0.149483 0.091759 0.031942
0.213997 0.113377 0.040250
0.295803 0.142856 0.051472
0.382026 0.175540 0.063811
0.457113 0.204281 0.074649
0.515157 0.227325 0.083274
0.557933 0.245031 0.089848
0.589245 0.258436 0.094886
0.612728 0.269123 0.099698
0.631263 0.278140 0.105515
0.646544 0.285932 0.113124
0.658625 0.292586 0.123136
0.662233 0.296299 0.135282
0.664363 0.299622 0.148514
0.666335 0.303963 0.157920
0.668392 0.308704 0.167734
0.670543 0.314137 0.178199
0.672824 0.319977 0.189025
0.675405 0.326921 0.200757
0.678032 0.333896 0.212326
0.680770 0.340264 0.222630
0.683437 0.346434 0.232718
0.683738 0.346590 0.234432
0.683576 0.345479 0.234278
0.683503 0.344527 0.234232
0.070974 0.121333 0.042739
0.067952 0.116185 0.040813
0.062745 0.107288 0.037625
0.057440 0.098197 0.034529
0.053786 0.091662 0.032120
0.058298 0.088934 0.030082
0.073234 0.089856 0.029935
0.097771 0.093599 0.031387
0.135264 0.102636 0.034976
0.188611 0.118033 0.040996
0.258542 0.141002 0.049845
0.339458 0.170368 0.060992
0.417988 0.199627 0.072066
0.484246 0.225128 0.081662
0.534392 0.245319 0.089192
0.570901 0.260681 0.094875
0.598145 0.272384 0.099284
0.619753 0.282785 0.104086
0.637549 0.291870 0.109950
0.652130 0.299754 0.117214
0.659828 0.304798 0.126498
0.665564 0.309159 0.137296
0.667041 0.312251 0.147674
0.668672 0.315739 0.157805
0.670809 0.320202 0.166511
0.673033 0.325077 0.175754
0.675370 0.330496 0.185847
0.677816 0.336160 0.196214
0.680787 0.343616 0.207835
0.683819 0.351108 0.219476
0.685262 0.354642 0.226209
0.686400 0.357335 0.231919
0.687059 0.358532 0.235525
0.089900 0.153690 0.054099
0.086329 0.147575 0.051947
0.079561 0.135983 0.047919
0.074332 0.127078 0.044739
0.068639 0.117345 0.041177
0.067855 0.112456 0.038679
0.077894 0.111231 0.037336
0.096494 0.112680 0.037574
0.126738 0.118450 0.039777
0.170680 0.129441 0.044113
0.231567 0.148005 0.051283
0.305662 0.172340 0.060643
0.383631 0.199882 0.071138
0.454235 0.225686 0.080930
0.510055 0.247258 0.089031
0.552319 0.264757 0.095517
0.584486 0.279160 0.100776
0.607925 0.289794 0.104878
0.627387 0.299358 0.109359
0.643444 0.307923 0.114794
0.656181 0.315300 0.121747
0.666040 0.321615 0.130101
0.668849 0.325407 0.140628
0.671101 0.328651 0.150826
0.672431 0.331107 0.158701
0.673979 0.334350 0.166897
0.676007 0.338892 0.175476
0.678200 0.343761 0.184392
0.680649 0.349545 0.194139
0.683072 0.355235 0.203831
0.685739 0.361438 0.214794
0.688349 0.367670 0.225750
0.689825 0.371297 0.233059
0.111049 0.189764 0.067138
0.107242 0.183294 0.064688
0.100004 0.170969 0.060117
0.092431 0.158011 0.055588
0.086242 0.147389 0.052068
0.081608 0.138952 0.048528
0.087149 0.136432 0.046289
0.100585 0.135868 0.045452
0.124457 0.139302 0.046484
0.160847 0.147517 0.049588
0.211988 0.160014 0.054553
0.279070 0.179853 0.062261
0.355513 0.205466 0.072062
0.425648 0.229879 0.081379
0.486197 0.252376 0.089873
0.534259 0.271306 0.096946
0.570301 0.286357 0.102509
0.596658 0.298346 0.106887
0.618043 0.308904 0.110974
0.636134 0.318464 0.115568
0.650550 0.326498 0.120852
0.662508 0.333740 0.127331
0.669829 0.339581 0.135724
0.674176 0.343794 0.144404
0.675377 0.346307 0.152851
0.676725 0.348846 0.160889
0.678248 0.351508 0.167993
0.679880 0.354621 0.175649
0.681588 0.358629 0.184311
0.683229 0.362457 0.193011
0.685670 0.367954 0.202945
0.688161 0.373567 0.212935
0.690200 0.378195 0.221504
0.134811 0.230452 0.081179
0.130937 0.223853 0.078705
0.121585 0.207775 0.073521
0.113659 0.194310 0.068329
0.106229 0.181582 0.063985
0.100409 0.171524 0.060537
0.099221 0.164248 0.056301
0.109313 0.163396 0.055210
0.125889 0.163546 0.054622
0.156337 0.168342 0.056177
0.199422 0.177258 0.059703
0.261191 0.195470 0.066690
0.330883 0.216409 0.074797
0.403168 0.239973 0.083849
0.465743 0.261941 0.092203
0.517060 0.280564 0.099254
0.558223 0.296229 0.105138
0.588029 0.310252 0.110209
0.611171 0.321598 0.114338
0.630538 0.331443 0.118164
0.645636 0.340057 0.122564
0.659154 0.347974 0.127833
0.670687 0.355280 0.134189
0.677225 0.360886 0.141807
0.679557 0.364929 0.150978
0.681095 0.367405 0.158707
0.681870 0.368586 0.164474
0.682931 0.370399 0.170829
0.684467 0.373175 0.178163
0.685983 0.375811 0.185707
0.687605 0.380124 0.194069
0.689189 0.384348 0.202439
0.691246 0.388666 0.211013
0.159006 0.271756 0.096013
0.154420 0.263901 0.093329
0.146324 0.250091 0.088249
0.137627 0.235257 0.082914
0.128371 0.219418 0.077261
0.121208 0.207180 0.073016
0.117108 0.198398 0.069007
0.121928 0.194350 0.066298
0.135232 0.193749 0.065113
0.158834 0.195309 0.065179
0.195433 0.202386 0.067639
0.248266 0.215228 0.072613
0.312668 0.232639 0.079411
0.383321 0.254319 0.087767
0.447619 0.276682 0.096236
0.501546 0.295476 0.103376
0.545313 0.311068 0.109287
0.576962 0.323878 0.114034
0.602795 0.335527 0.118273
0.625065 0.346197 0.122143
0.640885 0.355060 0.125781
0.655217 0.363365 0.130156
0.667925 0.371099 0.135606
0.676226 0.377530 0.141880
0.681719 0.383087 0.149203
0.684709 0.386043 0.155971
0.685980 0.387304 0.162271
0.687105 0.388673 0.168442
0.687853 0.389886 0.173863
0.688529 0.391015 0.179392
0.690109 0.394252 0.186950
0.691807 0.397638 0.194777
0.693693 0.401632 0.203029
0.184651 0.315583 0.111414
0.180399 0.308324 0.108798
0.171248 0.292704 0.103174
0.162003 0.276892 0.097658
0.152411 0.260513 0.091803
0.144399 0.246826 0.086920
0.137556 0.234963 0.082768
0.138655 0.229365 0.079100
0.147746 0.226464 0.076654
0.165539 0.225955 0.075803
0.195368 0.230117 0.076784
0.240191 0.239581 0.080188
0.299606 0.255532 0.086305
0.366786 0.273696 0.093402
0.432588 0.294086 0.101237
0.489032 0.313483 0.108585
0.535513 0.329968 0.114813
0.570533 0.341989 0.119391
0.597050 0.353788 0.123687
0.619990 0.364724 0.127633
0.638068 0.374001 0.131101
0.653313 0.382393 0.134709
0.666166 0.390007 0.138883
0.676454 0.396908 0.143929
0.685294 0.403416 0.149931
0.689605 0.407659 0.156485
0.691371 0.410585 0.163734
0.692417 0.411653 0.169623
0.692940 0.410991 0.173637
0.693671 0.410770 0.178079
0.694847 0.412324 0.183884
0.696033 0.413810 0.189795
0.697330 0.416439 0.196576
0.209972 0.358840 0.126816
0.205814 0.351769 0.124195
0.197159 0.336964 0.118967
0.187543 0.320546 0.113127
0.177340 0.303058 0.107232
0.168790 0.288503 0.101680
0.161245 0.275486 0.097117
0.158275 0.267530 0.092929
0.163873 0.262982 0.089632
0.176916 0.260416 0.087724
0.201486 0.262026 0.087621
0.240190 0.269409 0.089910
0.292460 0.281810 0.094487
0.354630 0.296999 0.100439
0.422793 0.317497 0.108291
0.479943 0.334956 0.115008
0.527695 0.350700 0.121007
0.566562 0.364789 0.126295
0.593018 0.375476 0.130238
0.616305 0.385423 0.133877
0.635522 0.394520 0.137154
0.651320 0.403222 0.140376
0.664931 0.411558 0.144214
0.676907 0.418657 0.148368
0.688072 0.425198 0.152987
0.693987 0.430373 0.158733
0.697969 0.435012 0.165637
0.699330 0.436129 0.170777
0.698747 0.434648 0.174216
0.698530 0.433633 0.178088
0.699368 0.433777 0.182695
0.700278 0.434003 0.187516
0.701379 0.435318 0.193439
0.234819 0.401315 0.141792
0.231388 0.395451 0.139730
0.223515 0.382004 0.134909
0.213293 0.364561 0.128522
0.203292 0.347449 0.122639
0.193945 0.331462 0.117052
0.185348 0.316776 0.111743
0.180279 0.306912 0.107447
0.181889 0.300900 0.103634
0.191260 0.297500 0.101074
0.210541 0.297780 0.100146
0.242081 0.302081 0.100928
0.288414 0.311025 0.103853
0.347034 0.324446 0.108946
0.409926 0.340718 0.115286
0.468752 0.358068 0.121953
0.519223 0.374521 0.128196
0.561874 0.389562 0.133843
0.590444 0.399920 0.137721
0.615098 0.409387 0.141234
0.635366 0.417831 0.144330
0.651482 0.425979 0.147275
0.665651 0.433828 0.150260
0.677920 0.440596 0.153490
0.689520 0.446973 0.157312
0.696618 0.452349 0.162065
0.702536 0.457365 0.167858
0.705128 0.459144 0.172594
0.705737 0.459097 0.176543
0.706074 0.458752 0.180598
0.705714 0.457414 0.184153
0.705429 0.456107 0.187835
0.706058 0.456151 0.192415
0.260102 0.444527 0.157024
0.256554 0.438472 0.154863
0.249076 0.425698 0.150297
0.239218 0.408834 0.144373
0.229346 0.391912 0.138636
0.220088 0.376152 0.132862
0.211334 0.361192 0.127547
0.203914 0.348310 0.122544
0.202696 0.341054 0.118329
0.208830 0.336635 0.115423
0.223076 0.334837 0.113200
0.249011 0.336878 0.112899
0.289727 0.344135 0.114868
0.342474 0.355473 0.118816
0.402200 0.369474 0.124188
0.461687 0.385358 0.130351
0.512878 0.400721 0.136228
0.557042 0.414968 0.141634
0.588894 0.426026 0.145787
0.614794 0.435291 0.149254
0.635938 0.443090 0.152161
0.652287 0.450405 0.154818
0.667114 0.457414 0.157381
0.679543 0.463802 0.160048
0.691422 0.469941 0.163092
0.700060 0.475768 0.167027
0.708083 0.481380 0.171793
0.711451 0.483935 0.176174
0.712866 0.485165 0.180690
0.713622 0.485052 0.184759
0.713108 0.482541 0.187095
0.712539 0.480124 0.189586
0.712456 0.478956 0.193118
0.283604 0.484702 0.171156
0.280667 0.479677 0.169415
0.273630 0.467639 0.165195
0.264045 0.451247 0.159392
0.255077 0.435907 0.154099
0.245596 0.419749 0.148233
0.236652 0.404454 0.142866
0.228775 0.390923 0.137830
0.224528 0.381614 0.133479
0.228312 0.376438 0.129975
0.237864 0.372719 0.126765
0.258880 0.372963 0.125598
0.293784 0.378600 0.126646
0.341337 0.387673 0.129348
0.397696 0.399677 0.133713
0.456952 0.414487 0.139427
0.508422 0.428879 0.144963
0.553662 0.442207 0.150072
0.588846 0.453094 0.154224
0.615521 0.461941 0.157565
0.637646 0.469626 0.160449
0.654260 0.476375 0.162923
0.669798 0.482822 0.165287
0.682122 0.488676 0.167565
0.694056 0.494337 0.170019
0.703372 0.499967 0.173142
0.712383 0.505429 0.176814
0.716590 0.508626 0.180686
0.719423 0.511126 0.185181
0.720856 0.511212 0.188783
0.720365 0.507956 0.190439
0.719906 0.504794 0.192282
0.719389 0.502804 0.195095
0.306065 0.523048 0.184849
0.303186 0.518131 0.183091
0.296350 0.506462 0.178874
0.288418 0.492927 0.174040
0.279489 0.477661 0.168689
0.270012 0.461461 0.162985
0.261272 0.446538 0.157707
0.253345 0.432979 0.152954
0.247599 0.422279 0.148448
0.248195 0.415747 0.144289
0.255227 0.411215 0.140754
0.270898 0.409591 0.138710
0.300187 0.413436 0.138784
0.343022 0.420325 0.140347
0.395706 0.430726 0.143756
0.453952 0.444479 0.148860
0.505651 0.458182 0.154135
0.551630 0.470483 0.158903
0.589758 0.480561 0.162841
0.616853 0.489131 0.166090
0.640264 0.497065 0.169069
0.657262 0.503388 0.171410
0.673265 0.509428 0.173646
0.685561 0.514619 0.175615
0.697284 0.519640 0.177650
0.706494 0.524445 0.179980
0.715428 0.529092 0.182605
0.720870 0.532790 0.185861
0.725683 0.536253 0.189829
0.727845 0.536507 0.192808
0.727347 0.533527 0.194438
0.726873 0.530608 0.196307
0.726383 0.527973 0.198442
0.326083 0.557251 0.196992
0.323673 0.553145 0.195485
0.318087 0.543611 0.192088
0.310527 0.530683 0.187631
0.302673 0.517267 0.182715
0.293569 0.501757 0.177004
0.285186 0.487429 0.171979
0.277317 0.473963 0.167331
0.270696 0.462302 0.162825
0.268220 0.454125 0.158290
0.273762 0.449591 0.154663
0.285846 0.447539 0.152434
0.308943 0.448582 0.151276
0.346912 0.454194 0.152059
0.395440 0.462898 0.154516
0.450854 0.474231 0.158446
0.503394 0.487625 0.163415
0.549502 0.499106 0.167876
0.589812 0.508906 0.171744
0.617719 0.517403 0.174973
0.642719 0.525274 0.177953
0.660561 0.530876 0.180078
0.676922 0.536170 0.182082
0.689611 0.540755 0.183838
0.701473 0.545273 0.185643
0.710937 0.549958 0.187673
0.720116 0.554491 0.189835
0.726525 0.558065 0.192347
0.732648 0.561495 0.195292
0.735216 0.561968 0.197729
0.735255 0.560323 0.199917
0.735309 0.558697 0.202505
0.734624 0.554645 0.203613
0.344032 0.587940 0.207793
0.341992 0.584451 0.206592
0.337195 0.576243 0.203766
0.330674 0.565098 0.199802
0.323078 0.552126 0.195111
0.314850 0.538088 0.190067
0.306847 0.524455 0.185069
0.299676 0.512128 0.181036
0.292463 0.499733 0.176274
0.288930 0.491261 0.171897
0.291415 0.486109 0.168221
0.301442 0.483451 0.165441
0.319999 0.483045 0.163707
0.352287 0.487326 0.163774
0.396655 0.494895 0.165455
0.448231 0.504865 0.168525
0.500911 0.516394 0.172597
0.547518 0.527367 0.176789
0.590496 0.537972 0.180915
0.619421 0.545928 0.183977
0.645450 0.553053 0.186731
0.664207 0.557883 0.188625
0.680775 0.562541 0.190426
0.693641 0.566911 0.192095
0.705490 0.571044 0.193734
0.715361 0.574791 0.195376
0.724821 0.578444 0.197131
0.732076 0.582057 0.199247
0.739121 0.585555 0.201603
0.742082 0.586551 0.203674
0.743030 0.586301 0.205885
0.743803 0.585663 0.208305
0.742814 0.580872 0.208731
0.360968 0.616857 0.218152
0.359258 0.613932 0.217146
0.355035 0.606714 0.214606
0.348823 0.596109 0.210770
0.342039 0.584503 0.206741
0.334650 0.571908 0.202161
0.327301 0.559368 0.197625
0.320573 0.547805 0.193799
0.312945 0.534847 0.188788
0.308503 0.526237 0.185081
0.309279 0.520786 0.181047
0.316888 0.517455 0.177894
0.332389 0.516500 0.175866
0.358769 0.519230 0.175217
0.399525 0.526193 0.176311
0.447522 0.534764 0.178555
0.499672 0.544313 0.181691
0.546969 0.555432 0.185742
0.590873 0.566304 0.189879
0.621892 0.573699 0.192782
0.648506 0.579903 0.195244
0.668244 0.584113 0.196953
0.684868 0.588397 0.198630
0.697940 0.592718 0.200269
0.709784 0.596312 0.201710
0.719983 0.598875 0.202936
0.729631 0.601574 0.204331
0.737565 0.605223 0.206196
0.745281 0.608767 0.208184
0.748713 0.610438 0.210039
0.750768 0.611500 0.212127
0.752209 0.611503 0.214089
0.750921 0.606487 0.214068
0.375373 0.641434 0.227060
0.373738 0.638658 0.225970
0.369863 0.632080 0.223389
0.364636 0.623174 0.220102
0.358736 0.613064 0.216723
0.352028 0.601584 0.212733
0.345567 0.590531 0.208879
0.338930 0.579199 0.204800
0.332368 0.567957 0.200599
0.327005 0.558455 0.196827
0.326166 0.552643 0.192896
0.331156 0.548789 0.189552
0.344120 0.547632 0.187144
0.366179 0.549370 0.185914
0.402194 0.555070 0.186435
0.446805 0.562587 0.188081
0.498036 0.571771 0.190825
0.545207 0.581955 0.194328
0.588863 0.591461 0.197873
0.622552 0.598542 0.200658
0.650013 0.604408 0.203005
0.671410 0.609006 0.204858
0.688609 0.613442 0.206587
0.702686 0.617693 0.208209
0.714682 0.620912 0.209505
0.724699 0.623151 0.210549
0.734050 0.625620 0.211762
0.742043 0.628782 0.213358
0.749823 0.631857 0.215066
0.753971 0.633239 0.216550
0.757435 0.634313 0.218202
0.759619 0.633970 0.219506
0.758434 0.629734 0.219358
0.388074 0.663191 0.234440
0.386693 0.660851 0.233511
0.383439 0.655323 0.231387
0.379035 0.647775 0.228868
0.373704 0.638629 0.225816
0.367776 0.628460 0.222387
0.361763 0.618217 0.218642
0.355542 0.607587 0.214825
0.349488 0.597249 0.211109
0.344346 0.588190 0.207431
0.341583 0.581360 0.203743
0.345032 0.577661 0.200351
0.355635 0.576506 0.197760
0.374692 0.577698 0.196198
0.405365 0.581813 0.196035
0.447226 0.588635 0.197165
0.495664 0.597261 0.199445
0.543880 0.606966 0.202551
0.587303 0.615617 0.205652
0.623592 0.622608 0.208343
0.651588 0.628232 0.210579
0.674819 0.633046 0.212513
0.692317 0.637462 0.214234
0.707231 0.641635 0.215836
0.719238 0.644484 0.216994
0.729408 0.646528 0.217929
0.738687 0.648777 0.219001
0.746698 0.651377 0.220312
0.754503 0.653915 0.221718
0.759446 0.655019 0.222910
0.764143 0.656037 0.224260
0.766788 0.655496 0.225164
0.765909 0.652210 0.225091
0.399649 0.682993 0.241379
0.398489 0.681009 0.240688
0.395707 0.676244 0.239051
0.391786 0.669529 0.236743
0.387029 0.661381 0.233937
0.381637 0.652172 0.230657
0.375909 0.642405 0.227118
0.370285 0.632783 0.223735
0.364747 0.623312 0.220404
0.359685 0.614553 0.216963
0.356202 0.607568 0.213518
0.358274 0.604200 0.210420
0.366655 0.602999 0.207775
0.382869 0.603553 0.205893
0.408538 0.606097 0.204984
0.447653 0.612415 0.205595
0.493222 0.620547 0.207440
0.542482 0.630474 0.210427
0.585728 0.638744 0.213243
0.624608 0.645946 0.215904
0.652936 0.651228 0.217951
0.678244 0.656019 0.219860
0.695591 0.660281 0.221510
0.711136 0.664366 0.223082
0.723264 0.666923 0.224136
0.734060 0.668941 0.225045
0.743444 0.670903 0.225981
0.751422 0.672807 0.226970
0.759085 0.674608 0.228014
0.764937 0.675469 0.229021
0.770640 0.676314 0.230193
0.773595 0.675838 0.230991
0.773386 0.673814 0.231285
0.410060 0.700784 0.247672
0.408988 0.698950 0.247035
0.406429 0.694568 0.245511
0.402805 0.688366 0.243351
0.398431 0.680879 0.240741
0.393444 0.672359 0.237715
0.388461 0.663849 0.234684
0.383466 0.655317 0.231658
0.378211 0.646322 0.228526
0.373268 0.637891 0.225417
0.369900 0.631372 0.222262
0.369642 0.627062 0.219219
0.376420 0.626096 0.216648
0.390339 0.626422 0.214534
0.412343 0.628352 0.213210
0.447620 0.634090 0.213403
0.490637 0.641863 0.214898
0.539865 0.651553 0.217580
0.582758 0.659379 0.220092
0.624281 0.666960 0.222770
0.653092 0.672189 0.224710
0.681002 0.677371 0.226715
0.698120 0.681345 0.228240
0.714675 0.685245 0.229752
0.726851 0.687477 0.230698
0.738172 0.689446 0.231566
0.747540 0.691132 0.232363
0.755618 0.692626 0.233154
0.763265 0.693969 0.233977
0.769655 0.694732 0.234838
0.775901 0.695482 0.235845
0.779094 0.695263 0.236612
0.779915 0.694289 0.237210
0.419314 0.716621 0.253129
0.418304 0.714892 0.252528
0.415892 0.710763 0.251095
0.412472 0.704907 0.249062
0.408487 0.698071 0.246731
0.404152 0.690631 0.244210
0.400079 0.683713 0.241632
0.395374 0.675681 0.238764
0.390418 0.667198 0.235816
0.385942 0.659532 0.233197
0.381801 0.652223 0.230111
0.380190 0.647464 0.227133
0.385885 0.647028 0.224774
0.397296 0.647147 0.222411
0.416580 0.649079 0.220911
0.447417 0.654133 0.220759
0.488356 0.661514 0.221879
0.536710 0.670623 0.224115
0.579447 0.678169 0.226391
0.622086 0.685933 0.229006
0.652869 0.691639 0.231027
0.682140 0.697212 0.233109
0.700261 0.700822 0.234503
0.718043 0.704408 0.235909
0.730033 0.706298 0.236719
0.741767 0.708171 0.237521
0.751051 0.709651 0.238214
0.759336 0.710975 0.238905
0.766999 0.712118 0.239612
0.773456 0.712861 0.240353
0.779772 0.713594 0.241212
0.783340 0.713719 0.241998
0.785515 0.713534 0.242820
0.427227 0.730130 0.257950
0.426343 0.728616 0.257423
0.424221 0.724983 0.256159
0.421273 0.719931 0.254412
0.417835 0.714037 0.252397
0.414152 0.707750 0.250168
0.410372 0.701322 0.247814
0.405732 0.693390 0.244998
0.401365 0.685913 0.242421
0.397224 0.678814 0.240014
0.392577 0.670890 0.237049
0.391070 0.666834 0.234361
0.393867 0.665379 0.231970
0.403174 0.665393 0.229436
0.420682 0.667527 0.227873
0.447101 0.671753 0.227374
0.485838 0.678697 0.228116
0.530966 0.686889 0.229847
