output/ProPhoto/ProPhoto_to_ETERNA_33grid.cube
TITLE "ProPhoto_to_ETERNA"
# Input: ProPhoto RGB, gamma 1.8 (D50)
# Output: ProPhoto RGB, gamma 1.8 (D50) with film simulation look
# Use: Photoshop 3D LUT adjustment layer on standard ProPhoto document
# Source: FLog2C_to_ETERNA_65grid_V.1.00.cube
# Generated from Fujifilm GFX ETERNA 55 F-Log2C LUT
LUT_3D_SIZE 5
0.002052 0.001979 0.001973
0.355862 0.147917 0.070669
0.665245 0.317148 0.164819
0.682399 0.365810 0.235007
0.682399 0.365810 0.235007
0.126192 0.216613 0.071123
0.194772 0.178355 0.060113
0.518063 0.281667 0.108171
0.672178 0.366408 0.140472
0.685953 0.396832 0.215492
0.297512 0.510757 0.167702
0.282614 0.432676 0.142438
0.478765 0.444528 0.149469
0.667553 0.506548 0.176037
0.706949 0.521469 0.183042
0.416225 0.714573 0.234623
0.397978 0.659707 0.216770
0.522374 0.632707 0.209819
0.667598 0.649567 0.218556
0.751078 0.667189 0.227593
0.484868 0.832395 0.273309
0.470014 0.795977 0.261426
0.565463 0.765471 0.252871
0.685202 0.763656 0.254320
0.777338 0.769204 0.259595
0.073682 0.042444 0.193399
0.258052 0.101838 0.175982
0.657535 0.285490 0.226548
0.685926 0.366270 0.262385
0.683221 0.366046 0.238338
0.224114 0.327582 0.320891
0.207854 0.208122 0.207728
0.494630 0.279901 0.237702
0.687640 0.370559 0.267631
0.698091 0.410473 0.303607
0.368783 0.605851 0.330904
0.320068 0.503364 0.254395
0.481504 0.479772 0.252629
0.653431 0.517014 0.272762
0.726011 0.544437 0.281454
0.448922 0.760136 0.306160
0.416151 0.704481 0.266503
0.518983 0.666158 0.265341
0.656438 0.667964 0.273539
0.754451 0.681546 0.281792
0.500702 0.857975 0.289031
0.481035 0.824818 0.273326
0.546901 0.789011 0.266884
0.666179 0.781065 0.267748
0.757071 0.782534 0.270447
0.205926 0.143520 0.522214
0.221300 0.106885 0.375702
0.577298 0.242262 0.418162
0.697843 0.319953 0.411215
0.703035 0.377677 0.389427
0.357053 0.451984 0.653937
0.265247 0.275670 0.478924
0.503885 0.301295 0.463219
0.702520 0.378192 0.482218
0.720957 0.422515 0.457533
0.467053 0.687438 0.656848
0.383317 0.563824 0.533805
0.515059 0.515402 0.514919
0.672170 0.534090 0.512034
0.760259 0.557714 0.505762
0.504537 0.782516 0.602486
0.466318 0.729136 0.540603
0.543193 0.685597 0.529611
0.678311 0.681054 0.527757
0.776264 0.688900 0.523954
0.530169 0.847671 0.554203
0.511166 0.821751 0.520239
0.559001 0.791927 0.517790
0.683924 0.785640 0.522270
0.773309 0.783308 0.516397
0.319214 0.272757 0.762838
0.260539 0.184295 0.634425
0.534393 0.246349 0.596848
0.732233 0.332985 0.613128
0.722572 0.376482 0.520763
0.426398 0.520348 0.814042
0.333944 0.378431 0.682450
0.511452 0.337471 0.645371
0.701958 0.394530 0.646793
0.746219 0.430993 0.607955
0.519141 0.725520 0.816445
0.444107 0.615631 0.710965
0.529351 0.547820 0.679935
0.684073 0.552916 0.674452
0.787704 0.573014 0.668097
0.539688 0.795161 0.754757
0.503233 0.743457 0.699627
0.551149 0.698887 0.686962
0.691598 0.692261 0.691454
0.786199 0.694847 0.682329
0.553389 0.842393 0.703716
0.534565 0.816988 0.671747
0.557976 0.786481 0.666026
0.683932 0.781219 0.679245
0.777083 0.778747 0.675831
0.395027 0.395461 0.878255
0.393339 0.391271 0.877605
0.508491 0.276857 0.746192
0.719849 0.350050 0.743395
0.750113 0.386941 0.676740
0.454217 0.557661 0.861505
0.438468 0.520201 0.861040
0.505386 0.387172 0.772113
0.692351 0.419410 0.760579
0.772334 0.451097 0.738401
0.519726 0.714731 0.841994
0.491229 0.659411 0.829050
0.524984 0.576025 0.784885
0.686133 0.573152 0.779887
0.793268 0.586126 0.772149
0.565527 0.813175 0.837641
0.526431 0.749986 0.796438
0.539788 0.701372 0.773329
0.684396 0.696183 0.784404
0.784257 0.695770 0.779509
0.570786 0.840646 0.797760
0.550482 0.812274 0.766257
0.547446 0.778092 0.745689
0.670986 0.774043 0.767806
0.771038 0.772756 0.770351
