output/ProPhoto/ProPhoto_to_REALA-ACE_33grid.cube
TITLE "ProPhoto_to_REALA-ACE"
# Input: ProPhoto RGB, gamma 1.8 (D50)
# Output: ProPhoto RGB, gamma 1.8 (D50) with film simulation look
# Use: Photoshop 3D LUT adjustment layer on standard ProPhoto document
# Source: FLog2C_to_REALA-ACE_65grid_V.1.00.cube
# Generated from Fujifilm GFX ETERNA 55 F-Log2C LUT
LUT_3D_SIZE 33
0.000023 0.000016 0.000006
0.002276 0.000982 0.000372
0.011712 0.004599 0.001730
0.032919 0.012925 0.004855
0.083545 0.032802 0.012443
0.176051 0.069123 0.026400
0.265168 0.104113 0.040713
0.339486 0.133295 0.053678
0.408538 0.160410 0.066675
0.475979 0.186899 0.085600
0.535585 0.210725 0.115517
0.587211 0.239225 0.164317
0.624071 0.267385 0.217042
0.639344 0.280370 0.267099
0.647341 0.288238 0.313148
0.654823 0.297557 0.340262
0.661147 0.308484 0.350007
0.668242 0.321187 0.361678
0.676158 0.335597 0.374375
0.685717 0.352488 0.388052
0.690907 0.362368 0.395405
0.694028 0.368926 0.399817
0.694071 0.369016 0.399877
0.694071 0.369016 0.399877
0.694071 0.369016 0.399877
0.694071 0.369016 0.399877
0.694071 0.369016 0.399877
0.694071 0.369016 0.399877
0.694071 0.369016 0.399877
0.694071 0.369016 0.399877
0.694071 0.369016 0.399877
0.694071 0.369016 0.399877
0.694071 0.369016 0.399877
0.001042 0.001788 0.000592
0.000857 0.001290 0.000425
0.009241 0.003628 0.001363
0.028618 0.011236 0.004225
0.073102 0.028702 0.010982
0.161341 0.063347 0.024296
0.249306 0.097885 0.037883
0.325030 0.127619 0.051351
0.393538 0.154519 0.063868
0.461985 0.181402 0.080781
0.523159 0.205598 0.108083
0.576420 0.232025 0.152830
0.618030 0.262703 0.206724
0.638117 0.279288 0.259229
0.646312 0.287113 0.307242
0.654295 0.296665 0.339302
0.660920 0.308070 0.349567
0.668308 0.321313 0.361790
0.676239 0.335740 0.374497
0.685793 0.352634 0.388163
0.690935 0.362431 0.395446
0.694048 0.368967 0.399844
0.694071 0.369016 0.399877
0.694071 0.369016 0.399877
0.694071 0.369016 0.399877
0.694071 0.369016 0.399877
0.694071 0.369016 0.399877
0.694071 0.369016 0.399877
0.694071 0.369016 0.399877
0.694071 0.369016 0.399877
0.694071 0.369016 0.399877
0.694071 0.369016 0.399877
0.694071 0.369016 0.399877
0.004531 0.007779 0.002554
0.003941 0.006750 0.002216
0.006817 0.005828 0.001968
0.023218 0.009697 0.003592
0.054783 0.021513 0.008080
0.125127 0.049128 0.018681
0.208441 0.081841 0.031995
0.287134 0.112738 0.044468
0.354685 0.139263 0.056464
0.418890 0.164475 0.069278
0.480940 0.188849 0.087544
0.535638 0.210875 0.116518
0.584842 0.237738 0.161032
0.621538 0.265391 0.211450
0.638121 0.279132 0.258942
0.645843 0.286648 0.307226
0.652996 0.295540 0.332113
0.659701 0.305936 0.347230
0.666637 0.317743 0.359178
0.674980 0.332131 0.372187
0.682982 0.347552 0.384327
0.690592 0.362945 0.395792
0.692730 0.366670 0.398288
0.694071 0.369016 0.399877
0.694071 0.369016 0.399877
0.694071 0.369016 0.399877
0.694071 0.369016 0.399877
0.694071 0.369016 0.399877
0.694071 0.369016 0.399877
0.694071 0.369016 0.399877
0.694071 0.369016 0.399877
0.694071 0.369016 0.399877
0.694071 0.369016 0.399877
0.012562 0.021567 0.007082
0.011292 0.019384 0.006365
0.010175 0.016977 0.005578
0.019691 0.015746 0.005344
0.048074 0.023022 0.008307
0.108121 0.043659 0.016292
0.179011 0.070353 0.026424
0.247996 0.097370 0.036784
0.314886 0.123634 0.048299
0.376171 0.147699 0.059576
0.434932 0.170775 0.072908
0.490610 0.192649 0.091453
0.539971 0.212761 0.120177
0.585149 0.237924 0.161360
0.620986 0.265124 0.207991
0.637130 0.278409 0.251140
0.644748 0.285070 0.297542
0.651203 0.292671 0.326297
0.657140 0.301380 0.343746
0.663446 0.312251 0.353558
0.669980 0.324113 0.364778
0.676668 0.336600 0.376313
0.684788 0.351134 0.388525
0.691390 0.363239 0.398183
0.693008 0.366694 0.399333
0.694071 0.369016 0.399877
0.694071 0.369016 0.399877
0.694071 0.369016 0.399877
0.694071 0.369016 0.399877
0.694071 0.369016 0.399877
0.694071 0.369016 0.399877
0.694071 0.369016 0.399877
0.694071 0.369016 0.399877
0.032273 0.055409 0.018193
0.028085 0.048218 0.015832
0.023800 0.040862 0.013417
0.025462 0.036725 0.012109
0.049934 0.041338 0.013992
0.099773 0.052401 0.018627
0.160016 0.069727 0.025606
0.223164 0.090717 0.033803
0.282888 0.111914 0.041957
0.344271 0.135292 0.050944
0.399470 0.156847 0.060299
0.452299 0.177590 0.071921
0.500225 0.196438 0.088857
0.544762 0.215320 0.116909
0.586034 0.239417 0.156523
0.621750 0.266116 0.203129
0.634145 0.276319 0.242810
0.642545 0.283411 0.285481
0.649339 0.290141 0.320691
0.654583 0.297759 0.337440
0.659986 0.306670 0.348181
0.665539 0.316322 0.357315
0.672336 0.328571 0.368586
0.679251 0.341212 0.379552
0.687064 0.354698 0.391171
0.693242 0.365553 0.400097
0.693805 0.367603 0.400108
0.694071 0.369016 0.399877
0.694071 0.369016 0.399877
0.694071 0.369016 0.399877
0.694071 0.369016 0.399877
0.694071 0.369016 0.399877
0.694071 0.369016 0.399877
0.058384 0.100238 0.032913
0.054292 0.093212 0.030605
0.046128 0.079196 0.026003
0.042867 0.072698 0.023876
0.056017 0.070524 0.023354
0.094264 0.074371 0.025263
0.145598 0.082873 0.029124
0.202659 0.096613 0.034889
0.259199 0.112558 0.041364
0.315852 0.129675 0.048215
0.369723 0.148488 0.055480
0.422162 0.167668 0.063144
0.470709 0.186546 0.072790
0.514604 0.204300 0.086193
0.555084 0.223380 0.108867
0.592728 0.248252 0.145923
0.627145 0.274992 0.188345
0.637537 0.283621 0.224911
0.643461 0.288923 0.262200
0.650690 0.295921 0.302067
0.655609 0.302158 0.322007
0.659788 0.308387 0.335856
0.664627 0.316566 0.346707
0.669832 0.325430 0.357625
0.676093 0.336311 0.368926
0.682371 0.347339 0.379691
0.688136 0.357959 0.389384
0.693069 0.367326 0.397551
0.693603 0.368252 0.398823
0.694005 0.368962 0.399784
0.694071 0.369059 0.399921
0.694071 0.369031 0.399892
0.694071 0.369016 0.399877
0.086428 0.148385 0.048721
0.082644 0.141890 0.046588
0.074706 0.128260 0.042113
0.066911 0.114868 0.037716
0.067617 0.107916 0.035491
0.093411 0.107374 0.035682
0.137445 0.110385 0.037446
0.186231 0.113926 0.039675
0.239853 0.125455 0.044623
0.294531 0.138097 0.050016
0.346819 0.152279 0.055838
0.397634 0.168184 0.062139
0.445371 0.185098 0.068678
0.490000 0.202301 0.076301
0.530917 0.219220 0.087833
0.567821 0.237108 0.106218
0.602708 0.261883 0.137753
0.627889 0.282537 0.171914
0.643620 0.296338 0.206933
0.648765 0.301150 0.241429
0.654032 0.307326 0.272718
0.659149 0.313668 0.300597
0.663495 0.320538 0.313192
0.667997 0.327722 0.325710
0.672850 0.335390 0.338336
0.677900 0.343723 0.350535
0.683607 0.353667 0.362158
0.689011 0.363171 0.373187
0.692904 0.370244 0.382784
0.696713 0.377073 0.392203
0.696930 0.376895 0.394727
0.696390 0.375233 0.395536
0.695871 0.373812 0.396247
0.112206 0.192639 0.063251
0.108250 0.185852 0.061022
0.101162 0.173683 0.057027
0.092796 0.159319 0.052311
0.087013 0.147726 0.048516
0.098614 0.143160 0.047195
0.132477 0.143114 0.047689
0.175839 0.142090 0.048178
0.224205 0.146644 0.050684
0.276066 0.155023 0.054579
0.328625 0.166850 0.059622
0.378011 0.179777 0.064948
0.425369 0.194591 0.070795
0.469703 0.210258 0.076808
0.510145 0.225606 0.082910
0.547191 0.240876 0.091628
0.581549 0.256845 0.105917
0.615119 0.281237 0.134058
0.638249 0.300041 0.164568
0.649828 0.310972 0.193327
0.656453 0.318578 0.226765
0.662134 0.325184 0.258201
0.665595 0.329367 0.275824
0.669332 0.334515 0.291859
0.673216 0.341063 0.304636
0.677177 0.347944 0.316789
0.681471 0.355691 0.328036
0.685865 0.363635 0.339041
0.691162 0.372833 0.351571
0.696439 0.381945 0.363990
0.698728 0.385507 0.370925
0.700395 0.388006 0.376658
0.701282 0.389118 0.380988
0.137282 0.234643 0.077365
0.133172 0.227972 0.075024
0.125701 0.215609 0.070820
0.118363 0.203200 0.066719
0.109682 0.188207 0.061797
0.110735 0.179665 0.059064
0.133283 0.177138 0.058551
0.171724 0.176119 0.058835
0.214545 0.176284 0.059698
0.261361 0.179209 0.061639
0.309888 0.186909 0.065202
0.359544 0.197750 0.069823
0.407431 0.209652 0.074759
0.454147 0.223321 0.080219
0.494410 0.237504 0.085654
0.530305 0.251975 0.091194
0.565405 0.267144 0.098336
0.599235 0.285003 0.111663
0.629187 0.305069 0.133006
0.655809 0.327098 0.162559
0.661024 0.333197 0.186302
0.665569 0.338837 0.211796
0.670122 0.344998 0.239388
0.673994 0.350273 0.261033
0.676951 0.354507 0.273435
0.680354 0.359433 0.285925
0.684347 0.365345 0.298379
0.688516 0.371800 0.310604
0.693326 0.379999 0.322982
0.698074 0.388052 0.335052
0.701635 0.394261 0.346141
0.705038 0.400180 0.356904
0.706955 0.403455 0.364361
0.165290 0.277196 0.094134
0.160674 0.270329 0.091195
0.151769 0.256896 0.085709
0.141709 0.241630 0.079822
0.132546 0.226735 0.074499
0.129152 0.217121 0.071321
0.138741 0.208672 0.068727
0.169195 0.207579 0.068805
0.210570 0.209628 0.070137
0.253259 0.210835 0.071330
0.298930 0.213301 0.073084
0.344907 0.221496 0.076707
0.393882 0.230941 0.080847
0.437266 0.240701 0.084978
0.479173 0.252432 0.089691
0.517660 0.266076 0.094897
0.552099 0.280896 0.100370
0.586799 0.296326 0.107214
0.619491 0.315220 0.119341
0.650322 0.336043 0.138326
0.662429 0.347570 0.157676
0.672008 0.357402 0.180054
0.676662 0.364034 0.205396
0.680652 0.369265 0.226932
0.683940 0.373097 0.242874
0.686964 0.376972 0.257220
0.689428 0.380687 0.269266
0.692032 0.384774 0.281086
0.695366 0.390145 0.293266
0.698770 0.395530 0.305496
0.702785 0.402671 0.317490
0.706733 0.409668 0.329096
0.709733 0.414525 0.338677
0.193925 0.319273 0.113019
0.189526 0.312981 0.110035
0.179655 0.298470 0.103383
0.169498 0.283429 0.096803
0.159647 0.268519 0.090611
0.152738 0.255238 0.084598
0.154609 0.245185 0.080685
0.172814 0.240033 0.079232
0.208406 0.241788 0.080319
0.249026 0.243580 0.081574
0.291153 0.244885 0.082789
0.336294 0.249601 0.085219
0.380282 0.256085 0.088240
0.424079 0.264552 0.091919
0.465744 0.272512 0.095425
0.504130 0.281868 0.099297
0.539837 0.293334 0.103753
0.575750 0.309831 0.109879
0.609934 0.327265 0.117295
0.641812 0.344953 0.127064
0.664097 0.363257 0.143378
0.679096 0.376639 0.161244
0.682977 0.382712 0.177418
0.687155 0.388621 0.196023
0.691656 0.394254 0.216978
0.694721 0.397988 0.232767
0.696378 0.400003 0.243136
0.698492 0.402724 0.254123
0.701390 0.406749 0.265904
0.704174 0.410637 0.277426
0.707418 0.416302 0.288533
0.710712 0.421950 0.299432
0.713462 0.426429 0.310164
0.224093 0.362529 0.133843
0.218735 0.354965 0.130122
0.209231 0.341314 0.123511
0.199368 0.327193 0.116548
0.186951 0.309131 0.108333
0.179135 0.296256 0.102086
0.176832 0.285146 0.095462
0.184184 0.277131 0.091316
0.210911 0.275474 0.091108
0.248641 0.274932 0.091516
0.289663 0.277301 0.092979
0.331266 0.280010 0.094631
0.372768 0.282453 0.096264
0.413935 0.288180 0.098971
0.453898 0.295913 0.102311
0.492299 0.304278 0.105836
0.529093 0.313567 0.109623
0.564083 0.324761 0.113959
0.597980 0.339966 0.119694
0.630591 0.356951 0.126958
0.661665 0.378412 0.138966
0.681853 0.393639 0.151250
0.689473 0.401565 0.162523
0.695318 0.409390 0.177152
0.700188 0.417079 0.195021
0.702824 0.420588 0.208671
0.703812 0.421287 0.218703
0.705225 0.422808 0.228888
0.707097 0.425189 0.238950
0.708886 0.427457 0.248912
0.711739 0.431825 0.260291
0.714638 0.436146 0.271782
0.717531 0.440413 0.283031
0.251825 0.401520 0.153194
0.247723 0.395785 0.150221
0.238608 0.382997 0.143656
0.226959 0.366517 0.135683
0.215836 0.350772 0.127890
0.206974 0.337716 0.121588
0.200431 0.323537 0.113312
0.203852 0.314208 0.105775
0.220105 0.309119 0.102122
0.249499 0.306755 0.101671
0.287237 0.308543 0.102840
0.327842 0.310574 0.104198
0.366925 0.312937 0.105693
0.406498 0.315439 0.107295
0.446137 0.321062 0.109920
0.484175 0.328601 0.113138
0.520332 0.336776 0.116530
0.554439 0.344895 0.119873
0.588894 0.358867 0.125051
0.622019 0.374337 0.130865
0.652934 0.391989 0.138844
0.676015 0.407321 0.147462
0.692336 0.420584 0.156456
0.701041 0.430497 0.165758
0.706202 0.438849 0.175738
0.709968 0.443649 0.186762
0.712955 0.446738 0.198880
0.715017 0.448720 0.209790
0.716047 0.449339 0.218911
0.717047 0.449991 0.228325
0.718289 0.451551 0.238066
0.719570 0.453032 0.247934
0.721718 0.456107 0.258180
0.278702 0.438966 0.172499
0.274904 0.433884 0.169712
0.266436 0.422031 0.163844
0.255371 0.406552 0.155844
0.243866 0.390347 0.147469
0.234869 0.377564 0.141171
0.226660 0.363077 0.132734
0.226025 0.352517 0.124407
0.235301 0.344951 0.115934
0.255098 0.338985 0.112144
0.287174 0.338090 0.112243
0.327151 0.341856 0.114094
0.367015 0.345139 0.115845
0.403630 0.345707 0.116727
0.439788 0.347333 0.117978
0.478735 0.354109 0.120936
0.515669 0.362310 0.124321
0.549423 0.370895 0.127769
0.582322 0.380510 0.131528
0.614571 0.392452 0.136022
0.646335 0.408310 0.142107
0.674609 0.425510 0.150170
0.700432 0.443223 0.161188
0.708512 0.452037 0.166265
0.710812 0.457874 0.168953
0.714546 0.464055 0.175930
0.718798 0.470377 0.185463
0.721257 0.472895 0.193692
0.722173 0.472372 0.200478
0.723091 0.472067 0.207727
0.724404 0.472829 0.216376
0.725863 0.473711 0.225424
0.727954 0.476207 0.234998
0.305066 0.475144 0.191751
0.301802 0.470619 0.189323
0.293944 0.459734 0.183591
0.282765 0.444379 0.175624
0.272067 0.429819 0.167836
0.262536 0.416402 0.161006
0.252776 0.401231 0.152317
0.248919 0.389113 0.144005
0.254305 0.380968 0.134881
0.268118 0.374022 0.125837
0.291824 0.371775 0.123168
0.324592 0.371129 0.123359
0.363753 0.373217 0.124675
0.403708 0.376982 0.126585
0.438944 0.378182 0.127640
0.474459 0.382860 0.129829
0.510261 0.389245 0.132586
0.545768 0.396883 0.135750
0.578827 0.406341 0.139440
0.611123 0.417590 0.143680
0.642628 0.430852 0.148543
0.672641 0.447061 0.155100
0.701556 0.464105 0.164366
0.712502 0.473531 0.169239
0.719650 0.481217 0.172926
0.723001 0.487134 0.176444
0.725473 0.492537 0.180059
0.726706 0.493960 0.183965
0.727225 0.493124 0.188365
0.728112 0.492874 0.193565
0.729548 0.493447 0.199961
0.730815 0.493781 0.206630
0.732593 0.495359 0.214437
0.331057 0.510118 0.210915
0.327425 0.505245 0.208181
0.319599 0.494769 0.202768
0.309513 0.481151 0.195324
0.299205 0.467206 0.187719
0.288990 0.453165 0.180247
0.279620 0.439325 0.172777
0.272335 0.424585 0.163207
0.274863 0.416511 0.155025
0.283682 0.407812 0.143577
0.302418 0.405170 0.136070
0.329172 0.402548 0.133551
0.364012 0.403615 0.134334
0.402017 0.406808 0.135992
0.439168 0.410085 0.137701
0.474126 0.413496 0.139445
0.508750 0.418925 0.141845
0.542773 0.425526 0.144622
0.575928 0.433291 0.147762
0.608389 0.443771 0.151746
0.640010 0.456125 0.156302
0.670539 0.470260 0.161619
0.700148 0.484511 0.167710
0.715275 0.494849 0.172853
0.728729 0.504527 0.178293
0.731602 0.510055 0.180280
0.733205 0.514962 0.181803
0.734245 0.516605 0.183429
0.735025 0.516832 0.185267
0.735632 0.516471 0.187594
0.736016 0.515187 0.190870
0.736403 0.514043 0.194546
0.737704 0.514813 0.200051
0.358002 0.544421 0.232700
0.353882 0.539618 0.229324
0.345450 0.529294 0.222501
0.335976 0.516806 0.215050
0.325458 0.502964 0.207192
0.314620 0.488091 0.199002
0.304666 0.473967 0.191253
0.297266 0.460745 0.182718
0.296847 0.451391 0.174566
0.302752 0.442602 0.163663
0.316570 0.438107 0.153065
0.338219 0.434790 0.145756
0.367565 0.434376 0.144302
0.402400 0.436395 0.145390
0.439626 0.440058 0.147191
0.475268 0.444352 0.149196
0.509661 0.449585 0.151501
0.543342 0.455394 0.153996
0.576283 0.461785 0.156677
0.608245 0.471363 0.160349
0.639243 0.482303 0.164436
0.669122 0.494066 0.168792
0.698017 0.505673 0.173179
0.718810 0.517676 0.178394
0.738891 0.529266 0.184411
0.740700 0.533848 0.185619
0.742133 0.538173 0.186715
0.743199 0.540467 0.187570
0.744145 0.542135 0.188347
0.744380 0.541774 0.188892
0.743640 0.538624 0.189296
0.742940 0.535577 0.189966
0.743546 0.535103 0.192722
0.384396 0.577005 0.254508
0.380887 0.572920 0.251426
0.373534 0.564008 0.245114
0.363733 0.551956 0.237116
0.352357 0.537673 0.227979
0.340297 0.522192 0.218339
0.329938 0.508454 0.210077
0.322749 0.496840 0.202674
0.319815 0.485905 0.193883
0.323675 0.477384 0.184184
0.333752 0.471049 0.173686
0.350803 0.467985 0.163267
0.374436 0.465849 0.155250
0.406127 0.466577 0.155109
0.441517 0.469777 0.156653
0.477438 0.474960 0.158917
0.512374 0.480332 0.161251
0.546294 0.485773 0.163611
0.578765 0.491160 0.165945
0.609906 0.499637 0.169237
0.640103 0.508834 0.172747
0.668911 0.518817 0.176481
0.696831 0.528981 0.180263
0.722898 0.541703 0.185193
0.746579 0.553518 0.190367
0.749175 0.557687 0.191664
0.751601 0.561679 0.192903
0.752628 0.564770 0.193720
0.753429 0.567624 0.194462
0.753342 0.567239 0.194351
0.752374 0.563621 0.193396
0.751436 0.560096 0.192488
0.750822 0.557739 0.192692
0.418820 0.612598 0.286153
0.414918 0.608453 0.282508
0.406205 0.599193 0.274416
0.394925 0.587168 0.264026
0.382550 0.574316 0.252815
0.368383 0.558665 0.240503
0.357557 0.545276 0.231475
0.347861 0.531665 0.222367
0.343140 0.520160 0.213466
0.345242 0.511591 0.204522
0.353626 0.505947 0.194836
0.367663 0.503033 0.184368
0.387930 0.500541 0.173084
0.414791 0.500066 0.167009
0.445763 0.501053 0.166715
0.479479 0.503671 0.168057
0.515505 0.510976 0.171001
0.549063 0.516348 0.173310
0.580520 0.520323 0.175158
0.612041 0.528548 0.178362
0.642767 0.537291 0.181725
0.671291 0.546901 0.185323
0.698607 0.556113 0.188779
0.723482 0.564465 0.191972
0.744923 0.572367 0.195023
0.752605 0.578505 0.197178
0.759964 0.584408 0.199262
0.761475 0.588749 0.200580
0.762722 0.592882 0.201835
0.762715 0.592784 0.201807
0.761820 0.589688 0.200872
0.760949 0.586667 0.199965
0.760085 0.583485 0.199152
0.453044 0.646825 0.318730
0.449198 0.642990 0.315086
0.440195 0.633978 0.306569
0.428875 0.622746 0.295667
0.416071 0.609947 0.283453
0.401663 0.594951 0.270389
0.389663 0.581365 0.259621
0.379020 0.568612 0.249904
0.371295 0.556356 0.238591
0.369926 0.546972 0.227294
0.375086 0.540491 0.216204
0.386704 0.536463 0.204894
0.404566 0.534365 0.193646
0.427133 0.532968 0.182542
0.454674 0.533120 0.178326
0.485660 0.535151 0.178244
0.519614 0.540230 0.180350
0.552876 0.545926 0.182735
0.585537 0.551940 0.185231
0.615837 0.558531 0.187880
0.645204 0.565374 0.190603
0.672572 0.572734 0.193459
0.698572 0.579581 0.196134
0.722447 0.585474 0.198477
0.742932 0.591412 0.200775
0.755531 0.597437 0.202945
0.767070 0.603249 0.205032
0.768567 0.608240 0.206606
0.770027 0.613079 0.208137
0.770449 0.614142 0.208478
0.770342 0.613312 0.208223
0.770148 0.612219 0.207886
0.769186 0.608581 0.206749
0.486462 0.679564 0.351459
0.482591 0.675827 0.347760
0.474080 0.667573 0.339401
0.463490 0.657218 0.328548
0.450101 0.644195 0.315672
0.435903 0.630070 0.302210
0.422873 0.616813 0.290065
0.411643 0.605142 0.279418
0.399487 0.591386 0.265120
0.394948 0.581582 0.251617
0.397586 0.573801 0.238968
0.407352 0.569370 0.227510
0.422663 0.567183 0.216064
0.441420 0.565242 0.203407
0.465947 0.565394 0.192185
0.493932 0.566574 0.188934
0.524605 0.568601 0.189465
0.558202 0.575690 0.192262
0.591350 0.583098 0.195192
0.620091 0.587408 0.197077
0.647754 0.591954 0.199030
0.673751 0.596699 0.201024
0.698352 0.601290 0.202951
0.721359 0.605653 0.204782
0.741924 0.610282 0.206653
0.758889 0.615247 0.208560
0.773033 0.620175 0.210398
0.774633 0.625283 0.212031
0.776189 0.630277 0.213629
0.777295 0.633121 0.214543
0.778244 0.635234 0.215225
0.778862 0.636309 0.215575
0.777946 0.632626 0.214401
0.520085 0.711943 0.384987
0.516643 0.708612 0.381442
0.508513 0.700725 0.373080
0.497087 0.689759 0.361527
0.483397 0.676810 0.348001
0.469361 0.663194 0.334650
0.457121 0.651174 0.323075
0.445296 0.639221 0.311324
0.434529 0.627227 0.298395
0.427624 0.616891 0.284958
0.427003 0.608508 0.270574
0.432895 0.602965 0.256178
0.443948 0.599681 0.241395
0.459685 0.598330 0.227043
0.481751 0.599107 0.212908
0.506051 0.599771 0.203665
0.532192 0.600545 0.200048
0.563496 0.604993 0.201696
0.594155 0.608986 0.203445
0.622876 0.611616 0.204785
0.650038 0.614885 0.206313
0.675548 0.618647 0.207977
0.699521 0.622573 0.209674
0.722238 0.626588 0.211381
0.743425 0.630579 0.213056
0.763063 0.634521 0.214691
0.777713 0.638226 0.216153
0.779649 0.641258 0.217143
0.781523 0.644226 0.218113
0.782373 0.647051 0.219017
0.783047 0.649774 0.219885
0.783384 0.651040 0.220289
0.782799 0.648400 0.219449
0.551690 0.741278 0.416711
0.548378 0.738149 0.413295
0.540424 0.730661 0.405102
0.528758 0.719871 0.393140
0.515890 0.707852 0.380349
0.503102 0.695775 0.368077
0.491272 0.684533 0.356419
0.479021 0.672581 0.344511
0.468262 0.661144 0.331836
0.460357 0.650795 0.318108
0.456298 0.641813 0.303320
0.459514 0.635620 0.287194
0.468008 0.632303 0.270764
0.481026 0.630964 0.254405
0.499308 0.631264 0.237931
0.519533 0.630672 0.221174
0.542268 0.630454 0.212105
0.570110 0.632052 0.210849
0.598156 0.633522 0.211330
0.626055 0.634755 0.212173
0.652329 0.637097 0.213380
0.677517 0.640040 0.214770
0.701089 0.643497 0.216302
0.723755 0.647173 0.217893
0.745375 0.650426 0.219337
0.766227 0.653448 0.220700
0.780336 0.655971 0.221776
0.783668 0.657565 0.222344
0.786856 0.659109 0.222893
0.787642 0.661996 0.223816
0.788307 0.664866 0.224731
0.788539 0.665945 0.225074
0.788033 0.663917 0.224427
0.582014 0.769043 0.448014
0.578608 0.765948 0.444427
0.570204 0.758273 0.435549
0.558731 0.747755 0.423496
0.549010 0.738748 0.413984
0.537609 0.728308 0.402590
0.525130 0.716812 0.390038
0.512539 0.704616 0.377740
0.501157 0.693383 0.365076
0.492678 0.683227 0.351651
0.488038 0.674600 0.337354
0.488806 0.668251 0.321980
0.494913 0.664726 0.304838
0.504531 0.662389 0.285512
0.517933 0.661134 0.265287
0.534751 0.658963 0.244548
0.554291 0.657426 0.229405
0.577674 0.656866 0.220718
0.602890 0.656705 0.219053
0.629048 0.656904 0.219254
0.654462 0.658702 0.220260
0.679537 0.661035 0.221446
0.703041 0.664167 0.222866
0.725983 0.667506 0.224348
0.746912 0.670058 0.225551
0.766946 0.672393 0.226675
0.780213 0.674197 0.227503
0.786568 0.675376 0.228000
0.792389 0.676611 0.228504
0.793542 0.678935 0.229257
0.794655 0.681197 0.229991
0.794840 0.681390 0.230055
0.793965 0.679196 0.229348
0.608077 0.792099 0.475202
0.604874 0.789249 0.471747
0.597240 0.782441 0.463516
0.589131 0.775172 0.455236
0.579908 0.766881 0.445937
0.568452 0.756658 0.434061
0.556481 0.745695 0.421931
0.544350 0.734428 0.409685
0.532316 0.723338 0.397110
0.523234 0.713177 0.383835
0.518207 0.704787 0.369829
0.517116 0.698165 0.355054
0.520503 0.693505 0.337882
0.527445 0.689908 0.316517
0.537183 0.687043 0.294491
0.550982 0.684661 0.272254
0.567375 0.682576 0.250697
0.586672 0.680908 0.234078
0.609274 0.679645 0.228324
0.633053 0.678800 0.226466
0.657401 0.679843 0.227049
0.681753 0.681229 0.227879
0.704875 0.683948 0.229154
0.727732 0.686805 0.230475
0.747961 0.688801 0.231483
0.767560 0.690744 0.232468
0.781209 0.692113 0.233162
0.790974 0.693080 0.233657
0.798982 0.694165 0.234156
0.800013 0.695783 0.234685
0.801023 0.697360 0.235201
0.800923 0.696892 0.235052
0.799973 0.694857 0.234393
0.633439 0.814157 0.501831
0.630727 0.811835 0.498850
0.625140 0.807008 0.493069
0.617284 0.800204 0.484967
0.607910 0.791913 0.475125
0.597542 0.782638 0.464160
0.586490 0.772985 0.452779
0.574581 0.762466 0.440475
0.562617 0.751556 0.427613
0.552115 0.740967 0.414486
0.546629 0.732627 0.401181
0.544177 0.725412 0.386537
0.544840 0.719158 0.369908
0.549547 0.714175 0.348355
0.556758 0.710448 0.326260
0.567617 0.708657 0.303584
0.581214 0.706521 0.276996
0.596940 0.704537 0.254702
0.616732 0.702199 0.240857
0.637772 0.700451 0.234471
0.660813 0.700337 0.233800
0.683917 0.700740 0.234101
0.706562 0.702853 0.235169
0.729008 0.705101 0.236283
0.748741 0.706813 0.237186
0.768215 0.708616 0.238118
0.783469 0.709784 0.238776
0.796997 0.710737 0.239335
0.806497 0.711688 0.239819
0.806882 0.712546 0.240097
0.807262 0.713384 0.240368
0.806909 0.712649 0.240130
0.806199 0.711149 0.239643
0.655647 0.833264 0.525705
0.653539 0.831463 0.523525
0.648483 0.827141 0.518298
0.641499 0.821111 0.510961
0.633432 0.814027 0.502243
0.623947 0.805914 0.492075
0.613452 0.797108 0.480893
0.601848 0.786961 0.468781
0.590475 0.776684 0.456384
0.579863 0.766581 0.443855
0.573084 0.757950 0.430943
0.569046 0.749783 0.415451
0.567252 0.742162 0.398307
0.569509 0.735847 0.377553
0.575205 0.731855 0.355729
0.583961 0.729803 0.333980
0.595487 0.727455 0.304423
0.608698 0.725283 0.278796
