output/ProPhoto/ProPhoto_to_ASTIA_33grid.cube
TITLE "ProPhoto_to_ASTIA"
# Input: ProPhoto RGB, gamma 1.8 (D50)
# Output: ProPhoto RGB, gamma 1.8 (D50) with film simulation look
# Use: Photoshop 3D LUT adjustment layer on standard ProPhoto document
# Source: FLog2C_to_ASTIA_65grid_V.1.00.cube
# Generated from Fujifilm GFX ETERNA 55 F-Log2C LUT
LUT_3D_SIZE 9
0.000047 0.000042 0.000017
0.096280 0.037839 0.014422
0.433454 0.170192 0.070022
0.697767 0.274178 0.237247
0.725241 0.285456 0.425212
0.728941 0.291828 0.451246
0.729608 0.294853 0.453364
0.729608 0.294853 0.453364
0.729608 0.294853 0.453364
0.030067 0.051621 0.016949
0.044468 0.036729 0.012433
0.277006 0.110740 0.041418
0.541301 0.212553 0.098062
0.709051 0.278675 0.269705
0.725094 0.285394 0.423984
0.728697 0.289622 0.450886
0.729608 0.294853 0.453364
0.729608 0.294853 0.453364
0.141250 0.242508 0.079625
0.105556 0.180165 0.059163
0.206071 0.162332 0.055150
0.422328 0.208708 0.074908
0.595004 0.259686 0.095581
0.706601 0.291648 0.179271
0.716500 0.290462 0.314251
0.722358 0.300547 0.362222
0.728341 0.317545 0.397753
0.264897 0.454794 0.149327
0.228282 0.391931 0.128687
0.242203 0.340419 0.112329
0.396308 0.342432 0.115552
0.543075 0.364462 0.125628
0.666736 0.386282 0.135435
0.725230 0.386419 0.147595
0.725548 0.372204 0.219795
0.728442 0.373417 0.264814
0.357767 0.614241 0.201680
0.333077 0.571852 0.187762
0.317625 0.516455 0.169773
0.421445 0.496927 0.164964
0.544281 0.501092 0.168403
0.647574 0.509299 0.173050
0.741710 0.517145 0.177580
0.753136 0.500048 0.173540
0.748063 0.478829 0.181864
0.423153 0.726501 0.238539
0.405126 0.695551 0.228377
0.385959 0.650788 0.213761
0.458994 0.626356 0.206864
0.561067 0.616062 0.205132
0.647526 0.609181 0.204464
0.726606 0.609973 0.206244
0.785471 0.618669 0.210187
0.782109 0.600884 0.204555
0.471483 0.809478 0.265784
0.459000 0.788046 0.258747
0.439336 0.749876 0.246244
0.489184 0.720645 0.237477
0.573881 0.695141 0.230523
0.651190 0.682459 0.227738
0.720809 0.676477 0.227084
0.790664 0.676546 0.228449
0.807102 0.679721 0.229776
0.511041 0.877393 0.288083
0.500600 0.859468 0.282197
0.482574 0.826922 0.271522
0.511320 0.788142 0.259414
0.586164 0.759663 0.251309
0.658255 0.744938 0.247715
0.722080 0.735236 0.245704
0.785388 0.730262 0.245274
0.820472 0.726774 0.244842
0.536361 0.920865 0.302356
0.533771 0.916419 0.300897
0.518973 0.890445 0.292372
0.532555 0.843957 0.277597
0.599397 0.814598 0.269068
0.665443 0.796694 0.264319
0.724272 0.785962 0.261844
0.782383 0.779033 0.260644
0.833851 0.773784 0.259923
0.018485 0.007577 0.050735
0.064808 0.025486 0.030640
0.370653 0.145534 0.060572
0.657675 0.258345 0.183270
0.723541 0.284735 0.408195
0.728476 0.289215 0.448063
0.729608 0.294853 0.453364
0.729608 0.294853 0.453364
0.729608 0.294853 0.453364
0.047279 0.068540 0.069561
0.038055 0.038709 0.036746
0.244938 0.099007 0.045519
0.503513 0.197793 0.101598
0.696217 0.273567 0.236111
0.722962 0.284496 0.404311
0.727152 0.286675 0.441472
0.729609 0.294849 0.453365
0.729608 0.294853 0.453364
0.170287 0.292069 0.097672
0.123028 0.211165 0.069630
0.190960 0.172310 0.057981
0.400208 0.206725 0.073718
0.568009 0.254098 0.105804
0.697859 0.292659 0.200642
0.717905 0.293320 0.327440
0.723087 0.300814 0.371232
0.728199 0.318538 0.395377
0.295512 0.507358 0.166586
0.255642 0.438906 0.144110
0.242647 0.369688 0.121717
0.382505 0.355527 0.119414
0.525419 0.366805 0.125940
0.643161 0.385082 0.135842
0.724602 0.393773 0.179899
0.730304 0.381820 0.261730
0.733249 0.381591 0.306086
0.383010 0.657580 0.215910
0.356938 0.612819 0.201213
0.328772 0.551310 0.181107
0.412707 0.519402 0.172002
0.531417 0.513253 0.172008
0.630310 0.514484 0.174313
0.719493 0.516402 0.176850
0.755757 0.508190 0.189922
0.753558 0.490200 0.233210
0.441951 0.758774 0.249136
0.423601 0.727271 0.238792
0.396992 0.678412 0.222771
0.450785 0.648197 0.213746
0.549919 0.632968 0.210332
0.636861 0.627590 0.210093
0.712853 0.625066 0.210718
0.784092 0.624187 0.211885
0.783704 0.605616 0.208979
0.486135 0.834634 0.274043
0.472280 0.810846 0.266233
0.449865 0.771811 0.253420
0.480700 0.737995 0.242933
0.562138 0.709606 0.234963
0.638042 0.694305 0.231279
0.709005 0.690354 0.231256
0.780071 0.697890 0.234961
0.812119 0.697471 0.235455
0.521802 0.895868 0.294149
0.512336 0.879617 0.288813
0.492145 0.844844 0.277397
0.504723 0.804250 0.264503
0.574974 0.772895 0.255381
0.646118 0.755551 0.250902
0.708992 0.744270 0.248344
0.770613 0.741043 0.248408
0.821925 0.746569 0.251109
0.538512 0.924558 0.303569
0.536649 0.921360 0.302519
0.527964 0.906419 0.297614
0.527037 0.858810 0.282300
0.588078 0.826327 0.272666
0.654292 0.806135 0.267160
0.713251 0.794242 0.264296
0.768485 0.786129 0.262649
0.824022 0.782708 0.262560
0.085076 0.034923 0.233467
0.064373 0.026134 0.155223
0.297432 0.116976 0.143619
0.579584 0.227846 0.243035
0.724034 0.284937 0.410860
0.733603 0.288990 0.497075
0.733316 0.295618 0.487551
0.731695 0.295800 0.471308
0.729957 0.294971 0.457629
0.138176 0.107303 0.342631
0.085254 0.057985 0.217519
0.222299 0.091175 0.164478
0.473772 0.186376 0.216824
0.668180 0.262827 0.336871
0.731628 0.288152 0.481974
0.737399 0.290598 0.528292
0.737670 0.296641 0.523578
0.736768 0.299877 0.512257
0.256548 0.361440 0.401142
0.177986 0.254899 0.269078
0.189352 0.189633 0.189440
0.386562 0.208083 0.184821
0.554189 0.250313 0.240407
0.691813 0.291440 0.328668
0.728750 0.298072 0.437139
0.735241 0.305937 0.485879
0.739928 0.328391 0.492110
0.341038 0.544480 0.364259
0.291185 0.473165 0.282699
0.251291 0.394246 0.208707
0.371127 0.366872 0.178233
0.514518 0.370268 0.196087
0.629877 0.382603 0.241373
0.726446 0.395149 0.304693
0.741220 0.386008 0.387842
0.745517 0.388909 0.428704
0.399515 0.666209 0.321730
0.370627 0.623270 0.275459
0.334252 0.564143 0.225247
0.399118 0.528132 0.194502
0.517152 0.515223 0.193481
0.614400 0.510190 0.211351
0.702101 0.510763 0.245549
0.760035 0.509118 0.297430
0.764178 0.495940 0.358672
0.446447 0.760402 0.285029
0.428475 0.731776 0.263056
0.399743 0.684454 0.235108
0.431048 0.648316 0.216075
0.531290 0.631682 0.211351
0.619308 0.622566 0.214279
0.694506 0.617266 0.227857
0.769494 0.616767 0.254703
0.788916 0.604458 0.298736
0.490053 0.840952 0.278600
0.477055 0.818870 0.269922
0.454592 0.780443 0.256462
0.464096 0.746190 0.245356
0.548943 0.726996 0.240330
0.628745 0.714365 0.237514
0.696880 0.704779 0.236544
0.761821 0.698879 0.243366
0.807615 0.691367 0.263925
0.528647 0.907620 0.298008
0.520224 0.893160 0.293260
0.501875 0.861657 0.282916
0.497630 0.828169 0.272101
0.566634 0.806922 0.266160
0.641590 0.793307 0.262875
0.705386 0.781759 0.260197
0.763173 0.773391 0.258535
0.820604 0.767149 0.260332
0.540232 0.927512 0.304539
0.539577 0.926387 0.304169
0.536533 0.921161 0.302453
0.528836 0.895720 0.294184
0.577898 0.861773 0.283891
0.648143 0.843461 0.278992
0.709306 0.834318 0.276994
0.766729 0.832664 0.277394
0.821778 0.830271 0.277578
0.186424 0.077517 0.511067
0.149951 0.061609 0.411474
0.254279 0.100822 0.309911
0.521718 0.205527 0.357025
0.713687 0.281109 0.476465
0.747729 0.294939 0.606561
0.744496 0.294174 0.583085
0.744426 0.306272 0.564228
0.742292 0.303974 0.550089
0.248669 0.166522 0.639799
0.189952 0.110729 0.501216
0.221482 0.094374 0.364276
0.455287 0.179838 0.367775
0.638352 0.251502 0.443995
0.740292 0.291813 0.553519
0.749881 0.295847 0.622081
0.746428 0.297743 0.594771
0.747327 0.312289 0.580795
0.364638 0.434192 0.717809
0.279689 0.318525 0.572853
0.225794 0.221743 0.427012
0.388151 0.221542 0.371395
0.550036 0.255492 0.395070
0.681992 0.291415 0.456405
0.740424 0.305189 0.534473
0.747342 0.310403 0.584479
0.751267 0.338343 0.573257
0.425228 0.590679 0.682945
0.364543 0.511711 0.574087
0.300248 0.422255 0.459031
0.381061 0.381752 0.380593
0.517376 0.378973 0.368266
0.627967 0.386372 0.393290
0.726701 0.398052 0.438023
0.753619 0.392543 0.500196
0.758066 0.395290 0.534612
0.460152 0.687996 0.625803
0.422797 0.639477 0.555895
0.375231 0.575322 0.471935
0.404544 0.533525 0.389031
0.517633 0.519230 0.358159
0.613336 0.512749 0.362249
0.698926 0.512001 0.388481
0.767268 0.512031 0.429460
0.775995 0.499679 0.478000
0.489859 0.765625 0.574588
0.465397 0.733596 0.527053
0.430040 0.684848 0.464940
0.430824 0.645112 0.390145
0.525062 0.627225 0.352160
0.614536 0.618228 0.346489
0.690495 0.613958 0.360197
0.763538 0.612237 0.386672
0.799429 0.605575 0.423699
0.516872 0.834093 0.522209
0.499197 0.809793 0.489581
0.471632 0.770512 0.442874
0.458383 0.734273 0.383127
0.535518 0.715653 0.343254
0.618977 0.704611 0.333113
0.689339 0.696686 0.340382
0.753566 0.691203 0.357408
0.809321 0.688120 0.385764
0.541439 0.895049 0.468195
0.529259 0.877536 0.447112
0.506185 0.843148 0.411605
0.486860 0.809102 0.367852
0.544751 0.788666 0.332622
0.625110 0.777150 0.320776
0.692057 0.768264 0.323057
0.752409 0.761736 0.335718
0.811726 0.758122 0.356794
0.550652 0.926627 0.406441
0.548892 0.925267 0.397743
0.538079 0.909535 0.378116
0.519226 0.877892 0.350651
0.558876 0.856133 0.320954
0.634501 0.842076 0.310407
0.698379 0.831927 0.311444
0.753858 0.823751 0.319314
0.807451 0.817010 0.334443
0.288616 0.126818 0.787617
0.287647 0.125994 0.785191
0.246912 0.099440 0.509963
0.483170 0.191087 0.499338
0.673880 0.265900 0.567703
0.754642 0.297855 0.655744
0.759128 0.299745 0.685952
0.753325 0.298463 0.645876
0.750072 0.304763 0.615959
0.339660 0.233344 0.869091
0.321621 0.210537 0.831366
0.245376 0.113215 0.579423
0.441962 0.176688 0.526788
0.616187 0.243390 0.559307
0.750834 0.296251 0.629386
0.761499 0.300748 0.702477
0.756563 0.299406 0.669238
0.754126 0.313117 0.632847
0.426218 0.469674 0.895753
0.378276 0.400430 0.817603
0.286495 0.266524 0.651089
0.396049 0.242904 0.550019
0.549088 0.265647 0.538883
0.672561 0.293776 0.569861
0.751652 0.313814 0.616291
0.758721 0.313202 0.667959
0.759467 0.336449 0.640334
0.507353 0.652511 0.916838
0.435922 0.557683 0.793077
0.362444 0.455529 0.673721
0.396875 0.402261 0.568187
0.523752 0.391225 0.527237
0.629783 0.394098 0.529520
0.725014 0.403445 0.551692
0.765692 0.401682 0.589145
0.769320 0.400932 0.621193
0.524332 0.724684 0.849793
0.479052 0.666617 0.766906
0.426459 0.594884 0.679621
0.422097 0.544920 0.580869
0.525357 0.525625 0.525676
0.619303 0.518766 0.510322
0.700821 0.517025 0.517589
0.773636 0.517435 0.538132
0.787152 0.505959 0.568257
0.540822 0.786189 0.790606
0.512594 0.749992 0.737819
0.472678 0.695408 0.671112
0.450659 0.650807 0.589925
0.530578 0.629330 0.527192
0.618562 0.619512 0.502446
0.693183 0.613975 0.499822
0.763134 0.612293 0.510869
0.809674 0.608268 0.529837
0.556121 0.839402 0.735757
0.540036 0.818120 0.706529
0.509801 0.776490 0.655739
0.481152 0.735675 0.589909
0.538468 0.713682 0.525234
0.622000 0.702552 0.495286
0.692125 0.694594 0.486145
0.754659 0.689719 0.491588
0.813545 0.688098 0.504223
0.570217 0.886941 0.681500
0.559126 0.871837 0.661923
0.538389 0.841549 0.631288
0.514044 0.808019 0.585440
0.547533 0.783512 0.520162
0.625721 0.771441 0.486488
0.693871 0.763651 0.475001
0.752054 0.758067 0.474513
0.809562 0.754325 0.484980
0.580701 0.924475 0.628809
0.574759 0.916688 0.616946
0.559774 0.894874 0.594033
0.540416 0.866656 0.563896
0.557322 0.844783 0.507596
0.630716 0.831665 0.472690
0.696063 0.822832 0.459790
0.750993 0.815317 0.456865
0.800680 0.806374 0.463052
0.344238 0.177571 0.923830
0.344117 0.177016 0.923817
0.280016 0.116198 0.733145
0.461553 0.183584 0.655536
0.639546 0.252976 0.669466
0.761073 0.300665 0.720025
0.773583 0.305835 0.778429
0.764897 0.302205 0.724686
0.759241 0.306977 0.678361
0.373119 0.285927 0.928775
0.372917 0.285258 0.928749
0.297785 0.155962 0.787445
0.431929 0.178859 0.681350
0.599440 0.238426 0.669915
0.734615 0.290266 0.702934
0.770380 0.304494 0.760153
0.768517 0.303799 0.746680
0.762454 0.311134 0.695830
0.450322 0.498546 0.943129
0.450163 0.498156 0.943103
0.352786 0.320359 0.827372
0.401354 0.269221 0.699795
0.546353 0.280224 0.656341
0.665244 0.302155 0.662697
0.760151 0.324950 0.689450
0.769075 0.320798 0.731040
0.768557 0.336547 0.707295
0.521863 0.662873 0.957892
0.498409 0.612776 0.949729
0.417735 0.492152 0.830621
0.410254 0.425377 0.713268
0.527683 0.407259 0.651121
0.630690 0.405668 0.635436
0.722107 0.411578 0.644270
0.777922 0.412814 0.664724
0.780441 0.404085 0.695946
0.567735 0.760833 0.968312
0.532645 0.700671 0.933690
0.470173 0.617049 0.826898
0.440211 0.559870 0.730013
0.529961 0.537820 0.653649
0.623021 0.527287 0.624841
0.701710 0.523016 0.619211
0.775545 0.522972 0.627307
0.799342 0.513977 0.647609
0.578308 0.799084 0.937694
0.554216 0.767925 0.894168
0.511600 0.711399 0.820089
0.475133 0.661500 0.741779
0.535003 0.635704 0.660934
0.623235 0.624241 0.624063
0.695785 0.618030 0.607384
0.763282 0.614962 0.607676
0.818687 0.613689 0.617802
0.584576 0.839806 0.877793
0.569532 0.820473 0.849965
0.542853 0.784589 0.804246
0.512547 0.744744 0.748346
0.544301 0.716810 0.666204
0.626659 0.705296 0.621575
0.696231 0.696450 0.602877
0.757490 0.691538 0.596543
0.816592 0.689764 0.599883
0.592530 0.878677 0.824145
0.582651 0.866235 0.804868
0.562686 0.837680 0.774448
0.541752 0.809096 0.738846
0.553641 0.784339 0.665978
0.628905 0.771761 0.619257
0.696257 0.763093 0.595324
0.754030 0.756342 0.585660
0.806721 0.750002 0.583135
0.598078 0.909093 0.774302
0.592782 0.902924 0.762359
0.579061 0.884489 0.737984
0.561784 0.859121 0.713157
0.558750 0.835091 0.653675
0.626187 0.824066 0.606442
0.692633 0.815019 0.582423
0.747730 0.807264 0.569779
0.796322 0.799777 0.565953
0.358093 0.233828 0.926104
0.357914 0.233176 0.926063
0.339031 0.157121 0.920574
0.439884 0.177231 0.799851
0.611297 0.242525 0.765656
0.747897 0.295853 0.786374
0.782265 0.309490 0.830711
0.778470 0.307893 0.807983
0.768727 0.307347 0.743990
0.389554 0.337088 0.931610
0.389344 0.336468 0.931571
0.354705 0.221403 0.925228
0.419544 0.189673 0.816075
0.581303 0.236888 0.766881
0.709142 0.282050 0.774123
0.777366 0.307553 0.801914
0.782129 0.309470 0.831772
0.771759 0.312339 0.760628
0.460756 0.523662 0.945296
0.460609 0.523311 0.945266
0.403445 0.377987 0.933035
0.405243 0.299988 0.826886
0.541598 0.298797 0.755881
0.656323 0.313937 0.743746
0.755410 0.333914 0.754664
0.779621 0.332341 0.787447
0.778948 0.339878 0.774457
0.520930 0.660705 0.957911
0.520855 0.660541 0.957894
0.462660 0.530091 0.942854
0.426358 0.453652 0.839299
0.529750 0.426972 0.756638
0.631246 0.420564 0.725201
0.718234 0.422942 0.721708
0.790225 0.427068 0.732345
0.791417 0.413783 0.759660
0.563918 0.752829 0.967428
0.550777 0.725113 0.964362
0.511730 0.643145 0.951294
0.464376 0.578244 0.856108
0.531547 0.548932 0.764675
0.625545 0.537230 0.721327
0.703242 0.531582 0.706967
0.775554 0.530409 0.704690
0.810805 0.523540 0.715937
0.591228 0.809599 0.973806
0.574926 0.775942 0.969794
0.546245 0.727919 0.939661
0.507480 0.676962 0.870314
0.538978 0.644848 0.772622
0.626227 0.630444 0.724765
0.698688 0.623123 0.700586
0.764307 0.619591 0.692774
0.824802 0.619016 0.694030
0.605757 0.841157 0.973499
0.593070 0.820830 0.958810
0.567620 0.787796 0.913063
0.541654 0.752706 0.869284
0.549941 0.722539 0.784271
0.629780 0.710065 0.726323
0.700275 0.700671 0.700676
0.759918 0.694517 0.687130
0.815872 0.689951 0.679804
0.611277 0.872190 0.931452
0.601715 0.860612 0.912217
0.582575 0.834821 0.879605
0.562505 0.806198 0.848990
0.556041 0.780423 0.780339
0.626624 0.769353 0.724228
0.695523 0.761106 0.692361
0.751767 0.752927 0.675176
0.802531 0.746260 0.666168
0.613330 0.897774 0.881870
0.607488 0.891444 0.868109
0.594861 0.875160 0.844601
0.579323 0.852154 0.822898
0.564267 0.827880 0.770128
0.618806 0.815921 0.712855
0.687472 0.807932 0.680575
0.743113 0.799345 0.659955
0.790895 0.792797 0.649498
0.377716 0.301043 0.929281
0.377528 0.300455 0.929242
0.355596 0.224500 0.925622
0.417824 0.180497 0.917116
0.586524 0.235146 0.857976
0.715493 0.283600 0.849184
0.789521 0.312541 0.872168
0.792611 0.313852 0.891705
0.779823 0.310684 0.814598
0.407799 0.389415 0.934546
0.407606 0.388880 0.934517
0.376518 0.296752 0.929528
0.405544 0.215348 0.919212
0.563464 0.242652 0.856455
0.687683 0.279495 0.841336
0.782983 0.312060 0.854587
0.792978 0.314408 0.891308
0.783127 0.316279 0.830466
0.469009 0.543489 0.946552
0.468889 0.543206 0.946530
0.427700 0.441987 0.938624
0.409175 0.336571 0.925872
0.535102 0.321411 0.849649
0.649008 0.328863 0.820313
0.745486 0.345145 0.817816
0.788943 0.347364 0.831563
0.789857 0.347051 0.837146
0.519165 0.656988 0.957265
0.519098 0.656843 0.957248
0.480438 0.569891 0.949235
0.446017 0.482665 0.936767
0.527033 0.447560 0.851638
0.629707 0.437333 0.807365
0.714534 0.435193 0.792481
0.793317 0.439180 0.792779
0.802090 0.427123 0.811510
0.558459 0.741274 0.966302
0.558416 0.741183 0.966292
0.522958 0.665185 0.958271
0.491841 0.598440 0.947194
0.531673 0.562156 0.860512
0.626340 0.548815 0.806668
0.703340 0.541512 0.781189
0.773178 0.538659 0.773870
0.820081 0.534845 0.774897
0.589254 0.805759 0.972878
0.578462 0.783212 0.970785
0.554812 0.733580 0.965443
0.533322 0.690072 0.956203
0.542323 0.653985 0.873880
0.627611 0.639295 0.810386
0.700729 0.630550 0.780193
0.764269 0.625635 0.764329
0.827888 0.623717 0.759044
0.606963 0.841707 0.977807
0.596106 0.819582 0.975049
0.579539 0.785885 0.970163
0.562193 0.754525 0.956669
0.552303 0.725093 0.878932
0.626854 0.711703 0.814031
0.697974 0.702955 0.777430
0.757354 0.694868 0.758126
0.811226 0.689124 0.745826
0.618789 0.865720 0.980677
0.613077 0.855633 0.976111
0.598841 0.831535 0.962423
0.579301 0.803541 0.932835
0.561540 0.777916 0.875475
0.619544 0.765042 0.807183
0.690805 0.756879 0.770716
0.747876 0.749296 0.747846
0.797446 0.742107 0.733731
0.626539 0.888644 0.966600
0.621394 0.882478 0.956149
0.608637 0.867560 0.929371
0.593295 0.845961 0.905336
0.574809 0.822718 0.864297
0.610299 0.807330 0.798306
0.679436 0.800436 0.758048
0.737498 0.793416 0.733847
0.784753 0.786498 0.718662
0.400086 0.367511 0.933609
0.399899 0.366983 0.933573
0.398314 0.362482 0.933280
0.371766 0.197273 0.924895
0.557008 0.234189 0.922500
0.689350 0.276948 0.910050
0.787353 0.312496 0.913094
0.799612 0.316842 0.928399
0.792561 0.315773 0.888250
0.426424 0.438794 0.938253
0.426265 0.438380 0.938225
0.418366 0.417561 0.936919
0.375072 0.250815 0.926835
0.540008 0.257404 0.920843
0.668648 0.285178 0.903727
0.773104 0.315148 0.903567
0.798191 0.320038 0.917572
0.795236 0.321675 0.897619
0.473736 0.554294 0.947925
0.473640 0.554071 0.947906
0.457971 0.517023 0.944693
0.405036 0.376939 0.934186
0.522249 0.346791 0.921849
0.640111 0.348795 0.887901
0.732948 0.357805 0.873718
0.797359 0.364505 0.876975
0.800652 0.358723 0.889957
0.517407 0.652994 0.957122
0.517348 0.652864 0.957111
0.496744 0.607156 0.952497
0.456268 0.512894 0.944404
0.519885 0.469868 0.926747
0.626075 0.455893 0.878533
0.710450 0.450392 0.854442
0.788872 0.451952 0.848473
0.812471 0.443680 0.857247
0.552377 0.728439 0.964859
0.552338 0.728355 0.964850
0.529078 0.678492 0.959631
0.501363 0.617616 0.953334
0.528748 0.576828 0.939508
0.624268 0.560916 0.881704
0.702755 0.553430 0.848349
0.771011 0.549205 0.833616
0.826782 0.545693 0.829517
0.581464 0.789437 0.971495
0.581435 0.789377 0.971489
0.555807 0.735719 0.965604
0.536797 0.695216 0.961249
0.541799 0.661921 0.951606
0.625521 0.646210 0.889249
0.699699 0.637110 0.849891
0.763000 0.630816 0.828719
0.822393 0.625695 0.816683
0.605338 0.838394 0.977417
0.596065 0.819502 0.975031
0.578614 0.783533 0.970810
0.564129 0.753213 0.967592
0.554661 0.724585 0.953881
0.617957 0.709607 0.888677
0.692680 0.701825 0.846002
0.752420 0.694081 0.819945
0.804887 0.687640 0.802769
0.614929 0.857895 0.979749
0.609944 0.847853 0.978363
0.599345 0.826197 0.975874
0.586788 0.800346 0.972961
0.571376 0.775741 0.951976
0.609653 0.760090 0.881107
0.682477 0.752229 0.837117
0.740686 0.745068 0.808078
0.791234 0.738416 0.790956
0.624954 0.878231 0.982062
0.622078 0.872475 0.981255
0.615655 0.860056 0.978452
0.603899 0.840510 0.966424
0.588505 0.818311 0.942854
0.603300 0.800755 0.874027
0.671168 0.793563 0.825433
0.730217 0.787551 0.796849
0.778765 0.780282 0.778796
