output/ProPhoto/ProPhoto_to_CLASSIC-CHROME_33grid.cube
TITLE "ProPhoto_to_CLASSIC-CHROME"
# Input: ProPhoto RGB, gamma 1.8 (D50)
# Output: ProPhoto RGB, gamma 1.8 (D50) with film simulation look
# Use: Photoshop 3D LUT adjustment layer on standard ProPhoto document
# Source: FLog2C_to_CLASSIC-CHROME_65grid_V.1.00.cube
# Generated from Fujifilm GFX ETERNA 55 F-Log2C LUT
LUT_3D_SIZE 9
0.000020 0.000013 0.000007
0.077382 0.030446 0.011729
0.416926 0.164970 0.074034
0.655171 0.274707 0.193720
0.696698 0.339062 0.320218
0.710918 0.395127 0.374445
0.713467 0.403390 0.382491
0.713467 0.403390 0.382491
0.713467 0.403390 0.382491
0.018097 0.031071 0.010202
0.031174 0.022758 0.007781
0.249526 0.101083 0.038581
0.520016 0.210882 0.102734
0.677042 0.289797 0.218331
0.696192 0.337127 0.318324
0.708680 0.387125 0.367992
0.713467 0.403390 0.382491
0.713467 0.403390 0.382491
0.102941 0.176737 0.058030
0.075894 0.129838 0.042634
0.178462 0.133682 0.045606
0.404914 0.210822 0.075189
0.575555 0.292223 0.118922
0.682574 0.362876 0.201342
0.704400 0.398434 0.285404
0.711528 0.418191 0.328926
0.720195 0.440496 0.367783
0.214479 0.368234 0.120906
0.182398 0.313154 0.102821
0.205622 0.279517 0.092326
0.375229 0.309228 0.104794
0.531582 0.362836 0.125483
0.644833 0.420028 0.154009
0.712347 0.468927 0.210219
0.723791 0.487069 0.269087
0.727137 0.490279 0.305896
0.304131 0.522096 0.171427
0.281499 0.483269 0.158677
0.272796 0.437929 0.144006
0.391281 0.437030 0.145724
0.530717 0.467121 0.158565
0.633751 0.504168 0.173137
0.712691 0.541692 0.190717
0.741460 0.569441 0.229547
0.742963 0.566957 0.259451
0.366643 0.629299 0.206667
0.352055 0.604289 0.198438
0.337549 0.565824 0.185935
0.423097 0.555277 0.184235
0.546670 0.569292 0.191743
0.639246 0.589801 0.201098
0.709097 0.613023 0.211507
0.756581 0.634981 0.222601
0.761662 0.641018 0.239389
0.409651 0.702945 0.230979
0.399951 0.686354 0.225480
0.385395 0.656232 0.215664
0.450043 0.643615 0.213189
0.561786 0.650199 0.218221
0.648273 0.661231 0.225543
0.713162 0.674938 0.233561
0.764793 0.691282 0.242139
0.780249 0.699626 0.246949
0.440884 0.756414 0.248629
0.434023 0.744715 0.244740
0.420761 0.719802 0.236600
0.468101 0.706946 0.234031
0.571373 0.710224 0.238397
0.656993 0.718302 0.245299
0.718294 0.726954 0.252050
0.768242 0.738121 0.259383
0.796070 0.747633 0.264961
0.465050 0.797708 0.262348
0.459753 0.788682 0.259355
0.448906 0.769379 0.252970
0.483550 0.757081 0.250387
0.579212 0.757731 0.254761
0.663404 0.763645 0.261549
0.724014 0.770448 0.267724
0.771912 0.778610 0.274569
0.810621 0.788440 0.281514
0.008647 0.003571 0.023719
0.050316 0.019773 0.017408
0.349511 0.137782 0.062788
0.614432 0.252203 0.159412
0.693821 0.326493 0.305021
0.708932 0.385794 0.366266
0.713467 0.403390 0.382491
0.713467 0.403390 0.382491
0.713467 0.403390 0.382491
0.033714 0.048727 0.049949
0.026223 0.026840 0.025605
0.221485 0.091081 0.047232
0.483391 0.196746 0.104968
0.647667 0.275001 0.195713
0.693199 0.324220 0.302779
0.704285 0.369228 0.349055
0.713464 0.403380 0.382482
0.713467 0.403390 0.382491
0.136492 0.231215 0.093510
0.094620 0.161120 0.060599
0.167460 0.145370 0.055634
0.384729 0.210790 0.088412
0.553133 0.286037 0.140471
0.670417 0.355811 0.217642
0.706123 0.399977 0.300736
0.712406 0.418610 0.336429
0.720255 0.441526 0.367932
0.247844 0.425042 0.142376
0.210842 0.361885 0.119457
0.208069 0.309723 0.102605
0.361270 0.322226 0.112100
0.517040 0.367616 0.139879
0.629292 0.419086 0.184070
0.712141 0.468452 0.246594
0.728189 0.493443 0.307215
0.731555 0.499163 0.337341
0.329721 0.565991 0.185852
0.304716 0.523104 0.171758
0.283018 0.470949 0.154741
0.381451 0.457579 0.152170
0.518267 0.479107 0.163768
0.621994 0.511039 0.185495
0.701523 0.544050 0.220951
0.743819 0.572746 0.274465
0.750429 0.580812 0.318996
0.384057 0.659125 0.216500
0.368454 0.632401 0.207689
0.346668 0.590708 0.194030
0.412589 0.572773 0.189659
0.534054 0.581127 0.195177
0.628179 0.598006 0.203706
0.697771 0.617488 0.219896
0.755723 0.640655 0.252747
0.768951 0.651698 0.291472
0.420981 0.722358 0.237374
0.410452 0.704360 0.231435
0.393676 0.674455 0.221599
0.437397 0.655845 0.216812
0.545448 0.658528 0.220518
0.635511 0.668082 0.227306
0.701514 0.680059 0.234714
0.754026 0.694748 0.246591
0.783817 0.707208 0.271370
0.449548 0.771280 0.253559
0.441492 0.757453 0.248964
0.427641 0.733568 0.241076
0.455644 0.716150 0.236583
0.554815 0.717451 0.240133
0.643404 0.723131 0.246555
0.707618 0.732073 0.253514
0.758187 0.742597 0.260549
0.794130 0.752508 0.267571
0.471743 0.809183 0.266100
0.465580 0.798616 0.262613
0.454564 0.779591 0.256337
0.472190 0.764955 0.252547
0.561788 0.762290 0.255104
0.650547 0.768013 0.262335
0.713926 0.774175 0.268715
0.762739 0.782262 0.275003
0.803443 0.791043 0.281295
0.051196 0.021286 0.140361
0.039927 0.016174 0.091527
0.270820 0.106471 0.108197
0.549056 0.218558 0.193512
0.688712 0.295276 0.310617
0.702869 0.351584 0.376078
0.716697 0.404006 0.405219
0.715846 0.405092 0.394644
0.713627 0.403519 0.385115
0.100912 0.089943 0.238519
0.058110 0.046503 0.142526
0.196697 0.084513 0.123441
0.451903 0.185129 0.177408
0.618185 0.260543 0.262087
0.696513 0.315985 0.358948
0.707703 0.358874 0.403629
0.718057 0.403443 0.429819
0.719976 0.412134 0.428525
0.223023 0.320261 0.335165
0.149903 0.216298 0.222914
0.171573 0.171843 0.171258
0.373021 0.217933 0.186343
0.540687 0.284732 0.236702
0.657220 0.348701 0.307714
0.712345 0.397119 0.379890
0.722292 0.424792 0.419767
0.730852 0.453433 0.442352
0.314604 0.496777 0.353048
0.261889 0.419159 0.276117
0.229864 0.350063 0.219439
0.359299 0.345692 0.215023
0.513806 0.381682 0.246959
0.624718 0.424621 0.292811
0.709170 0.468001 0.347853
0.737640 0.498139 0.404656
0.743544 0.510958 0.434422
0.374305 0.612677 0.345565
0.344772 0.569203 0.300116
0.309742 0.511273 0.252984
0.384512 0.488719 0.243664
0.518356 0.501091 0.261229
0.620711 0.523022 0.293457
0.697202 0.550220 0.334356
0.750277 0.577859 0.384979
0.763151 0.592608 0.428614
0.413117 0.690831 0.321789
0.395311 0.664108 0.294948
0.369014 0.622420 0.261882
0.410643 0.598926 0.254886
0.528071 0.600156 0.266945
0.626015 0.613050 0.292334
0.697368 0.629127 0.327118
0.755020 0.648174 0.369156
0.781907 0.661870 0.412719
0.440524 0.747469 0.292176
0.429259 0.729767 0.278011
0.409873 0.698280 0.258237
0.428159 0.675488 0.252476
0.533073 0.675059 0.263701
0.628981 0.681968 0.285311
0.698779 0.691749 0.314771
0.754259 0.705170 0.350381
0.793307 0.718501 0.390861
0.463516 0.792975 0.272996
0.455659 0.779990 0.266165
0.441221 0.755701 0.255820
0.444138 0.733726 0.250049
0.533930 0.730171 0.258466
0.630704 0.735530 0.276141
0.700641 0.743481 0.299286
0.754439 0.752444 0.328245
0.800252 0.763806 0.365326
0.484477 0.830791 0.274094
0.478875 0.821259 0.270779
0.466879 0.800760 0.263836
0.461890 0.780236 0.257525
0.535529 0.775482 0.260242
0.631304 0.777889 0.270273
0.701523 0.784786 0.285616
0.754598 0.791978 0.308245
0.798556 0.800045 0.337590
0.126202 0.055415 0.344418
0.096654 0.040516 0.264817
0.218583 0.086499 0.208639
0.490843 0.193821 0.264326
0.656755 0.265869 0.353848
0.704094 0.314212 0.438567
0.715473 0.377204 0.453249
0.727224 0.421909 0.470755
0.725238 0.418195 0.458747
0.184327 0.143593 0.456638
0.136354 0.093533 0.349002
0.184432 0.086745 0.256337
0.425994 0.177428 0.276962
0.593733 0.250909 0.337522
0.699562 0.311596 0.415784
0.712689 0.351102 0.463556
0.722061 0.398363 0.476198
0.731011 0.431558 0.490063
0.316709 0.404509 0.577097
0.232940 0.286211 0.444144
0.194518 0.206036 0.335191
0.368894 0.231793 0.318176
0.534593 0.290726 0.346969
0.649186 0.347379 0.397497
0.718123 0.395877 0.454477
0.730936 0.429491 0.492030
0.741384 0.464924 0.510013
0.394205 0.564811 0.594221
0.331927 0.477795 0.495788
0.274269 0.391270 0.401613
0.370533 0.371624 0.369836
0.518333 0.397473 0.377089
0.626096 0.433054 0.406248
0.707700 0.469650 0.446878
0.746967 0.501422 0.490841
0.753765 0.520412 0.517509
0.435189 0.655068 0.578282
0.398565 0.605561 0.515228
0.354296 0.543617 0.442414
0.399187 0.513339 0.409266
0.526374 0.519902 0.407656
0.626332 0.536205 0.423378
0.700597 0.558600 0.451683
0.758953 0.584032 0.488410
0.774981 0.599771 0.521997
0.464163 0.720089 0.557017
0.441335 0.689750 0.515093
0.408792 0.645460 0.457596
0.423516 0.616586 0.426504
0.534174 0.616199 0.423805
0.633616 0.625600 0.436912
0.703913 0.639177 0.459008
0.760246 0.655872 0.487418
0.795433 0.670451 0.520425
0.485854 0.770438 0.531537
0.470334 0.750027 0.501383
0.445949 0.716979 0.456551
0.443567 0.691016 0.428336
0.538642 0.688021 0.427323
0.637351 0.694360 0.440733
0.707950 0.703813 0.460245
0.762740 0.715219 0.484732
0.805574 0.727846 0.514399
0.501141 0.810120 0.496239
0.490575 0.795833 0.476061
0.472739 0.771573 0.442427
0.461222 0.747330 0.417180
0.536721 0.741045 0.419523
0.637230 0.746767 0.434474
0.710764 0.754653 0.453599
0.765106 0.763971 0.476751
0.810929 0.774267 0.503810
0.509742 0.838565 0.450866
0.503127 0.829256 0.438804
0.491430 0.813197 0.416506
0.479786 0.792874 0.397646
0.534694 0.783540 0.401071
0.635627 0.789174 0.420403
0.711258 0.796179 0.439958
0.766053 0.804155 0.461586
0.809750 0.811423 0.486612
0.203520 0.099889 0.549338
0.202696 0.098994 0.547412
0.192600 0.078769 0.348871
0.442255 0.176257 0.356176
0.615909 0.249024 0.413025
0.708373 0.299963 0.484813
0.714036 0.334664 0.502467
0.724479 0.389140 0.507016
0.730282 0.416462 0.505758
0.255163 0.205417 0.625767
0.239579 0.183433 0.596503
0.188453 0.102365 0.409042
0.400510 0.173625 0.387070
0.571995 0.246099 0.420652
0.687245 0.306381 0.476133
0.718425 0.346628 0.523670
0.725292 0.387763 0.522670
0.735257 0.431470 0.528565
0.365165 0.445058 0.701859
0.318859 0.373607 0.637038
0.236165 0.249466 0.494543
0.367034 0.251525 0.446222
0.530916 0.300624 0.453342
0.643005 0.349861 0.482948
0.719733 0.396386 0.522139
0.737785 0.428631 0.554470
0.745959 0.462970 0.555678
0.463341 0.635455 0.759062
0.394840 0.535226 0.660439
0.323316 0.431113 0.554774
0.380642 0.397495 0.505226
0.523671 0.413910 0.496337
0.627740 0.442261 0.507699
0.706875 0.474220 0.531166
0.755486 0.505830 0.562645
0.763151 0.527769 0.582821
0.488537 0.699409 0.736322
0.446959 0.641775 0.669904
0.397503 0.572849 0.591541
0.412444 0.533875 0.547920
0.533030 0.533418 0.533168
0.632570 0.547921 0.534400
0.705454 0.567309 0.549624
0.764084 0.589846 0.573310
0.784984 0.605996 0.598045
0.507307 0.747800 0.712731
0.483202 0.715844 0.670681
0.447704 0.667704 0.610791
0.440180 0.632365 0.570139
0.540554 0.628781 0.556841
0.641311 0.637087 0.557939
0.711355 0.648904 0.567242
0.766926 0.662419 0.584596
0.806370 0.678006 0.606144
0.521999 0.787204 0.687685
0.508281 0.768836 0.663842
0.482893 0.735020 0.618969
0.465188 0.703985 0.580178
0.544315 0.697950 0.568650
0.646286 0.705171 0.570430
0.718366 0.714116 0.580350
0.771628 0.723437 0.593524
0.815265 0.734989 0.611651
0.531631 0.816340 0.660198
0.523727 0.806672 0.643713
0.506874 0.784295 0.613197
0.490432 0.760160 0.582361
0.544961 0.750121 0.571842
0.645698 0.756369 0.575731
0.722081 0.764963 0.584493
0.776789 0.773292 0.597457
0.819340 0.781263 0.611963
0.537772 0.839400 0.627751
0.532614 0.833038 0.617029
0.520940 0.818076 0.593949
0.507937 0.800350 0.570196
0.542483 0.790921 0.564026
0.642621 0.796654 0.571835
0.721357 0.805534 0.581422
0.776572 0.811631 0.591724
0.817912 0.816144 0.604628
0.263431 0.154538 0.694392
0.263171 0.153924 0.694034
0.201276 0.091364 0.510120
0.405237 0.165443 0.464435
0.582663 0.238922 0.485732
0.697898 0.296153 0.532694
0.721694 0.330266 0.569636
0.726024 0.371899 0.551377
0.733607 0.415330 0.547064
0.307667 0.266820 0.735121
0.307405 0.266145 0.734965
0.219490 0.139166 0.559584
0.377365 0.176268 0.499248
0.554349 0.246258 0.505205
0.668663 0.302959 0.537080
0.725105 0.347326 0.575400
0.730339 0.382583 0.576008
0.738609 0.424209 0.568773
0.402255 0.482046 0.786289
0.402062 0.481630 0.786207
0.286576 0.299442 0.624443
0.363096 0.274609 0.557616
0.526079 0.313395 0.543553
0.636085 0.355885 0.556179
0.718836 0.400358 0.583670
0.745262 0.431642 0.606916
0.750958 0.462162 0.602840
0.487567 0.651678 0.832570
0.452265 0.598706 0.783917
0.367272 0.470975 0.665645
0.384230 0.420821 0.608302
0.522154 0.429713 0.587853
0.628528 0.452680 0.587854
0.706162 0.480451 0.600714
0.761308 0.510687 0.621321
0.771662 0.530429 0.638586
0.529161 0.737629 0.840686
0.488404 0.679701 0.778968
0.432340 0.599469 0.695112
0.420358 0.551722 0.644476
0.532644 0.548571 0.624186
0.635737 0.559425 0.619735
0.707624 0.575006 0.624504
0.765963 0.595077 0.638320
0.795559 0.611428 0.655534
0.533667 0.764295 0.802469
0.513670 0.737197 0.769393
0.478186 0.687698 0.713680
0.455144 0.647161 0.668977
0.540642 0.638616 0.648983
0.644633 0.646660 0.644698
0.716312 0.656969 0.646496
0.771342 0.669359 0.657076
0.814196 0.684192 0.670878
0.541966 0.792571 0.776190
0.530733 0.777556 0.756899
0.508854 0.748039 0.720063
0.487727 0.717918 0.683961
0.545373 0.706146 0.665000
0.650093 0.713610 0.660784
0.724550 0.721900 0.664345
0.777950 0.730974 0.671152
0.821476 0.741038 0.681839
0.549860 0.818259 0.751680
0.541679 0.807513 0.737096
0.527167 0.788397 0.711592
0.512427 0.768287 0.685742
0.545439 0.755283 0.671101
0.646891 0.762511 0.670580
0.726863 0.771605 0.674359
0.782031 0.778133 0.679006
0.823101 0.784767 0.686567
0.555359 0.838418 0.727366
0.550369 0.832314 0.717532
0.539895 0.819012 0.697760
0.527122 0.801688 0.676000
0.540787 0.789320 0.664236
0.635583 0.795451 0.666247
0.721273 0.806159 0.672931
0.779450 0.812890 0.678753
0.820749 0.817433 0.683924
0.310890 0.219922 0.790132
0.310639 0.219201 0.789957
0.245555 0.131605 0.655757
0.369205 0.160719 0.571266
0.554546 0.234421 0.563317
0.671054 0.289883 0.584063
0.727611 0.331980 0.614402
0.731728 0.366226 0.607394
0.737356 0.406993 0.590479
0.349154 0.323696 0.811286
0.348913 0.323084 0.811169
0.273029 0.199974 0.687973
0.355600 0.188876 0.600277
0.535304 0.250920 0.582995
0.651086 0.303619 0.593456
0.729359 0.352639 0.618845
0.739353 0.384148 0.632521
0.743437 0.420670 0.611565
0.434031 0.518116 0.851472
0.433851 0.517724 0.851403
0.335311 0.355964 0.723223
0.357482 0.301492 0.649070
0.516316 0.328098 0.620384
0.629751 0.366229 0.619554
0.713030 0.404654 0.632834
0.752815 0.436882 0.652536
0.759133 0.464273 0.650795
0.499902 0.655870 0.876998
0.499834 0.655723 0.876991
0.406956 0.512928 0.753083
0.387157 0.446297 0.687632
0.516598 0.445813 0.661747
0.626697 0.464473 0.652729
0.703996 0.489437 0.656815
0.761825 0.516527 0.670406
0.779184 0.536505 0.684185
0.539228 0.737012 0.887190
0.520126 0.710181 0.857608
0.463587 0.627568 0.776204
0.430648 0.569706 0.719447
0.526609 0.560769 0.694199
0.635267 0.569695 0.684353
0.709399 0.583889 0.684014
0.765917 0.601646 0.690945
0.802888 0.618118 0.702300
0.556687 0.781383 0.872158
0.533366 0.748805 0.835711
0.502470 0.704971 0.788848
0.473478 0.662667 0.742884
0.535730 0.648756 0.718106
0.644110 0.655202 0.709788
0.718459 0.664793 0.707073
0.773854 0.675988 0.711876
0.817716 0.689261 0.720923
0.557369 0.798217 0.837482
0.544933 0.781195 0.817282
0.525180 0.754348 0.784740
0.505406 0.726700 0.753552
0.540613 0.712962 0.733893
0.647845 0.719848 0.726276
0.727149 0.728110 0.727327
0.781316 0.736708 0.728095
0.823439 0.744222 0.733202
0.562495 0.818449 0.814299
0.554666 0.808455 0.800193
0.540908 0.790307 0.776467
0.526362 0.770412 0.752707
0.539042 0.755981 0.735808
0.638640 0.762763 0.732336
0.724555 0.772727 0.733479
0.781558 0.779562 0.736048
0.822762 0.785010 0.738186
0.567429 0.837483 0.791850
0.561995 0.830427 0.782183
0.551427 0.816668 0.763377
0.539714 0.801074 0.743506
0.539366 0.788029 0.727932
0.621471 0.791831 0.727829
0.712917 0.802599 0.731566
0.775500 0.811701 0.734630
0.818678 0.815369 0.738316
0.350958 0.286818 0.856457
0.350741 0.286175 0.856390
0.305824 0.209494 0.782998
0.337924 0.169009 0.666552
0.527993 0.235759 0.632803
0.648150 0.289291 0.636549
0.729704 0.337384 0.654800
0.740487 0.368537 0.663627
0.743806 0.405190 0.636678
0.387040 0.381211 0.872764
0.386814 0.380652 0.872667
0.330143 0.282793 0.792485
0.334150 0.212817 0.685649
0.515044 0.261101 0.652231
0.634459 0.310163 0.648204
0.721846 0.356811 0.661564
0.747078 0.389080 0.680335
0.750005 0.421929 0.657585
0.457439 0.544211 0.900129
0.457305 0.543905 0.900099
0.386351 0.426001 0.811184
0.350003 0.331293 0.720192
0.501663 0.344563 0.684229
0.621470 0.377259 0.674944
0.704363 0.411922 0.680164
0.759826 0.445256 0.692469
0.765759 0.469749 0.693902
0.507987 0.656651 0.909590
0.507923 0.656506 0.909590
0.446977 0.561364 0.830323
0.396226 0.473660 0.753868
0.504619 0.462281 0.720084
0.622141 0.477714 0.706613
0.701293 0.498173 0.705347
0.761388 0.523302 0.711563
0.785633 0.543580 0.721627
0.543011 0.731511 0.915042
0.542978 0.731438 0.915044
0.490944 0.655376 0.839820
0.449200 0.591903 0.781497
0.517522 0.573994 0.750125
0.631832 0.581570 0.734943
0.708759 0.593621 0.730286
0.765970 0.608456 0.734387
0.808921 0.625380 0.741461
0.567213 0.783362 0.915761
0.551697 0.761968 0.891102
0.518655 0.715400 0.840250
0.491206 0.676262 0.798741
0.527184 0.657410 0.772629
0.638413 0.662925 0.759584
0.718567 0.672846 0.754818
0.774938 0.682664 0.756235
0.818726 0.692847 0.759067
0.572050 0.805179 0.890289
0.558118 0.786689 0.867187
0.536834 0.757626 0.832386
0.517866 0.731076 0.802847
0.531250 0.714209 0.782597
0.636220 0.721484 0.773815
0.722879 0.731988 0.770617
0.779792 0.739241 0.770670
0.822209 0.745388 0.771645
0.572953 0.819861 0.861201
0.564976 0.809540 0.847093
0.550898 0.790782 0.823850
0.535985 0.770186 0.800055
0.533351 0.754446 0.781422
0.622032 0.758676 0.774858
0.715013 0.770222 0.774912
0.776302 0.777711 0.776344
0.819020 0.783100 0.776472
0.576181 0.836113 0.838369
0.571016 0.829467 0.829396
0.560098 0.814899 0.811010
0.549438 0.800470 0.793815
0.541251 0.786430 0.777086
0.603850 0.785108 0.770239
0.699574 0.797530 0.772619
0.767978 0.807519 0.775493
0.813092 0.812555 0.775519
0.386365 0.352289 0.904338
0.386164 0.351705 0.904315
0.384150 0.347106 0.902670
0.314888 0.195992 0.745754
0.498272 0.243366 0.696387
0.628459 0.294748 0.686537
0.716454 0.342131 0.692484
0.748149 0.375799 0.707015
0.751046 0.408053 0.684198
0.415127 0.432120 0.906511
0.414950 0.431650 0.906501
0.404575 0.408570 0.899714
0.323621 0.249051 0.759616
0.489527 0.275120 0.711131
0.619970 0.320538 0.698290
0.707115 0.363288 0.701415
0.753167 0.398573 0.712926
0.757716 0.426730 0.703984
0.464350 0.555847 0.908215
0.464248 0.555606 0.908209
0.445376 0.515525 0.898782
0.360858 0.370321 0.785099
0.481882 0.363810 0.738836
0.611603 0.392374 0.723208
0.697310 0.422061 0.721755
0.761149 0.454393 0.728570
0.772555 0.477912 0.732667
0.507547 0.653657 0.913229
0.507493 0.653537 0.913222
0.483094 0.607640 0.895387
0.419651 0.507507 0.812451
0.489512 0.480582 0.769454
0.614757 0.491943 0.752762
0.697394 0.509749 0.745530
0.757670 0.532254 0.747680
0.792021 0.552575 0.754622
0.539726 0.722791 0.918076
0.539692 0.722718 0.918073
0.510478 0.673821 0.887797
0.470789 0.613868 0.833604
0.504107 0.585534 0.796740
0.622639 0.591317 0.778507
0.705729 0.602744 0.771208
0.764692 0.616372 0.771032
0.810266 0.631772 0.775014
0.563807 0.772983 0.922052
0.563784 0.772934 0.922048
0.531065 0.722459 0.880846
0.504947 0.684777 0.842419
0.515053 0.662839 0.815407
0.627228 0.667704 0.798704
0.714146 0.677901 0.792674
0.772563 0.686891 0.790793
0.815727 0.695663 0.790366
0.581453 0.810386 0.922030
0.570266 0.793046 0.908790
0.546957 0.760815 0.872072
0.527496 0.733336 0.842279
0.522725 0.713960 0.818629
0.616761 0.717999 0.807029
0.711692 0.730382 0.803819
0.772565 0.737997 0.801755
0.816590 0.743341 0.800723
0.584015 0.824684 0.902404
0.573596 0.810592 0.885218
0.558661 0.790285 0.861437
0.544072 0.770855 0.836677
0.532998 0.753651 0.816933
0.600968 0.752408 0.806410
0.700714 0.766201 0.807051
0.766921 0.774168 0.806055
0.812564 0.779928 0.805560
0.584144 0.835749 0.877674
0.578068 0.827809 0.866941
0.567519 0.813947 0.849185
0.556109 0.798840 0.830087
0.546088 0.784348 0.813515
0.585928 0.779077 0.802865
0.683420 0.791530 0.803734
0.757415 0.802073 0.805470
0.806813 0.808545 0.806807
