output/ProPhoto/ProPhoto_to_PROVIA_33grid.cube
TITLE "ProPhoto_to_PROVIA"
# Input: ProPhoto RGB, gamma 1.8 (D50)
# Output: ProPhoto RGB, gamma 1.8 (D50) with film simulation look
# Use: Photoshop 3D LUT adjustment layer on standard ProPhoto document
# Source: FLog2C_to_PROVIA_65grid_V.1.00.cube
# Generated from Fujifilm GFX ETERNA 55 F-Log2C LUT
LUT_3D_SIZE 33
0.000066 0.000051 0.000019
0.004704 0.001875 0.000715
0.022529 0.008902 0.003996
0.055771 0.022034 0.009558
0.111922 0.044083 0.019517
0.184793 0.072713 0.033546
0.266875 0.105029 0.049074
0.357409 0.140616 0.068163
0.449017 0.176655 0.090154
0.534658 0.210388 0.118441
0.610227 0.240394 0.153382
0.675683 0.266586 0.195935
0.709579 0.280708 0.239914
0.713060 0.283452 0.286369
0.716905 0.287134 0.330848
0.720517 0.292169 0.363113
0.722425 0.298814 0.370810
0.724628 0.307228 0.378786
0.727304 0.317510 0.386905
0.730623 0.330152 0.394771
0.732854 0.338963 0.399907
0.734571 0.345871 0.403774
0.734594 0.345967 0.403826
0.734594 0.345967 0.403826
0.734594 0.345967 0.403826
0.734594 0.345967 0.403826
0.734594 0.345967 0.403826
0.734594 0.345967 0.403826
0.734594 0.345967 0.403826
0.734594 0.345967 0.403826
0.734594 0.345967 0.403826
0.734594 0.345967 0.403826
0.734594 0.345967 0.403826
0.002014 0.003455 0.001134
0.002041 0.001821 0.000613
0.017986 0.007190 0.002744
0.048092 0.019009 0.008254
0.102473 0.040395 0.017810
0.170705 0.067199 0.030690
0.250328 0.098546 0.045006
0.339273 0.133498 0.063886
0.429600 0.169004 0.085975
0.516897 0.203371 0.111950
0.594269 0.234029 0.145894
0.663862 0.261827 0.186624
0.704650 0.278556 0.231340
0.712402 0.282875 0.278968
0.716347 0.286592 0.325460
0.720290 0.291703 0.361636
0.722345 0.298555 0.370517
0.724646 0.307312 0.378846
0.727323 0.317613 0.386950
0.730651 0.330271 0.394828
0.732870 0.339028 0.399938
0.734582 0.345915 0.403797
0.734594 0.345967 0.403826
0.734594 0.345967 0.403826
0.734594 0.345967 0.403826
0.734594 0.345967 0.403826
0.734594 0.345967 0.403826
0.734594 0.345967 0.403826
0.734594 0.345967 0.403826
0.734594 0.345967 0.403826
0.734594 0.345967 0.403826
0.734594 0.345967 0.403826
0.734594 0.345967 0.403826
0.007753 0.013311 0.004371
0.007114 0.012196 0.004005
0.011886 0.010213 0.003449
0.036869 0.016441 0.006048
0.081489 0.032591 0.013263
0.143108 0.056451 0.024952
0.210087 0.082776 0.038004
0.293935 0.115639 0.054582
0.377850 0.148610 0.072393
0.462263 0.181854 0.094418
0.542514 0.213497 0.120739
0.612813 0.241403 0.153499
0.672909 0.265465 0.192444
0.706428 0.279342 0.234855
0.712416 0.282915 0.278928
0.716428 0.286572 0.322904
0.719684 0.291048 0.354638
0.721972 0.296913 0.368517
0.724063 0.304451 0.375920
0.726517 0.314332 0.384092
0.729679 0.326430 0.392524
0.733110 0.339830 0.400775
0.734015 0.343579 0.402626
0.734594 0.345967 0.403826
0.734594 0.345967 0.403826
0.734594 0.345967 0.403826
0.734594 0.345967 0.403826
0.734594 0.345967 0.403826
0.734594 0.345967 0.403826
0.734594 0.345967 0.403826
0.734594 0.345967 0.403826
0.734594 0.345967 0.403826
0.734594 0.345967 0.403826
0.018204 0.031253 0.010262
0.016393 0.028138 0.009239
0.014888 0.024967 0.008202
0.027290 0.023502 0.007936
0.061412 0.031150 0.011133
0.115356 0.049059 0.018129
0.177256 0.071628 0.028200
0.248769 0.098870 0.041552
0.324038 0.127947 0.058771
0.404573 0.159259 0.077632
0.481354 0.189379 0.099774
0.553409 0.217783 0.126960
0.618114 0.243447 0.158425
0.673785 0.265811 0.194366
0.708289 0.280059 0.232839
0.712005 0.282601 0.270989
0.715362 0.285539 0.313837
0.718682 0.289412 0.346063
0.721439 0.294294 0.367277
0.723099 0.300847 0.373628
0.725273 0.308928 0.380659
0.727804 0.318263 0.387859
0.730631 0.329843 0.394944
0.733262 0.340444 0.401240
0.734094 0.343812 0.402978
0.734594 0.345967 0.403826
0.734594 0.345967 0.403826
0.734594 0.345967 0.403826
0.734594 0.345967 0.403826
0.734594 0.345967 0.403826
0.734594 0.345967 0.403826
0.734594 0.345967 0.403826
0.734594 0.345967 0.403826
0.032880 0.056443 0.018533
0.030931 0.053097 0.017434
0.027174 0.046653 0.015318
0.027044 0.041280 0.013591
0.048840 0.042799 0.014429
0.093801 0.051670 0.018240
0.148981 0.068543 0.024911
0.212324 0.089862 0.033288
0.283900 0.116108 0.044674
0.358375 0.144020 0.059107
0.432212 0.172358 0.075857
0.501332 0.199165 0.096284
0.564596 0.223679 0.121313
0.623560 0.246743 0.152030
0.673363 0.266450 0.186947
0.708277 0.280406 0.225094
0.711131 0.282262 0.263412
0.714304 0.284877 0.302557
0.717542 0.288187 0.336563
0.720421 0.292255 0.359156
0.722262 0.297499 0.369569
0.723858 0.303852 0.376368
0.726011 0.311932 0.383242
0.728428 0.321150 0.390063
0.731077 0.331980 0.396492
0.733396 0.341338 0.401660
0.734084 0.343938 0.402996
0.734594 0.345967 0.403826
0.734594 0.345967 0.403826
0.734594 0.345967 0.403826
0.734594 0.345967 0.403826
0.734594 0.345967 0.403826
0.734594 0.345967 0.403826
0.052090 0.089421 0.029361
0.048827 0.083830 0.027525
0.042833 0.073537 0.024145
0.039276 0.067256 0.022086
0.047525 0.063793 0.021080
0.078319 0.066420 0.022444
0.128253 0.076382 0.026687
0.187491 0.092787 0.033295
0.250302 0.113186 0.041268
0.320585 0.137099 0.050680
0.390333 0.162564 0.061658
0.457541 0.187545 0.075182
0.520836 0.211715 0.091486
0.578795 0.234080 0.112441
0.632419 0.254987 0.139757
0.679619 0.273666 0.170787
0.704202 0.283818 0.203977
0.710725 0.287484 0.238494
0.713590 0.290054 0.274887
0.716782 0.293142 0.313165
0.719179 0.296374 0.337587
0.721310 0.299871 0.356411
0.723059 0.304890 0.364866
0.724844 0.310711 0.372913
0.726707 0.318181 0.380530
0.728849 0.326482 0.387871
0.731597 0.335874 0.395224
0.734105 0.344585 0.401496
0.734362 0.345311 0.402731
0.734561 0.345872 0.403669
0.734594 0.345967 0.403826
0.734594 0.345967 0.403826
0.734594 0.345967 0.403826
0.076578 0.131474 0.043168
0.072858 0.125087 0.041071
0.065294 0.112097 0.036806
0.058964 0.101231 0.033238
0.056897 0.093906 0.030859
0.073786 0.090349 0.029950
0.114274 0.094926 0.032121
0.168438 0.105445 0.036622
0.225610 0.120913 0.042852
0.289356 0.139901 0.050398
0.357097 0.162338 0.059131
0.421483 0.184703 0.067840
0.483664 0.206930 0.077620
0.542044 0.228831 0.090540
0.595331 0.249444 0.107392
0.644465 0.268677 0.128623
0.690098 0.286735 0.155101
0.704457 0.293705 0.182620
0.710851 0.297802 0.213430
0.713410 0.300556 0.247632
0.716268 0.303706 0.281276
0.719089 0.306999 0.311951
0.720770 0.310642 0.324821
0.722533 0.314830 0.336589
0.724259 0.320089 0.346738
0.726139 0.325984 0.356489
0.728547 0.333258 0.366432
0.730923 0.340537 0.376055
0.732525 0.346458 0.383879
0.734110 0.352297 0.391367
0.734307 0.352074 0.394329
0.734156 0.350546 0.396123
0.734028 0.349372 0.397428
0.103135 0.177069 0.058139
0.099109 0.170157 0.055869
0.090876 0.156021 0.051228
0.082488 0.141621 0.046500
0.076679 0.131269 0.043104
0.081611 0.124518 0.040995
0.108768 0.124291 0.041314
0.153649 0.128919 0.043592
0.209232 0.138879 0.047925
0.268273 0.153597 0.053937
0.330140 0.171096 0.060943
0.392180 0.190869 0.068681
0.453213 0.211607 0.076698
0.510347 0.231922 0.084611
0.563685 0.251629 0.093435
0.613379 0.270407 0.104906
0.658917 0.287718 0.120423
0.692194 0.301407 0.142403
0.709978 0.309698 0.166691
0.712220 0.312438 0.192254
0.714552 0.315326 0.223041
0.717161 0.318442 0.254459
0.719765 0.321572 0.281828
0.721945 0.324947 0.302371
0.723242 0.328803 0.310596
0.724688 0.333070 0.319801
0.726379 0.337944 0.330938
0.728196 0.343241 0.341769
0.730690 0.350892 0.351927
0.733226 0.358750 0.361749
0.734481 0.361939 0.368290
0.735467 0.364173 0.374113
0.736001 0.365048 0.378292
0.130402 0.223884 0.073510
0.125913 0.216177 0.070979
0.116549 0.200101 0.065701
0.109024 0.187180 0.061459
0.101291 0.173902 0.057099
0.098332 0.164738 0.054118
0.111683 0.158238 0.052202
0.148765 0.159844 0.053277
0.197066 0.166016 0.056120
0.251409 0.176504 0.060569
0.310810 0.190452 0.066312
0.369394 0.206044 0.072609
0.428651 0.224369 0.079797
0.485817 0.242601 0.086923
0.539166 0.260588 0.093890
0.588364 0.278443 0.100858
0.633587 0.296209 0.108370
0.673929 0.311466 0.119634
0.699489 0.322009 0.134220
0.712874 0.328555 0.152122
0.714798 0.331198 0.175500
0.716690 0.334087 0.202185
0.719269 0.338069 0.231789
0.721546 0.341212 0.256760
0.723050 0.343022 0.273287
0.724555 0.345493 0.287612
0.726118 0.349026 0.298717
0.727765 0.353032 0.309461
0.729598 0.358464 0.319801
0.731440 0.363878 0.329797
0.733411 0.369445 0.340298
0.735406 0.374970 0.350508
0.736732 0.378140 0.357677
0.158230 0.271661 0.089197
0.153427 0.263414 0.086489
0.144503 0.248093 0.081459
0.135469 0.232583 0.076366
0.127205 0.218395 0.071708
0.120077 0.205761 0.067562
0.124475 0.198095 0.065152
0.149679 0.196205 0.064884
0.191539 0.198387 0.066241
0.242308 0.205634 0.069476
0.295675 0.214972 0.073530
0.353523 0.227906 0.078894
0.408854 0.242916 0.084897
0.463114 0.258652 0.091132
0.516981 0.275641 0.097762
0.567391 0.292584 0.104297
0.612981 0.308633 0.110437
0.653568 0.323267 0.116117
0.687668 0.336425 0.122669
0.716694 0.348280 0.132788
0.717000 0.349961 0.145938
0.718024 0.352302 0.164484
0.720092 0.355848 0.188004
0.722186 0.358823 0.212338
0.724229 0.361181 0.236330
0.725906 0.363095 0.254956
0.727051 0.364578 0.266271
0.728280 0.366643 0.277234
0.729707 0.369989 0.287803
0.731192 0.373365 0.298283
0.733033 0.378503 0.309627
0.734859 0.383620 0.320591
0.736415 0.387577 0.329508
0.186125 0.319553 0.104922
0.181639 0.311851 0.102394
0.172541 0.296232 0.097265
0.163005 0.279859 0.091889
0.153895 0.264219 0.086754
0.145596 0.249949 0.082068
0.142628 0.239617 0.078712
0.157178 0.235180 0.077468
0.190082 0.234624 0.077752
0.234600 0.237633 0.079434
0.285118 0.244498 0.082547
0.340749 0.255541 0.087169
0.394621 0.268427 0.092399
0.447972 0.281006 0.097574
0.500310 0.296292 0.103593
0.548174 0.310605 0.109222
0.591651 0.323735 0.114390
0.632798 0.338227 0.119916
0.671552 0.352010 0.125167
0.705910 0.364467 0.129929
0.715536 0.369259 0.134234
0.721753 0.373120 0.143270
0.722971 0.375738 0.157948
0.724613 0.378453 0.177478
0.726647 0.381293 0.201089
0.728134 0.382924 0.220275
0.729030 0.383531 0.233659
0.729973 0.384580 0.246267
0.730859 0.386126 0.257407
0.731750 0.387545 0.268564
0.733469 0.391429 0.279227
0.735168 0.395220 0.289697
0.736742 0.398889 0.299751
0.213722 0.366935 0.120479
0.209211 0.359189 0.117936
0.199975 0.343332 0.112729
0.190134 0.326437 0.107182
0.179502 0.308182 0.101189
0.172207 0.295658 0.097076
0.166341 0.284562 0.093440
0.170297 0.276250 0.090816
0.195936 0.273981 0.090420
0.234767 0.272900 0.090646
0.280377 0.276664 0.092610
0.331950 0.285464 0.096359
0.383837 0.295615 0.100615
0.433792 0.306854 0.105224
0.485173 0.319476 0.110340
0.533396 0.332134 0.115424
0.578177 0.344723 0.120425
0.619260 0.357479 0.125396
0.656802 0.369851 0.130165
0.690520 0.381388 0.134584
0.713971 0.390296 0.137927
0.726663 0.395655 0.140308
0.727437 0.397107 0.145214
0.728408 0.399163 0.155769
0.729589 0.401719 0.171540
0.730697 0.403429 0.188396
0.731852 0.404497 0.205241
0.732802 0.405236 0.219774
0.733176 0.405386 0.229537
0.733579 0.405560 0.239230
0.734835 0.407652 0.250016
0.736186 0.409772 0.260964
0.737774 0.412737 0.272027
0.240717 0.413281 0.135697
0.236620 0.406247 0.133387
0.227697 0.390927 0.128357
0.217468 0.373365 0.122590
0.206913 0.355244 0.116641
0.198869 0.341434 0.112107
0.191635 0.329012 0.108028
0.189210 0.318360 0.104575
0.204335 0.312598 0.102910
0.236823 0.310217 0.102588
0.278596 0.312086 0.103824
0.326079 0.318073 0.106538
0.375561 0.324941 0.109640
0.425437 0.334298 0.113596
0.476134 0.345209 0.118107
0.522841 0.357542 0.123008
0.566662 0.369571 0.127773
0.608266 0.380310 0.132104
0.643993 0.391733 0.136513
0.677363 0.402613 0.140702
0.708368 0.412094 0.144408
0.725365 0.417912 0.146633
0.730406 0.420504 0.147566
0.732713 0.422790 0.149477
0.734038 0.425134 0.155836
0.735219 0.427672 0.167344
0.736452 0.430343 0.183136
0.737108 0.430543 0.196851
0.737001 0.428194 0.206194
0.737044 0.426335 0.216108
0.737724 0.426656 0.225924
0.738522 0.426993 0.235980
0.739719 0.428751 0.246125
0.266748 0.457972 0.150370
0.262606 0.450862 0.148036
0.254770 0.437408 0.143619
0.244847 0.420372 0.138025
0.233894 0.401566 0.131850
0.225536 0.387218 0.127139
0.217932 0.374162 0.122852
0.212316 0.363149 0.119246
0.218624 0.353962 0.116368
0.243062 0.348405 0.114898
0.280475 0.349058 0.115638
0.324183 0.352550 0.117441
0.371234 0.356872 0.119631
0.420103 0.363781 0.122738
0.469148 0.374016 0.126948
0.514132 0.384585 0.131217
0.557203 0.395358 0.135534
0.598802 0.406232 0.139872
0.633571 0.415618 0.143603
0.666280 0.424786 0.147228
0.696528 0.433648 0.150706
0.718414 0.440637 0.153403
0.734906 0.446336 0.155570
0.739175 0.448448 0.156346
0.739504 0.449383 0.156748
0.740025 0.451290 0.159623
0.740815 0.453679 0.167755
0.741226 0.453685 0.176846
0.741288 0.451838 0.185141
0.741512 0.450274 0.194611
0.741836 0.449275 0.203593
0.742230 0.448376 0.212983
0.742920 0.448934 0.222557
0.291647 0.500721 0.164407
0.288213 0.494826 0.162471
0.280486 0.481559 0.158115
0.270827 0.464977 0.152671
0.261191 0.448432 0.147238
0.252302 0.433172 0.142228
0.243655 0.418326 0.137353
0.236850 0.406429 0.133448
0.236039 0.396056 0.130104
0.253441 0.389963 0.128361
0.285354 0.388415 0.128290
0.323695 0.388020 0.128727
0.368011 0.390754 0.130313
0.416018 0.396918 0.133112
0.462014 0.403686 0.136120
0.506197 0.412110 0.139655
0.549261 0.421643 0.143547
0.590668 0.431731 0.147602
0.625156 0.440103 0.150986
0.657936 0.448550 0.154366
0.688835 0.457010 0.157716
0.715357 0.464848 0.160776
0.739570 0.472283 0.163660
0.744521 0.474146 0.164356
0.745679 0.474885 0.164613
0.746089 0.475983 0.165140
0.746350 0.477149 0.166235
0.746512 0.477262 0.169073
0.746745 0.476867 0.175092
0.747088 0.476060 0.182893
0.747048 0.473597 0.189383
0.747026 0.471199 0.196774
0.747251 0.470404 0.204420
0.314739 0.540368 0.177424
0.311358 0.534563 0.175518
0.305130 0.523870 0.172007
0.296526 0.509098 0.167157
0.286784 0.492373 0.161666
0.278178 0.477597 0.156814
0.269277 0.462314 0.151796
0.261428 0.448826 0.147367
0.257008 0.438547 0.144011
0.266171 0.430552 0.141551
0.291423 0.426087 0.140439
0.326082 0.424212 0.140319
0.368359 0.425864 0.141486
0.413686 0.429544 0.143405
0.458201 0.434098 0.145640
0.500903 0.441744 0.148862
0.542289 0.449634 0.152166
0.581834 0.457528 0.155461
0.616849 0.464542 0.158406
0.649630 0.472380 0.161574
0.680421 0.480716 0.164863
0.707921 0.488126 0.167797
0.734071 0.495241 0.170615
0.743822 0.497653 0.171592
0.751857 0.499594 0.172384
0.753017 0.500655 0.172745
0.753359 0.501572 0.173060
0.753674 0.502491 0.173819
0.754018 0.503377 0.175781
0.753969 0.502627 0.178505
0.753160 0.498906 0.181365
0.752440 0.495261 0.185387
0.752226 0.493203 0.190765
0.337396 0.579267 0.190196
0.334723 0.574678 0.188689
0.328505 0.564003 0.185184
0.320090 0.549554 0.180440
0.310647 0.533342 0.175117
0.302347 0.519093 0.170439
0.293660 0.504178 0.165541
0.285792 0.490664 0.161104
0.280059 0.480073 0.157632
0.281788 0.470579 0.154600
0.299995 0.463632 0.152593
0.330984 0.460774 0.152085
0.369801 0.460748 0.152634
0.411979 0.462302 0.153786
0.454951 0.465450 0.155508
0.496722 0.470995 0.158011
0.536815 0.477386 0.160785
0.575262 0.483975 0.163617
0.610886 0.490240 0.166312
0.643684 0.497291 0.169212
0.674654 0.504674 0.172189
0.701517 0.511392 0.174878
0.727190 0.517917 0.177487
0.743642 0.521701 0.179038
0.759486 0.525372 0.180544
0.760016 0.525707 0.180660
0.760265 0.525980 0.180750
0.760682 0.527117 0.181145
0.761139 0.528455 0.181737
0.760914 0.527608 0.181935
0.759746 0.523685 0.181811
0.758640 0.519861 0.182308
0.758040 0.516990 0.184615
0.358929 0.616236 0.202335
0.356326 0.611767 0.200867
0.350310 0.601438 0.197476
0.342277 0.587647 0.192948
0.333678 0.572884 0.188101
0.325262 0.558435 0.183356
0.317063 0.544358 0.178734
0.309558 0.531472 0.174503
0.302997 0.519999 0.170738
0.300124 0.509465 0.167317
0.311212 0.501108 0.164765
0.338140 0.497026 0.163797
0.372311 0.495055 0.163634
0.411605 0.495187 0.164257
0.452834 0.496877 0.165452
0.493783 0.499661 0.167032
0.532994 0.505058 0.169445
0.570871 0.510853 0.171988
0.606738 0.516748 0.174546
0.639475 0.522635 0.177058
0.670794 0.528592 0.179577
0.696808 0.534831 0.182084
0.721893 0.540906 0.184525
0.744387 0.546086 0.186637
0.764739 0.550802 0.188561
0.765773 0.550396 0.188458
0.766668 0.549956 0.188341
0.767113 0.550662 0.188571
0.767492 0.551508 0.188842
0.767297 0.550609 0.188561
0.766521 0.547952 0.187746
0.765762 0.545350 0.186985
0.764699 0.541556 0.186521
0.379838 0.652134 0.214121
0.377292 0.647763 0.212686
0.371413 0.637670 0.209372
0.363489 0.624065 0.204905
0.356134 0.611438 0.200759
0.347666 0.596898 0.195985
0.339617 0.583079 0.191448
0.332284 0.570490 0.187315
0.325011 0.557992 0.183211
0.319540 0.546479 0.179445
0.324618 0.537900 0.176747
0.345932 0.532718 0.175346
0.375897 0.528623 0.174428
0.412913 0.528012 0.174755
0.452195 0.528511 0.175511
0.491801 0.529848 0.176579
0.530448 0.533239 0.178318
0.567191 0.537616 0.180365
0.601977 0.542641 0.182605
0.634337 0.547854 0.184876
0.665445 0.553202 0.187180
0.692286 0.558404 0.189363
0.717831 0.563392 0.191461
0.740397 0.567549 0.193243
0.759879 0.571293 0.194835
0.766929 0.572967 0.195512
0.773671 0.574554 0.196155
0.774035 0.575199 0.196364
0.774152 0.575784 0.196549
0.773974 0.574948 0.196285
0.773581 0.573098 0.195701
0.773192 0.571277 0.195129
0.771696 0.566553 0.193668
0.398121 0.683525 0.224428
0.395749 0.679452 0.223091
0.390171 0.669874 0.219946
0.383570 0.658542 0.216225
0.376352 0.646149 0.212156
0.367912 0.631659 0.207399
0.360291 0.618574 0.203103
0.353236 0.606462 0.199126
0.345840 0.593764 0.194956
0.339550 0.582377 0.191221
0.339694 0.573479 0.188362
0.354129 0.566749 0.186374
0.380776 0.561152 0.184917
0.414616 0.559480 0.184842
0.451600 0.558695 0.185129
0.490154 0.559033 0.185835
0.528240 0.560720 0.186998
0.564323 0.564209 0.188729
0.599182 0.568556 0.190734
0.630361 0.572412 0.192535
0.660280 0.576340 0.194350
0.686966 0.579899 0.195999
0.712376 0.583372 0.197606
0.735704 0.586501 0.199070
0.755829 0.589457 0.200421
0.768486 0.591739 0.201405
0.780032 0.593938 0.202341
0.780363 0.595318 0.202779
0.780676 0.596629 0.203195
0.780725 0.596944 0.203295
0.780644 0.596744 0.203230
0.780438 0.596110 0.203028
0.778891 0.590986 0.201394
0.414902 0.712336 0.233888
0.412672 0.708506 0.232631
0.407941 0.700384 0.229964
0.402407 0.690882 0.226844
0.394879 0.677958 0.222600
0.387115 0.664627 0.218223
0.379893 0.652229 0.214153
0.372896 0.640216 0.210208
0.365803 0.628039 0.206210
0.359316 0.616900 0.202553
0.356411 0.607800 0.199593
0.364660 0.599366 0.196980
0.387119 0.592865 0.195171
0.417761 0.589732 0.194570
0.452541 0.587801 0.194440
0.489694 0.587154 0.194788
0.527066 0.587539 0.195503
0.562566 0.590336 0.196984
0.597046 0.593643 0.198633
0.627224 0.595908 0.199895
0.655894 0.598138 0.201135
0.682081 0.600016 0.202230
0.707270 0.602037 0.203363
0.731299 0.604140 0.204509
0.752731 0.606343 0.205641
0.770271 0.608518 0.206689
0.784849 0.610741 0.207694
0.785896 0.613043 0.208436
0.786865 0.615290 0.209160
0.787282 0.617241 0.209779
0.787527 0.619046 0.210349
0.787491 0.619643 0.210535
0.786134 0.614602 0.208929
0.430135 0.738489 0.242475
0.428617 0.735882 0.241619
0.425019 0.729704 0.239591
0.419448 0.720140 0.236450
0.411916 0.707209 0.232205
0.405138 0.695571 0.228384
0.398177 0.683620 0.224460
0.391467 0.672100 0.220677
0.385150 0.661255 0.217116
0.379028 0.650741 0.213664
0.373489 0.640245 0.210225
0.376155 0.630852 0.207236
0.393225 0.623639 0.205126
0.420937 0.618461 0.203819
0.453330 0.615307 0.203248
0.488625 0.614112 0.203375
0.525218 0.614360 0.204013
0.559469 0.615488 0.204923
0.593117 0.616629 0.205852
0.623925 0.616934 0.206487
0.652444 0.617732 0.207257
0.678540 0.618859 0.208101
0.703111 0.620125 0.208972
0.726451 0.621508 0.209866
0.747957 0.623305 0.210863
0.767585 0.625427 0.211930
0.782812 0.627291 0.212830
0.786782 0.628274 0.213221
0.790594 0.629243 0.213605
0.791640 0.631605 0.214366
0.792222 0.634118 0.215165
0.792547 0.635444 0.215588
0.792188 0.633587 0.214998
0.445524 0.764910 0.251150
0.444077 0.762425 0.250334
0.440505 0.756293 0.248321
0.434763 0.746433 0.245084
0.428439 0.735576 0.241519
0.422065 0.724633 0.237926
0.415156 0.712772 0.234031
0.408951 0.702119 0.230533
0.402868 0.691674 0.227104
0.396768 0.681200 0.223665
0.390702 0.670711 0.220221
0.389706 0.661054 0.217105
0.400722 0.652797 0.214583
0.424489 0.646562 0.212878
0.454874 0.642187 0.211876
0.488396 0.640396 0.211771
0.523734 0.639812 0.212107
0.557098 0.638810 0.212306
0.589778 0.637940 0.212562
0.620840 0.636961 0.212780
0.648789 0.636781 0.213216
0.674870 0.637106 0.213794
0.699060 0.637777 0.214458
0.722281 0.638694 0.215193
0.744085 0.640219 0.216101
0.764870 0.642120 0.217113
0.780560 0.643439 0.217846
0.788100 0.643663 0.218071
0.795381 0.643893 0.218294
0.796256 0.646093 0.219001
0.796861 0.648339 0.219718
0.797370 0.650011 0.220253
0.797710 0.650659 0.220463
0.459116 0.788246 0.258812
0.457672 0.785765 0.257998
0.454239 0.779872 0.256063
0.449431 0.771617 0.253352
0.444000 0.762293 0.250291
0.437728 0.751525 0.246755
0.431079 0.740109 0.243007
0.424963 0.729609 0.239559
0.418659 0.718785 0.236005
0.413000 0.709069 0.232816
0.407613 0.699700 0.229740
0.403026 0.689409 0.226378
0.409520 0.681024 0.223759
0.428947 0.674194 0.221802
0.457199 0.668506 0.220340
0.488868 0.665716 0.219877
0.522668 0.663269 0.219580
0.554921 0.659892 0.218990
0.586457 0.657660 0.218779
0.617412 0.656261 0.218846
0.644533 0.655299 0.219007
0.670660 0.654731 0.219291
0.695031 0.655146 0.219867
0.718897 0.655935 0.220563
0.740533 0.657190 0.221373
0.761193 0.658673 0.222243
0.777731 0.659659 0.222882
0.790003 0.660072 0.223259
0.801172 0.660509 0.223624
0.801235 0.660735 0.223696
0.801303 0.660979 0.223774
0.801528 0.661959 0.224086
0.801931 0.663757 0.224658
0.471435 0.809395 0.265756
0.470164 0.807213 0.265040
0.467128 0.802000 0.263328
0.462808 0.794584 0.260893
0.457580 0.785608 0.257946
0.451453 0.775089 0.254492
0.445428 0.764744 0.251096
0.439511 0.754586 0.247761
0.433450 0.744180 0.244344
0.428172 0.735117 0.241368
0.422736 0.725732 0.238287
0.417667 0.716099 0.235130
0.420070 0.707684 0.232453
0.433734 0.699637 0.230032
0.459043 0.693132 0.228261
0.488686 0.689182 0.227388
0.520371 0.684747 0.226411
0.552206 0.679722 0.225274
0.582879 0.676729 0.224793
0.613834 0.674771 0.224669
0.640495 0.673161 0.224604
0.667144 0.672014 0.224701
0.691559 0.672186 0.225191
0.715830 0.672663 0.225787
0.737260 0.673414 0.226425
0.758054 0.674345 0.227117
0.775591 0.675034 0.227675
0.790937 0.675565 0.228146
0.803513 0.675907 0.228505
0.804457 0.675059 0.228258
0.805343 0.674233 0.228016
0.805866 0.674910 0.228239
0.806133 0.676740 0.228820
0.483027 0.829297 0.272291
0.481859 0.827291 0.271632
0.478915 0.822237 0.269973
0.474732 0.815056 0.267615
0.469663 0.806353 0.264758
0.464034 0.796688 0.261584
0.458717 0.787560 0.258587
0.453232 0.778143 0.255495
0.447660 0.768577 0.252354
0.441996 0.758851 0.249161
0.436906 0.750104 0.246289
0.432183 0.741424 0.243443
0.430404 0.732780 0.240642
0.439726 0.723483 0.237765
0.461337 0.716288 0.235721
0.488729 0.711135 0.234423
0.518157 0.704817 0.232799
0.549933 0.698666 0.231289
0.579576 0.695152 0.230614
0.610041 0.692523 0.230255
0.637064 0.690514 0.230058
0.664156 0.689129 0.230077
0.688619 0.688826 0.230407
0.713060 0.688840 0.230850
0.734363 0.688870 0.231251
0.755485 0.689117 0.231725
0.773661 0.689599 0.232224
0.790584 0.690209 0.232746
0.803317 0.690407 0.233059
0.806434 0.689434 0.232815
0.809446 0.688492 0.232579
0.810362 0.688637 0.232642
0.810261 0.689315 0.232854
0.493430 0.847158 0.278155
0.492339 0.845285 0.277540
0.489720 0.840789 0.276064
0.485943 0.834303 0.273935
0.481252 0.826250 0.271291
0.476183 0.817547 0.268433
0.470938 0.808542 0.265476
0.465912 0.799913 0.262643
0.460528 0.790669 0.259608
0.454994 0.781169 0.256489
0.450273 0.773063 0.253827
0.445557 0.764691 0.251080
0.442042 0.756059 0.248264
0.447146 0.746182 0.245149
0.463236 0.738117 0.242753
0.488709 0.731800 0.241048
0.516002 0.723995 0.238910
0.546935 0.717381 0.237226
0.576147 0.712953 0.236241
