output/ProPhoto/ProPhoto_to_ETERNA-BB_33grid.cube
TITLE "ProPhoto_to_ETERNA-BB"
# Input: ProPhoto RGB, gamma 1.8 (D50)
# Output: ProPhoto RGB, gamma 1.8 (D50) with film simulation look
# Use: Photoshop 3D LUT adjustment layer on standard ProPhoto document
# Source: FLog2C_to_ETERNA-BB_65grid_V.1.00.cube
# Generated from Fujifilm GFX ETERNA 55 F-Log2C LUT
LUT_3D_SIZE 33
0.000037 0.000030 0.000018
0.003082 0.001359 0.000498
0.015691 0.006649 0.003676
0.029895 0.012821 0.008121
0.049394 0.021295 0.013738
0.079952 0.034705 0.023594
0.128401 0.055260 0.036825
0.183286 0.077899 0.050943
0.236749 0.100436 0.064738
0.282544 0.119984 0.081308
0.324542 0.140516 0.099557
0.360385 0.160652 0.119494
0.390469 0.180687 0.140146
0.418055 0.202534 0.162408
0.442874 0.224891 0.184532
0.457337 0.242648 0.203354
0.472494 0.261275 0.222561
0.489474 0.282992 0.243692
0.507692 0.306532 0.265864
0.526536 0.330478 0.288182
0.538842 0.346462 0.301985
0.547967 0.358696 0.311832
0.548090 0.358862 0.311965
0.548090 0.358862 0.311965
0.548090 0.358862 0.311965
0.548090 0.358862 0.311965
0.548090 0.358862 0.311965
0.548090 0.358862 0.311965
0.548090 0.358862 0.311965
0.548090 0.358862 0.311965
0.548090 0.358862 0.311965
0.548090 0.358862 0.311965
0.548090 0.358862 0.311965
0.001849 0.003114 0.001083
0.002142 0.002120 0.000732
0.013050 0.005632 0.003147
0.027483 0.011814 0.007508
0.045904 0.019988 0.013698
0.074958 0.032787 0.022375
0.118853 0.051141 0.033305
0.172195 0.072967 0.048197
0.225670 0.095763 0.061858
0.272247 0.115308 0.077086
0.315494 0.135971 0.095841
0.353266 0.156471 0.115814
0.385143 0.176685 0.136141
0.413647 0.198690 0.158623
0.439646 0.221929 0.181536
0.456102 0.241197 0.201832
0.471978 0.260585 0.221891
0.489638 0.283193 0.243885
0.507839 0.306720 0.266040
0.526674 0.330671 0.288359
0.538910 0.346564 0.302070
0.548023 0.358771 0.311893
0.548090 0.358862 0.311965
0.548090 0.358862 0.311965
0.548090 0.358862 0.311965
0.548090 0.358862 0.311965
0.548090 0.358862 0.311965
0.548090 0.358862 0.311965
0.548090 0.358862 0.311965
0.548090 0.358862 0.311965
0.548090 0.358862 0.311965
0.548090 0.358862 0.311965
0.548090 0.358862 0.311965
0.008008 0.013382 0.005321
0.007321 0.011932 0.004516
0.012517 0.011532 0.005092
0.025177 0.014547 0.007464
0.040260 0.018717 0.011237
0.062217 0.027490 0.018329
0.095235 0.041875 0.028908
0.143968 0.061415 0.040658
0.194869 0.081997 0.053307
0.242378 0.103079 0.067816
0.285539 0.121641 0.082588
0.324762 0.140755 0.099376
0.358812 0.159460 0.117801
0.387706 0.178210 0.137535
0.414057 0.198628 0.158681
0.439125 0.220529 0.179770
0.454239 0.238714 0.199182
0.468893 0.256811 0.218022
0.484303 0.276181 0.237416
0.502080 0.298958 0.259056
0.520481 0.323281 0.281026
0.539071 0.347947 0.302600
0.544647 0.354675 0.308376
0.548090 0.358862 0.311965
0.548090 0.358862 0.311965
0.548090 0.358862 0.311965
0.548090 0.358862 0.311965
0.548090 0.358862 0.311965
0.548090 0.358862 0.311965
0.548090 0.358862 0.311965
0.548090 0.358862 0.311965
0.548090 0.358862 0.311965
0.548090 0.358862 0.311965
0.017511 0.029103 0.011804
0.016492 0.027435 0.010560
0.018187 0.026671 0.010813
0.027964 0.027986 0.012499
0.039779 0.029234 0.013921
0.057419 0.034317 0.018337
0.082857 0.041972 0.024643
0.120827 0.055486 0.034740
0.166253 0.072877 0.046877
0.210549 0.089689 0.057349
0.252773 0.107101 0.070648
0.292594 0.124733 0.085640
0.327673 0.142162 0.101824
0.358884 0.159770 0.118837
0.385829 0.177478 0.136827
0.409746 0.195671 0.155164
0.433542 0.216047 0.176349
0.449606 0.233209 0.193922
0.462787 0.249483 0.210368
0.476690 0.267294 0.228158
0.492095 0.286669 0.247026
0.507997 0.306515 0.266171
0.525438 0.329386 0.286780
0.540069 0.348817 0.303846
0.544897 0.354918 0.308784
0.548090 0.358862 0.311965
0.548090 0.358862 0.311965
0.548090 0.358862 0.311965
0.548090 0.358862 0.311965
0.548090 0.358862 0.311965
0.548090 0.358862 0.311965
0.548090 0.358862 0.311965
0.548090 0.358862 0.311965
0.026657 0.044266 0.017384
0.025231 0.042068 0.015980
0.024650 0.039806 0.015321
0.032353 0.040118 0.017966
0.042068 0.041911 0.019302
0.056716 0.044874 0.021364
0.075847 0.050017 0.025523
0.106021 0.058889 0.031552
0.146012 0.071417 0.039919
0.188771 0.086833 0.050029
0.229620 0.102236 0.061758
0.266962 0.117350 0.074788
0.301580 0.132662 0.089445
0.333834 0.148370 0.105232
0.361926 0.163507 0.120875
0.385932 0.178214 0.136966
0.406917 0.193990 0.153474
0.428318 0.211784 0.171505
0.446409 0.228859 0.188805
0.458012 0.242974 0.203729
0.470135 0.258353 0.219505
0.482493 0.274451 0.235634
0.497846 0.293942 0.254355
0.513357 0.313743 0.272935
0.529262 0.334370 0.291588
0.541968 0.350923 0.306193
0.545476 0.355424 0.309499
0.548090 0.358862 0.311965
0.548090 0.358862 0.311965
0.548090 0.358862 0.311965
0.548090 0.358862 0.311965
0.548090 0.358862 0.311965
0.548090 0.358862 0.311965
0.036689 0.060666 0.024203
0.035034 0.058082 0.022328
0.032334 0.053252 0.020238
0.038506 0.054191 0.023423
0.046473 0.054016 0.024928
0.057572 0.057511 0.025507
0.074471 0.060810 0.028604
0.098980 0.067030 0.033014
0.133565 0.077263 0.038724
0.172294 0.088662 0.046084
0.210994 0.102010 0.055542
0.248319 0.116498 0.068364
0.283514 0.131072 0.080379
0.315797 0.146474 0.095534
0.345728 0.162406 0.113590
0.373098 0.177869 0.130111
0.395411 0.192927 0.145051
0.416542 0.209073 0.162241
0.436063 0.225181 0.179092
0.453583 0.240706 0.194441
0.464142 0.252625 0.207145
0.473099 0.263708 0.219359
0.483788 0.276587 0.233331
0.494840 0.290191 0.247713
0.507756 0.306644 0.264136
0.520805 0.323453 0.280291
0.534019 0.340732 0.295495
0.545707 0.356061 0.308796
0.546986 0.357569 0.310505
0.547987 0.358730 0.311811
0.548135 0.358904 0.312008
0.548105 0.358876 0.311980
0.548090 0.358862 0.311965
0.048353 0.080277 0.031044
0.046496 0.077237 0.029585
0.042605 0.070547 0.027277
0.045936 0.069699 0.028340
0.053030 0.068650 0.029848
0.062244 0.070002 0.032073
0.075705 0.072927 0.032921
0.095866 0.077284 0.036531
0.125977 0.085112 0.041490
0.160636 0.094832 0.047534
0.197006 0.105988 0.054510
0.232989 0.118326 0.063084
0.268152 0.131957 0.073668
0.301279 0.146714 0.087093
0.332244 0.162837 0.103707
0.360924 0.179828 0.122232
0.385865 0.196044 0.139981
0.408516 0.212832 0.156625
0.430192 0.229910 0.173528
0.451377 0.247548 0.191104
0.467859 0.263686 0.206275
0.481953 0.278433 0.220283
0.489955 0.288291 0.231779
0.498337 0.298583 0.243495
0.507640 0.310015 0.255884
0.517267 0.322032 0.268413
0.528043 0.335951 0.282089
0.538597 0.349478 0.295382
0.548373 0.360918 0.307187
0.557743 0.371959 0.318634
0.558024 0.371867 0.319590
0.556377 0.369445 0.318281
0.554932 0.367394 0.317210
0.063137 0.104813 0.040111
0.060482 0.100414 0.038443
0.055996 0.092878 0.035693
0.056346 0.088845 0.035284
0.061888 0.086969 0.036503
0.070107 0.086820 0.038480
0.080402 0.088205 0.040304
0.097110 0.091263 0.041694
0.122632 0.097177 0.044930
0.154793 0.105266 0.050958
0.188407 0.114523 0.057788
0.222768 0.126035 0.065382
0.257118 0.138548 0.074376
0.290355 0.152388 0.084880
0.321917 0.167904 0.097884
0.351226 0.184409 0.113449
0.377677 0.201002 0.131310
0.403310 0.219921 0.152288
0.427163 0.238655 0.172139
0.449243 0.257100 0.190406
0.472164 0.277530 0.208628
0.492277 0.296155 0.225182
0.502005 0.307226 0.236377
0.510756 0.317484 0.247334
0.517936 0.326459 0.257736
0.525776 0.336113 0.268262
0.534744 0.346914 0.279261
0.543779 0.357826 0.290346
0.554529 0.370736 0.302828
0.565051 0.383389 0.315053
0.569648 0.389028 0.321712
0.573083 0.393229 0.327173
0.574518 0.394918 0.330202
0.082257 0.136565 0.052395
0.078556 0.130485 0.049818
0.072146 0.119821 0.045689
0.070322 0.113674 0.044485
0.074239 0.108898 0.044601
0.079794 0.107005 0.045958
0.088834 0.106675 0.047843
0.102399 0.109127 0.049754
0.123081 0.113803 0.050969
0.152254 0.120122 0.055716
0.184120 0.127980 0.061300
0.217706 0.137264 0.069170
0.251007 0.149385 0.078003
0.283909 0.161994 0.087640
0.315556 0.176553 0.099089
0.345829 0.193392 0.112806
0.374988 0.212239 0.128891
0.401496 0.232656 0.148501
0.426737 0.252458 0.168182
0.450761 0.271688 0.187956
0.474267 0.292206 0.207182
0.496196 0.312091 0.225474
0.515166 0.331348 0.242362
0.528562 0.345421 0.255740
0.534056 0.351883 0.264174
0.540162 0.358800 0.273035
0.547411 0.366817 0.282747
0.554727 0.375154 0.292422
0.562318 0.384383 0.302105
0.569654 0.393322 0.311430
0.577935 0.402959 0.322131
0.586081 0.412372 0.332627
0.590840 0.417753 0.339281
0.104631 0.174131 0.066102
0.100337 0.166924 0.063431
0.092544 0.153750 0.058515
0.088374 0.144125 0.055972
0.090273 0.137438 0.055591
0.094019 0.133011 0.056249
0.100972 0.131039 0.056705
0.112056 0.130941 0.059133
0.129387 0.135354 0.061330
0.155172 0.140303 0.063229
0.185329 0.146327 0.068796
0.217355 0.154713 0.076213
0.250169 0.165650 0.085247
0.282342 0.177520 0.094859
0.314432 0.192880 0.106730
0.345982 0.210583 0.120323
0.376479 0.229482 0.134992
0.403739 0.248924 0.151056
0.430305 0.269397 0.168172
0.456017 0.290253 0.185840
0.480072 0.310508 0.205432
0.503760 0.331146 0.225269
0.527325 0.352994 0.246196
0.544322 0.369701 0.262424
0.554233 0.381013 0.273590
0.561443 0.389147 0.283058
0.565559 0.393509 0.290478
0.570013 0.398262 0.297898
0.575680 0.404505 0.305966
0.581322 0.410760 0.313988
0.588036 0.418616 0.323152
0.594675 0.426325 0.332192
0.599898 0.432547 0.339828
0.128182 0.212910 0.081776
0.124360 0.206626 0.079313
0.116476 0.193441 0.073929
0.110124 0.181680 0.069741
0.110727 0.173081 0.069131
0.113204 0.166190 0.069029
0.116768 0.160186 0.068298
0.126248 0.159481 0.070819
0.139916 0.160398 0.073822
0.162423 0.165351 0.076190
0.190132 0.170747 0.078792
0.221266 0.178871 0.086385
0.252910 0.188077 0.094612
0.286148 0.200381 0.104519
0.318261 0.214896 0.116377
0.349938 0.231853 0.130276
0.380990 0.250703 0.145712
0.410102 0.271110 0.162196
0.437709 0.291194 0.176876
0.464003 0.310996 0.190904
0.488205 0.332006 0.207806
0.511709 0.352322 0.225390
0.534901 0.372259 0.245047
0.555531 0.391868 0.263937
0.573899 0.410882 0.281978
0.584144 0.421547 0.294221
0.587126 0.424931 0.301129
0.590274 0.428396 0.307618
0.593924 0.432051 0.313675
0.597616 0.435678 0.319684
0.602703 0.441546 0.327331
0.607609 0.447198 0.334779
0.611995 0.452251 0.341970
0.152837 0.252903 0.098447
0.148695 0.246229 0.095680
0.140701 0.233435 0.090602
0.134076 0.221556 0.085590
0.133429 0.211359 0.084852
0.134408 0.202963 0.083489
0.137977 0.196980 0.083483
0.144516 0.192784 0.084320
0.156735 0.193528 0.087346
0.176061 0.195485 0.091453
0.200597 0.200832 0.094012
0.230355 0.208716 0.099387
0.261251 0.218692 0.107038
0.293828 0.229367 0.119180
0.326981 0.244181 0.130973
0.358766 0.260299 0.143924
0.389586 0.277768 0.158122
0.420648 0.298120 0.174044
0.449533 0.317427 0.189105
0.476797 0.336505 0.203694
0.501998 0.357803 0.218476
0.524787 0.377487 0.233099
0.544842 0.395327 0.247593
0.565761 0.414653 0.264548
0.587456 0.434957 0.283614
0.600029 0.447591 0.297744
0.606157 0.454789 0.308045
0.610364 0.459217 0.316006
0.611965 0.459883 0.320981
0.613609 0.460678 0.325999
0.617116 0.464509 0.332886
0.620655 0.468568 0.339643
0.624554 0.473244 0.346397
0.177036 0.291825 0.115670
0.173104 0.285541 0.112996
0.164811 0.272325 0.107208
0.157828 0.259637 0.102051
0.156635 0.249538 0.100478
0.158642 0.242495 0.100441
0.159910 0.234483 0.098902
0.166236 0.230298 0.099996
0.176802 0.228858 0.103329
0.193418 0.229486 0.108079
0.215783 0.234372 0.112600
0.242548 0.241289 0.116571
0.273282 0.250893 0.123298
0.304043 0.260110 0.132231
0.337230 0.275200 0.146242
0.370613 0.292271 0.160598
0.402642 0.309626 0.174343
0.432263 0.326270 0.186784
0.462435 0.346796 0.202231
0.490999 0.367535 0.217896
0.516238 0.388103 0.233429
0.538925 0.406721 0.247289
0.559351 0.423592 0.259652
0.578957 0.441740 0.272892
0.597916 0.460303 0.286339
0.613000 0.475178 0.299467
0.625857 0.487885 0.312619
0.632667 0.493873 0.322494
0.633251 0.492970 0.328701
0.634021 0.492369 0.334609
0.635624 0.493045 0.339629
0.637308 0.493862 0.344645
0.639210 0.495972 0.350087
0.201259 0.330185 0.132413
0.197233 0.324030 0.129365
0.189971 0.312373 0.124157
0.181452 0.297574 0.118187
0.181782 0.288783 0.118445
0.181954 0.279889 0.116713
0.183733 0.272755 0.116902
0.188360 0.268132 0.117098
0.197532 0.264859 0.119150
0.212847 0.265107 0.124418
0.233753 0.268784 0.130779
0.259305 0.275919 0.136919
0.287823 0.284979 0.143006
0.318383 0.294840 0.150804
0.351729 0.310034 0.164563
0.385045 0.325783 0.178065
0.417886 0.343308 0.192220
0.450033 0.362673 0.207149
0.478450 0.380024 0.220900
0.505310 0.397900 0.234854
0.530322 0.417235 0.249539
0.553859 0.436191 0.263381
0.576202 0.454652 0.276535
0.594152 0.470987 0.287931
0.610360 0.486350 0.298575
0.625200 0.501191 0.308944
0.639243 0.515578 0.318965
0.646446 0.521871 0.326788
0.648185 0.521705 0.332701
0.650015 0.521565 0.338529
0.651884 0.521346 0.344510
0.653646 0.521178 0.350354
0.654963 0.521672 0.355717
0.225355 0.367825 0.149914
0.221895 0.362514 0.147328
0.214470 0.350987 0.141868
0.206986 0.337890 0.136588
0.204798 0.326928 0.134617
0.206671 0.319442 0.134868
0.207538 0.311088 0.133870
0.211278 0.304625 0.133484
0.220000 0.301688 0.136736
0.234305 0.301856 0.141441
0.254449 0.305727 0.147944
0.278209 0.311820 0.156163
0.305262 0.320352 0.164563
0.335133 0.331313 0.172618
0.366401 0.343795 0.180951
0.399637 0.359898 0.194739
0.432943 0.377551 0.209639
0.465671 0.396052 0.224993
0.494300 0.413980 0.238625
0.521430 0.431963 0.252721
0.546989 0.450157 0.267467
0.568914 0.467174 0.280206
0.589025 0.483415 0.291934
0.606537 0.498422 0.302464
0.623084 0.512808 0.312503
0.639012 0.527259 0.322136
0.654402 0.541389 0.331461
0.662068 0.548468 0.336486
0.665094 0.551356 0.338940
0.667595 0.552884 0.342478
0.668452 0.550935 0.348809
0.669274 0.549249 0.354942
0.670339 0.548797 0.360093
0.248472 0.403427 0.166804
0.245220 0.398481 0.164352
0.238747 0.388435 0.159657
0.231054 0.375484 0.153736
0.230607 0.366612 0.153082
0.232160 0.358721 0.153335
0.232063 0.349737 0.151537
0.235593 0.342946 0.151823
0.242731 0.339221 0.154065
0.255978 0.339499 0.158668
0.275595 0.342447 0.165489
0.299069 0.348045 0.175015
0.325729 0.356461 0.184336
0.354489 0.367280 0.192704
0.384524 0.379978 0.200849
0.417290 0.395332 0.213315
0.450108 0.412748 0.227492
0.481837 0.430647 0.242239
0.510160 0.447718 0.256845
0.536822 0.464793 0.270891
0.562019 0.481743 0.284431
0.583361 0.497067 0.295964
0.603280 0.511634 0.306760
0.620531 0.525936 0.316363
0.637060 0.539785 0.325601
0.652086 0.552742 0.333830
0.666557 0.565269 0.341746
0.675761 0.573753 0.346657
0.682541 0.580335 0.350186
0.686292 0.583139 0.352826
0.684522 0.578965 0.353952
0.683052 0.575165 0.355306
0.683883 0.573943 0.360287
0.270488 0.436888 0.183260
0.267609 0.432495 0.181110
0.261260 0.422739 0.176335
0.254331 0.411100 0.171064
0.254463 0.403265 0.170781
0.255663 0.394486 0.170467
0.256668 0.387164 0.169943
0.259808 0.380255 0.170223
0.266760 0.376745 0.172214
0.279324 0.377057 0.176888
0.297183 0.378606 0.183315
0.320277 0.383949 0.192974
0.346321 0.392476 0.202258
0.374047 0.403159 0.211242
0.403352 0.415660 0.220677
0.435436 0.430557 0.232127
0.467719 0.447697 0.245625
0.498613 0.464804 0.259696
0.526876 0.481169 0.274410
0.553023 0.497223 0.287944
0.577732 0.512858 0.300689
0.597998 0.526746 0.310547
0.617239 0.540059 0.319870
0.634246 0.553336 0.329039
0.650707 0.566196 0.337913
0.664536 0.577412 0.344961
0.677906 0.588270 0.351768
0.688760 0.597784 0.357313
0.698672 0.606711 0.362388
0.703378 0.610256 0.364533
0.700877 0.606296 0.362606
0.698403 0.602384 0.360708
0.697942 0.599868 0.363990
0.290987 0.468126 0.198421
0.288507 0.464265 0.196646
0.282909 0.455481 0.192698
0.277882 0.445912 0.188806
0.276404 0.436758 0.187058
0.278547 0.429411 0.187575
0.280488 0.422895 0.187863
0.283666 0.416582 0.188183
0.290997 0.413636 0.190476
0.302927 0.413396 0.194822
0.319579 0.414835 0.201090
0.341557 0.419674 0.209739
0.366979 0.428515 0.219001
0.393910 0.438719 0.229144
0.422782 0.450865 0.239827
0.453816 0.465255 0.250831
0.485466 0.481790 0.263823
0.515552 0.497978 0.277176
0.543649 0.513694 0.291014
0.569418 0.528824 0.303834
0.593885 0.543398 0.316025
0.612602 0.556089 0.323950
0.630625 0.568343 0.331778
0.647405 0.580080 0.340582
0.663470 0.591373 0.349005
0.676614 0.601337 0.355509
0.689364 0.610985 0.361816
0.701233 0.620615 0.367501
0.712676 0.630010 0.372956
0.718209 0.634212 0.375365
0.717775 0.633150 0.374683
0.717301 0.632060 0.373976
0.714404 0.627508 0.373250
0.311435 0.499419 0.213296
0.308926 0.495459 0.211575
0.303778 0.487191 0.208003
0.297789 0.477328 0.203775
0.299334 0.470834 0.203909
0.301219 0.464000 0.204325
0.303089 0.457410 0.204562
0.306760 0.451995 0.205205
0.313600 0.448581 0.206961
0.325407 0.448270 0.211008
0.342634 0.451353 0.217593
0.364006 0.457118 0.225997
0.388291 0.464632 0.235677
0.415353 0.474766 0.247247
0.443701 0.486404 0.258510
0.472837 0.499265 0.269470
0.503114 0.514720 0.282264
0.531474 0.529506 0.294734
0.558141 0.543672 0.306884
0.584240 0.558678 0.318371
0.608762 0.572966 0.329047
0.627168 0.584483 0.336662
0.644689 0.595457 0.343918
0.660615 0.605522 0.350597
0.675627 0.615325 0.357064
0.688136 0.625012 0.363221
0.700271 0.634394 0.369192
0.712045 0.642986 0.374557
0.723477 0.651316 0.379750
0.729366 0.655587 0.382745
0.731234 0.656894 0.384123
0.733000 0.658109 0.385421
0.730140 0.652815 0.383431
0.328746 0.526239 0.225953
0.326894 0.523348 0.224684
0.322539 0.516545 0.221699
0.319123 0.508629 0.218852
0.318725 0.501605 0.217704
0.322561 0.496887 0.219551
0.323939 0.489959 0.218950
0.327877 0.485234 0.219744
0.334778 0.482232 0.221906
0.346793 0.482338 0.226520
0.364042 0.485796 0.233364
0.385225 0.491616 0.242040
0.408908 0.498837 0.252137
0.435320 0.508865 0.263063
0.462863 0.519705 0.274650
0.491021 0.531550 0.286443
0.519779 0.545464 0.298276
0.547312 0.559579 0.309577
0.573864 0.573517 0.320444
0.598507 0.587069 0.330622
0.621233 0.599661 0.339804
0.639622 0.610242 0.346719
0.656879 0.620322 0.353458
0.672494 0.629756 0.360057
0.686871 0.638737 0.366231
0.698848 0.647054 0.371694
0.710465 0.655134 0.376996
0.721626 0.662955 0.382092
0.732482 0.670550 0.387042
0.738944 0.675455 0.390149
0.743143 0.678949 0.392314
0.746633 0.681617 0.394083
0.743776 0.676408 0.392034
0.345405 0.552388 0.237978
0.343752 0.549844 0.236830
0.340159 0.543826 0.234103
0.335787 0.535465 0.230286
0.338542 0.531667 0.231757
0.341897 0.527033 0.232888
0.343942 0.520952 0.232516
0.348124 0.516912 0.233666
0.354976 0.514329 0.236245
0.366940 0.514562 0.241257
0.384358 0.518174 0.248385
0.405325 0.523896 0.257418
0.428739 0.531363 0.267451
0.454050 0.540836 0.277265
0.480932 0.550841 0.289798
0.508212 0.561933 0.301803
0.535589 0.574403 0.312540
0.562814 0.588341 0.322745
0.588958 0.601914 0.332504
0.611804 0.613671 0.341517
0.632804 0.624587 0.349385
0.651216 0.634384 0.355611
0.668189 0.643827 0.362204
0.683595 0.652921 0.369264
0.697357 0.661002 0.375357
0.708847 0.667685 0.380082
0.719935 0.674320 0.384730
0.730315 0.681551 0.389578
0.740404 0.688570 0.394293
0.747772 0.694389 0.397227
0.754153 0.699734 0.399556
0.758830 0.703283 0.401194
0.755958 0.698599 0.399730
0.359283 0.574084 0.247204
0.357870 0.571675 0.246183
0.354521 0.565966 0.243765
0.352744 0.560207 0.242318
0.355886 0.557139 0.243902
0.358738 0.552979 0.244809
0.361911 0.548781 0.245639
0.366662 0.545439 0.247067
0.374418 0.543819 0.249967
0.386109 0.544406 0.255004
0.402199 0.546766 0.261911
0.422852 0.552402 0.270462
0.445928 0.559774 0.280002
0.470415 0.568244 0.290310
0.496675 0.578339 0.303051
0.523274 0.589499 0.314153
0.549905 0.601305 0.323972
0.575843 0.614021 0.333466
0.600642 0.626193 0.342535
0.623515 0.637558 0.351020
0.644058 0.647940 0.358472
0.662402 0.657399 0.364962
0.678567 0.666017 0.371297
0.693083 0.673983 0.377481
0.705874 0.681115 0.382774
0.717008 0.687444 0.387213
0.727741 0.693842 0.391545
0.737929 0.700749 0.395813
0.747836 0.707455 0.399966
0.755684 0.712462 0.402744
0.763011 0.717088 0.405233
0.767901 0.719743 0.406818
0.766362 0.717094 0.406011
0.371135 0.592244 0.255774
0.369779 0.590046 0.254851
0.367248 0.585403 0.253079
0.367669 0.582172 0.252970
0.369862 0.579081 0.253892
0.374306 0.576510 0.256024
0.377612 0.573084 0.257140
0.383026 0.570487 0.258643
0.391426 0.569842 0.261998
0.403076 0.570807 0.267205
0.418036 0.572678 0.273730
0.439236 0.579070 0.282389
0.461901 0.586094 0.292276
0.485883 0.594178 0.302996
0.511510 0.604400 0.314479
0.537338 0.615342 0.324344
0.562985 0.626506 0.333564
0.588043 0.638165 0.342783
0.611943 0.649339 0.351426
0.634544 0.660003 0.359465
0.654389 0.669661 0.366637
0.672553 0.678666 0.373260
0.688103 0.686578 0.379063
0.702350 0.693914 0.384444
0.714520 0.700403 0.389160
0.725338 0.706322 0.393429
0.735701 0.712365 0.397479
0.745526 0.718720 0.401264
0.755091 0.724904 0.404946
0.763066 0.729235 0.407677
0.770787 0.733377 0.410297
0.775694 0.735681 0.411882
0.775745 0.734811 0.411693
0.381218 0.607501 0.263464
0.380505 0.606210 0.262891
0.379116 0.603548 0.261719
0.377649 0.600000 0.260394
0.382809 0.598478 0.263234
0.387473 0.596556 0.265571
0.391557 0.594257 0.267194
0.397128 0.591792 0.268281
0.405494 0.592169 0.272078
0.417433 0.593885 0.277456
0.433511 0.597432 0.284506
0.454477 0.603935 0.293708
0.476529 0.610261 0.304254
0.500212 0.618543 0.314213
0.525390 0.629016 0.323222
0.550099 0.639257 0.332215
0.574776 0.649760 0.341281
0.599485 0.660924 0.350663
0.622589 0.671135 0.359019
0.644539 0.680689 0.366682
0.663452 0.689432 0.373585
0.681267 0.697796 0.380149
0.696840 0.705475 0.385181
0.711673 0.712849 0.389821
0.723457 0.718830 0.394213
0.734023 0.724241 0.398438
0.743901 0.729648 0.402246
0.753101 0.735061 0.405648
0.761970 0.740267 0.408927
0.769325 0.744438 0.411696
0.776496 0.748493 0.414387
0.781316 0.750886 0.415988
0.783412 0.751357 0.416333
0.390838 0.622817 0.270043
0.390070 0.621667 0.269473
0.388235 0.618916 0.268110
0.390262 0.616998 0.269096
0.394146 0.615256 0.271012
0.398974 0.614578 0.273596
0.404021 0.612930 0.275473
0.409873 0.611333 0.277402
0.417855 0.611926 0.281181
0.430316 0.614062 0.286887
0.447096 0.618489 0.294551
0.467513 0.624803 0.303804
0.489014 0.631415 0.313649
0.512516 0.640513 0.322333
0.536917 0.650708 0.330464
0.560913 0.660600 0.339324
0.585240 0.670874 0.348420
0.609772 0.681480 0.357720
0.632116 0.690889 0.365824
0.653586 0.699825 0.373452
0.671704 0.707948 0.379564
0.689256 0.715828 0.385439
0.704610 0.723032 0.390344
0.719560 0.730038 0.395081
0.730875 0.735492 0.399155
0.741422 0.740595 0.403044
0.750893 0.745433 0.406477
0.759614 0.750064 0.409596
0.767881 0.754495 0.412582
0.774881 0.758453 0.415274
0.781702 0.762308 0.417896
0.786728 0.764765 0.419469
0.790343 0.766137 0.420228
0.399597 0.636463 0.276006
0.398913 0.635337 0.275556
0.399246 0.633694 0.275497
0.399904 0.631432 0.275479
0.403972 0.631030 0.277594
0.410680 0.631848 0.281157
0.415190 0.629886 0.283110
0.421533 0.629294 0.286033
0.429960 0.629940 0.290023
0.441691 0.631725 0.295645
0.459125 0.636699 0.303771
0.478999 0.643224 0.312363
0.500118 0.650953 0.320673
0.523259 0.660431 0.328758
0.546842 0.670205 0.337063
0.570509 0.680172 0.345946
0.594812 0.690217 0.355016
0.619263 0.700204 0.364053
0.640827 0.709110 0.372129
0.661624 0.717707 0.379677
0.679333 0.725410 0.384502
0.696433 0.732815 0.389339
0.711432 0.739261 0.394995
0.726069 0.745543 0.400476
0.737046 0.750631 0.403873
0.747745 0.755581 0.407179
0.756811 0.759860 0.410237
0.765163 0.763837 0.413155
0.772974 0.767663 0.415905
0.779794 0.771268 0.418369
0.786444 0.774780 0.420769
0.791743 0.777141 0.422257
0.796309 0.778907 0.423278
0.407735 0.648268 0.281511
0.407542 0.647513 0.281314
0.407086 0.645699 0.280839
0.408408 0.644464 0.281403
0.414275 0.645724 0.284633
0.419745 0.645691 0.287421
0.424578 0.644374 0.289659
0.431461 0.644572 0.292984
0.440402 0.645546 0.297303
0.451867 0.647596 0.302799
0.469715 0.653185 0.311390
0.489278 0.660465 0.319158
0.510127 0.668840 0.326518
0.532837 0.678375 0.334764
0.555886 0.687954 0.343247
0.579096 0.697530 0.351887
0.603061 0.707283 0.360484
0.626678 0.716810 0.368872
