output/ProPhoto/ProPhoto_to_CLASSIC-Neg._33grid.cube
TITLE "ProPhoto_to_CLASSIC-Neg."
# Input: ProPhoto RGB, gamma 1.8 (D50)
# Output: ProPhoto RGB, gamma 1.8 (D50) with film simulation look
# Use: Photoshop 3D LUT adjustment layer on standard ProPhoto document
# Source: FLog2C_to_CLASSIC-Neg._65grid_V.1.00.cube
# Generated from Fujifilm GFX ETERNA 55 F-Log2C LUT
LUT_3D_SIZE 9
0.000016 0.000016 0.000008
0.065067 0.025922 0.009703
0.420911 0.168821 0.063094
0.630458 0.259586 0.101781
0.664873 0.292402 0.166326
0.680050 0.333716 0.226602
0.682424 0.340268 0.235113
0.682424 0.340268 0.235113
0.682424 0.340268 0.235113
0.026474 0.045217 0.016193
0.034293 0.032669 0.010961
0.208080 0.090086 0.033126
0.533365 0.218554 0.081296
0.644352 0.267706 0.109239
0.663983 0.290920 0.164242
0.678030 0.327538 0.217837
0.682424 0.340268 0.235113
0.682424 0.340268 0.235113
0.089900 0.153690 0.054099
0.068639 0.117345 0.041177
0.126738 0.118450 0.039777
0.383631 0.199882 0.071138
0.584486 0.279160 0.100776
0.656181 0.315300 0.121747
0.672431 0.331107 0.158701
0.680649 0.349545 0.194139
0.689825 0.371297 0.233059
0.184651 0.315583 0.111414
0.152411 0.260513 0.091803
0.147746 0.226464 0.076654
0.299606 0.255532 0.086305
0.535513 0.329968 0.114813
0.638068 0.374001 0.131101
0.685294 0.403416 0.149931
0.692940 0.410991 0.173637
0.697330 0.416439 0.196576
0.283604 0.484702 0.171156
0.255077 0.435907 0.154099
0.224528 0.381614 0.133479
0.293784 0.378600 0.126646
0.508422 0.428879 0.144963
0.637646 0.469626 0.160449
0.694056 0.494337 0.170019
0.719423 0.511126 0.185181
0.719389 0.502804 0.195095
0.360968 0.616857 0.218152
0.342039 0.584503 0.206741
0.312945 0.534847 0.188788
0.332389 0.516500 0.175866
0.499672 0.544313 0.181691
0.648506 0.579903 0.195244
0.709784 0.596312 0.201710
0.745281 0.608767 0.208184
0.750921 0.606487 0.214068
0.410060 0.700784 0.247672
0.398431 0.680879 0.240741
0.378211 0.646322 0.228526
0.376420 0.626096 0.216648
0.490637 0.641863 0.214898
0.653092 0.672189 0.224710
0.726851 0.687477 0.230698
0.763265 0.693969 0.233977
0.779915 0.694289 0.237210
0.441917 0.755184 0.267001
0.434524 0.742600 0.262412
0.420425 0.718502 0.253851
0.409604 0.697545 0.244435
0.480254 0.707750 0.239083
0.647030 0.739883 0.246909
0.736511 0.754883 0.252362
0.776766 0.759596 0.254524
0.800140 0.761788 0.256888
0.464306 0.793455 0.280575
0.459169 0.784679 0.277370
0.448613 0.766641 0.271038
0.438109 0.748479 0.264039
0.473301 0.753040 0.257458
0.624217 0.782589 0.261629
0.738161 0.803134 0.268133
0.784567 0.808237 0.270192
0.810587 0.810014 0.271296
0.011093 0.005372 0.028426
0.052278 0.020775 0.012682
0.335864 0.134301 0.050227
0.606273 0.247407 0.093293
0.660947 0.284495 0.152058
0.677111 0.325898 0.215592
0.682424 0.340268 0.235113
0.682424 0.340268 0.235113
0.682424 0.340268 0.235113
0.047038 0.066792 0.072174
0.040232 0.044525 0.037045
0.180920 0.083257 0.033482
0.499413 0.207573 0.077108
0.627677 0.262208 0.103777
0.660973 0.283567 0.150851
0.673097 0.313594 0.198176
0.682419 0.340258 0.235103
0.682424 0.340268 0.235113
0.126136 0.202553 0.130204
0.089952 0.145626 0.088749
0.129924 0.132853 0.061928
0.363017 0.200315 0.074559
0.570612 0.278736 0.103900
0.648701 0.316047 0.129882
0.674797 0.335436 0.169771
0.681710 0.350697 0.200760
0.689937 0.371729 0.233284
0.232789 0.386946 0.191440
0.189361 0.316136 0.149957
0.167948 0.262050 0.113565
0.294391 0.275009 0.104571
0.525728 0.341295 0.123793
0.634155 0.384028 0.144401
0.685472 0.412182 0.170920
0.699902 0.424571 0.203197
0.703005 0.428512 0.226163
0.326422 0.550114 0.235525
0.293652 0.496120 0.206227
0.254092 0.429031 0.173590
0.300989 0.411611 0.153696
0.499501 0.450416 0.159864
0.636136 0.488210 0.175166
0.695226 0.510648 0.192000
0.726656 0.527115 0.216233
0.730528 0.525003 0.237072
0.386990 0.657510 0.253589
0.368374 0.626666 0.237478
0.337406 0.574449 0.215067
0.342866 0.548434 0.197858
0.487445 0.566823 0.196584
0.643492 0.598258 0.208096
0.710861 0.613561 0.218727
0.748351 0.624413 0.232999
0.762513 0.626635 0.250949
0.424186 0.724650 0.257611
0.412971 0.705600 0.250341
0.392712 0.671012 0.237736
0.383869 0.646623 0.226274
0.472059 0.655515 0.223022
0.638399 0.685714 0.232509
0.723920 0.700756 0.241028
0.764709 0.706973 0.249826
0.786558 0.710426 0.262756
0.450978 0.770691 0.272415
0.443632 0.758148 0.267878
0.429338 0.733711 0.259344
0.416565 0.710948 0.250250
0.463127 0.715236 0.243258
0.621124 0.745559 0.248975
0.727482 0.763995 0.256565
0.774230 0.769263 0.262237
0.801581 0.771994 0.270592
0.470162 0.803448 0.284199
0.464526 0.793824 0.280736
0.454735 0.777077 0.274846
0.443415 0.757750 0.267948
0.460280 0.755440 0.259826
0.590360 0.782306 0.262213
0.722031 0.807086 0.269404
0.778154 0.814984 0.272732
0.808336 0.816985 0.276455
0.050165 0.030721 0.120333
0.051577 0.022925 0.074906
0.250819 0.099796 0.056875
0.561341 0.225891 0.096068
0.655919 0.272621 0.155955
0.672529 0.304483 0.217379
0.685369 0.342368 0.257242
0.684335 0.342689 0.248166
0.682857 0.340586 0.238191
0.104301 0.110175 0.223512
0.069402 0.070402 0.133964
0.172816 0.090074 0.087361
0.469878 0.200993 0.097534
0.616349 0.261301 0.135695
0.666127 0.286311 0.198375
0.677152 0.311481 0.246050
0.688883 0.344904 0.282347
0.690298 0.352025 0.283387
0.227070 0.308157 0.378176
0.146491 0.200928 0.239764
0.155579 0.164489 0.159611
0.360967 0.214123 0.134569
0.566357 0.286772 0.151626
0.648712 0.322894 0.189105
0.684173 0.344681 0.242096
0.693348 0.364105 0.279906
0.702998 0.390598 0.309965
0.333993 0.496749 0.458756
0.266054 0.401669 0.350137
0.221234 0.324054 0.255606
0.320679 0.317949 0.206411
0.535540 0.370515 0.198858
0.640619 0.404782 0.218086
0.692289 0.427808 0.251108
0.713928 0.441776 0.292950
0.719787 0.451316 0.319848
0.406581 0.627623 0.497202
0.366748 0.573486 0.427138
0.315999 0.499298 0.347746
0.345316 0.470372 0.286899
0.519979 0.493804 0.259353
0.649302 0.520302 0.262056
0.707172 0.535235 0.280665
0.740101 0.546485 0.309105
0.749196 0.549347 0.339670
0.447767 0.705789 0.504382
0.425715 0.677032 0.460714
0.391084 0.628455 0.401963
0.388064 0.599525 0.349656
0.510869 0.609283 0.312244
0.659008 0.631672 0.304026
0.726346 0.641857 0.311735
0.761720 0.647541 0.329747
0.781211 0.649070 0.354224
0.473412 0.758629 0.493556
0.459578 0.740540 0.465361
0.436096 0.708235 0.422354
0.422353 0.683695 0.383297
0.493321 0.687992 0.347529
0.650182 0.714058 0.331864
0.736968 0.725088 0.333319
0.777169 0.727882 0.343804
0.802308 0.729107 0.363032
0.489902 0.796089 0.472757
0.480464 0.783882 0.452349
0.464101 0.761233 0.421776
0.448935 0.738702 0.396125
0.481340 0.739487 0.365343
0.622310 0.764400 0.345530
0.734785 0.782607 0.343892
0.786107 0.787802 0.351121
0.813484 0.787845 0.365080
0.500331 0.823751 0.442932
0.494126 0.815432 0.430042
0.482324 0.798732 0.408688
0.470056 0.780232 0.391007
0.477345 0.775114 0.370293
0.582603 0.796126 0.350542
0.720495 0.821993 0.345812
0.786019 0.830537 0.351268
0.819231 0.831901 0.361957
0.124285 0.080577 0.295858
0.093546 0.057459 0.220535
0.203102 0.085853 0.130495
0.513406 0.207183 0.134076
0.638094 0.259833 0.190844
0.672912 0.285062 0.266963
0.686900 0.327866 0.300650
0.699008 0.364669 0.331703
0.696501 0.360212 0.315605
0.195277 0.174638 0.442517
0.139631 0.121592 0.319471
0.178169 0.106423 0.193645
0.446666 0.199493 0.167099
0.607657 0.263536 0.198835
0.670507 0.292610 0.258181
0.683065 0.310722 0.304081
0.695012 0.346398 0.332360
0.704064 0.375856 0.355847
0.354994 0.432307 0.680695
0.245587 0.291261 0.483638
0.204313 0.210265 0.316828
0.374679 0.239718 0.251243
0.571686 0.302400 0.247318
0.654197 0.335590 0.278120
0.694614 0.356944 0.324462
0.705700 0.377279 0.361940
0.717011 0.410352 0.387874
0.447031 0.601157 0.755372
0.364590 0.493484 0.609848
0.293938 0.390823 0.456166
0.365817 0.367873 0.364365
0.556107 0.403901 0.326759
0.655545 0.429808 0.331297
0.705249 0.446919 0.356123
0.729516 0.458896 0.390292
0.736519 0.471642 0.415940
0.488206 0.685705 0.764767
0.445615 0.633613 0.681075
0.387127 0.557922 0.569356
0.401480 0.522288 0.472704
0.554343 0.535317 0.413373
0.671608 0.551747 0.395533
0.725942 0.560767 0.402362
0.757250 0.566728 0.421811
0.768701 0.569269 0.447000
0.515838 0.743167 0.766349
0.490562 0.714120 0.711625
0.451686 0.667257 0.631707
0.441899 0.638343 0.550686
0.547392 0.643641 0.484994
0.685841 0.662068 0.452296
0.747949 0.666970 0.447077
0.779998 0.667363 0.454413
0.800219 0.667638 0.470920
0.534053 0.784761 0.757124
0.518412 0.767203 0.721628
0.490437 0.734840 0.659831
0.471448 0.709830 0.599000
0.530371 0.712705 0.534553
0.673981 0.735488 0.492494
0.757781 0.744459 0.478591
0.797224 0.745870 0.479578
0.820326 0.744991 0.489733
0.545697 0.814761 0.741563
0.534980 0.803246 0.715483
0.515244 0.781329 0.668780
0.495436 0.757652 0.625364
0.519826 0.757933 0.566984
0.644398 0.780531 0.520041
0.754667 0.798261 0.499201
0.805125 0.801737 0.495572
0.832078 0.800921 0.500652
0.552095 0.837140 0.716841
0.544572 0.829141 0.697907
0.530935 0.814394 0.663845
0.515280 0.796367 0.627472
0.516606 0.790365 0.585488
0.606689 0.809481 0.537947
0.737871 0.834295 0.510713
0.804142 0.842018 0.502833
0.836692 0.842791 0.503766
0.222147 0.149957 0.523865
0.220868 0.148611 0.521082
0.197723 0.099601 0.266864
0.471177 0.199664 0.222281
0.622827 0.260178 0.256379
0.679466 0.286289 0.321317
0.686168 0.303911 0.345072
0.696833 0.341357 0.362499
0.703081 0.363858 0.369990
0.293912 0.262673 0.652247
0.271830 0.235469 0.611423
0.208745 0.139230 0.347327
0.430238 0.206201 0.277146
0.602871 0.270663 0.285454
0.671906 0.300940 0.330078
0.693678 0.316715 0.379345
0.700596 0.343765 0.384419
0.711399 0.380019 0.402600
0.429288 0.510131 0.828590
0.366947 0.419814 0.734798
0.271728 0.273148 0.503960
0.398252 0.274636 0.394054
0.582496 0.325107 0.363100
0.663291 0.352523 0.375833
0.705889 0.371874 0.408612
0.717442 0.385576 0.439640
0.725620 0.414534 0.445887
0.529080 0.688211 0.938441
0.453321 0.582294 0.817626
0.368556 0.459966 0.646924
0.414676 0.419851 0.527935
0.581597 0.440474 0.463717
0.674111 0.456642 0.449259
0.721192 0.468869 0.460098
0.745963 0.477662 0.482149
0.752174 0.488494 0.498373
0.547612 0.735140 0.927882
0.506678 0.681769 0.855474
0.450456 0.608404 0.750086
0.455590 0.568372 0.641591
0.589250 0.573218 0.561263
0.696854 0.582917 0.526460
0.745062 0.585033 0.518704
0.774691 0.587968 0.525545
0.786004 0.587781 0.539058
0.562911 0.773192 0.918557
0.539497 0.744145 0.873872
0.501989 0.697648 0.802249
0.490645 0.669340 0.716409
0.582692 0.672205 0.638269
0.709351 0.686256 0.590843
0.767995 0.687324 0.571153
0.798970 0.686104 0.568213
0.817646 0.684293 0.573779
0.574573 0.803236 0.908178
0.560957 0.787218 0.880148
0.535380 0.757215 0.827273
0.515355 0.731414 0.766168
0.566764 0.732635 0.693506
0.699951 0.753518 0.637517
0.780526 0.762182 0.611573
0.816379 0.760944 0.601649
0.838042 0.758119 0.601412
0.582191 0.825719 0.894452
0.573863 0.816358 0.876106
0.556532 0.796862 0.838023
0.537793 0.775269 0.794325
0.557763 0.773828 0.732805
0.670682 0.794786 0.672808
0.775917 0.810992 0.639907
0.824791 0.813995 0.625757
0.849091 0.811895 0.620702
0.587399 0.843870 0.878202
0.581265 0.837270 0.863962
0.568510 0.823329 0.834769
0.554518 0.807792 0.802936
0.554718 0.802561 0.756796
0.634478 0.819385 0.697927
0.757326 0.843327 0.658286
0.823439 0.851629 0.639750
0.853325 0.851131 0.631183
0.317027 0.241754 0.706063
0.316625 0.241037 0.705441
0.236648 0.139810 0.452275
0.447603 0.204036 0.346661
0.614107 0.267143 0.345616
0.681708 0.296235 0.387008
0.697943 0.309433 0.429154
0.702034 0.334976 0.414843
0.711489 0.369156 0.422194
0.377532 0.359627 0.789426
0.377187 0.358919 0.788992
0.266905 0.196308 0.536779
0.429264 0.226136 0.412495
0.603309 0.284823 0.388559
0.674900 0.313209 0.410981
0.705614 0.329428 0.450418
0.710126 0.347788 0.450207
0.717141 0.378844 0.448331
0.484996 0.574068 0.912517
0.484830 0.573713 0.912327
0.344025 0.351029 0.677707
0.428989 0.320882 0.539662
0.598298 0.354240 0.481463
0.676604 0.376245 0.475263
0.717631 0.392028 0.489723
0.731477 0.401181 0.512013
0.736312 0.423360 0.506765
0.546326 0.710495 0.962972
0.520803 0.662577 0.946507
0.431982 0.526957 0.790835
0.458816 0.472273 0.665859
0.607103 0.479478 0.586541
0.694329 0.487800 0.555903
0.736848 0.493398 0.552533
0.761221 0.499042 0.560925
0.766574 0.502580 0.570979
0.576552 0.777351 0.970041
0.549951 0.724452 0.958481
0.494893 0.647516 0.864801
0.497848 0.608071 0.762311
0.617386 0.607513 0.678720
0.718487 0.611538 0.633379
0.764188 0.609852 0.615680
0.790633 0.608009 0.611727
0.802899 0.606286 0.616054
0.584777 0.794324 0.972288
0.571283 0.769004 0.963848
0.537027 0.722939 0.905827
0.525824 0.694625 0.825963
0.610498 0.695852 0.748381
0.729699 0.707831 0.694433
0.787277 0.707838 0.669054
0.815502 0.703779 0.658118
0.833499 0.700404 0.655618
0.594765 0.814996 0.974395
0.585854 0.800615 0.964402
0.564168 0.773132 0.924360
0.547357 0.749923 0.870021
0.595753 0.751043 0.799981
0.721018 0.769726 0.740357
0.797850 0.776171 0.710188
0.832447 0.774420 0.693971
0.852869 0.770917 0.686603
0.602595 0.833579 0.971154
0.595826 0.824028 0.960591
0.580762 0.806216 0.930021
0.564699 0.786587 0.894753
0.583885 0.786399 0.835963
0.690143 0.805824 0.776413
0.791906 0.821467 0.738146
0.839661 0.823801 0.718104
0.862740 0.820486 0.707619
0.607859 0.848712 0.963064
0.602211 0.842176 0.951284
0.590993 0.829212 0.927605
0.578696 0.814748 0.902326
0.580231 0.810442 0.858899
0.653409 0.827121 0.802203
0.770248 0.849924 0.758382
0.836548 0.857891 0.734292
0.866125 0.856703 0.720854
0.401786 0.348022 0.820765
0.401454 0.347299 0.820348
0.301063 0.209742 0.647705
0.440635 0.224279 0.490658
0.611066 0.281701 0.450191
0.681087 0.309010 0.464510
0.710758 0.324231 0.494429
0.712380 0.339764 0.483233
0.717860 0.368544 0.473083
0.451947 0.454266 0.877375
0.451691 0.453679 0.877093
0.336797 0.282316 0.711534
0.441007 0.261748 0.553167
0.608034 0.307601 0.496282
0.680174 0.331576 0.495284
0.718556 0.348731 0.514802
0.722357 0.358585 0.523486
0.725802 0.384069 0.504698
0.528781 0.627434 0.953953
0.528665 0.627129 0.953871
0.410564 0.439297 0.810545
0.459275 0.375586 0.664464
0.612454 0.390498 0.586275
0.689349 0.405003 0.563962
0.728525 0.415539 0.563909
0.745796 0.422537 0.574817
0.747650 0.435481 0.568366
0.562370 0.729558 0.965120
0.562349 0.729461 0.965110
0.482763 0.589298 0.890746
0.496356 0.524598 0.769213
0.629208 0.519897 0.684003
0.712647 0.521004 0.642401
0.751193 0.520253 0.627218
0.775985 0.521398 0.626190
0.780996 0.521486 0.632738
0.579850 0.783471 0.971012
0.567465 0.757903 0.968156
0.530538 0.683546 0.947868
0.528734 0.642059 0.846674
0.637365 0.637298 0.764078
0.736131 0.639196 0.713298
0.780049 0.633845 0.690201
0.804549 0.628998 0.679799
0.817897 0.626107 0.678092
0.593690 0.812661 0.974074
0.580882 0.786201 0.971260
0.560758 0.744855 0.965382
0.552606 0.716648 0.901215
0.630189 0.717235 0.824837
0.745080 0.726665 0.769937
0.802026 0.725697 0.740930
0.829537 0.720868 0.725044
0.845884 0.714806 0.717072
0.599129 0.823769 0.975680
0.592463 0.810081 0.974094
0.579765 0.784283 0.970543
0.569065 0.763598 0.936454
0.614825 0.765062 0.871042
0.734381 0.782699 0.812610
0.810167 0.788880 0.778080
0.844183 0.786071 0.759158
0.863549 0.781484 0.747711
0.605722 0.837329 0.977253
0.601684 0.829031 0.976290
0.593428 0.812454 0.973866
0.582349 0.794541 0.956771
0.601374 0.795046 0.902051
0.701882 0.813870 0.844229
0.802420 0.829567 0.803964
0.848586 0.831069 0.781918
0.871765 0.827158 0.767932
0.612381 0.850859 0.978867
0.609566 0.845165 0.978209
0.603229 0.833017 0.975105
0.593733 0.818597 0.962497
0.595942 0.815089 0.921668
0.663490 0.830780 0.867494
0.776886 0.853567 0.823435
0.844070 0.862183 0.799033
0.873703 0.860588 0.781632
0.480839 0.453310 0.893132
0.480574 0.452681 0.892843
0.393099 0.333653 0.809859
0.450327 0.265084 0.625344
0.613797 0.305815 0.553646
0.685581 0.328981 0.543229
0.721957 0.343999 0.554561
0.726926 0.353311 0.559560
0.727939 0.375359 0.532637
0.519596 0.541059 0.934126
0.519399 0.540584 0.933909
0.424830 0.407272 0.848517
0.458631 0.313430 0.672974
0.616318 0.339528 0.594775
0.688024 0.357395 0.573297
0.727792 0.370706 0.576595
0.736789 0.377025 0.589020
0.737480 0.395752 0.565348
0.562391 0.668969 0.958743
0.562341 0.668753 0.958719
0.482443 0.541025 0.911990
0.487841 0.435098 0.763113
0.627133 0.433223 0.675329
0.702760 0.438250 0.639774
0.739905 0.443375 0.627712
0.760353 0.447247 0.629390
0.761572 0.453496 0.625290
0.578183 0.743967 0.966732
0.578174 0.743884 0.966723
0.526986 0.649241 0.955435
0.525113 0.571836 0.847666
0.644443 0.558361 0.758010
0.727167 0.553600 0.711338
0.765035 0.548042 0.689119
0.788469 0.546120 0.681106
0.794737 0.543264 0.681645
0.586877 0.790099 0.971827
0.586878 0.790070 0.971824
0.549249 0.715125 0.963413
0.554817 0.673611 0.912556
0.653351 0.665786 0.827268
0.751232 0.665561 0.775212
0.794042 0.658075 0.748629
0.817345 0.650336 0.732115
0.830768 0.644608 0.726258
0.596845 0.819069 0.975010
0.588019 0.800846 0.972894
0.568254 0.759934 0.968306
0.572219 0.735427 0.954519
0.644072 0.733956 0.881169
0.755875 0.744087 0.824784
0.812663 0.742028 0.794617
0.839974 0.735833 0.775872
0.856932 0.728699 0.765235
0.603256 0.832201 0.976554
0.595573 0.816356 0.974838
0.583655 0.791975 0.971979
0.581163 0.773620 0.969273
0.626008 0.775504 0.919807
0.740854 0.792618 0.862772
0.817765 0.798680 0.828039
0.852453 0.795442 0.806417
0.871345 0.789547 0.791220
0.607510 0.840802 0.977728
0.602990 0.831557 0.976627
0.595288 0.816088 0.974480
0.588302 0.799701 0.972689
0.613227 0.800903 0.947110
0.707966 0.819288 0.891333
0.807622 0.834582 0.851083
0.854474 0.836436 0.828084
0.877839 0.832193 0.811908
0.612516 0.851061 0.978909
0.610198 0.846432 0.978148
0.604056 0.833881 0.976875
0.597546 0.820587 0.975308
0.607338 0.819503 0.963872
0.670386 0.833297 0.914437
0.778530 0.854932 0.870205
0.847480 0.864224 0.842496
0.878382 0.863632 0.825540
0.554787 0.547312 0.941328
0.554597 0.546819 0.941128
0.550654 0.541230 0.938684
0.467649 0.326622 0.736863
0.618862 0.341663 0.645031
0.692623 0.357141 0.615076
0.731197 0.369344 0.612145
0.740850 0.374829 0.619536
0.740317 0.389197 0.594368
0.575617 0.610853 0.953427
0.575523 0.610505 0.953392
0.556040 0.583141 0.949856
0.482509 0.381280 0.775067
0.624076 0.381380 0.679584
0.698622 0.390533 0.644872
0.735673 0.398094 0.634054
0.750294 0.402865 0.637240
0.750543 0.412682 0.622833
0.587138 0.692311 0.961285
0.587136 0.692164 0.961271
0.560498 0.650250 0.956848
0.516549 0.499259 0.844923
0.640475 0.479180 0.749609
0.714998 0.475301 0.702282
0.751591 0.473681 0.682686
0.773240 0.474866 0.677300
0.775039 0.475631 0.674931
0.586697 0.747734 0.966691
0.586700 0.747667 0.966682
0.564385 0.706079 0.962082
0.551721 0.618716 0.912212
0.658115 0.597475 0.820506
0.740671 0.587824 0.768621
0.778427 0.578296 0.741397
0.799950 0.571836 0.728782
0.808329 0.567523 0.723362
0.588946 0.785817 0.971146
0.588944 0.785779 0.971143
0.568528 0.744496 0.966568
0.573041 0.699952 0.955748
0.663122 0.690515 0.879878
0.760336 0.688719 0.825763
0.804630 0.679806 0.795327
0.827333 0.671438 0.777199
0.841536 0.663693 0.765958
0.593850 0.811728 0.974196
0.593840 0.811701 0.974193
0.574753 0.772287 0.969731
0.580335 0.749017 0.967211
0.650967 0.748265 0.924653
0.762382 0.758914 0.868729
0.820780 0.756393 0.837174
0.848265 0.749925 0.816722
0.863834 0.741506 0.801802
0.605157 0.836104 0.976698
0.599651 0.824826 0.975573
0.586773 0.798371 0.972589
0.584428 0.780341 0.970635
0.632892 0.782427 0.954915
0.741467 0.798111 0.900835
0.821178 0.806466 0.866009
0.857566 0.803308 0.843925
0.877097 0.797177 0.828442
0.609687 0.845309 0.977945
0.605171 0.836104 0.977012
0.596846 0.818988 0.975148
0.589488 0.802455 0.973005
0.618665 0.804670 0.971538
0.709056 0.822583 0.926906
0.808571 0.838267 0.886881
0.857720 0.840430 0.863012
0.882174 0.836401 0.846186
0.613000 0.852084 0.978815
0.610595 0.847132 0.978463
0.604733 0.835211 0.976923
0.598774 0.823119 0.975450
0.610671 0.820899 0.975024
0.672772 0.834800 0.949013
0.778965 0.856638 0.904249
0.848332 0.865968 0.877590
0.881717 0.866044 0.860115
