output/ProPhoto/ProPhoto_to_ASTIA_33grid.cube
TITLE "ProPhoto_to_ASTIA"
# Input: ProPhoto RGB, gamma 1.8 (D50)
# Output: ProPhoto RGB, gamma 1.8 (D50) with film simulation look
# Use: Photoshop 3D LUT adjustment layer on standard ProPhoto document
# Source: FLog2C_to_ASTIA_65grid_V.1.00.cube
# Generated from Fujifilm GFX ETERNA 55 F-Log2C LUT
LUT_3D_SIZE 5
0.000047 0.000042 0.000017
0.433454 0.170192 0.070022
0.725241 0.285456 0.425212
0.729608 0.294853 0.453364
0.729608 0.294853 0.453364
0.141250 0.242508 0.079625
0.206071 0.162332 0.055150
0.595004 0.259686 0.095581
0.716500 0.290462 0.314251
0.728341 0.317545 0.397753
0.357767 0.614241 0.201680
0.317625 0.516455 0.169773
0.544281 0.501092 0.168403
0.741710 0.517145 0.177580
0.748063 0.478829 0.181864
0.471483 0.809478 0.265784
0.439336 0.749876 0.246244
0.573881 0.695141 0.230523
0.720809 0.676477 0.227084
0.807102 0.679721 0.229776
0.536361 0.920865 0.302356
0.518973 0.890445 0.292372
0.599397 0.814598 0.269068
0.724272 0.785962 0.261844
0.833851 0.773784 0.259923
0.085076 0.034923 0.233467
0.297432 0.116976 0.143619
0.724034 0.284937 0.410860
0.733316 0.295618 0.487551
0.729957 0.294971 0.457629
0.256548 0.361440 0.401142
0.189352 0.189633 0.189440
0.554189 0.250313 0.240407
0.728750 0.298072 0.437139
0.739928 0.328391 0.492110
0.399515 0.666209 0.321730
0.334252 0.564143 0.225247
0.517152 0.515223 0.193481
0.702101 0.510763 0.245549
0.764178 0.495940 0.358672
0.490053 0.840952 0.278600
0.454592 0.780443 0.256462
0.548943 0.726996 0.240330
0.696880 0.704779 0.236544
0.807615 0.691367 0.263925
0.540232 0.927512 0.304539
0.536533 0.921161 0.302453
0.577898 0.861773 0.283891
0.709306 0.834318 0.276994
0.821778 0.830271 0.277578
0.288616 0.126818 0.787617
0.246912 0.099440 0.509963
0.673880 0.265900 0.567703
0.759128 0.299745 0.685952
0.750072 0.304763 0.615959
0.426218 0.469674 0.895753
0.286495 0.266524 0.651089
0.549088 0.265647 0.538883
0.751652 0.313814 0.616291
0.759467 0.336449 0.640334
0.524332 0.724684 0.849793
0.426459 0.594884 0.679621
0.525357 0.525625 0.525676
0.700821 0.517025 0.517589
0.787152 0.505959 0.568257
0.556121 0.839402 0.735757
0.509801 0.776490 0.655739
0.538468 0.713682 0.525234
0.692125 0.694594 0.486145
0.813545 0.688098 0.504223
0.580701 0.924475 0.628809
0.559774 0.894874 0.594033
0.557322 0.844783 0.507596
0.696063 0.822832 0.459790
0.800680 0.806374 0.463052
0.358093 0.233828 0.926104
0.339031 0.157121 0.920574
0.611297 0.242525 0.765656
0.782265 0.309490 0.830711
0.768727 0.307347 0.743990
0.460756 0.523662 0.945296
0.403445 0.377987 0.933035
0.541598 0.298797 0.755881
0.755410 0.333914 0.754664
0.778948 0.339878 0.774457
0.563918 0.752829 0.967428
0.511730 0.643145 0.951294
0.531547 0.548932 0.764675
0.703242 0.531582 0.706967
0.810805 0.523540 0.715937
0.605757 0.841157 0.973499
0.567620 0.787796 0.913063
0.549941 0.722539 0.784271
0.700275 0.700671 0.700676
0.815872 0.689951 0.679804
0.613330 0.897774 0.881870
0.594861 0.875160 0.844601
0.564267 0.827880 0.770128
0.687472 0.807932 0.680575
0.790895 0.792797 0.649498
0.400086 0.367511 0.933609
0.398314 0.362482 0.933280
0.557008 0.234189 0.922500
0.787353 0.312496 0.913094
0.792561 0.315773 0.888250
0.473736 0.554294 0.947925
0.457971 0.517023 0.944693
0.522249 0.346791 0.921849
0.732948 0.357805 0.873718
0.800652 0.358723 0.889957
0.552377 0.728439 0.964859
0.529078 0.678492 0.959631
0.528748 0.576828 0.939508
0.702755 0.553430 0.848349
0.826782 0.545693 0.829517
0.605338 0.838394 0.977417
0.578614 0.783533 0.970810
0.554661 0.724585 0.953881
0.692680 0.701825 0.846002
0.804887 0.687640 0.802769
0.624954 0.878231 0.982062
0.615655 0.860056 0.978452
0.588505 0.818311 0.942854
0.671168 0.793563 0.825433
0.778765 0.780282 0.778796
