output/ProPhoto/ProPhoto_to_ASTIA_33grid.cube
TITLE "ProPhoto_to_ASTIA"
# Input: ProPhoto RGB, gamma 1.8 (D50)
# Output: ProPhoto RGB, gamma 1.8 (D50) with film simulation look
# Use: Photoshop 3D LUT adjustment layer on standard ProPhoto document
# Source: FLog2C_to_ASTIA_65grid_V.1.00.cube
# Generated from Fujifilm GFX ETERNA 55 F-Log2C LUT
LUT_3D_SIZE 33
0.000047 0.000042 0.000017
0.003894 0.001547 0.000579
0.016650 0.006574 0.002521
0.043246 0.017011 0.006450
0.096280 0.037839 0.014422
0.171721 0.067443 0.025480
0.257199 0.100989 0.038208
0.348411 0.136797 0.052970
0.433454 0.170192 0.070022
0.512114 0.201088 0.092184
0.585754 0.230034 0.126998
0.651720 0.255999 0.177954
0.697767 0.274178 0.237247
0.713648 0.280550 0.299795
0.719031 0.282831 0.363059
0.723896 0.284890 0.413121
0.725241 0.285456 0.425212
0.726261 0.285901 0.433472
0.727137 0.286519 0.440022
0.728169 0.288942 0.447375
0.728941 0.291828 0.451246
0.729598 0.294808 0.453337
0.729608 0.294853 0.453364
0.729608 0.294853 0.453364
0.729608 0.294853 0.453364
0.729608 0.294853 0.453364
0.729608 0.294853 0.453364
0.729608 0.294853 0.453364
0.729608 0.294853 0.453364
0.729608 0.294853 0.453364
0.729608 0.294853 0.453364
0.729608 0.294853 0.453364
0.729608 0.294853 0.453364
0.001830 0.003141 0.001031
0.001744 0.001948 0.000648
0.013253 0.005224 0.001963
0.037322 0.014706 0.005658
0.085471 0.033591 0.012853
0.158555 0.062271 0.023607
0.241333 0.094761 0.035861
0.330039 0.129583 0.049875
0.416399 0.163494 0.065972
0.494245 0.194069 0.086736
0.570718 0.224122 0.119048
0.638725 0.250880 0.166069
0.690884 0.271453 0.225325
0.712793 0.280190 0.289765
0.718296 0.282520 0.355115
0.723580 0.284758 0.410500
0.725178 0.285430 0.424827
0.726267 0.285904 0.433521
0.727142 0.286529 0.440073
0.728180 0.288973 0.447414
0.728948 0.291852 0.451252
0.729603 0.294828 0.453349
0.729608 0.294853 0.453364
0.729608 0.294853 0.453364
0.729608 0.294853 0.453364
0.729608 0.294853 0.453364
0.729608 0.294853 0.453364
0.729608 0.294853 0.453364
0.729608 0.294853 0.453364
0.729608 0.294853 0.453364
0.729608 0.294853 0.453364
0.729608 0.294853 0.453364
0.729608 0.294853 0.453364
0.007104 0.012197 0.004005
0.006387 0.010920 0.003586
0.010027 0.008968 0.003021
0.028983 0.012855 0.004705
0.066831 0.026490 0.009931
0.127107 0.049962 0.018830
0.200404 0.078706 0.029785
0.284015 0.111514 0.042612
0.366571 0.143927 0.056088
0.444774 0.174637 0.072265
0.518626 0.203648 0.095354
0.586705 0.230409 0.128358
0.649086 0.254961 0.174919
0.694974 0.273069 0.231208
0.712322 0.280005 0.289533
0.718247 0.282495 0.352767
0.722339 0.284237 0.399547
0.724547 0.285170 0.420756
0.725763 0.285682 0.430700
0.726428 0.286106 0.438524
0.727596 0.287894 0.446139
0.729197 0.292165 0.453259
0.729428 0.293754 0.453312
0.729608 0.294853 0.453364
0.729608 0.294853 0.453364
0.729608 0.294853 0.453364
0.729608 0.294853 0.453364
0.729608 0.294853 0.453364
0.729608 0.294853 0.453364
0.729608 0.294853 0.453364
0.729608 0.294853 0.453364
0.729608 0.294853 0.453364
0.729608 0.294853 0.453364
0.016145 0.027719 0.009101
0.014852 0.025499 0.008372
0.013556 0.021992 0.007230
0.023192 0.019994 0.006748
0.053020 0.026324 0.009441
0.102630 0.042819 0.015866
0.167647 0.066628 0.024953
0.239665 0.094334 0.035408
0.316970 0.124471 0.047448
0.392757 0.154209 0.060534
0.461331 0.181140 0.076648
0.529170 0.207791 0.099771
0.592133 0.232545 0.132304
0.649800 0.255241 0.175351
0.695040 0.273085 0.226020
0.711882 0.279808 0.279362
0.716922 0.281937 0.339316
0.721503 0.283870 0.386591
0.724813 0.285266 0.418422
0.725616 0.285611 0.427627
0.726461 0.286002 0.435417
0.727415 0.286641 0.442845
0.728438 0.288937 0.448290
0.729502 0.292496 0.452732
0.729586 0.293890 0.453211
0.729608 0.294853 0.453364
0.729608 0.294853 0.453364
0.729608 0.294853 0.453364
0.729608 0.294853 0.453364
0.729608 0.294853 0.453364
0.729608 0.294853 0.453364
0.729608 0.294853 0.453364
0.729608 0.294853 0.453364
0.030067 0.051621 0.016949
0.028075 0.048201 0.015826
0.024722 0.042425 0.013930
0.026136 0.036777 0.012135
0.044468 0.036729 0.012433
0.084699 0.044911 0.015942
0.140421 0.061962 0.022698
0.206321 0.084441 0.031418
0.277006 0.110740 0.041418
0.350156 0.138378 0.051903
0.419226 0.164943 0.062824
0.481785 0.189234 0.076614
0.541301 0.212553 0.098062
0.597776 0.234755 0.129640
0.650108 0.255353 0.170222
0.696253 0.273548 0.219645
0.709051 0.278675 0.269705
0.715380 0.281290 0.323363
0.719796 0.283159 0.372587
0.723337 0.284657 0.408699
0.725094 0.285394 0.423984
0.726191 0.285853 0.432565
0.727091 0.286325 0.440042
0.727956 0.287182 0.446732
0.728697 0.289622 0.450886
0.729451 0.292860 0.453829
0.729539 0.293949 0.453608
0.729608 0.294853 0.453364
0.729608 0.294853 0.453364
0.729608 0.294853 0.453364
0.729608 0.294853 0.453364
0.729608 0.294853 0.453364
0.729608 0.294853 0.453364
0.050519 0.086735 0.028479
0.046845 0.080427 0.026408
0.040988 0.070371 0.023106
0.037897 0.062770 0.020626
0.045632 0.056887 0.018845
0.074177 0.059610 0.020221
0.122273 0.068103 0.024004
0.182578 0.085222 0.030891
0.246883 0.106090 0.039069
0.315709 0.129706 0.048220
0.382061 0.153885 0.057458
0.443557 0.176591 0.066155
0.500463 0.197855 0.075977
0.553319 0.217906 0.092410
0.603654 0.237308 0.118895
0.651965 0.256136 0.155453
0.697334 0.273940 0.201360
0.709002 0.278610 0.249046
0.713608 0.280534 0.299553
0.718061 0.282422 0.352886
0.721197 0.283746 0.385392
0.723768 0.284829 0.409593
0.724802 0.285264 0.418958
0.725739 0.285672 0.427652
0.726436 0.286334 0.434728
0.727208 0.287727 0.441218
0.728252 0.290557 0.446508
0.729341 0.294114 0.451056
0.729484 0.294500 0.452308
0.729590 0.294801 0.453217
0.729608 0.294853 0.453364
0.729608 0.294853 0.453364
0.729608 0.294853 0.453364
0.077161 0.132476 0.043497
0.072825 0.125031 0.041053
0.064208 0.110237 0.036195
0.057313 0.098024 0.032188
0.057864 0.090346 0.029728
0.074579 0.085239 0.028333
0.112811 0.088241 0.029995
0.167368 0.098099 0.034344
0.225559 0.113077 0.040490
0.288041 0.131128 0.047749
0.352849 0.152267 0.056027
0.414569 0.172660 0.064000
0.469322 0.191470 0.071298
0.519021 0.209210 0.078739
0.565752 0.226201 0.090065
0.611068 0.242830 0.110255
0.656031 0.259427 0.141038
0.688962 0.271720 0.178930
0.708030 0.278753 0.222062
0.711441 0.279827 0.269206
0.715304 0.281333 0.317858
0.719253 0.282953 0.362339
0.720628 0.283572 0.377195
0.721873 0.284217 0.389985
0.722883 0.285109 0.399758
0.723960 0.286463 0.409014
0.725291 0.288792 0.417535
0.726681 0.291752 0.425648
0.727821 0.294799 0.432005
0.729044 0.298191 0.438177
0.729198 0.298120 0.441530
0.729143 0.297339 0.444056
0.729161 0.296738 0.446086
0.108358 0.186038 0.061084
0.102867 0.176610 0.057988
0.093480 0.160494 0.052697
0.082766 0.142085 0.046652
0.077831 0.130045 0.042723
0.085804 0.122201 0.040307
0.111739 0.119393 0.039805
0.157378 0.122364 0.041615
0.212849 0.131998 0.045894
0.271232 0.145069 0.051428
0.332597 0.161301 0.058076
0.389690 0.178070 0.064797
0.442314 0.194751 0.071372
0.490882 0.210212 0.077469
0.536528 0.225195 0.083410
0.579714 0.239757 0.090444
0.620820 0.253556 0.104007
0.663388 0.268276 0.129429
0.692049 0.277918 0.161789
0.705766 0.281975 0.199591
0.709573 0.282189 0.242928
0.712784 0.282523 0.286939
0.715925 0.283264 0.323556
0.718408 0.284276 0.350388
0.719383 0.285582 0.359804
0.720477 0.287251 0.369613
0.721684 0.289459 0.380141
0.722943 0.292133 0.389915
0.724663 0.296392 0.398425
0.726426 0.301274 0.406709
0.727219 0.303580 0.412449
0.727944 0.305385 0.417765
0.728539 0.306234 0.422129
0.141250 0.242508 0.079625
0.135765 0.233091 0.076533
0.125073 0.214734 0.070506
0.114873 0.197221 0.064756
0.105556 0.180165 0.059163
0.105129 0.167431 0.055065
0.120433 0.159518 0.052734
0.157541 0.158260 0.052925
0.206071 0.162332 0.055150
0.259716 0.170613 0.058941
0.316425 0.181747 0.063795
0.371285 0.195242 0.069390
0.422328 0.208708 0.074908
0.468138 0.221072 0.079966
0.512266 0.233850 0.085111
0.554888 0.246919 0.090318
0.595004 0.259686 0.095581
0.632895 0.271136 0.104463
0.668464 0.282049 0.120895
0.701960 0.292479 0.146246
0.706601 0.291648 0.179271
0.709997 0.290746 0.217417
0.712434 0.289894 0.259601
0.714846 0.289852 0.293907
0.716500 0.290462 0.314251
0.718032 0.291695 0.330804
0.719404 0.293911 0.341915
0.720824 0.296576 0.352492
0.722358 0.300547 0.362222
0.723922 0.304795 0.371599
0.725515 0.309556 0.381344
0.727197 0.314579 0.390873
0.728341 0.317545 0.397753
0.174526 0.299640 0.098384
0.168546 0.289372 0.095012
0.157493 0.270395 0.088781
0.146313 0.251201 0.082480
0.136367 0.233913 0.076805
0.131021 0.218668 0.071841
0.139517 0.208230 0.068595
0.165667 0.202340 0.067079
0.207545 0.203716 0.068211
0.256400 0.207860 0.070461
0.307036 0.213685 0.073389
0.359092 0.222454 0.077354
0.408589 0.233309 0.081957
0.452508 0.243302 0.086186
0.495312 0.254312 0.090716
0.536289 0.265174 0.095165
0.574805 0.275272 0.099327
0.610626 0.284847 0.103299
0.646841 0.295033 0.108681
0.682632 0.305482 0.118299
0.698807 0.307666 0.136411
0.710108 0.308560 0.162810
0.711310 0.306155 0.196999
0.713007 0.304196 0.231943
0.715028 0.302574 0.264757
0.716751 0.302483 0.288589
0.717902 0.303978 0.301038
0.719200 0.305991 0.313127
0.720702 0.309138 0.324509
0.722216 0.312345 0.335582
0.723809 0.317520 0.345554
0.725431 0.322927 0.355226
0.726906 0.327191 0.363705
0.206277 0.354151 0.116282
0.201114 0.345288 0.113372
0.190052 0.326296 0.107136
0.178554 0.306555 0.100654
0.167622 0.287772 0.094487
0.160344 0.272330 0.089437
0.161834 0.258408 0.084982
0.180802 0.252503 0.083334
0.213971 0.246685 0.081966
0.257000 0.247689 0.083018
0.302721 0.252151 0.085305
0.353082 0.259030 0.088529
0.400055 0.267383 0.092205
0.443723 0.275284 0.095709
0.483175 0.283419 0.099212
0.521744 0.291760 0.102779
0.559686 0.300279 0.106403
0.594190 0.308510 0.109858
0.628402 0.316741 0.113316
0.661916 0.324945 0.116784
0.694186 0.332353 0.122698
0.713564 0.335435 0.133693
0.713768 0.331814 0.153482
0.714626 0.328358 0.181416
0.716085 0.325055 0.215417
0.717431 0.323255 0.241624
0.718349 0.322576 0.258567
0.719410 0.322934 0.273915
0.720624 0.325007 0.285667
0.721891 0.327039 0.297229
0.723515 0.331091 0.308394
0.725114 0.335126 0.319297
0.726617 0.339106 0.329429
0.236188 0.405506 0.133144
0.231184 0.396915 0.130323
0.221787 0.380781 0.125025
0.210723 0.361786 0.118788
0.197712 0.339445 0.111454
0.189277 0.323926 0.106365
0.187513 0.310082 0.101894
0.198454 0.300035 0.098804
0.227413 0.294496 0.097427
0.264152 0.291940 0.097180
0.305317 0.292427 0.098048
0.351394 0.297541 0.100544
0.396792 0.304482 0.103663
0.439402 0.311822 0.106895
0.477118 0.317592 0.109565
0.513668 0.324118 0.112468
0.548966 0.331058 0.115489
0.582147 0.337639 0.118364
0.614801 0.343902 0.121143
0.646827 0.350248 0.123943
0.678888 0.356967 0.126869
0.701840 0.360461 0.129046
0.714317 0.360147 0.134555
0.719183 0.357659 0.148183
0.719427 0.353896 0.171600
0.719963 0.350438 0.195968
0.720626 0.347288 0.219000
0.721514 0.345757 0.238325
0.722396 0.345997 0.250669
0.723278 0.346247 0.262762
0.724536 0.348726 0.274180
0.725840 0.351221 0.285871
0.727240 0.354561 0.297428
0.264897 0.454794 0.149327
0.260494 0.447235 0.146845
0.250598 0.430245 0.141266
0.239121 0.410541 0.134797
0.228282 0.391931 0.128687
0.218455 0.374732 0.123042
0.213398 0.359771 0.118172
0.220677 0.348812 0.114740
0.242203 0.340419 0.112329
0.274190 0.335970 0.111366
0.311685 0.335085 0.111682
0.353750 0.337528 0.113195
0.396308 0.342432 0.115552
0.436328 0.347389 0.117923
0.473920 0.352614 0.120364
0.509484 0.358643 0.123040
0.543075 0.364462 0.125628
0.574628 0.369395 0.127912
0.606042 0.375276 0.130502
0.636749 0.381121 0.133076
0.666736 0.386282 0.135435
0.693827 0.390163 0.137339
0.718317 0.392976 0.138859
0.725728 0.390764 0.139906
0.725230 0.386419 0.147595
0.724991 0.382219 0.164359
0.725288 0.378243 0.188543
0.725599 0.374932 0.208489
0.725548 0.372204 0.219795
0.725698 0.370058 0.231353
0.726485 0.370814 0.242519
0.727244 0.371463 0.253648
0.728442 0.373417 0.264814
0.291872 0.501108 0.164534
0.287864 0.494226 0.162274
0.278909 0.478852 0.157226
0.268692 0.461311 0.151467
0.257659 0.442369 0.145247
0.247073 0.424174 0.139274
0.240082 0.408107 0.134025
0.243061 0.395246 0.129928
0.259615 0.386224 0.127241
0.287076 0.380043 0.125636
0.321023 0.376693 0.125074
0.359742 0.377625 0.126004
0.400267 0.380782 0.127722
0.439429 0.383642 0.129368
0.474358 0.388234 0.131512
0.507577 0.392862 0.133659
0.540123 0.397984 0.135967
0.572171 0.403636 0.138448
0.600647 0.407849 0.140416
0.628824 0.412067 0.142392
0.657250 0.416263 0.144381
0.685849 0.420292 0.146336
0.714214 0.424302 0.148291
0.725392 0.422847 0.148161
0.730728 0.419675 0.147469
0.731533 0.415330 0.150091
0.731217 0.411013 0.162220
0.730974 0.406689 0.176816
0.730590 0.402373 0.189768
0.730409 0.398747 0.203527
0.730730 0.397408 0.214156
0.731196 0.396308 0.224948
0.731999 0.396894 0.235944
0.315697 0.542012 0.177964
0.312531 0.536577 0.176179
0.305025 0.523690 0.171948
0.294786 0.506111 0.166176
0.284877 0.489099 0.160591
0.274660 0.471523 0.154820
0.266298 0.454920 0.149384
0.266429 0.441715 0.145141
0.278838 0.431575 0.142037
0.302302 0.423363 0.139713
0.333097 0.420155 0.139125
0.367174 0.418444 0.139104
0.404084 0.418728 0.139808
0.441814 0.421187 0.141258
0.476667 0.423749 0.142723
0.508812 0.427996 0.144694
0.540053 0.432310 0.146688
0.570291 0.436553 0.148657
0.597524 0.439226 0.150088
0.624639 0.442603 0.151750
0.651710 0.446689 0.153643
0.678949 0.450187 0.155371
0.705892 0.453596 0.157076
0.723057 0.453820 0.157570
0.737816 0.453495 0.157842
0.739598 0.448899 0.156960
0.738507 0.443514 0.157353
0.737600 0.438450 0.161934
0.737048 0.433902 0.172159
0.736654 0.429799 0.184539
0.736172 0.426532 0.192591
0.735814 0.423411 0.201224
0.736024 0.422210 0.210795
0.337850 0.580047 0.190452
0.334786 0.574785 0.188725
0.328058 0.563235 0.184932
0.319147 0.547935 0.179909
0.310019 0.532264 0.174764
0.300921 0.516640 0.169633
0.292045 0.500198 0.164243
0.289410 0.485474 0.159479
0.297868 0.474725 0.156127
0.318651 0.467068 0.153936
0.346313 0.462361 0.152807
0.377442 0.459044 0.152205
0.412381 0.458565 0.152604
0.447771 0.459630 0.153538
0.480945 0.461074 0.154586
0.512200 0.464222 0.156163
0.541666 0.467323 0.157712
0.569803 0.470329 0.159222
0.596420 0.472697 0.160516
0.622594 0.475174 0.161849
0.648297 0.477786 0.163227
0.673732 0.480215 0.164555
0.698691 0.482759 0.165919
0.720851 0.484314 0.166921
0.742212 0.485918 0.167929
0.745333 0.481674 0.166720
0.746246 0.476892 0.165375
0.745670 0.471799 0.165267
0.744652 0.466729 0.168491
0.743745 0.461805 0.173971
0.742825 0.457194 0.178930
0.741987 0.452797 0.185054
0.741571 0.449976 0.192540
0.357767 0.614241 0.201680
0.355112 0.609682 0.200183
0.349034 0.599249 0.196757
0.341122 0.585664 0.192297
0.333077 0.571852 0.187762
0.324142 0.556509 0.182724
0.315591 0.541332 0.177744
0.311967 0.527812 0.173355
0.317625 0.516455 0.169773
0.336094 0.509169 0.167665
0.360243 0.502918 0.165982
0.388533 0.498379 0.164930
0.421445 0.496927 0.164964
0.454620 0.496684 0.165420
0.486429 0.497254 0.166141
0.516306 0.499060 0.167244
0.544281 0.501092 0.168403
0.571304 0.503328 0.169625
0.597351 0.505656 0.170872
0.622746 0.507527 0.171976
0.647574 0.509299 0.173050
0.671012 0.510971 0.174075
0.693927 0.512803 0.175148
0.718070 0.514889 0.176339
0.741710 0.517145 0.177580
0.748324 0.513529 0.176613
0.754353 0.509971 0.175653
0.754498 0.505120 0.174319
0.753136 0.500048 0.173540
0.751737 0.494620 0.173636
0.750268 0.488636 0.174952
0.748934 0.482889 0.177540
0.748063 0.478829 0.181864
0.375746 0.645109 0.211815
0.373482 0.641222 0.210539
0.368362 0.632432 0.207652
0.361602 0.620826 0.203842
0.353528 0.606964 0.199290
0.345207 0.592677 0.194599
0.337885 0.579832 0.190384
0.333385 0.567093 0.186235
0.337407 0.555679 0.182614
0.352744 0.547726 0.180249
0.374104 0.540971 0.178359
0.400033 0.535442 0.176945
0.430797 0.533153 0.176663
0.462204 0.531832 0.176727
0.492625 0.531502 0.177118
0.520965 0.532059 0.177778
0.547941 0.533386 0.178677
0.574272 0.535076 0.179694
0.599746 0.537061 0.180803
0.624335 0.538399 0.181704
0.648368 0.539751 0.182611
0.670067 0.541033 0.183458
0.691630 0.542534 0.184381
0.714963 0.544584 0.185522
0.737149 0.546443 0.186587
0.750495 0.544335 0.186228
0.763440 0.542365 0.185909
0.763677 0.537766 0.184486
0.762100 0.532922 0.182946
0.760342 0.527248 0.181198
0.758432 0.520748 0.179683
0.756631 0.514468 0.178928
0.755507 0.509142 0.179711
0.392819 0.674422 0.221439
0.390924 0.671167 0.220371
0.386200 0.663057 0.217708
0.379321 0.651246 0.213830
0.372376 0.639323 0.209915
0.365079 0.626794 0.205802
0.357689 0.613981 0.201595
0.352371 0.601229 0.197433
0.354863 0.589800 0.193788
0.367362 0.581096 0.191145
0.387266 0.574787 0.189374
0.411715 0.569952 0.188153
0.440195 0.566931 0.187590
0.470250 0.564669 0.187318
0.499176 0.563511 0.187405
0.526380 0.563281 0.187780
0.552461 0.564471 0.188604
0.577954 0.565253 0.189303
0.602877 0.565803 0.189932
0.625502 0.565283 0.190194
0.647634 0.565120 0.190571
0.669265 0.566266 0.191360
0.690803 0.567712 0.192251
0.712963 0.569749 0.193348
0.734460 0.571769 0.194435
0.754327 0.573230 0.195319
0.773683 0.574740 0.196213
0.772939 0.569714 0.194631
0.771472 0.564607 0.193008
0.769781 0.558907 0.191200
0.767952 0.552833 0.189297
0.766191 0.546945 0.187489
0.764361 0.540664 0.185912
0.408642 0.701587 0.230359
0.406719 0.698285 0.229275
0.402195 0.690518 0.226724
0.396219 0.680259 0.223356
0.389453 0.668641 0.219541
0.382297 0.656356 0.215508
0.375369 0.644432 0.211593
0.370091 0.632833 0.207802
0.370778 0.621217 0.204076
0.381297 0.612528 0.201411
0.399510 0.606097 0.199575
0.422781 0.601193 0.198309
0.449631 0.597529 0.197508
0.478170 0.595165 0.197170
0.505752 0.593917 0.197194
0.532250 0.593043 0.197338
0.556826 0.591693 0.197317
0.580907 0.590793 0.197445
0.604608 0.590229 0.197687
0.626129 0.588797 0.197628
0.647397 0.587989 0.197772
0.668221 0.588268 0.198261
0.688948 0.589012 0.198903
0.709755 0.590410 0.199761
0.730657 0.592159 0.200738
0.752340 0.594553 0.201941
0.772558 0.596773 0.203065
0.775679 0.594758 0.202503
0.778615 0.592736 0.201935
0.778473 0.588500 0.200610
0.776882 0.583273 0.198944
0.775298 0.578040 0.197278
0.773264 0.571294 0.195156
0.423153 0.726501 0.238539
0.421459 0.723592 0.237584
0.417402 0.716628 0.235297
0.411671 0.706787 0.232066
0.405126 0.695551 0.228377
0.398509 0.684189 0.224646
0.392192 0.673288 0.221068
0.386786 0.662398 0.217503
0.385959 0.650788 0.213761
0.395133 0.642108 0.211081
0.411869 0.635662 0.209219
0.433723 0.630391 0.207812
0.458994 0.626356 0.206864
0.486267 0.624080 0.206525
0.512747 0.622542 0.206429
0.537979 0.620089 0.206040
0.561067 0.616062 0.205132
0.583698 0.613951 0.204840
0.605995 0.612369 0.204724
0.626981 0.610503 0.204507
0.647526 0.609181 0.204464
0.667353 0.608450 0.204605
0.687003 0.608317 0.204940
0.706452 0.608800 0.205473
0.726606 0.609973 0.206244
0.748018 0.612096 0.207347
0.767234 0.614324 0.208443
0.776515 0.616526 0.209328
0.785471 0.618669 0.210187
0.786625 0.616088 0.209404
0.785390 0.612084 0.208126
0.784050 0.607653 0.206712
0.782109 0.600884 0.204555
0.436296 0.749065 0.245948
0.434731 0.746380 0.245066
0.431024 0.740015 0.242976
0.425961 0.731321 0.240122
0.420135 0.721319 0.236837
0.413833 0.710500 0.233285
0.407743 0.700022 0.229845
0.402135 0.689192 0.226297
0.400811 0.678488 0.222840
0.408034 0.669478 0.220031
0.423324 0.663365 0.218256
0.443235 0.657437 0.216608
0.467080 0.653056 0.215523
0.493522 0.650262 0.214999
0.518038 0.646255 0.214077
0.541643 0.642012 0.213083
0.564398 0.637716 0.212075
0.585982 0.634897 0.211532
0.607329 0.632451 0.211116
0.627795 0.630223 0.210766
0.647671 0.628622 0.210614
0.666889 0.627560 0.210630
0.685768 0.626804 0.210745
0.704314 0.626315 0.210945
0.723827 0.626872 0.211502
0.744250 0.628413 0.212392
0.762856 0.630283 0.213356
0.776975 0.632752 0.214421
0.790705 0.635195 0.215471
0.792232 0.634425 0.215262
0.791764 0.633113 0.214841
0.790998 0.630765 0.214090
0.789416 0.625578 0.212432
0.448668 0.770307 0.252922
0.447222 0.767825 0.252107
0.443852 0.762038 0.250207
0.439496 0.754560 0.247752
0.434104 0.745302 0.244712
0.428045 0.734899 0.241297
0.422487 0.725357 0.238163
0.416648 0.714451 0.234588
0.414539 0.703981 0.231198
0.420347 0.695339 0.228489
0.434361 0.689108 0.226658
0.452677 0.682701 0.224833
0.475147 0.677854 0.223576
0.499628 0.673450 0.222502
0.523073 0.667756 0.221019
0.545488 0.662607 0.219710
0.567634 0.658117 0.218623
0.588473 0.654547 0.217821
0.609062 0.651572 0.217216
0.629140 0.649134 0.216784
0.648453 0.647316 0.216546
0.667248 0.645927 0.216443
0.685384 0.644649 0.216372
0.703123 0.643540 0.216354
0.721999 0.643646 0.216748
0.741439 0.644529 0.217404
0.760020 0.645964 0.218224
0.777318 0.648158 0.219261
0.794276 0.650398 0.220310
0.796063 0.651104 0.220569
0.797148 0.651715 0.220782
0.797398 0.650898 0.220531
0.796262 0.647571 0.219465
0.460028 0.789810 0.259326
0.458834 0.787761 0.258653
0.456111 0.783086 0.257118
0.452232 0.776426 0.254932
0.446970 0.767392 0.251965
0.441700 0.758343 0.248994
0.436297 0.749061 0.245946
0.429790 0.737595 0.242184
0.427176 0.727518 0.238913
0.431986 0.719283 0.236323
0.444450 0.712553 0.234312
0.462066 0.706445 0.232572
0.482581 0.700199 0.230835
0.504918 0.693856 0.229107
0.527871 0.687298 0.227334
0.549341 0.681767 0.225884
0.570784 0.676985 0.224685
0.591057 0.672880 0.223697
0.611110 0.669727 0.223020
0.630963 0.667250 0.222565
0.649885 0.665201 0.222240
0.668495 0.663470 0.222019
0.685942 0.662008 0.221870
0.703027 0.660770 0.221792
0.721250 0.660446 0.222031
0.739709 0.660543 0.222414
0.758006 0.661175 0.222968
0.776103 0.662317 0.223685
0.792992 0.663552 0.224412
0.797003 0.664633 0.224833
0.800866 0.665676 0.225239
0.802643 0.665730 0.225292
0.802053 0.664626 0.224933
0.471483 0.809478 0.265784
0.470422 0.807657 0.265186
0.467887 0.803304 0.263757
0.463888 0.796438 0.261502
0.459000 0.788046 0.258747
0.453930 0.779341 0.255888
0.448248 0.769580 0.252684
0.442461 0.759371 0.249334
0.439336 0.749876 0.246244
0.442885 0.741530 0.243603
0.453738 0.734551 0.241491
0.470572 0.728458 0.239744
0.489184 0.720645 0.237477
0.509752 0.712784 0.235234
0.531805 0.705515 0.233215
0.553068 0.700017 0.231766
0.573881 0.695141 0.230523
0.593797 0.690772 0.229439
0.613333 0.687464 0.228698
0.632861 0.684713 0.228145
0.651190 0.682459 0.227738
0.669428 0.680507 0.227434
0.686316 0.678768 0.227181
0.703043 0.677257 0.227004
0.720809 0.676477 0.227084
0.738561 0.675962 0.227254
0.756585 0.675859 0.227565
0.774689 0.676066 0.227982
0.790664 0.676546 0.228449
0.797660 0.677652 0.228936
0.804442 0.678741 0.229414
0.807278 0.679404 0.229679
0.807102 0.679721 0.229776
0.482384 0.828193 0.271929
0.481359 0.826433 0.271351
0.478708 0.821882 0.269856
0.474937 0.815407 0.267731
0.470045 0.807009 0.264973
0.464454 0.797410 0.261821
0.459636 0.789137 0.259105
0.454671 0.780291 0.256203
0.450980 0.771152 0.253221
0.452930 0.762126 0.250342
0.463006 0.755522 0.248341
0.478263 0.748510 0.246277
0.495393 0.739522 0.243611
0.514470 0.730392 0.240938
0.535585 0.722867 0.238820
0.557033 0.717592 0.237440
0.577146 0.712728 0.236184
0.596847 0.708294 0.235071
0.615745 0.704675 0.234215
0.634708 0.701530 0.233521
0.652411 0.699175 0.233067
0.670005 0.697063 0.232695
0.686682 0.694907 0.232300
0.703273 0.693002 0.231990
0.720711 0.691818 0.231931
0.737995 0.690838 0.231940
0.755464 0.690055 0.232020
0.772875 0.689460 0.232166
0.788062 0.689350 0.232426
0.798123 0.690066 0.232849
0.807938 0.690801 0.233274
0.811211 0.691614 0.233595
0.811262 0.692434 0.233854
0.492432 0.845444 0.277593
0.491401 0.843674 0.277012
0.488927 0.839427 0.275617
0.485201 0.833030 0.273517
0.480260 0.824546 0.270731
0.475455 0.816297 0.268023
0.470972 0.808600 0.265495
0.466029 0.799913 0.262644
0.462107 0.790673 0.259627
0.462812 0.781673 0.256743
0.472013 0.775059 0.254726
0.484819 0.766239 0.252051
0.500863 0.756547 0.249143
0.519103 0.747310 0.246421
0.539391 0.739935 0.244335
0.560818 0.734092 0.242769
0.580123 0.729176 0.241480
0.599570 0.724819 0.240383
0.618078 0.720956 0.239438
