output/ProPhoto/ProPhoto_to_CLASSIC-Neg._33grid.cube
TITLE "ProPhoto_to_CLASSIC-Neg."
# Input: ProPhoto RGB, gamma 1.8 (D50)
# Output: ProPhoto RGB, gamma 1.8 (D50) with film simulation look
# Use: Photoshop 3D LUT adjustment layer on standard ProPhoto document
# Source: FLog2C_to_CLASSIC-Neg._65grid_V.1.00.cube
# Generated from Fujifilm GFX ETERNA 55 F-Log2C LUT
LUT_3D_SIZE 5
0.000016 0.000016 0.000008
0.420911 0.168821 0.063094
0.664873 0.292402 0.166326
0.682424 0.340268 0.235113
0.682424 0.340268 0.235113
0.089900 0.153690 0.054099
0.126738 0.118450 0.039777
0.584486 0.279160 0.100776
0.672431 0.331107 0.158701
0.689825 0.371297 0.233059
0.283604 0.484702 0.171156
0.224528 0.381614 0.133479
0.508422 0.428879 0.144963
0.694056 0.494337 0.170019
0.719389 0.502804 0.195095
0.410060 0.700784 0.247672
0.378211 0.646322 0.228526
0.490637 0.641863 0.214898
0.726851 0.687477 0.230698
0.779915 0.694289 0.237210
0.464306 0.793455 0.280575
0.448613 0.766641 0.271038
0.473301 0.753040 0.257458
0.738161 0.803134 0.268133
0.810587 0.810014 0.271296
0.050165 0.030721 0.120333
0.250819 0.099796 0.056875
0.655919 0.272621 0.155955
0.685369 0.342368 0.257242
0.682857 0.340586 0.238191
0.227070 0.308157 0.378176
0.155579 0.164489 0.159611
0.566357 0.286772 0.151626
0.684173 0.344681 0.242096
0.702998 0.390598 0.309965
0.406581 0.627623 0.497202
0.315999 0.499298 0.347746
0.519979 0.493804 0.259353
0.707172 0.535235 0.280665
0.749196 0.549347 0.339670
0.473412 0.758629 0.493556
0.436096 0.708235 0.422354
0.493321 0.687992 0.347529
0.736968 0.725088 0.333319
0.802308 0.729107 0.363032
0.500331 0.823751 0.442932
0.482324 0.798732 0.408688
0.477345 0.775114 0.370293
0.720495 0.821993 0.345812
0.819231 0.831901 0.361957
0.222147 0.149957 0.523865
0.197723 0.099601 0.266864
0.622827 0.260178 0.256379
0.686168 0.303911 0.345072
0.703081 0.363858 0.369990
0.429288 0.510131 0.828590
0.271728 0.273148 0.503960
0.582496 0.325107 0.363100
0.705889 0.371874 0.408612
0.725620 0.414534 0.445887
0.547612 0.735140 0.927882
0.450456 0.608404 0.750086
0.589250 0.573218 0.561263
0.745062 0.585033 0.518704
0.786004 0.587781 0.539058
0.574573 0.803236 0.908178
0.535380 0.757215 0.827273
0.566764 0.732635 0.693506
0.780526 0.762182 0.611573
0.838042 0.758119 0.601412
0.587399 0.843870 0.878202
0.568510 0.823329 0.834769
0.554718 0.802561 0.756796
0.757326 0.843327 0.658286
0.853325 0.851131 0.631183
0.401786 0.348022 0.820765
0.301063 0.209742 0.647705
0.611066 0.281701 0.450191
0.710758 0.324231 0.494429
0.717860 0.368544 0.473083
0.528781 0.627434 0.953953
0.410564 0.439297 0.810545
0.612454 0.390498 0.586275
0.728525 0.415539 0.563909
0.747650 0.435481 0.568366
0.579850 0.783471 0.971012
0.530538 0.683546 0.947868
0.637365 0.637298 0.764078
0.780049 0.633845 0.690201
0.817897 0.626107 0.678092
0.599129 0.823769 0.975680
0.579765 0.784283 0.970543
0.614825 0.765062 0.871042
0.810167 0.788880 0.778080
0.863549 0.781484 0.747711
0.612381 0.850859 0.978867
0.603229 0.833017 0.975105
0.595942 0.815089 0.921668
0.776886 0.853567 0.823435
0.873703 0.860588 0.781632
0.554787 0.547312 0.941328
0.550654 0.541230 0.938684
0.618862 0.341663 0.645031
0.731197 0.369344 0.612145
0.740317 0.389197 0.594368
0.587138 0.692311 0.961285
0.560498 0.650250 0.956848
0.640475 0.479180 0.749609
0.751591 0.473681 0.682686
0.775039 0.475631 0.674931
0.588946 0.785817 0.971146
0.568528 0.744496 0.966568
0.663122 0.690515 0.879878
0.804630 0.679806 0.795327
0.841536 0.663693 0.765958
0.605157 0.836104 0.976698
0.586773 0.798371 0.972589
0.632892 0.782427 0.954915
0.821178 0.806466 0.866009
0.877097 0.797177 0.828442
0.613000 0.852084 0.978815
0.604733 0.835211 0.976923
0.610671 0.820899 0.975024
0.778965 0.856638 0.904249
0.881717 0.866044 0.860115
