output/ProPhoto/ProPhoto_to_REALA-ACE_33grid.cube
TITLE "ProPhoto_to_REALA-ACE"
# Input: ProPhoto RGB, gamma 1.8 (D50)
# Output: ProPhoto RGB, gamma 1.8 (D50) with film simulation look
# Use: Photoshop 3D LUT adjustment layer on standard ProPhoto document
# Source: FLog2C_to_REALA-ACE_65grid_V.1.00.cube
# Generated from Fujifilm GFX ETERNA 55 F-Log2C LUT
LUT_3D_SIZE 5
0.000023 0.000016 0.000006
0.408538 0.160410 0.066675
0.661147 0.308484 0.350007
0.694071 0.369016 0.399877
0.694071 0.369016 0.399877
0.137282 0.234643 0.077365
0.214545 0.176284 0.059698
0.565405 0.267144 0.098336
0.676951 0.354507 0.273435
0.706955 0.403455 0.364361
0.358002 0.544421 0.232700
0.296847 0.451391 0.174566
0.509661 0.449585 0.151501
0.738891 0.529266 0.184411
0.743546 0.535103 0.192722
0.608077 0.792099 0.475202
0.532316 0.723338 0.397110
0.567375 0.682576 0.250697
0.747961 0.688801 0.231483
0.799973 0.694857 0.234393
0.710301 0.878477 0.585523
0.702733 0.872229 0.577103
0.679797 0.824927 0.464710
0.756147 0.811068 0.271188
0.842388 0.808192 0.270953
0.089219 0.036556 0.244888
0.295641 0.116360 0.172031
0.650717 0.285203 0.368391
0.698524 0.372025 0.435060
0.694809 0.369846 0.404315
0.193241 0.280990 0.282313
0.198857 0.199438 0.198334
0.528738 0.246213 0.215332
0.689908 0.359035 0.405358
0.723553 0.421691 0.463723
0.473172 0.664660 0.396096
0.342545 0.525318 0.249602
0.500219 0.490318 0.193031
0.737710 0.540512 0.265191
0.775129 0.561655 0.365819
0.676542 0.850763 0.550825
0.606136 0.790520 0.473957
0.591974 0.738043 0.342328
0.733026 0.733268 0.246650
0.823977 0.738431 0.279388
0.710308 0.878485 0.585530
0.710308 0.878485 0.585530
0.710309 0.865526 0.549355
0.772283 0.864551 0.393079
0.861360 0.870989 0.291290
0.204088 0.089003 0.555415
0.233808 0.094007 0.455024
0.603110 0.273726 0.495090
0.671259 0.351825 0.582860
0.710013 0.397388 0.558047
0.348649 0.394882 0.703944
0.211992 0.196120 0.488708
0.531976 0.276809 0.498143
0.699140 0.394954 0.593781
0.733203 0.447852 0.608024
0.576719 0.728922 0.740856
0.410523 0.568671 0.569813
0.544756 0.545062 0.544768
0.756344 0.560003 0.559511
0.805369 0.578042 0.617097
0.697093 0.854889 0.758218
0.645454 0.813610 0.690929
0.606883 0.755352 0.589920
0.746310 0.746915 0.523811
0.854763 0.747787 0.553260
0.728787 0.887564 0.728256
0.725310 0.885702 0.712101
0.712388 0.870780 0.675309
0.769055 0.867561 0.583835
0.857514 0.864950 0.496662
0.290978 0.202894 0.693884
0.244170 0.123217 0.616536
0.541710 0.279762 0.630194
0.676746 0.391585 0.712502
0.703427 0.419606 0.657460
0.417627 0.485558 0.772652
0.330608 0.315143 0.726105
0.527276 0.339096 0.686683
0.710023 0.445515 0.716669
0.729445 0.474495 0.712247
0.594420 0.730442 0.823314
0.480826 0.610564 0.768480
0.519983 0.540509 0.749839
0.757209 0.591704 0.759915
0.806388 0.610034 0.769662
0.676831 0.817752 0.841547
0.641395 0.788478 0.797440
0.596047 0.735601 0.741782
0.759239 0.759838 0.759404
0.874799 0.753028 0.751226
0.731674 0.876766 0.831468
0.714280 0.863127 0.808811
0.700198 0.852574 0.782045
0.751060 0.852791 0.746391
0.847150 0.847860 0.704220
0.341001 0.325846 0.739729
0.339062 0.321357 0.738768
0.508656 0.297985 0.729093
0.690892 0.421630 0.763014
0.706730 0.445786 0.747802
0.429952 0.509560 0.777914
0.414295 0.479389 0.771541
0.503799 0.374038 0.771600
0.716240 0.483170 0.793340
0.737942 0.505033 0.792417
0.566049 0.701368 0.815869
0.522812 0.653793 0.807398
0.511715 0.560725 0.820570
0.746320 0.620418 0.857419
0.811832 0.638812 0.847301
0.667020 0.803157 0.856555
0.619933 0.756543 0.832806
0.574726 0.709043 0.806405
0.728306 0.741827 0.874773
0.863624 0.754295 0.864371
0.713039 0.848164 0.876977
0.692306 0.831500 0.852548
0.671802 0.815889 0.825342
0.715171 0.820765 0.829713
0.834099 0.835253 0.835181
