output/ACEScct_display/ACEScct_to_PROVIA_33grid.cube
TITLE "ACEScct_to_PROVIA"
# Input: ACEScct (AP1 primaries, log encoding, D60)
# Output: BT.709 / Gamma 2.2 (display-referred)
# Use: Display/output transform in DaVinci Resolve ACES pipeline (replaces ODT)
# Source: FLog2C_to_PROVIA_65grid_V.1.00.cube
# Generated from Fujifilm GFX ETERNA 55 F-Log2C LUT
LUT_3D_SIZE 9
0.000459 0.000290 0.000061
0.025236 0.002451 0.000587
0.184454 0.008350 0.017398
0.768700 0.021994 0.126915
0.999838 0.148769 0.453378
0.999185 0.333236 0.416230
0.999680 0.519622 0.223589
0.999489 0.767242 0.006436
0.999156 0.960334 0.008667
0.000216 0.017370 0.000321
0.017996 0.015258 0.000677
0.155833 0.010414 0.011614
0.644927 0.018936 0.089522
0.999247 0.123655 0.438691
0.999284 0.345196 0.405670
0.999722 0.524113 0.217889
0.999497 0.768258 0.005995
0.999155 0.960388 0.008689
0.002199 0.103921 0.000185
0.001906 0.085530 0.000671
0.082905 0.073062 0.000002
0.525049 0.069397 0.021240
0.999846 0.166436 0.354101
0.999772 0.364715 0.387444
0.999771 0.531374 0.208570
0.999510 0.769935 0.005230
0.999154 0.960478 0.008726
0.000220 0.396836 0.000020
0.000014 0.349946 0.000042
0.000022 0.316898 0.000047
0.337739 0.282659 0.000093
0.994486 0.331177 0.034814
0.999517 0.440764 0.312602
0.999439 0.562818 0.165621
0.999571 0.777226 0.001353
0.999123 0.961092 0.008964
0.000066 0.836273 0.000358
0.000028 0.824687 0.000213
0.000010 0.804943 0.000158
0.001908 0.758942 0.000251
0.805773 0.684507 0.000329
0.999186 0.653739 0.011805
0.999597 0.668829 0.012861
0.998712 0.808298 0.000081
0.998954 0.964223 0.010094
0.000000 1.000000 0.000285
0.000000 1.000000 0.000285
0.000000 1.000000 0.000285
0.000000 1.000000 0.000285
0.069784 0.999929 0.000066
0.999439 0.913545 0.000112
0.999080 0.840374 0.000060
0.999213 0.862660 0.000163
0.997622 0.973625 0.012973
0.000000 1.000000 0.000285
0.000000 1.000000 0.000285
0.000000 1.000000 0.000285
0.000000 1.000000 0.000285
0.000000 1.000000 0.000285
0.547540 0.999462 0.000375
0.984022 0.984763 0.015762
0.993550 0.975764 0.013276
0.984532 0.985899 0.016687
0.304312 0.999826 0.191120
0.306291 0.999826 0.190608
0.309578 0.999825 0.189757
0.324116 0.999822 0.185998
0.388277 0.999809 0.169445
0.598696 0.999839 0.116247
0.954649 0.999788 0.066770
0.984908 0.992572 0.024846
0.981183 0.999891 0.061278
0.983770 0.999602 0.704274
0.983770 0.999601 0.704222
0.983769 0.999600 0.704136
0.983764 0.999594 0.703751
0.983743 0.999566 0.702012
0.983457 0.999634 0.694298
0.983088 0.999572 0.663498
0.982132 0.999387 0.586802
0.982984 0.999462 0.626112
0.000541 0.000699 0.019298
0.031321 0.001349 0.016835
0.183961 0.007205 0.019199
0.758783 0.021814 0.123059
0.999701 0.136185 0.451360
0.999599 0.339534 0.409772
0.999702 0.526758 0.216755
0.999232 0.766923 0.020684
0.999055 0.963198 0.010528
0.000025 0.020921 0.022942
0.016268 0.018626 0.015738
0.144726 0.014524 0.015273
0.617449 0.019160 0.083009
0.999950 0.125263 0.424548
0.999594 0.351946 0.399025
0.999731 0.531003 0.211932
0.999236 0.767960 0.019399
0.999055 0.963256 0.010553
0.000772 0.111229 0.009622
0.001129 0.092674 0.003082
0.081935 0.078589 0.000874
0.508471 0.075707 0.015883
0.999978 0.171342 0.331276
0.999673 0.372722 0.381136
0.999784 0.537874 0.204201
0.999243 0.769676 0.017234
0.999055 0.963352 0.010594
0.000295 0.412416 0.000400
0.000006 0.368036 0.000027
0.000509 0.331267 0.000348
0.328391 0.292534 0.000189
0.991730 0.336898 0.029411
0.999738 0.448712 0.305575
0.999466 0.567697 0.176032
0.999271 0.777182 0.007233
0.999040 0.963882 0.010781
0.000077 0.854439 0.000004
0.000005 0.840967 0.000046
0.000127 0.823290 0.000459
0.000876 0.772511 0.000198
0.781768 0.694449 0.000101
0.998680 0.661385 0.067480
0.999628 0.670970 0.078900
0.998990 0.806814 0.000948
0.998967 0.966296 0.011469
0.000000 1.000000 0.000285
0.000000 1.000000 0.000285
0.000000 1.000000 0.000285
0.000000 1.000000 0.000285
0.019210 0.999724 0.000422
0.999141 0.916604 0.000065
0.999124 0.850685 0.000077
0.999475 0.868028 0.000023
0.997581 0.974701 0.013672
0.000000 1.000000 0.000285
0.000000 1.000000 0.000285
0.000000 1.000000 0.000285
0.000000 1.000000 0.000285
0.000000 1.000000 0.000285
0.536901 0.999459 0.000471
0.984018 0.984766 0.015763
0.993689 0.975699 0.013279
0.984532 0.985899 0.016687
0.305009 0.999838 0.208751
0.306972 0.999837 0.208243
0.310233 0.999836 0.207399
0.324651 0.999829 0.203670
0.388288 0.999796 0.187249
0.597945 0.999843 0.134806
0.954034 0.999723 0.072751
0.984728 0.993758 0.026605
0.981090 0.999886 0.063035
0.983772 0.999617 0.705796
0.983771 0.999617 0.705744
0.983770 0.999615 0.705657
0.983763 0.999610 0.705273
0.983734 0.999585 0.703533
0.983444 0.999652 0.695872
0.983137 0.999562 0.665280
0.982314 0.999379 0.588818
0.982952 0.999471 0.627805
0.005704 0.000247 0.088836
0.038770 0.000071 0.079913
0.191100 0.000803 0.072572
0.699961 0.017144 0.117069
0.999684 0.115470 0.443468
0.999447 0.350756 0.407369
0.999642 0.532228 0.273876
0.999289 0.766327 0.066676
0.999005 0.967331 0.013247
0.000175 0.028673 0.111195
0.017223 0.022347 0.091704
0.144444 0.017498 0.087100
0.583577 0.020014 0.119094
0.999437 0.128273 0.409999
0.999298 0.363551 0.400402
0.999663 0.536754 0.270700
0.999303 0.767371 0.065364
0.999007 0.967382 0.013268
0.000649 0.127536 0.129196
0.001215 0.101122 0.096679
0.082116 0.083995 0.080731
0.494893 0.077867 0.093405
0.999925 0.172740 0.337596
0.999503 0.383853 0.392329
0.999694 0.544062 0.265596
0.999327 0.769097 0.063198
0.999011 0.967468 0.013304
0.000012 0.439067 0.045214
0.000115 0.392314 0.020889
0.000213 0.352692 0.013915
0.323101 0.306154 0.005030
0.984257 0.335291 0.139097
0.999483 0.461063 0.358159
0.999765 0.573181 0.246177
0.999429 0.776596 0.053844
0.999007 0.967885 0.013416
0.000018 0.871983 0.000542
0.000005 0.859506 0.000778
0.000194 0.842138 0.000377
0.000584 0.791444 0.000200
0.763646 0.709189 0.000105
0.999469 0.665883 0.175462
0.999539 0.672799 0.159355
0.999359 0.805167 0.016480
0.998944 0.969775 0.013760
0.000000 1.000000 0.000285
0.000000 1.000000 0.000285
0.000000 1.000000 0.000285
0.000000 1.000000 0.000285
0.015047 0.999970 0.000281
0.997675 0.918638 0.000256
0.999399 0.866578 0.000073
0.999438 0.877143 0.000047
0.997517 0.976413 0.014784
0.000000 1.000000 0.000285
0.000000 1.000000 0.000285
0.000000 1.000000 0.000285
0.000000 1.000000 0.000285
0.000000 1.000000 0.000285
0.521757 0.999716 0.000137
0.984903 0.984853 0.016119
0.993688 0.975709 0.013284
0.984546 0.985892 0.016687
0.306137 0.999858 0.237187
0.308074 0.999856 0.236686
0.311291 0.999853 0.235853
0.325517 0.999839 0.232172
0.388307 0.999776 0.215965
0.596736 0.999849 0.164745
0.953043 0.999619 0.082403
0.984437 0.995677 0.029456
0.980949 0.999871 0.066107
0.983775 0.999642 0.708311
0.983773 0.999642 0.708260
0.983771 0.999641 0.708173
0.983762 0.999636 0.707789
0.983718 0.999616 0.706048
0.983421 0.999682 0.698475
0.983218 0.999544 0.668227
0.982614 0.999367 0.592152
0.982900 0.999485 0.630607
0.030994 0.004794 0.363738
0.064876 0.000354 0.307735
0.196646 0.000015 0.287324
0.605827 0.000148 0.327011
0.999872 0.090165 0.573731
0.999189 0.387127 0.543367
0.999783 0.545890 0.431486
0.999239 0.764136 0.220012
0.999425 0.984121 0.027487
0.006077 0.065935 0.415692
0.032390 0.043957 0.350783
0.152483 0.034663 0.319272
0.550286 0.030104 0.328866
0.999737 0.121171 0.540093
0.999342 0.399009 0.541714
0.999729 0.549942 0.429688
0.999245 0.765140 0.218972
0.999431 0.984186 0.027525
0.000194 0.166826 0.459249
0.000917 0.130128 0.388145
0.098267 0.111485 0.353089
0.491200 0.092168 0.334837
0.998983 0.169343 0.494649
0.999503 0.417641 0.538489
0.999642 0.556519 0.426786
0.999255 0.766802 0.217253
0.999441 0.984294 0.027589
0.000096 0.471542 0.478685
0.000136 0.433479 0.434678
0.000007 0.397314 0.392761
0.334475 0.335441 0.334461
0.960299 0.338645 0.392243
0.999397 0.486033 0.519864
0.999870 0.583353 0.412790
0.999292 0.774053 0.209798
0.999412 0.984590 0.027651
0.000168 0.869121 0.287756
0.000172 0.859507 0.273910
0.000038 0.844579 0.255962
0.000062 0.802140 0.216556
0.733768 0.712377 0.192094
0.999616 0.671804 0.408103
0.999248 0.676642 0.351618
0.999047 0.801443 0.177465
0.999169 0.985658 0.027621
0.000000 1.000000 0.000285
0.000000 1.000000 0.000285
0.000000 1.000000 0.000285
0.000000 1.000000 0.000285
0.014981 0.999986 0.000324
0.992764 0.960270 0.007871
0.999474 0.871984 0.136832
0.999389 0.891252 0.036806
0.996733 0.988787 0.025873
0.000000 1.000000 0.000285
0.000000 1.000000 0.000285
0.000000 1.000000 0.000285
0.000000 1.000000 0.000285
0.000000 1.000000 0.000285
0.477792 0.999766 0.000260
0.986159 0.985070 0.016687
0.994444 0.975389 0.013320
0.985878 0.985816 0.017537
0.313857 0.999602 0.341189
0.315676 0.999603 0.340741
0.318699 0.999605 0.339997
0.332062 0.999615 0.336708
0.391043 0.999662 0.322228
0.592794 0.999619 0.273668
0.948768 0.999656 0.175648
0.983292 0.999476 0.042885
0.981080 0.999389 0.092785
0.983785 0.999752 0.719252
0.983782 0.999752 0.719200
0.983777 0.999752 0.719113
0.983754 0.999752 0.718728
0.983650 0.999750 0.716985
0.983325 0.999810 0.709795
0.983571 0.999465 0.681045
0.983356 0.999359 0.606316
0.982670 0.999548 0.642830
0.070597 0.158366 0.903366
0.143630 0.142781 0.875324
0.254529 0.124105 0.843163
0.568805 0.098196 0.791391
0.999627 0.152529 0.813190
0.999310 0.450496 0.717466
0.999265 0.579174 0.651827
0.999331 0.759464 0.505039
0.999047 0.997607 0.205784
0.044231 0.213564 0.918798
0.115862 0.194468 0.892478
0.230175 0.174276 0.858601
0.547483 0.141417 0.800384
0.999898 0.181740 0.806642
0.999445 0.460701 0.718774
0.999357 0.582362 0.651376
0.999340 0.760313 0.504558
0.999019 0.997641 0.205287
0.011348 0.291199 0.931226
0.070389 0.271137 0.904941
0.184658 0.248880 0.874967
0.515705 0.205424 0.809595
0.995155 0.225745 0.797283
0.999646 0.476619 0.720756
0.999504 0.587542 0.650647
0.999354 0.761718 0.503761
0.998961 0.997654 0.204422
0.000344 0.518419 0.937643
0.000187 0.499654 0.918208
0.023246 0.476827 0.894992
0.384153 0.416372 0.830410
0.923289 0.378665 0.774143
0.999532 0.534485 0.724020
0.999821 0.609153 0.647043
0.999411 0.767754 0.499855
0.998705 0.997713 0.200592
0.000324 0.858657 0.867577
0.000010 0.852843 0.860091
0.000281 0.842712 0.850189
0.004572 0.808779 0.809656
0.719990 0.721703 0.720493
0.999965 0.683674 0.709538
0.999895 0.685924 0.625071
0.999634 0.792524 0.481304
0.997568 0.998022 0.183609
0.000384 0.999820 0.576310
0.000407 0.999815 0.574358
0.000432 0.999810 0.571270
0.000086 0.999879 0.561078
0.014219 0.999735 0.532336
0.960536 0.944443 0.503089
0.999553 0.852937 0.528428
0.999031 0.874107 0.396431
0.992300 0.999558 0.121724
0.000009 0.999662 0.181362
0.000011 0.999662 0.181383
0.000014 0.999662 0.181415
0.000027 0.999659 0.181514
0.000028 0.999612 0.174443
0.401744 0.999669 0.107654
0.983040 0.999771 0.112258
0.989830 0.999719 0.069537
0.982404 0.999756 0.057488
0.341598 0.999780 0.592244
0.343434 0.999776 0.592073
0.346484 0.999770 0.591788
0.359976 0.999745 0.590532
0.419631 0.999633 0.585028
0.591443 0.999660 0.547839
0.934609 0.999781 0.462579
0.980038 0.999849 0.184576
0.979506 0.999637 0.304944
0.984542 0.999793 0.763979
0.984538 0.999793 0.763930
0.984532 0.999792 0.763850
0.984504 0.999787 0.763494
0.984376 0.999765 0.761882
0.984386 0.999737 0.755021
0.983915 0.999795 0.726398
0.982522 0.999669 0.661296
0.982751 0.999905 0.688607
0.355918 0.510874 0.999538
0.386663 0.506282 0.999116
0.436913 0.497352 0.999457
0.601995 0.471562 0.999342
0.926383 0.435243 0.999713
0.999984 0.508741 0.963059
0.999676 0.615533 0.850824
0.999630 0.764708 0.781494
0.999830 0.966865 0.641169
0.342626 0.525077 0.999504
0.374062 0.520393 0.999202
0.424511 0.511575 0.999582
0.591563 0.485963 0.999424
0.920204 0.448449 0.999754
0.999979 0.514428 0.964349
0.999660 0.618217 0.850570
0.999627 0.765298 0.781358
0.999823 0.967021 0.640966
0.321388 0.547065 0.999510
0.354238 0.542196 0.999478
0.404976 0.533946 0.999800
0.575414 0.508880 0.999544
0.910210 0.468864 0.999770
0.999972 0.523556 0.966411
0.999634 0.622607 0.850154
0.999622 0.766277 0.781132
0.999811 0.967280 0.640628
0.228399 0.627964 0.999673
0.263641 0.623876 0.999765
0.317219 0.616876 0.999845
0.501016 0.591755 0.999701
0.868331 0.544171 0.999846
0.999999 0.560454 0.972984
0.999536 0.641018 0.848516
0.999598 0.770556 0.780142
0.999758 0.968427 0.639129
0.002468 0.808762 0.999975
0.007022 0.806770 0.999921
0.013673 0.803699 0.999843
0.197479 0.782855 0.999718
0.703281 0.735032 0.999919
0.999732 0.683152 0.983759
0.999661 0.707004 0.843953
0.999584 0.789558 0.774812
0.999522 0.973561 0.632446
0.000299 0.959456 0.996476
0.000236 0.959115 0.996035
0.000133 0.958564 0.995321
0.000490 0.956145 0.990454
0.041719 0.952369 0.974120
0.896302 0.898025 0.897323
0.999429 0.839824 0.829785
0.999391 0.854570 0.745176
0.995905 0.991345 0.604160
0.000194 0.999543 0.795611
0.000184 0.999556 0.794692
0.000168 0.999577 0.793177
0.000147 0.999622 0.786838
0.000220 0.999659 0.763739
0.354627 0.999755 0.716882
0.984038 0.999709 0.677257
0.994078 0.997614 0.608713
0.980406 0.999795 0.505859
0.240820 0.999958 0.888801
0.243080 0.999958 0.888545
0.246836 0.999959 0.888120
0.263444 0.999963 0.886241
0.335364 0.999963 0.878115
0.552369 0.999687 0.852843
0.905133 0.999721 0.808017
0.983051 0.999719 0.656378
0.983003 0.999385 0.679037
0.989786 0.999630 0.881491
0.989786 0.999630 0.881457
0.989785 0.999632 0.881399
0.989783 0.999637 0.881142
0.989772 0.999661 0.879980
0.989411 0.999743 0.874728
0.988603 0.999707 0.853109
0.986486 0.999744 0.800988
0.986914 0.999593 0.813198
0.522068 0.677419 0.999784
0.529295 0.677108 0.999811
0.541074 0.676604 0.999854
0.588081 0.674535 0.999770
0.738522 0.672161 0.999644
0.994537 0.658420 0.999666
0.999876 0.671546 0.999351
0.999693 0.764387 0.968619
0.998648 0.940329 0.928418
0.519219 0.679637 0.999764
0.526491 0.679312 0.999786
0.538344 0.678784 0.999820
0.585552 0.676745 0.999755
0.736564 0.674146 0.999653
0.994222 0.660578 0.999643
0.999870 0.672868 0.999332
0.999697 0.764915 0.968537
0.998644 0.940448 0.928376
0.514585 0.683277 0.999728
0.521931 0.682929 0.999741
0.533906 0.682362 0.999760
0.581429 0.680385 0.999732
0.733377 0.677413 0.999671
0.993719 0.664132 0.999604
0.999861 0.675049 0.999302
0.999704 0.765790 0.968402
0.998638 0.940646 0.928306
0.495523 0.698734 0.999524
0.503174 0.698288 0.999498
0.515350 0.697692 0.999490
0.564338 0.696030 0.999674
0.720205 0.691436 0.999776
0.989044 0.678340 0.999569
0.999817 0.684505 0.999167
0.999735 0.769635 0.967807
0.998609 0.941526 0.927994
0.408029 0.759172 0.999814
0.416459 0.758572 0.999803
0.430227 0.757591 0.999787
0.485615 0.753913 0.999679
0.659469 0.745205 0.999683
0.956612 0.731481 0.999706
0.999897 0.721723 0.999454
0.999714 0.786421 0.965029
0.998482 0.945464 0.926606
0.037590 0.913338 0.999989
0.046071 0.912689 0.999990
0.059936 0.911625 0.999991
0.120816 0.906868 0.999976
0.400150 0.884008 0.999633
0.826046 0.853521 0.999418
0.999643 0.825523 0.999323
0.999660 0.844670 0.955899
0.998475 0.962000 0.918465
0.002958 0.990302 1.000000
0.003007 0.990278 1.000000
0.003086 0.990237 1.000000
0.003434 0.990060 1.000000
0.003501 0.990023 1.000000
0.263267 0.999821 0.999864
0.974667 0.985704 0.981723
0.998133 0.964801 0.930363
0.990870 0.999701 0.880178
0.177060 0.999783 0.999769
0.178945 0.999782 0.999770
0.182078 0.999780 0.999771
0.195938 0.999769 0.999779
0.257324 0.999721 0.999813
0.477586 0.999677 0.996015
0.864156 0.999736 0.990399
0.996212 0.999732 0.971225
0.995630 0.999691 0.972103
0.998100 1.000000 0.999590
0.998151 1.000000 0.999601
0.998237 1.000000 0.999619
0.998620 1.000000 0.999702
1.000000 1.000000 1.000000
1.000000 1.000000 1.000000
1.000000 1.000000 1.000000
0.999053 0.999814 0.995140
0.999441 0.999890 0.997132
0.448220 0.957797 0.999489
0.452430 0.957382 0.999476
0.459408 0.956694 0.999455
0.483252 0.953974 0.999432
0.583077 0.942525 0.999350
0.813761 0.910586 0.999217
0.999728 0.858683 0.999721
0.999969 0.824568 0.999685
0.996851 0.951235 0.999625
0.446830 0.958219 0.999497
0.451057 0.957803 0.999484
0.458063 0.957113 0.999463
0.481853 0.954396 0.999441
0.582066 0.942934 0.999352
0.813259 0.910959 0.999219
0.999723 0.859059 0.999716
0.999970 0.824899 0.999689
0.996850 0.951350 0.999623
0.444537 0.958919 0.999509
0.448791 0.958501 0.999497
0.455842 0.957809 0.999477
0.479538 0.955097 0.999455
0.580396 0.943613 0.999356
0.812428 0.911579 0.999221
0.999717 0.859684 0.999708
0.999972 0.825450 0.999696
0.996846 0.951541 0.999620
0.434619 0.961996 0.999569
0.438993 0.961571 0.999558
0.445254 0.960914 0.999547
0.469472 0.958186 0.999516
0.573159 0.946604 0.999372
0.808789 0.914315 0.999231
0.999688 0.862442 0.999670
0.999983 0.827888 0.999727
0.996833 0.952391 0.999604
0.387620 0.974884 0.999819
0.391319 0.974505 0.999809
0.397451 0.973878 0.999793
0.424384 0.971141 0.999725
0.536894 0.959778 0.999512
0.790436 0.926594 0.999366
0.999577 0.874541 0.999492
0.999858 0.838067 0.999804
0.996766 0.956210 0.999538
0.147333 0.995862 0.999952
0.150879 0.996002 0.999954
0.156751 0.996234 0.999957
0.182456 0.997265 0.999971
0.321897 0.995990 0.999895
0.696688 0.974293 0.999736
0.997905 0.920773 0.999625
0.999736 0.876754 0.999835
0.996010 0.971960 0.999547
0.033751 0.995918 0.999831
0.034562 0.996098 0.999830
0.035907 0.996397 0.999828
0.041816 0.997714 0.999819
0.117591 0.999781 0.999787
0.464660 0.999771 0.997659
0.924592 0.999903 0.992174
0.996259 0.979114 0.999284
1.000000 1.000000 1.000000
0.338286 0.999696 0.999954
0.339729 0.999697 0.999953
0.342127 0.999698 0.999953
0.352325 0.999704 0.999920
0.390490 0.999764 0.999280
0.539354 0.999938 0.996035
0.854779 0.999783 0.990375
1.000000 1.000000 1.000000
1.000000 1.000000 1.000000
0.993555 0.999754 0.997685
0.993579 0.999755 0.997694
0.993619 0.999756 0.997708
0.993798 0.999763 0.997773
0.994611 0.999794 0.998064
0.998207 0.999932 0.999356
1.000000 1.000000 1.000000
1.000000 1.000000 1.000000
1.000000 1.000000 1.000000
0.813951 0.999928 0.990018
0.814322 0.999927 0.990021
0.814938 0.999927 0.990025
0.817673 0.999924 0.990043
0.829949 0.999914 0.990118
0.879002 0.999915 0.991154
1.000000 1.000000 1.000000
1.000000 1.000000 1.000000
1.000000 1.000000 1.000000
0.813920 0.999929 0.990020
0.814291 0.999929 0.990023
0.814907 0.999928 0.990027
0.817641 0.999926 0.990044
0.829919 0.999915 0.990117
0.878969 0.999917 0.991152
1.000000 1.000000 1.000000
1.000000 1.000000 1.000000
1.000000 1.000000 1.000000
0.813868 0.999931 0.990023
0.814238 0.999931 0.990025
0.814855 0.999930 0.990029
0.817590 0.999928 0.990046
0.829868 0.999918 0.990115
0.878913 0.999920 0.991148
1.000000 1.000000 1.000000
1.000000 1.000000 1.000000
1.000000 1.000000 1.000000
0.813637 0.999940 0.990036
0.814008 0.999940 0.990037
0.814624 0.999940 0.990040
0.817360 0.999938 0.990053
0.829643 0.999929 0.990106
0.878664 0.999934 0.991131
0.999982 1.000000 0.999994
1.000000 1.000000 1.000000
1.000000 1.000000 1.000000
0.812618 0.999983 0.990078
0.812990 0.999983 0.990078
0.813607 0.999983 0.990077
0.816347 0.999983 0.990073
0.828650 0.999983 0.990050
0.877568 0.999996 0.991066
0.999201 0.999987 0.999722
1.000000 1.000000 1.000000
1.000000 1.000000 1.000000
0.808306 1.000000 0.990055
0.808687 1.000000 0.990050
0.809321 1.000000 0.990043
0.812135 1.000000 0.990009
0.824775 1.000000 0.989855
0.873027 0.999957 0.990782
0.996081 0.999934 0.998634
1.000000 1.000000 1.000000
1.000000 1.000000 1.000000
0.797940 0.999987 0.992044
0.798340 0.999988 0.992051
0.799007 0.999988 0.992064
0.801873 0.999991 0.992102
0.812803 0.999977 0.991896
0.859667 0.999913 0.991029
0.982699 0.999944 0.995987
1.000000 1.000000 1.000000
1.000000 1.000000 1.000000
0.823262 0.999956 0.989578
0.823543 0.999956 0.989572
0.824011 0.999956 0.989561
0.825796 0.999947 0.989578
0.833511 0.999898 0.989733
0.867038 0.999682 0.990404
0.974044 0.999959 0.996582
1.000000 1.000000 1.000000
1.000000 1.000000 1.000000
1.000000 1.000000 1.000000
1.000000 1.000000 1.000000
1.000000 1.000000 1.000000
1.000000 1.000000 1.000000
1.000000 1.000000 1.000000
1.000000 1.000000 1.000000
1.000000 1.000000 1.000000
1.000000 1.000000 1.000000
1.000000 1.000000 1.000000
