output/ACEScct_display/ACEScct_to_REALA-ACE_33grid.cube
TITLE "ACEScct_to_REALA-ACE"
# Input: ACEScct (AP1 primaries, log encoding, D60)
# Output: BT.709 / Gamma 2.2 (display-referred)
# Use: Display/output transform in DaVinci Resolve ACES pipeline (replaces ODT)
# Source: FLog2C_to_REALA-ACE_65grid_V.1.00.cube
# Generated from Fujifilm GFX ETERNA 55 F-Log2C LUT
LUT_3D_SIZE 9
0.000200 0.000111 0.000001
0.013170 0.000971 0.000250
0.132677 0.000049 0.003356
0.702517 0.000078 0.072408
0.921815 0.240440 0.432119
0.955134 0.389255 0.422906
0.981616 0.556341 0.224858
0.985321 0.791390 0.000234
0.996875 0.980828 0.377122
0.000000 0.010810 0.000182
0.011428 0.009928 0.000107
0.106518 0.000652 0.000248
0.605747 0.000037 0.046061
0.918221 0.219672 0.415382
0.957702 0.400005 0.412336
0.981743 0.560128 0.218217
0.985343 0.792416 0.000224
0.996872 0.980857 0.377402
0.000203 0.105605 0.000053
0.000597 0.073437 0.000816
0.086368 0.068745 0.000222
0.518650 0.037246 0.001196
0.919878 0.237076 0.343541
0.961305 0.418201 0.393764
0.981947 0.566289 0.207359
0.985379 0.794113 0.000207
0.996867 0.980907 0.377869
0.091245 0.399009 0.058966
0.061402 0.358324 0.033675
0.031795 0.325193 0.011452
0.359348 0.288244 0.000085
0.932190 0.348776 0.098454
0.974797 0.486424 0.323913
0.982930 0.592369 0.153951
0.985525 0.801514 0.000120
0.996877 0.981041 0.379199
0.465094 0.798005 0.394410
0.446656 0.783972 0.375444
0.419149 0.764606 0.349098
0.367989 0.717725 0.282718
0.808776 0.684974 0.000001
0.980985 0.679621 0.000901
0.981572 0.693763 0.002736
0.986359 0.826668 0.000016
0.997029 0.981164 0.380960
0.663656 0.929187 0.593484
0.663656 0.929187 0.593484
0.663656 0.929187 0.593484
0.663656 0.929187 0.593484
0.758811 0.944293 0.588990
0.991900 0.940733 0.084582
0.987833 0.858370 0.000096
0.987726 0.879717 0.000226
0.997413 0.980839 0.378627
0.663656 0.929187 0.593484
0.663656 0.929187 0.593484
0.663656 0.929187 0.593484
0.663656 0.929187 0.593484
0.677042 0.931242 0.593116
0.861961 0.963288 0.568962
0.996985 0.986625 0.425529
0.997319 0.981877 0.384908
0.996976 0.986641 0.425675
0.788405 0.952211 0.631623
0.788806 0.952278 0.631465
0.789472 0.952387 0.631201
0.792416 0.952873 0.630036
0.805404 0.955017 0.624904
0.859286 0.963998 0.601053
0.989836 0.987185 0.469627
0.997075 0.988219 0.442990
0.995746 0.988484 0.451516
0.993982 0.995580 0.759531
0.993980 0.995580 0.759507
0.993977 0.995579 0.759468
0.993964 0.995577 0.759294
0.993906 0.995569 0.758504
0.994121 0.995473 0.753992
0.994128 0.994884 0.736115
0.994966 0.993163 0.694651
0.995072 0.994186 0.716322
0.000068 0.000140 0.011788
0.015419 0.000156 0.007437
0.129654 0.000145 0.004925
0.694252 0.000131 0.067940
0.920574 0.232299 0.428243
0.956501 0.395654 0.415988
0.982691 0.563324 0.216341
0.985510 0.790333 0.010412
0.996833 0.983504 0.400316
0.000529 0.013587 0.013716
0.010469 0.012370 0.010221
0.099496 0.004347 0.004591
0.586341 0.000065 0.041737
0.917319 0.217714 0.403223
0.959035 0.406268 0.405755
0.982979 0.567433 0.209973
0.985487 0.791295 0.009676
0.996828 0.983535 0.400622
0.000168 0.122607 0.008158
0.000342 0.093137 0.000207
0.090421 0.081960 0.000459
0.505566 0.047112 0.000112
0.920146 0.238919 0.326608
0.962714 0.424811 0.389996
0.983429 0.574093 0.199733
0.985444 0.792884 0.008405
0.996819 0.983587 0.401131
0.098169 0.408465 0.064677
0.070129 0.369188 0.041408
0.040986 0.335616 0.018066
0.348935 0.295705 0.000294
0.926419 0.349099 0.088041
0.975515 0.493874 0.316042
0.985390 0.599584 0.164130
0.985199 0.799768 0.002102
0.996827 0.983637 0.401749
0.495619 0.819321 0.422963
0.477953 0.807472 0.407040
0.450179 0.787228 0.380090
0.386892 0.735584 0.309271
0.790613 0.695224 0.000326
0.983280 0.688470 0.044417
0.984431 0.696347 0.050004
0.987025 0.829993 0.000138
0.996990 0.983128 0.398017
0.663656 0.929187 0.593484
0.663656 0.929187 0.593484
0.663656 0.929187 0.593484
0.663656 0.929187 0.593484
0.748793 0.943088 0.589487
0.992457 0.942794 0.092109
0.988022 0.868646 0.000206
0.987638 0.886036 0.000440
0.997410 0.982546 0.391276
0.663656 0.929187 0.593484
0.663656 0.929187 0.593484
0.663656 0.929187 0.593484
0.663656 0.929187 0.593484
0.677049 0.931248 0.593126
0.859366 0.962477 0.570169
0.996985 0.986625 0.425529
0.997343 0.982488 0.388580
0.996976 0.986641 0.425675
0.787952 0.952348 0.636823
0.788349 0.952413 0.636664
0.789007 0.952521 0.636401
0.791920 0.953000 0.635238
0.804765 0.955113 0.630114
0.858620 0.964061 0.605848
0.989754 0.987202 0.472572
0.996995 0.988219 0.443203
0.995612 0.988593 0.452157
0.994005 0.995624 0.760434
0.994003 0.995624 0.760410
0.994001 0.995624 0.760371
0.993989 0.995622 0.760197
0.993938 0.995615 0.759411
0.994156 0.995508 0.754909
0.994100 0.994892 0.737092
0.994994 0.993221 0.695818
0.995066 0.994227 0.717229
0.000059 0.000081 0.067025
0.019337 0.000287 0.057763
0.153443 0.000308 0.055670
0.648029 0.000093 0.069784
0.916483 0.215065 0.420342
0.958222 0.405635 0.416165
0.985621 0.569875 0.276628
0.987870 0.789816 0.053851
0.996913 0.985752 0.418720
0.000107 0.017441 0.105988
0.004593 0.012678 0.078564
0.131197 0.007695 0.081903
0.554411 0.000457 0.087043
0.916469 0.216751 0.390049
0.960284 0.416623 0.408911
0.985926 0.573642 0.272853
0.987852 0.790768 0.052442
0.996910 0.985766 0.418856
0.000182 0.128212 0.129002
0.000112 0.103421 0.097930
0.096754 0.097909 0.094761
0.483636 0.047803 0.073031
0.920146 0.236924 0.334494
0.965552 0.436447 0.402511
0.986423 0.579741 0.266788
0.987823 0.792342 0.050117
0.996905 0.985788 0.419081
0.100722 0.421865 0.090953
0.074777 0.382743 0.060612
0.047325 0.348023 0.034258
0.334333 0.304362 0.001585
0.921138 0.341122 0.155584
0.978754 0.505833 0.370920
0.988115 0.604839 0.241018
0.987701 0.799184 0.040082
0.996923 0.985727 0.418567
0.536377 0.847587 0.463731
0.515710 0.833619 0.444102
0.490007 0.815559 0.418105
0.422816 0.764853 0.347475
0.779797 0.718757 0.002932
0.989245 0.698270 0.169394
0.988379 0.701446 0.147690
0.987069 0.827275 0.011414
0.997096 0.985159 0.413309
0.663656 0.929187 0.593484
0.663656 0.929187 0.593484
0.663656 0.929187 0.593484
0.663656 0.929187 0.593484
0.736635 0.940589 0.590610
0.993068 0.946025 0.111971
0.987335 0.884097 0.000104
0.987508 0.894319 0.000201
0.997403 0.985263 0.411406
0.663656 0.929187 0.593484
0.663656 0.929187 0.593484
0.663656 0.929187 0.593484
0.663656 0.929187 0.593484
0.675744 0.931001 0.593162
0.854913 0.961704 0.570705
0.996985 0.986625 0.425528
0.997345 0.982528 0.388835
0.996977 0.986656 0.425761
0.787222 0.952567 0.645208
0.787612 0.952631 0.645050
0.788259 0.952737 0.644788
0.791119 0.953204 0.643628
0.803736 0.955267 0.638518
0.857546 0.964162 0.613583
0.989622 0.987228 0.477325
0.996865 0.988218 0.443548
0.995411 0.988757 0.453340
0.994043 0.995698 0.761926
0.994042 0.995698 0.761903
0.994040 0.995697 0.761864
0.994031 0.995696 0.761691
0.993991 0.995690 0.760909
0.994213 0.995566 0.756423
0.994053 0.994904 0.738707
0.995040 0.993315 0.697747
0.995055 0.994296 0.718728
0.000519 0.000241 0.395138
0.027267 0.000002 0.341448
0.180512 0.000172 0.322574
0.557416 0.000018 0.307169
0.910823 0.223965 0.549583
0.965203 0.443248 0.555187
0.993806 0.587399 0.449814
0.995098 0.792006 0.230802
0.997168 0.988356 0.442042
0.000660 0.036652 0.411857
0.001095 0.022423 0.362454
0.122745 0.014493 0.337894
0.508916 0.000182 0.312723
0.916621 0.222952 0.524726
0.967386 0.454450 0.553888
0.994362 0.591282 0.448013
0.995070 0.792864 0.229719
0.997168 0.988356 0.442045
0.000165 0.115748 0.412129
0.000059 0.090959 0.364002
0.052364 0.083770 0.340777
0.458388 0.068738 0.328737
0.922605 0.241917 0.485389
0.971067 0.471377 0.552498
0.995266 0.597582 0.445091
0.995024 0.794285 0.227930
0.997168 0.988355 0.442050
0.000070 0.397507 0.394326
0.000257 0.364761 0.359590
0.000115 0.334452 0.326368
0.329426 0.330208 0.329546
0.913825 0.338747 0.387314
0.984308 0.532927 0.540527
0.997528 0.622489 0.430083
0.994824 0.800495 0.220163
0.997171 0.988358 0.441953
0.537175 0.856469 0.552747
0.524708 0.847761 0.536366
0.504805 0.833773 0.511266
0.449446 0.791640 0.442697
0.773580 0.742589 0.216133
0.998676 0.711252 0.436481
0.997107 0.711279 0.372307
0.994213 0.826969 0.182283
0.997185 0.988392 0.441454
0.663656 0.929187 0.593484
0.663656 0.929187 0.593484
0.663656 0.929187 0.593484
0.663656 0.929187 0.593484
0.711759 0.936875 0.592540
0.996957 0.984639 0.410178
0.993859 0.895308 0.140033
0.989418 0.911971 0.032638
0.997168 0.988543 0.441077
0.663656 0.929187 0.593484
0.663656 0.929187 0.593484
0.663656 0.929187 0.593484
0.663656 0.929187 0.593484
0.674345 0.930631 0.593587
0.840821 0.959450 0.575127
0.996980 0.986635 0.425617
0.997254 0.982742 0.390748
0.997108 0.988120 0.435322
0.784675 0.953472 0.678737
0.785046 0.953530 0.678573
0.785663 0.953626 0.678301
0.788391 0.954051 0.677100
0.800428 0.955926 0.671801
0.852139 0.964337 0.647193
0.988417 0.987295 0.510545
0.996208 0.988015 0.446484
0.995725 0.988448 0.467567
0.994209 0.996018 0.768418
0.994209 0.996018 0.768395
0.994209 0.996018 0.768357
0.994212 0.996018 0.768189
0.994224 0.996018 0.767427
0.994462 0.995819 0.763009
0.993851 0.994958 0.745732
0.995148 0.993699 0.705731
0.995008 0.994597 0.725268
0.114838 0.110854 0.702337
0.108673 0.094630 0.688515
0.159343 0.089574 0.677614
0.467925 0.152493 0.681462
0.869126 0.362544 0.750355
0.958586 0.524025 0.727242
0.996615 0.619915 0.681032
0.998530 0.786962 0.531971
0.996160 0.988619 0.498628
0.123671 0.158623 0.722421
0.113669 0.138676 0.704419
0.148835 0.126088 0.691135
0.450612 0.172798 0.691573
0.873420 0.371221 0.747760
0.962052 0.532057 0.728447
0.996810 0.622871 0.680411
0.998529 0.787747 0.531492
0.996153 0.988619 0.498453
0.120267 0.227066 0.755720
0.103545 0.204282 0.735548
0.124701 0.185366 0.716927
0.425351 0.210394 0.707854
0.877350 0.388450 0.750515
0.967371 0.544495 0.730322
0.997128 0.627672 0.679402
0.998528 0.789046 0.530699
0.996141 0.988617 0.498155
0.127538 0.457394 0.801535
0.102867 0.436042 0.786973
0.066882 0.407851 0.767460
0.304162 0.377081 0.767659
0.863778 0.463378 0.763995
0.982445 0.591549 0.742543
0.998098 0.647250 0.675258
0.998529 0.794683 0.526685
0.996089 0.988610 0.496831
0.482610 0.826083 0.816141
0.475301 0.821185 0.809928
0.462795 0.812987 0.801782
0.412430 0.780988 0.768020
0.764768 0.765687 0.765377
0.998955 0.724627 0.740509
0.998437 0.717837 0.653977
0.998546 0.818140 0.506830
0.995869 0.988582 0.490882
0.652147 0.935519 0.752558
0.652200 0.935559 0.752174
0.652285 0.935602 0.751540
0.652514 0.934808 0.748177
0.674780 0.937790 0.736321
0.986935 0.966686 0.612332
0.998535 0.876619 0.555915
0.997966 0.898677 0.419662
0.995572 0.988551 0.468587
0.659594 0.930072 0.632643
0.659717 0.930109 0.632635
0.659921 0.930168 0.632622
0.660798 0.930424 0.632556
0.678398 0.933490 0.631491
0.813045 0.955352 0.610175
0.994969 0.988294 0.473411
0.996214 0.988269 0.452532
0.996815 0.988522 0.449846
0.780073 0.957603 0.774982
0.780461 0.957663 0.774933
0.781106 0.957763 0.774852
0.783956 0.958206 0.774495
0.796561 0.960166 0.772936
0.841705 0.967796 0.758399
0.978828 0.989361 0.650408
0.995725 0.988822 0.499846
0.995984 0.989755 0.549801
0.994470 0.996443 0.794450
0.994471 0.996443 0.794427
0.994473 0.996443 0.794389
0.994480 0.996443 0.794221
0.994512 0.996444 0.793461
0.994420 0.996372 0.789021
0.994257 0.996162 0.772411
0.994996 0.994918 0.735029
0.995110 0.995092 0.749202
0.231986 0.480035 0.841099
0.254064 0.480123 0.845215
0.299838 0.479248 0.853717
0.492984 0.490098 0.876309
0.849012 0.556127 0.889210
0.915818 0.616179 0.888605
0.961747 0.673323 0.845621
0.998682 0.792097 0.805643
0.995485 0.983004 0.719870
0.229691 0.492381 0.841662
0.249894 0.491810 0.845395
0.293474 0.490676 0.853406
0.481710 0.500719 0.877878
0.846654 0.563644 0.892138
0.916869 0.620519 0.890430
0.962514 0.675424 0.846029
0.998680 0.792679 0.805541
0.995470 0.983087 0.719823
0.225844 0.511374 0.842555
0.244197 0.510018 0.845813
0.282821 0.508672 0.852755
0.464103 0.517455 0.880929
0.842290 0.575626 0.896586
0.918555 0.627486 0.893342
0.963769 0.678858 0.846697
0.998676 0.793643 0.805372
0.995444 0.983226 0.719746
0.221109 0.578778 0.846503
0.232150 0.577926 0.848292
0.255630 0.576503 0.852044
0.404363 0.579487 0.879519
0.821293 0.622740 0.913862
0.924987 0.656364 0.905786
0.969005 0.693248 0.849446
0.998662 0.797856 0.804637
0.995328 0.983841 0.719405
0.351368 0.744297 0.860182
0.348565 0.742815 0.859950
0.344196 0.740525 0.859588
0.335937 0.728277 0.864237
0.678229 0.743709 0.946874
0.948554 0.750264 0.936985
0.986255 0.745541 0.855294
0.998753 0.815630 0.799574
0.994808 0.986601 0.717883
0.615402 0.907297 0.914051
0.614686 0.906810 0.913727
0.613531 0.906024 0.913204
0.609166 0.903606 0.909920
0.652594 0.927531 0.915719
0.922533 0.922938 0.922575
0.998760 0.866087 0.854462
0.999038 0.878311 0.776274
0.993477 0.993480 0.704598
0.651108 0.935526 0.837924
0.651097 0.935531 0.837534
0.651078 0.935539 0.836892
0.651046 0.935644 0.834193
0.654966 0.936635 0.824724
0.777478 0.960202 0.826145
0.994703 0.995229 0.749187
0.994286 0.993563 0.704555
0.994377 0.992015 0.655235
0.736611 0.953855 0.894130
0.737040 0.953955 0.894143
0.737753 0.954120 0.894166
0.740906 0.954850 0.894266
0.754889 0.958056 0.894646
0.812048 0.969560 0.893415
0.951946 0.993080 0.862081
0.994406 0.994809 0.732586
0.994720 0.994970 0.744872
0.996089 0.997508 0.890755
0.996088 0.997505 0.890720
0.996087 0.997501 0.890662
0.996080 0.997481 0.890403
0.996047 0.997390 0.889232
0.996242 0.997643 0.884355
0.996258 0.997418 0.864253
0.994651 0.997849 0.820343
0.994935 0.998680 0.831008
0.441346 0.646636 0.889851
0.448370 0.647278 0.891247
0.459805 0.648329 0.893517
0.508018 0.653424 0.902716
0.674772 0.680946 0.933196
0.933934 0.736212 0.939789
0.943466 0.741665 0.940059
0.968787 0.810690 0.948274
0.998193 0.957384 0.946199
0.439764 0.648420 0.889637
0.446765 0.649066 0.891018
0.458163 0.650124 0.893264
0.506330 0.655169 0.902460
0.673253 0.682388 0.933287
0.933953 0.737736 0.940304
0.943734 0.742620 0.940338
0.968920 0.811121 0.948353
0.998199 0.957483 0.946173
0.437171 0.651362 0.889280
0.444133 0.652015 0.890636
0.455469 0.653082 0.892842
0.503570 0.658038 0.902045
0.670782 0.684764 0.933462
0.934006 0.740252 0.941150
0.944176 0.744195 0.940799
0.969139 0.811835 0.948484
0.998209 0.957647 0.946130
0.426196 0.664046 0.887682
0.432992 0.664724 0.888933
0.444239 0.665817 0.891053
0.491984 0.670286 0.900341
0.660635 0.694973 0.934589
0.931413 0.749604 0.944569
0.946091 0.751021 0.942795
0.970103 0.814975 0.949059
0.998254 0.958376 0.945939
0.391656 0.710964 0.883226
0.397329 0.711194 0.884470
0.406569 0.711567 0.886500
0.447895 0.714201 0.894978
0.614093 0.733357 0.930591
0.914482 0.783347 0.958251
0.953875 0.778658 0.951586
0.974586 0.828229 0.951012
0.998452 0.961639 0.945088
0.546851 0.861791 0.891013
0.545782 0.860675 0.890765
0.544048 0.858860 0.890364
0.538061 0.851735 0.889255
0.563917 0.841966 0.907779
0.827844 0.870178 0.987863
0.976531 0.860762 0.975766
0.989583 0.874533 0.955926
0.996241 0.975397 0.936660
0.645778 0.926725 0.922763
0.645708 0.926706 0.922785
0.645592 0.926676 0.922823
0.645088 0.926544 0.922984
0.651056 0.929800 0.924970
0.718990 0.948884 0.941677
0.983789 0.991448 0.987673
0.996170 0.977930 0.947335
0.995602 0.997375 0.890658
0.702284 0.944169 0.937050
0.702649 0.944267 0.937146
0.703255 0.944430 0.937305
0.705938 0.945150 0.938009
0.717811 0.948339 0.941126
0.768715 0.961956 0.954496
0.909015 0.991410 0.985512
0.996581 0.997828 0.972156
0.996912 0.998411 0.974565
0.996552 0.998071 0.997558
0.996592 0.998070 0.997571
0.996660 0.998069 0.997593
0.996961 0.998064 0.997692
0.998047 0.998047 0.998047
0.998047 0.998047 0.998047
0.998047 0.998047 0.998047
0.998174 0.998266 0.993818
0.998122 0.998176 0.995551
0.712564 0.930285 0.946241
0.713190 0.930279 0.946474
0.714228 0.930271 0.946858
0.718903 0.929990 0.948729
0.738768 0.928704 0.956687
0.832934 0.921872 0.991545
0.981446 0.879307 0.980551
0.973702 0.851028 0.972216
0.996552 0.957238 0.997275
0.712787 0.930615 0.946263
0.713413 0.930611 0.946494
0.714451 0.930605 0.946876
0.719119 0.930315 0.948744
0.738944 0.929005 0.956673
0.832653 0.922177 0.991513
0.981529 0.879609 0.980640
0.973769 0.851290 0.972286
0.996560 0.957346 0.997280
0.713157 0.931166 0.946297
0.713784 0.931164 0.946527
0.714822 0.931162 0.946907
0.719479 0.930853 0.948770
0.739238 0.929504 0.956649
0.832185 0.922684 0.991461
0.981668 0.880109 0.980787
0.973881 0.851724 0.972401
0.996572 0.957526 0.997289
0.714802 0.933610 0.946444
0.715429 0.933619 0.946666
0.716473 0.933579 0.947061
0.721062 0.933224 0.948876
0.740529 0.931699 0.956539
0.830107 0.924919 0.991246
0.982281 0.882319 0.981441
0.974375 0.853648 0.972910
0.996629 0.958326 0.997330
0.720357 0.942873 0.946640
0.720953 0.942806 0.946863
0.721943 0.942697 0.947234
0.726299 0.942233 0.948863
0.745178 0.940558 0.955986
0.824851 0.934473 0.989867
0.984976 0.892003 0.984320
0.976632 0.862005 0.975488
0.996869 0.961911 0.997505
0.692880 0.941363 0.935946
0.693643 0.941581 0.936171
0.694908 0.941942 0.936544
0.700450 0.943527 0.938178
0.728612 0.950474 0.946706
0.825906 0.966731 0.978601
0.994110 0.931529 0.994104
0.985219 0.894743 0.985313
0.996487 0.975855 0.997736
0.673179 0.936354 0.929069
0.673532 0.936460 0.929135
0.674118 0.936635 0.929245
0.676697 0.937409 0.929731
0.692094 0.941732 0.934216
0.764496 0.960421 0.953058
0.941766 0.996052 0.990626
0.995478 0.980827 0.996363
0.998047 0.998047 0.998047
0.733507 0.952757 0.944954
0.733790 0.952836 0.945029
0.734259 0.952967 0.945154
0.736371 0.953543 0.945706
0.746322 0.956044 0.948187
0.787729 0.966341 0.958185
0.904208 0.990695 0.983941
0.998047 0.998047 0.998047
0.998047 0.998047 0.998047
0.994356 0.998112 0.996844
0.994370 0.998112 0.996849
0.994393 0.998111 0.996857
0.994495 0.998109 0.996890
0.994960 0.998101 0.997041
0.997020 0.998065 0.997712
0.998047 0.998047 0.998047
0.998047 0.998047 0.998047
0.998047 0.998047 0.998047
0.886413 0.987373 0.980022
0.886571 0.987403 0.980054
0.886835 0.987452 0.980107
0.888003 0.987672 0.980345
0.893247 0.988659 0.981411
0.915672 0.992892 0.985829
0.998047 0.998047 0.998047
0.998047 0.998047 0.998047
0.998047 0.998047 0.998047
0.886401 0.987369 0.980019
0.886559 0.987399 0.980051
0.886822 0.987449 0.980105
0.887990 0.987669 0.980342
0.893234 0.988657 0.981408
0.915656 0.992892 0.985825
0.998047 0.998047 0.998047
0.998047 0.998047 0.998047
0.998047 0.998047 0.998047
0.886379 0.987364 0.980014
0.886538 0.987394 0.980046
0.886801 0.987443 0.980100
0.887969 0.987663 0.980337
0.893213 0.988652 0.981402
0.915631 0.992891 0.985818
0.998047 0.998047 0.998047
0.998047 0.998047 0.998047
0.998047 0.998047 0.998047
0.886286 0.987339 0.979994
0.886444 0.987369 0.980026
0.886708 0.987418 0.980079
0.887876 0.987639 0.980316
0.893119 0.988633 0.981376
0.915516 0.992889 0.985790
0.998034 0.998047 0.998043
0.998047 0.998047 0.998047
0.998047 0.998047 0.998047
0.885872 0.987231 0.979900
0.886031 0.987261 0.979931
0.886294 0.987312 0.979984
0.887461 0.987537 0.980216
0.892702 0.988551 0.981260
0.914992 0.992884 0.985668
0.997471 0.998060 0.997861
0.998047 0.998047 0.998047
0.998047 0.998047 0.998047
0.883684 0.986742 0.979519
0.883847 0.986774 0.979554
0.884117 0.986829 0.979613
0.885316 0.987072 0.979871
0.890703 0.988164 0.981032
0.912937 0.992446 0.985502
0.995221 0.998112 0.997137
0.998047 0.998047 0.998047
0.998047 0.998047 0.998047
0.878084 0.986268 0.979518
0.878234 0.986301 0.979551
0.878484 0.986355 0.979606
0.879592 0.986587 0.979844
0.884598 0.987397 0.980804
0.905999 0.990857 0.984933
0.984142 0.997424 0.994623
0.998047 0.998047 0.998047
0.998047 0.998047 0.998047
0.890432 0.987720 0.980400
0.890549 0.987742 0.980425
0.890743 0.987779 0.980466
0.891533 0.987922 0.980571
0.895015 0.988544 0.980950
0.910148 0.991248 0.982600
0.976297 0.996973 0.992840
0.998047 0.998047 0.998047
0.998047 0.998047 0.998047
0.998047 0.998047 0.998047
0.998047 0.998047 0.998047
0.998047 0.998047 0.998047
0.998047 0.998047 0.998047
0.998047 0.998047 0.998047
0.998047 0.998047 0.998047
0.998047 0.998047 0.998047
0.998047 0.998047 0.998047
0.998047 0.998047 0.998047
