output/ACEScct_display/ACEScct_to_CLASSIC-CHROME_33grid.cube
TITLE "ACEScct_to_CLASSIC-CHROME"
# Input: ACEScct (AP1 primaries, log encoding, D60)
# Output: BT.709 / Gamma 2.2 (display-referred)
# Use: Display/output transform in DaVinci Resolve ACES pipeline (replaces ODT)
# Source: FLog2C_to_CLASSIC-CHROME_65grid_V.1.00.cube
# Generated from Fujifilm GFX ETERNA 55 F-Log2C LUT
LUT_3D_SIZE 33
0.000178 0.000085 0.000052
0.000178 0.000085 0.000052
0.000178 0.000085 0.000052
0.000998 0.000181 0.000037
0.008729 0.001214 0.000133
0.021431 0.001834 0.000022
0.042847 0.001913 0.001674
0.076433 0.002286 0.002114
0.131283 0.004079 0.005008
0.221403 0.006840 0.010420
0.356879 0.011958 0.021851
0.535901 0.022040 0.045726
0.721454 0.048776 0.090247
0.862184 0.095924 0.168494
0.950063 0.152921 0.256750
0.965320 0.221771 0.353185
0.961029 0.283118 0.393029
0.959190 0.345362 0.430151
0.958245 0.387422 0.442519
0.958550 0.413017 0.433384
0.957555 0.438219 0.424778
0.957475 0.469994 0.412171
0.957221 0.505389 0.395809
0.955024 0.547622 0.375420
0.953401 0.593075 0.349711
0.952173 0.640024 0.312821
0.951769 0.687340 0.290019
0.952778 0.732145 0.284837
0.952956 0.775481 0.277798
0.954482 0.815414 0.271513
0.956701 0.866584 0.255146
0.958673 0.911037 0.231475
0.962642 0.952263 0.206052
0.000178 0.000085 0.000052
0.000178 0.000085 0.000052
0.000178 0.000085 0.000052
0.001980 0.000346 0.000080
0.010152 0.001352 0.000104
0.023696 0.001879 0.000018
0.045525 0.001897 0.002005
0.079250 0.002408 0.002173
0.134753 0.004106 0.005252
0.225181 0.006880 0.010761
0.360301 0.012182 0.022181
0.538870 0.022328 0.046273
0.706306 0.045231 0.085666
0.832420 0.083561 0.146473
0.932653 0.137833 0.232218
0.964826 0.208438 0.335190
0.961413 0.274300 0.387966
0.959540 0.342194 0.424519
0.957648 0.391803 0.441064
0.958899 0.416224 0.432365
0.957682 0.441038 0.423980
0.957475 0.472049 0.411343
0.957087 0.507100 0.395118
0.954954 0.548858 0.374876
0.953387 0.593952 0.349038
0.952180 0.640618 0.312298
0.951768 0.687727 0.289832
0.952767 0.732425 0.284679
0.952961 0.775652 0.277640
0.954482 0.815523 0.271382
0.956706 0.866652 0.255043
0.958677 0.911077 0.231385
0.962642 0.952290 0.205975
0.000178 0.000085 0.000052
0.000178 0.000085 0.000052
0.000178 0.000085 0.000052
0.002931 0.000506 0.000121
0.011541 0.001487 0.000076
0.025914 0.001923 0.000014
0.048157 0.001882 0.002330
0.082133 0.002564 0.002288
0.138183 0.004133 0.005494
0.228309 0.006910 0.011046
0.351058 0.011344 0.021130
0.503345 0.020032 0.041536
0.668114 0.037304 0.074649
0.805858 0.074701 0.129135
0.913788 0.125626 0.214395
0.964769 0.196709 0.319391
0.961766 0.266478 0.383318
0.959864 0.339226 0.419251
0.957120 0.395970 0.439624
0.958592 0.419439 0.431174
0.957806 0.443795 0.423201
0.957475 0.474072 0.410527
0.956958 0.508791 0.394438
0.954885 0.550082 0.374337
0.953371 0.594824 0.348367
0.952188 0.641210 0.311776
0.951766 0.688113 0.289645
0.952756 0.732704 0.284521
0.952966 0.775822 0.277482
0.954482 0.815632 0.271252
0.956710 0.866720 0.254940
0.958681 0.911117 0.231296
0.962642 0.952317 0.205898
0.000042 0.001178 0.000102
0.000039 0.001454 0.000114
0.000035 0.001729 0.000125
0.001978 0.001960 0.000197
0.009647 0.002128 0.000276
0.022394 0.001532 0.000025
0.041360 0.001542 0.002322
0.072543 0.002334 0.003078
0.120855 0.003243 0.004428
0.200567 0.005637 0.009322
0.315317 0.009088 0.017728
0.465035 0.017966 0.033636
0.633268 0.033413 0.063818
0.782197 0.066185 0.115953
0.897640 0.115171 0.196676
0.965191 0.186317 0.305730
0.961564 0.263092 0.379146
0.959970 0.339180 0.413731
0.957569 0.399369 0.436875
0.958294 0.422556 0.430021
0.957929 0.446493 0.422439
0.957495 0.476098 0.409625
0.956834 0.510462 0.393770
0.954817 0.551296 0.373805
0.953355 0.595692 0.347697
0.952195 0.641799 0.311255
0.951765 0.688498 0.289460
0.952745 0.732983 0.284364
0.952970 0.775993 0.277324
0.954482 0.815740 0.271122
0.956714 0.866788 0.254837
0.958685 0.911156 0.231206
0.962641 0.952344 0.205820
0.000426 0.006215 0.000089
0.000469 0.006474 0.000076
0.000513 0.006730 0.000064
0.000214 0.005876 0.000356
0.005408 0.005712 0.000075
0.017509 0.004713 0.000015
0.034513 0.003511 0.000230
0.063624 0.004037 0.001828
0.106521 0.004204 0.003183
0.179812 0.005645 0.007252
0.286079 0.008561 0.016312
0.432206 0.014227 0.031312
0.602789 0.029248 0.057516
0.760224 0.059328 0.105921
0.882432 0.106753 0.182601
0.965802 0.178813 0.290731
0.961378 0.260084 0.375129
0.960034 0.339610 0.408411
0.958002 0.402650 0.434243
0.958006 0.425581 0.428904
0.958049 0.449134 0.421695
0.957549 0.478152 0.408564
0.956714 0.512114 0.393113
0.954749 0.552500 0.373279
0.953339 0.596555 0.347030
0.952203 0.642385 0.310735
0.951764 0.688881 0.289276
0.952735 0.733261 0.284207
0.952975 0.776163 0.277166
0.954483 0.815849 0.270992
0.956718 0.866856 0.254734
0.958689 0.911196 0.231116
0.962641 0.952371 0.205743
0.000589 0.012297 0.000083
0.000578 0.012640 0.000090
0.000567 0.012981 0.000096
0.000181 0.010552 0.000108
0.003274 0.009433 0.000027
0.012938 0.009202 0.000100
0.026180 0.008514 0.000009
0.054266 0.007475 0.000488
0.096001 0.007804 0.002466
0.163916 0.007892 0.006288
0.264798 0.010294 0.013008
0.404462 0.013806 0.025710
0.578479 0.027490 0.051697
0.740298 0.055584 0.097028
0.868054 0.099944 0.171462
0.964488 0.173731 0.276656
0.961548 0.264104 0.366301
0.960107 0.340149 0.403353
0.958420 0.405822 0.431719
0.957727 0.428518 0.427819
0.958168 0.451721 0.420966
0.957601 0.480177 0.407519
0.956598 0.513746 0.392466
0.954714 0.553712 0.372664
0.953323 0.597413 0.346364
0.952199 0.642982 0.310137
0.951763 0.689264 0.289092
0.952724 0.733538 0.284050
0.952979 0.776333 0.277008
0.954483 0.815957 0.270863
0.956723 0.866925 0.254631
0.958694 0.911236 0.231026
0.962641 0.952398 0.205665
0.000119 0.020647 0.000030
0.000097 0.020992 0.000024
0.000116 0.021101 0.000018
0.000471 0.018381 0.000114
0.002330 0.016750 0.000342
0.008568 0.014492 0.000234
0.020479 0.013254 0.000084
0.045606 0.013593 0.000189
0.085344 0.013702 0.000417
0.149228 0.013431 0.003294
0.244621 0.015814 0.009001
0.380374 0.020436 0.020019
0.552256 0.030944 0.044056
0.720456 0.057396 0.085430
0.854071 0.102543 0.156760
0.954684 0.176349 0.259609
0.961747 0.268762 0.356276
0.960374 0.342350 0.397359
0.958522 0.409541 0.428891
0.957527 0.432204 0.426553
0.958195 0.454882 0.419710
0.957665 0.482628 0.406255
0.956461 0.515729 0.391685
0.954697 0.555207 0.371842
0.953302 0.598464 0.345548
0.952187 0.643721 0.309365
0.951762 0.689733 0.288868
0.952711 0.733879 0.283859
0.952985 0.776542 0.276814
0.954483 0.816090 0.270703
0.956728 0.867008 0.254504
0.958699 0.911284 0.230916
0.962640 0.952431 0.205570
0.000030 0.038647 0.000701
0.000035 0.039180 0.000704
0.000051 0.036723 0.000531
0.000054 0.031225 0.000269
0.000111 0.029239 0.000091
0.004412 0.027684 0.000007
0.013892 0.026092 0.000040
0.036185 0.024406 0.000222
0.073201 0.023503 0.000455
0.132241 0.023433 0.000735
0.223039 0.025977 0.003933
0.353135 0.030528 0.013950
0.519917 0.042488 0.034787
0.694606 0.068272 0.072779
0.833859 0.110903 0.137535
0.941100 0.182401 0.235102
0.961996 0.275676 0.342323
0.960746 0.345328 0.389202
0.958005 0.414655 0.425253
0.957824 0.438183 0.424891
0.958201 0.459374 0.417823
0.957756 0.486133 0.404448
0.956273 0.518578 0.390572
0.954672 0.557371 0.370655
0.953270 0.599987 0.344359
0.952170 0.644795 0.308244
0.951760 0.690415 0.288542
0.952693 0.734375 0.283579
0.952992 0.776846 0.276531
0.954484 0.816285 0.270470
0.956736 0.867131 0.254319
0.958706 0.911356 0.230754
0.962640 0.952480 0.205430
0.000663 0.065849 0.000540
0.000682 0.066407 0.000531
0.000129 0.059091 0.000118
0.000032 0.053689 0.000404
0.000098 0.050891 0.000109
0.000472 0.049238 0.000669
0.007662 0.045332 0.000160
0.024793 0.043305 0.000324
0.060442 0.040988 0.000062
0.113321 0.039996 0.000000
0.197265 0.043205 0.000810
0.322399 0.047282 0.007377
0.483528 0.060137 0.020692
0.660272 0.081964 0.054627
0.807446 0.124083 0.114314
0.923221 0.193216 0.205656
0.962017 0.285884 0.321752
0.959614 0.352448 0.378328
0.957564 0.421388 0.419420
0.958229 0.446431 0.422593
0.958211 0.465657 0.415184
0.957884 0.491098 0.401892
0.956022 0.522639 0.389003
0.954640 0.560487 0.368948
0.953222 0.602187 0.342633
0.952144 0.646357 0.306622
0.951760 0.691411 0.288074
0.952666 0.735097 0.283173
0.953002 0.777290 0.276118
0.954485 0.816568 0.270131
0.956747 0.867310 0.254050
0.958717 0.911460 0.230518
0.962639 0.952550 0.205226
0.000041 0.106770 0.000004
0.000201 0.103638 0.000005
0.000219 0.093799 0.000012
0.000349 0.086378 0.000141
0.000386 0.080413 0.000412
0.000554 0.076302 0.000425
0.002720 0.073674 0.000119
0.014559 0.070880 0.000120
0.045438 0.067835 0.000254
0.095780 0.067285 0.000489
0.175040 0.067541 0.000088
0.291791 0.072271 0.000016
0.444642 0.082284 0.010512
0.622377 0.104171 0.035314
0.777465 0.144766 0.090060
0.898706 0.210161 0.173260
0.961285 0.300004 0.291843
0.958689 0.364210 0.361142
0.958004 0.429287 0.408034
0.958277 0.457541 0.418216
0.958220 0.474603 0.411161
0.957827 0.498270 0.398479
0.955799 0.528464 0.386100
0.954601 0.564947 0.366512
0.953147 0.605350 0.340131
0.952103 0.648618 0.304285
0.951760 0.692861 0.287400
0.952627 0.736145 0.282585
0.953016 0.777937 0.275516
0.954488 0.816981 0.269636
0.956764 0.867571 0.253657
0.958732 0.911612 0.230174
0.962638 0.952654 0.204927
0.000087 0.172459 0.000316
0.000427 0.158520 0.000254
0.000450 0.146710 0.000021
0.000311 0.137422 0.000048
0.000064 0.130440 0.000100
0.000098 0.124248 0.000011
0.000421 0.119526 0.000471
0.005993 0.114385 0.000172
0.030579 0.109419 0.000023
0.076759 0.106768 0.000085
0.150791 0.104332 0.000119
0.261663 0.106288 0.000019
0.407870 0.115978 0.000949
0.579995 0.137076 0.015047
0.742262 0.175181 0.059513
0.870201 0.235822 0.134678
0.954405 0.319651 0.248804
0.957939 0.385044 0.338817
0.958402 0.439106 0.389621
0.957933 0.472362 0.411798
0.958213 0.487271 0.404963
0.957252 0.508617 0.394111
0.955426 0.536668 0.381919
0.954453 0.571315 0.363077
0.953032 0.609871 0.336524
0.952039 0.651881 0.300939
0.951757 0.694962 0.286429
0.952572 0.737661 0.281736
0.953034 0.778877 0.274641
0.954493 0.817582 0.268916
0.956788 0.867951 0.253085
0.958755 0.911833 0.229671
0.962636 0.952804 0.204490
0.000234 0.252191 0.000215
0.000564 0.236720 0.000488
0.000327 0.222498 0.000322
0.000218 0.210548 0.000117
0.000520 0.201725 0.000297
0.000262 0.193578 0.000305
0.000242 0.186401 0.000362
0.001926 0.179388 0.000328
0.016310 0.172378 0.000625
0.057749 0.165081 0.000317
0.125726 0.160282 0.000041
0.229587 0.162126 0.000012
0.369391 0.167327 0.000016
0.536713 0.184270 0.003295
0.704001 0.219601 0.025962
0.837484 0.274320 0.094232
0.944880 0.347874 0.196057
0.958196 0.415610 0.311201
0.957734 0.456757 0.364494
0.957309 0.492474 0.402273
0.957657 0.505174 0.396424
0.956688 0.522713 0.387554
0.954723 0.548098 0.375863
0.954125 0.580177 0.358060
0.952991 0.616424 0.331479
0.951935 0.656564 0.296194
0.951748 0.697994 0.285038
0.952495 0.739845 0.280518
0.953054 0.780241 0.273371
0.954504 0.818454 0.267872
0.956825 0.868506 0.252253
0.958787 0.912157 0.228938
0.962658 0.953015 0.204364
0.000201 0.347023 0.000498
0.000541 0.331384 0.000673
0.000682 0.318586 0.000440
0.000332 0.305870 0.000196
0.000086 0.295362 0.000035
0.000242 0.288818 0.000057
0.000344 0.281790 0.000065
0.000340 0.273105 0.000054
0.003946 0.263208 0.000178
0.037635 0.253865 0.000247
0.100932 0.242859 0.000016
0.199554 0.239663 0.000026
0.336744 0.242470 0.000175
0.497153 0.255241 0.002228
0.662728 0.282365 0.010699
0.802671 0.324205 0.049390
0.917652 0.386594 0.138515
0.958334 0.451820 0.260091
0.957059 0.484356 0.330821
0.956801 0.518808 0.382718
0.956261 0.528911 0.385118
0.956116 0.541780 0.377869
0.953367 0.563810 0.367030
0.953593 0.592064 0.349952
0.953045 0.625603 0.324528
0.951783 0.663244 0.290047
0.951815 0.702428 0.282695
0.952388 0.742970 0.278786
0.953073 0.782211 0.271533
0.954526 0.819715 0.266359
0.956879 0.869314 0.251047
0.958833 0.912628 0.227868
0.962706 0.953317 0.204498
0.001203 0.453601 0.000053
0.000890 0.441585 0.000131
0.000443 0.430471 0.000471
0.000012 0.420252 0.000824
0.000151 0.412578 0.000708
0.000278 0.405424 0.000600
0.000161 0.398594 0.000793
0.000094 0.389331 0.000835
0.001107 0.376397 0.000053
0.016154 0.365405 0.000461
0.073464 0.354558 0.000358
0.169525 0.344282 0.000525
0.305514 0.339832 0.000299
0.459766 0.344955 0.004781
0.623156 0.362190 0.012890
0.765923 0.391650 0.024647
0.885874 0.440280 0.079271
0.956742 0.499503 0.193801
0.957380 0.526922 0.286536
0.955118 0.551512 0.355481
0.955104 0.558465 0.369668
0.953831 0.567963 0.366291
0.953002 0.584834 0.354603
0.953150 0.608497 0.337997
0.952812 0.638367 0.314286
0.951787 0.672446 0.283671
0.951977 0.708780 0.279142
0.952247 0.747400 0.276350
0.953058 0.784953 0.268908
0.954571 0.821531 0.264181
0.956959 0.870487 0.249304
0.958897 0.913313 0.226311
0.962775 0.953756 0.204685
0.005751 0.563508 0.000176
0.005459 0.553988 0.000056
0.005359 0.546439 0.000131
0.005344 0.540007 0.000293
0.005057 0.533980 0.000400
0.003789 0.528396 0.000334
0.002314 0.521924 0.000254
0.002586 0.513383 0.000146
0.003541 0.503011 0.000038
0.007243 0.492377 0.000084
0.046866 0.477719 0.000316
0.139027 0.465252 0.000010
0.271938 0.456011 0.002574
0.425606 0.451622 0.010050
0.588087 0.457513 0.018822
0.733436 0.477149 0.030776
0.853898 0.509984 0.044434
0.945743 0.554153 0.118081
0.954832 0.584510 0.227099
0.953558 0.593401 0.304685
0.953596 0.596319 0.347061
0.953083 0.600165 0.344391
0.952989 0.611874 0.334998
0.952465 0.630935 0.320560
0.951962 0.655644 0.297692
0.951758 0.684866 0.276353
0.952167 0.717635 0.274440
0.952066 0.753597 0.272984
0.953003 0.788754 0.265258
0.954663 0.824129 0.261061
0.957054 0.872016 0.246427
0.958984 0.914308 0.224046
0.962875 0.954395 0.204939
0.014041 0.664552 0.003237
0.013640 0.659624 0.002568
0.013065 0.655282 0.002310
0.012488 0.651192 0.002115
0.011937 0.647284 0.001926
0.011717 0.643639 0.001801
0.011727 0.639443 0.001706
0.011736 0.633670 0.001583
0.010992 0.625910 0.001566
0.011188 0.616084 0.001398
0.029873 0.604601 0.001011
0.104830 0.592406 0.002489
0.234819 0.579428 0.009057
0.390192 0.570019 0.017063
0.554703 0.566906 0.026261
0.702872 0.574924 0.038932
0.824322 0.593877 0.050290
0.926854 0.619682 0.070297
0.951218 0.651530 0.160103
0.952554 0.645260 0.235503
0.952325 0.639434 0.312334
0.952795 0.639966 0.314001
0.951273 0.646616 0.306773
0.951806 0.658650 0.294534
0.951969 0.677088 0.273292
0.951243 0.701040 0.267893
0.952222 0.729632 0.267814
0.952062 0.761627 0.266434
0.952936 0.794170 0.260257
0.954854 0.827810 0.256634
0.957191 0.874224 0.242274
0.959100 0.915747 0.220762
0.963019 0.955323 0.205267
0.021457 0.754502 0.010337
0.021173 0.751725 0.010080
0.020948 0.748970 0.009875
0.020732 0.746307 0.009679
0.020522 0.743730 0.009489
0.020377 0.741292 0.009409
0.020309 0.738503 0.009500
0.020218 0.734609 0.009625
0.019740 0.729510 0.009477
0.018190 0.723291 0.008488
0.021808 0.714422 0.007435
0.074655 0.703104 0.010504
0.194934 0.692221 0.016079
0.354703 0.681239 0.024917
0.521337 0.675406 0.036484
0.673847 0.673234 0.047494
0.796668 0.678324 0.064852
0.897422 0.690824 0.082541
0.950523 0.710019 0.105059
0.951392 0.705969 0.150231
0.951366 0.691610 0.235526
0.952106 0.684801 0.262186
0.951793 0.685207 0.263128
0.951071 0.691795 0.258369
0.951633 0.703761 0.254846
0.952076 0.721306 0.257111
0.952142 0.745597 0.258558
0.952606 0.772506 0.256777
0.952970 0.801821 0.253854
0.955197 0.832931 0.249907
0.957388 0.877390 0.236304
0.959242 0.917821 0.216013
0.963224 0.956666 0.205658
0.030179 0.825257 0.018303
0.029837 0.823860 0.017933
0.029505 0.822497 0.017573
0.029183 0.821166 0.017222
0.028888 0.819837 0.016907
0.028733 0.818327 0.016790
0.028545 0.816519 0.016647
0.028276 0.813974 0.016443
0.027895 0.810442 0.016154
0.028080 0.806070 0.016320
0.030854 0.800118 0.016552
0.047230 0.792091 0.016890
0.144580 0.784101 0.020404
0.302864 0.775246 0.030944
0.475524 0.766507 0.042610
0.637185 0.760583 0.060867
0.765380 0.757787 0.080355
0.867487 0.761456 0.099957
0.944968 0.772517 0.118235
0.950679 0.771785 0.121020
0.951120 0.750346 0.162896
0.951825 0.731994 0.224405
0.951278 0.728458 0.228684
0.951746 0.729733 0.233226
0.951919 0.736010 0.236541
0.952304 0.747518 0.241018
0.952299 0.765747 0.243902
0.952756 0.787019 0.243760
0.953284 0.812195 0.243475
0.955455 0.839998 0.239576
0.957668 0.881900 0.227784
0.959397 0.920791 0.209179
0.963513 0.958600 0.206045
0.038387 0.888302 0.025501
0.038340 0.887141 0.025757
0.038185 0.886165 0.025795
0.037930 0.885361 0.025634
0.037680 0.884571 0.025476
0.037435 0.883795 0.025320
0.037139 0.882859 0.025132
0.036717 0.881526 0.024865
0.036123 0.879650 0.024489
0.036067 0.876340 0.023687
0.035987 0.871806 0.022579
0.038954 0.866360 0.022800
0.091630 0.859866 0.025542
0.232243 0.852704 0.034639
0.414515 0.845427 0.047996
0.586694 0.836009 0.074490
0.728225 0.830854 0.098334
0.836543 0.828989 0.117222
0.926884 0.832945 0.137169
0.952876 0.834047 0.143171
0.951746 0.810008 0.136880
0.951303 0.782555 0.182082
0.951255 0.774483 0.199443
0.951583 0.771542 0.207804
0.951301 0.772393 0.212780
0.951968 0.778424 0.218177
0.951652 0.789854 0.224258
0.952687 0.805249 0.226943
0.954025 0.825760 0.228531
0.955360 0.849751 0.226512
0.958007 0.888180 0.216243
0.959886 0.924831 0.206483
0.963914 0.961370 0.206233
0.045722 0.945647 0.032416
0.045546 0.945083 0.032243
0.045372 0.944528 0.032071
0.045199 0.943979 0.031902
0.045029 0.943438 0.031734
0.044861 0.942903 0.031569
0.044656 0.942254 0.031367
0.044361 0.941323 0.031077
0.044219 0.939801 0.030774
0.044114 0.937586 0.030381
0.043968 0.934506 0.029826
0.046777 0.930307 0.029496
0.057223 0.924812 0.029781
0.145693 0.919324 0.036909
0.329416 0.912616 0.053369
0.521520 0.901683 0.083316
0.684873 0.895252 0.111642
0.805763 0.892660 0.135322
0.899415 0.891575 0.153947
0.956645 0.889021 0.167140
0.955227 0.867019 0.156812
0.953276 0.836933 0.145618
0.952759 0.819664 0.164556
0.952702 0.813454 0.171494
0.952401 0.810654 0.179891
0.952485 0.812232 0.188995
0.952395 0.817294 0.198355
0.953403 0.827546 0.202881
0.954600 0.842859 0.207865
0.955545 0.861889 0.208198
0.957912 0.896405 0.203085
0.960519 0.930438 0.199786
0.964455 0.965303 0.205745
0.047866 0.967222 0.033919
0.047866 0.967222 0.033919
0.047866 0.967222 0.033919
0.047866 0.967222 0.033919
0.047866 0.967222 0.033919
0.047866 0.967222 0.033919
0.047866 0.967222 0.033919
0.047866 0.967222 0.033919
0.047866 0.967222 0.033919
0.047866 0.967222 0.033919
0.047866 0.967222 0.033919
0.047866 0.967222 0.033919
0.047866 0.967222 0.033919
0.096614 0.966799 0.039375
0.228937 0.963121 0.055003
0.432808 0.955945 0.084195
0.620994 0.949311 0.116523
0.758199 0.944297 0.144792
0.859963 0.938919 0.165849
0.940075 0.933524 0.181766
0.959368 0.918761 0.179277
0.956660 0.891206 0.169228
0.955183 0.864175 0.158002
0.954392 0.855597 0.151892
0.954403 0.850579 0.157120
0.954420 0.847561 0.156708
0.953874 0.849416 0.165424
0.954453 0.853859 0.174789
0.955341 0.863365 0.181296
0.956142 0.877545 0.188547
0.958132 0.907566 0.189960
0.961232 0.938318 0.189194
0.964310 0.968588 0.206236
0.047866 0.967222 0.033919
0.047866 0.967222 0.033919
0.047866 0.967222 0.033919
0.047866 0.967222 0.033919
0.047866 0.967222 0.033919
0.047866 0.967222 0.033919
0.047866 0.967222 0.033919
0.047866 0.967222 0.033919
0.047866 0.967222 0.033919
0.047866 0.967222 0.033919
0.048366 0.967249 0.033991
0.049302 0.967302 0.034124
0.050566 0.967375 0.034305
0.088770 0.967039 0.038502
0.168100 0.966084 0.047582
0.335826 0.962621 0.070354
0.517470 0.962072 0.101851
0.679115 0.963050 0.135277
0.803782 0.966154 0.164094
0.895566 0.966926 0.186037
0.963469 0.962267 0.199699
0.961005 0.940102 0.190774
0.958228 0.912155 0.175950
0.957008 0.897259 0.170762
0.956804 0.889679 0.166998
0.956160 0.884790 0.165994
0.955627 0.882147 0.164961
0.956583 0.883040 0.166026
0.956077 0.887540 0.168687
0.957309 0.897566 0.176118
0.958813 0.922134 0.182163
0.962024 0.949801 0.192174
0.963717 0.970784 0.209463
0.047866 0.967222 0.033919
0.047866 0.967222 0.033919
0.047866 0.967222 0.033919
0.047866 0.967222 0.033919
0.047866 0.967222 0.033919
0.047866 0.967222 0.033919
0.047866 0.967222 0.033919
0.047866 0.967222 0.033919
0.047866 0.967222 0.033919
0.047866 0.967222 0.033919
0.047866 0.967222 0.033919
0.047866 0.967222 0.033919
0.047866 0.967222 0.033919
0.089748 0.966953 0.038188
0.150508 0.966570 0.044353
0.275725 0.964110 0.061969
0.430563 0.962037 0.087471
0.591022 0.962094 0.117628
0.729775 0.964482 0.146447
0.835039 0.967828 0.170941
0.919770 0.971825 0.192244
0.962430 0.971812 0.208742
0.963308 0.958287 0.197611
0.960963 0.936310 0.186590
0.959338 0.928325 0.183833
0.959193 0.922427 0.180556
0.958879 0.916720 0.178771
0.958684 0.915413 0.175853
0.958829 0.916400 0.177982
0.958540 0.920305 0.181339
0.961331 0.939775 0.189522
0.963083 0.963016 0.200706
0.963971 0.972441 0.211771
0.052585 0.967255 0.034230
0.052749 0.967256 0.034241
0.052913 0.967257 0.034252
0.053076 0.967259 0.034262
0.053239 0.967260 0.034273
0.053401 0.967261 0.034284
0.053599 0.967262 0.034297
0.053886 0.967265 0.034316
0.054303 0.967268 0.034343
0.054904 0.967272 0.034382
0.055765 0.967279 0.034439
0.059934 0.967274 0.034846
0.080654 0.967194 0.037066
0.109715 0.967089 0.040169
0.149792 0.966954 0.044431
0.239600 0.964988 0.056821
0.362444 0.962592 0.074977
0.503831 0.961655 0.099613
0.644736 0.962669 0.128254
0.765315 0.965654 0.154678
0.860605 0.968722 0.178216
0.938122 0.972122 0.200993
0.964568 0.973038 0.212368
0.963615 0.970565 0.208693
0.963420 0.963753 0.201229
0.963101 0.957932 0.198072
0.962948 0.952105 0.193933
0.961160 0.947180 0.192865
0.961520 0.944232 0.191349
0.961755 0.945981 0.190920
0.962346 0.961266 0.199070
0.963820 0.971182 0.210098
0.964568 0.973038 0.212368
0.070884 0.967219 0.036779
0.072370 0.967203 0.036941
0.073853 0.967187 0.037103
0.075333 0.967170 0.037265
0.076810 0.967154 0.037426
0.078284 0.967138 0.037586
0.080095 0.967118 0.037784
0.082733 0.967089 0.038071
0.086570 0.967047 0.038490
0.092143 0.966986 0.039097
0.100210 0.966897 0.039976
0.111839 0.966769 0.041243
0.128501 0.966585 0.043057
0.152166 0.966323 0.045631
0.189676 0.965780 0.050078
0.255277 0.964484 0.058890
0.343995 0.962817 0.071012
0.451295 0.961960 0.089540
0.573865 0.962142 0.113266
0.693938 0.963488 0.138297
0.795894 0.966830 0.162192
0.883351 0.970068 0.184109
0.951965 0.973199 0.205945
0.964568 0.973038 0.212368
0.964568 0.973038 0.212368
0.964364 0.972834 0.212164
0.963872 0.972342 0.211672
0.964078 0.971354 0.210574
0.963311 0.969829 0.208814
0.962883 0.969250 0.206917
0.963752 0.972222 0.211552
0.964568 0.973038 0.212368
0.964568 0.973038 0.212368
0.214053 0.965287 0.051916
0.215241 0.965270 0.052068
0.216428 0.965253 0.052220
0.217613 0.965236 0.052371
0.218796 0.965219 0.052523
0.219979 0.965202 0.052674
0.221432 0.965181 0.052860
0.223551 0.965151 0.053131
0.226640 0.965106 0.053526
0.231136 0.965042 0.054100
0.237667 0.964949 0.054935
0.247129 0.964814 0.056144
0.260821 0.964605 0.057981
0.280704 0.964213 0.061189
0.309026 0.963654 0.065754
0.348934 0.962866 0.072176
0.403301 0.961909 0.081074
0.469457 0.961643 0.093190
0.551841 0.961709 0.108894
0.644136 0.962600 0.127529
0.734949 0.964629 0.146659
0.824194 0.967487 0.169613
0.903790 0.970568 0.187418
0.959641 0.973104 0.210422
0.964568 0.973038 0.212368
0.964568 0.973038 0.212368
0.964568 0.973038 0.212368
0.964568 0.973038 0.212368
0.964568 0.973038 0.212368
0.964568 0.973038 0.212368
0.964568 0.973038 0.212368
0.964568 0.973038 0.212368
0.964568 0.973038 0.212368
0.406808 0.961776 0.082340
0.407507 0.961769 0.082459
0.408204 0.961762 0.082579
0.408902 0.961755 0.082699
0.409598 0.961748 0.082818
0.410294 0.961741 0.082937
0.411150 0.961733 0.083084
0.412400 0.961720 0.083298
0.414222 0.961702 0.083611
0.416879 0.961676 0.084066
0.420745 0.961638 0.084728
0.426361 0.961583 0.085691
0.434498 0.961503 0.087085
0.446241 0.961388 0.089096
0.463094 0.961225 0.091982
0.487092 0.960995 0.096088
0.517827 0.961188 0.101976
0.559510 0.961610 0.110199
