output/ACEScct_display/ACEScct_to_ETERNA_33grid.cube
TITLE "ACEScct_to_ETERNA"
# Input: ACEScct (AP1 primaries, log encoding, D60)
# Output: BT.709 / Gamma 2.2 (display-referred)
# Use: Display/output transform in DaVinci Resolve ACES pipeline (replaces ODT)
# Source: FLog2C_to_ETERNA_65grid_V.1.00.cube
# Generated from Fujifilm GFX ETERNA 55 F-Log2C LUT
LUT_3D_SIZE 5
0.006510 0.006095 0.006119
0.188129 0.018351 0.029185
0.941297 0.256884 0.189458
0.928897 0.539834 0.065538
0.930795 0.971935 0.054211
0.005159 0.145950 0.000058
0.127361 0.113548 0.005511
0.935113 0.265795 0.097518
0.928744 0.549158 0.064072
0.930784 0.972303 0.054236
0.009912 0.753920 0.000101
0.010745 0.727078 0.000520
0.731523 0.657934 0.017120
0.925951 0.657587 0.058972
0.931573 0.977323 0.057085
0.212009 0.999725 0.000097
0.224660 0.999755 0.000087
0.397523 0.999781 0.000367
0.934402 0.999801 0.081864
0.932505 0.999629 0.082445
0.980649 0.999838 0.764602
0.980645 0.999839 0.764498
0.980589 0.999859 0.762888
0.978689 0.999797 0.732103
0.976563 0.999838 0.704828
0.011216 0.003591 0.126027
0.192928 0.007114 0.108376
0.938283 0.232740 0.153689
0.931214 0.551268 0.150154
0.930790 0.971988 0.054277
0.015839 0.169830 0.161845
0.128170 0.129559 0.126749
0.929238 0.266438 0.123772
0.931611 0.560700 0.145460
0.930781 0.972352 0.054271
0.016045 0.787187 0.007872
0.013372 0.760612 0.001184
0.705504 0.677982 0.012791
0.927142 0.668129 0.078961
0.931580 0.977363 0.057109
0.211272 0.999645 0.000638
0.223391 0.999648 0.000543
0.387031 0.999317 0.000200
0.934402 0.999797 0.081896
0.932505 0.999629 0.082445
0.980763 0.999808 0.767906
0.980760 0.999809 0.767800
0.980703 0.999832 0.766173
0.979005 0.999843 0.735741
0.976630 0.999864 0.708057
0.047429 0.224138 0.701469
0.222011 0.200328 0.671586
0.913590 0.262625 0.678151
0.952615 0.600884 0.568878
0.951376 0.964445 0.356893
0.051119 0.326976 0.728395
0.191135 0.292955 0.700772
0.878775 0.314805 0.686031
0.952653 0.608197 0.570465
0.951343 0.964802 0.356229
0.066690 0.797848 0.730155
0.065207 0.784300 0.715427
0.711022 0.712337 0.711383
0.954273 0.689459 0.582298
0.950804 0.970179 0.346123
0.277176 0.996994 0.400236
0.287870 0.996955 0.401301
0.421918 0.998259 0.409381
0.950459 0.999693 0.314703
0.942666 0.999697 0.189093
0.983915 0.999224 0.811506
0.983905 0.999218 0.811400
0.983754 0.999124 0.809765
0.981310 0.999656 0.782632
0.979640 1.000000 0.750854
0.476159 0.684231 0.959561
0.492857 0.684509 0.962037
0.672240 0.689911 0.985481
0.976572 0.702675 0.962187
0.987001 0.936847 0.924414
0.472770 0.688793 0.958118
0.489445 0.689018 0.960518
0.669408 0.694021 0.984378
0.976600 0.705501 0.962517
0.987021 0.937143 0.924395
0.429186 0.746592 0.941569
0.445985 0.746178 0.944077
0.630149 0.745428 0.969540
0.978753 0.743691 0.966990
0.987318 0.941629 0.924106
0.196657 0.979780 0.867043
0.208710 0.979806 0.868792
0.336125 0.980459 0.887820
0.976644 0.984025 0.980608
0.989062 0.999079 0.903709
0.998551 0.999953 0.999480
0.998656 0.999956 0.999517
1.000000 1.000000 1.000000
1.000000 1.000000 1.000000
0.999628 1.000000 0.997648
0.866601 0.994689 0.973772
0.867255 0.994705 0.973866
0.877202 0.994946 0.975285
1.000000 1.000000 1.000000
1.000000 1.000000 1.000000
0.866556 0.994688 0.973762
0.867209 0.994704 0.973855
0.877151 0.994944 0.975269
1.000000 1.000000 1.000000
1.000000 1.000000 1.000000
0.865863 0.994672 0.973597
0.866512 0.994687 0.973685
0.876381 0.994908 0.975020
0.999554 0.999947 0.999814
1.000000 1.000000 1.000000
0.856229 0.993736 0.971424
0.856852 0.993752 0.971518
0.865857 0.994181 0.973199
0.986827 0.999917 0.995726
1.000000 1.000000 1.000000
1.000000 1.000000 1.000000
1.000000 1.000000 1.000000
1.000000 1.000000 1.000000
1.000000 1.000000 1.000000
1.000000 1.000000 1.000000
