output/ACEScct_display/ACEScct_to_PRO-Neg.Std_33grid.cube
TITLE "ACEScct_to_PRO-Neg.Std"
# Input: ACEScct (AP1 primaries, log encoding, D60)
# Output: BT.709 / Gamma 2.2 (display-referred)
# Use: Display/output transform in DaVinci Resolve ACES pipeline (replaces ODT)
# Source: FLog2C_to_PRO-Neg.Std_65grid_V.1.00.cube
# Generated from Fujifilm GFX ETERNA 55 F-Log2C LUT
LUT_3D_SIZE 5
0.000438 0.000379 0.000085
0.130122 0.019019 0.037078
0.953660 0.154746 0.450985
0.973232 0.509837 0.269925
0.961942 0.999681 0.000402
0.014428 0.099689 0.000475
0.085067 0.078572 0.001599
0.951473 0.173730 0.368552
0.973538 0.521220 0.257801
0.961900 0.999801 0.000235
0.006469 0.791610 0.000227
0.008712 0.760059 0.000720
0.750702 0.687918 0.000055
0.971860 0.659652 0.089528
0.960651 0.999943 0.000199
0.020666 0.999666 0.000165
0.036171 0.999716 0.000259
0.265716 0.999813 0.000462
0.950560 0.999783 0.000463
0.950825 0.999567 0.003259
0.985395 0.999932 0.739124
0.985391 0.999934 0.739014
0.985340 0.999963 0.737323
0.982982 0.999633 0.704964
0.981583 0.999262 0.673650
0.005339 0.001234 0.070493
0.134803 0.013236 0.079382
0.950096 0.123287 0.440698
0.975733 0.522893 0.315513
0.963022 0.999764 0.003111
0.025641 0.128602 0.124162
0.091323 0.092526 0.090066
0.946121 0.185220 0.360710
0.976391 0.534318 0.308613
0.962966 0.999882 0.002625
0.005231 0.823932 0.000503
0.008204 0.795252 0.000350
0.725692 0.704007 0.000263
0.977979 0.663104 0.223723
0.961515 0.999931 0.003633
0.019442 0.999723 0.000157
0.034705 0.999763 0.000231
0.256063 0.999762 0.000264
0.950538 0.999767 0.000465
0.951151 0.999460 0.005685
0.985739 0.999929 0.742484
0.985736 0.999931 0.742374
0.985685 0.999962 0.740681
0.983123 0.999700 0.708939
0.981850 0.999250 0.677405
0.062371 0.197124 0.756848
0.217345 0.169752 0.729691
0.925350 0.193638 0.786027
0.992994 0.573527 0.663537
0.970845 0.993046 0.327957
0.049137 0.313005 0.797477
0.183518 0.277133 0.761367
0.899147 0.261619 0.776954
0.993811 0.581947 0.662879
0.970835 0.993176 0.327240
0.029177 0.826241 0.779012
0.029835 0.810754 0.763462
0.721506 0.722510 0.721677
0.992025 0.680926 0.645003
0.970712 0.994882 0.316452
0.092676 0.999932 0.293895
0.108216 0.999909 0.293716
0.297436 0.999683 0.290108
0.966924 0.999761 0.274067
0.964185 0.999796 0.152516
0.988221 0.999529 0.788170
0.988218 0.999532 0.788059
0.988161 0.999569 0.786353
0.987143 0.999884 0.757471
0.983825 0.999635 0.725569
0.491859 0.694361 0.999830
0.508846 0.694112 0.999915
0.698083 0.693587 0.999761
0.999684 0.679799 0.999163
0.992744 0.937353 0.930056
0.487306 0.699504 0.999791
0.504465 0.699224 0.999874
0.694577 0.698344 0.999772
0.999659 0.683131 0.999158
0.992728 0.937652 0.929969
0.427237 0.763556 0.999461
0.444980 0.762679 0.999449
0.642405 0.756091 0.999692
0.999612 0.727556 0.999332
0.992492 0.942188 0.928650
0.043775 0.999592 0.925850
0.048303 0.999596 0.926293
0.185116 0.999440 0.936408
0.975323 0.983185 0.979853
0.992007 0.999488 0.889089
0.998287 0.999843 0.999491
0.998411 0.999854 0.999528
1.000000 1.000000 1.000000
1.000000 1.000000 1.000000
0.999441 0.999954 0.996801
0.855933 0.997970 0.979180
0.856636 0.997978 0.979267
0.867336 0.998107 0.980583
1.000000 1.000000 1.000000
1.000000 1.000000 1.000000
0.855881 0.997966 0.979185
0.856584 0.997975 0.979272
0.867282 0.998107 0.980579
1.000000 1.000000 1.000000
1.000000 1.000000 1.000000
0.855091 0.997912 0.979246
0.855793 0.997924 0.979324
0.866467 0.998108 0.980513
0.999201 0.999987 0.999722
1.000000 1.000000 1.000000
0.844828 0.998117 0.978396
0.845536 0.998115 0.978475
0.855057 0.998213 0.979386
0.984856 0.999181 0.995847
1.000000 1.000000 1.000000
1.000000 1.000000 1.000000
1.000000 1.000000 1.000000
1.000000 1.000000 1.000000
1.000000 1.000000 1.000000
1.000000 1.000000 1.000000
