output/ACEScct_display/ACEScct_to_ETERNA-BB_33grid.cube
TITLE "ACEScct_to_ETERNA-BB"
# Input: ACEScct (AP1 primaries, log encoding, D60)
# Output: BT.709 / Gamma 2.2 (display-referred)
# Use: Display/output transform in DaVinci Resolve ACES pipeline (replaces ODT)
# Source: FLog2C_to_ETERNA-BB_65grid_V.1.00.cube
# Generated from Fujifilm GFX ETERNA 55 F-Log2C LUT
LUT_3D_SIZE 33
0.000282 0.000191 0.000111
0.000282 0.000191 0.000111
0.000282 0.000191 0.000111
0.002398 0.000476 0.000019
0.018891 0.003068 0.001698
0.036135 0.005569 0.006014
0.052354 0.007339 0.010613
0.071407 0.011951 0.016503
0.098017 0.017927 0.021492
0.140203 0.026014 0.033652
0.216835 0.039932 0.053520
0.331871 0.054633 0.077096
0.452475 0.072757 0.107631
0.553611 0.109856 0.153296
0.618504 0.154441 0.196551
0.668684 0.216292 0.247868
0.696713 0.270849 0.292297
0.734054 0.340695 0.347380
0.762975 0.392538 0.381400
0.778341 0.423920 0.391639
0.795732 0.457275 0.403711
0.814511 0.495566 0.413995
0.833233 0.536531 0.424495
0.857201 0.586272 0.432156
0.877756 0.637679 0.437090
0.892939 0.691389 0.437643
0.908062 0.743688 0.443240
0.918517 0.792445 0.449792
0.928668 0.834428 0.455518
0.934607 0.871171 0.456991
0.941849 0.908701 0.461086
0.944424 0.937508 0.466520
0.945614 0.959008 0.467683
0.000282 0.000191 0.000111
0.000282 0.000191 0.000111
0.000282 0.000191 0.000111
0.004816 0.000958 0.000027
0.021428 0.003310 0.002323
0.038626 0.006052 0.006647
0.053843 0.007354 0.011086
0.072962 0.012439 0.016721
0.099447 0.018047 0.022020
0.142005 0.026333 0.034215
0.219186 0.040222 0.053966
0.333682 0.054945 0.077520
0.441538 0.070334 0.103722
0.530460 0.097912 0.140720
0.602175 0.142237 0.185604
0.661515 0.204203 0.238532
0.692395 0.262149 0.285665
0.731446 0.337469 0.342223
0.765661 0.397405 0.382924
0.780407 0.428229 0.393235
0.797445 0.460630 0.404444
0.815685 0.498001 0.414635
0.834067 0.538519 0.425074
0.857988 0.587708 0.432340
0.878043 0.638651 0.437186
0.893135 0.692100 0.437636
0.908178 0.744128 0.443265
0.918609 0.792705 0.449763
0.928701 0.834586 0.455494
0.934621 0.871260 0.456943
0.941854 0.908747 0.461069
0.944421 0.937530 0.466491
0.945616 0.959020 0.467660
0.000282 0.000191 0.000111
0.000282 0.000191 0.000111
0.000282 0.000191 0.000111
0.007159 0.001425 0.000035
0.023906 0.003546 0.002934
0.041066 0.006525 0.007267
0.055305 0.007370 0.011551
0.074531 0.012928 0.016828
0.100861 0.018165 0.022541
0.143447 0.026542 0.034630
0.213490 0.039040 0.051972
0.312662 0.050039 0.073433
0.415776 0.066010 0.096465
0.511309 0.091536 0.130333
0.591541 0.133358 0.177201
0.652884 0.193207 0.229511
0.688650 0.254612 0.279871
0.729003 0.334439 0.337398
0.768202 0.402063 0.384354
0.782933 0.432351 0.395058
0.799119 0.463911 0.405159
0.816841 0.500398 0.415266
0.834892 0.540487 0.425643
0.858770 0.589134 0.432526
0.878328 0.639619 0.437282
0.893330 0.692808 0.437628
0.908294 0.744566 0.443290
0.918699 0.792965 0.449735
0.928734 0.834745 0.455469
0.934636 0.871350 0.456896
0.941859 0.908794 0.461051
0.944417 0.937551 0.466461
0.945618 0.959033 0.467637
0.000429 0.003352 0.000616
0.000527 0.004141 0.000741
0.000624 0.004926 0.000866
0.006823 0.004911 0.000462
0.020247 0.005914 0.003049
0.037637 0.006882 0.006979
0.051854 0.007169 0.010545
0.070082 0.012284 0.015874
0.094028 0.017151 0.023960
0.130939 0.024962 0.032573
0.191806 0.036204 0.047360
0.287901 0.047994 0.064880
0.393489 0.065713 0.091428
0.494514 0.085163 0.123348
0.578935 0.125404 0.168794
0.643707 0.183651 0.221159
0.686100 0.250408 0.274876
0.728889 0.334641 0.335192
0.770016 0.406581 0.385032
0.785380 0.436346 0.396821
0.800758 0.467121 0.405859
0.818007 0.502844 0.415957
0.835708 0.542436 0.426203
0.859547 0.590550 0.432713
0.878610 0.640583 0.437377
0.893526 0.693513 0.437621
0.908409 0.745003 0.443315
0.918790 0.793224 0.449707
0.928768 0.834903 0.455445
0.934651 0.871439 0.456849
0.941865 0.908841 0.461034
0.944414 0.937572 0.466432
0.945620 0.959045 0.467613
0.002437 0.015783 0.003208
0.002553 0.016317 0.003357
0.002667 0.016846 0.003505
0.002625 0.013430 0.002369
0.018167 0.016367 0.005814
0.035275 0.014674 0.008328
0.050284 0.014228 0.010965
0.067059 0.016067 0.015313
0.088259 0.018115 0.018150
0.120841 0.023600 0.028658
0.175189 0.034726 0.045291
0.266287 0.044844 0.064262
0.375290 0.062014 0.086931
0.479278 0.079664 0.117634
0.567650 0.118307 0.161640
0.636809 0.177070 0.214565
0.683801 0.246628 0.270273
0.729150 0.335355 0.333496
0.771770 0.410942 0.385705
0.787754 0.440222 0.398529
0.802361 0.470262 0.406543
0.819204 0.505402 0.416761
0.836515 0.544366 0.426755
0.860319 0.591956 0.432901
0.878890 0.641542 0.437471
0.893722 0.694215 0.437613
0.908524 0.745439 0.443341
0.918880 0.793482 0.449680
0.928801 0.835060 0.455421
0.934666 0.871528 0.456802
0.941870 0.908888 0.461016
0.944410 0.937593 0.466403
0.945622 0.959057 0.467590
0.004882 0.029626 0.008767
0.005014 0.030438 0.009129
0.005144 0.031244 0.009489
0.005668 0.027696 0.006019
0.015987 0.026942 0.007743
0.029898 0.026037 0.009130
0.046452 0.028142 0.011153
0.062661 0.027842 0.014061
0.084482 0.026829 0.019435
0.115213 0.029726 0.026757
0.164787 0.037700 0.040694
0.250241 0.043111 0.059325
0.359754 0.060090 0.081891
0.465654 0.076842 0.112369
0.557773 0.111958 0.155527
0.630992 0.172661 0.209120
0.684772 0.249401 0.268533
0.729437 0.336197 0.331947
0.773469 0.415159 0.386375
0.790058 0.443985 0.400185
0.803931 0.473339 0.407212
0.820384 0.507923 0.417552
0.837313 0.546277 0.427297
0.860934 0.593347 0.433080
0.879169 0.642497 0.437565
0.893908 0.694887 0.437562
0.908638 0.745874 0.443366
0.918970 0.793740 0.449653
0.928835 0.835218 0.455397
0.934680 0.871617 0.456756
0.941875 0.908935 0.460999
0.944407 0.937614 0.466374
0.945624 0.959069 0.467567
0.009392 0.047725 0.014872
0.009599 0.048446 0.015080
0.009620 0.048686 0.015006
0.007656 0.043249 0.011364
0.013776 0.040561 0.009567
0.028010 0.039912 0.011855
0.043832 0.039474 0.013459
0.061665 0.041239 0.016405
0.082593 0.041914 0.020701
0.110997 0.042669 0.026236
0.156866 0.047551 0.037425
0.236903 0.054432 0.055990
0.343964 0.063453 0.076325
0.451765 0.078675 0.106134
0.549506 0.114525 0.150722
0.626427 0.175101 0.205719
0.685883 0.252615 0.266540
0.730289 0.339210 0.330975
0.776067 0.420207 0.387595
0.792692 0.448632 0.401903
0.805912 0.477376 0.408484
0.821811 0.510976 0.418509
0.838283 0.548603 0.427953
0.861568 0.595040 0.433292
0.879508 0.643667 0.437680
0.894130 0.695697 0.437477
0.908778 0.746407 0.443398
0.919079 0.794058 0.449621
0.928876 0.835412 0.455367
0.934699 0.871727 0.456698
0.941882 0.908992 0.460978
0.944403 0.937640 0.466338
0.945626 0.959084 0.467538
0.013286 0.062848 0.019948
0.013331 0.063280 0.020096
0.012339 0.062234 0.018752
0.011289 0.058751 0.014897
0.014287 0.056989 0.013249
0.024898 0.056817 0.015767
0.041107 0.057376 0.019444
0.059213 0.057910 0.021429
0.079035 0.058058 0.022796
0.106432 0.059709 0.029077
0.148231 0.062349 0.037093
0.220387 0.068637 0.050664
0.326670 0.073839 0.070558
0.436217 0.086722 0.100324
0.538243 0.119454 0.145851
0.621228 0.178583 0.201763
0.686820 0.259736 0.265433
0.731450 0.343313 0.329632
0.780656 0.427306 0.389999
0.795906 0.455853 0.403203
0.808746 0.483191 0.410417
0.823850 0.515340 0.419877
0.839678 0.551955 0.428889
0.862480 0.597482 0.433599
0.879999 0.645366 0.437846
0.894453 0.696876 0.437351
0.908981 0.747184 0.443445
0.919238 0.794521 0.449575
0.928936 0.835695 0.455325
0.934725 0.871887 0.456614
0.941891 0.909077 0.460948
0.944397 0.937678 0.466286
0.945630 0.959106 0.467496
0.016477 0.083875 0.025850
0.016559 0.084288 0.025940
0.016287 0.080866 0.023001
0.014151 0.076369 0.017793
0.015331 0.073404 0.017517
0.022219 0.073313 0.018024
0.038181 0.072278 0.022107
0.057527 0.072936 0.026870
0.075702 0.073032 0.028619
0.102255 0.074492 0.032006
0.138415 0.077561 0.036819
0.203999 0.080798 0.047959
0.306085 0.086763 0.063799
0.417733 0.096236 0.093075
0.523258 0.127643 0.137282
0.614061 0.185537 0.197703
0.689447 0.270446 0.264780
0.734652 0.350552 0.327301
0.785827 0.436183 0.391902
0.800357 0.465825 0.405025
0.812712 0.491332 0.413126
0.826737 0.521522 0.421812
0.841671 0.556754 0.430209
0.863784 0.600984 0.434044
0.880704 0.647824 0.438086
0.894920 0.698587 0.437164
0.909258 0.748326 0.443483
0.919468 0.795196 0.449511
0.929024 0.836107 0.455262
0.934763 0.872120 0.456492
0.941905 0.909199 0.460903
0.944388 0.937734 0.466209
0.945635 0.959138 0.467435
0.023593 0.110954 0.034590
0.023020 0.108967 0.032991
0.021388 0.103160 0.028419
0.020251 0.098829 0.025070
0.019603 0.095137 0.023009
0.023150 0.092796 0.022652
0.034589 0.092076 0.024934
0.055008 0.093332 0.031117
0.074919 0.092344 0.034287
0.097155 0.094327 0.035213
0.132547 0.096155 0.040061
0.189736 0.099537 0.047627
0.285741 0.103412 0.060175
0.395951 0.111496 0.083261
0.507076 0.135851 0.124190
0.604116 0.194353 0.190862
0.692645 0.285905 0.265979
0.740357 0.364699 0.325676
0.788430 0.444860 0.388937
0.806242 0.479276 0.409073
0.817699 0.502135 0.416390
0.830480 0.530077 0.424207
0.845093 0.563793 0.430665
0.865630 0.605963 0.434685
0.881710 0.651367 0.438429
0.895593 0.701063 0.436885
0.909639 0.749997 0.443508
0.919799 0.796178 0.449423
0.929153 0.836707 0.455172
0.934819 0.872459 0.456315
0.941926 0.909378 0.460839
0.944374 0.937815 0.466098
0.945642 0.959185 0.467346
0.032234 0.151431 0.044857
0.029160 0.141875 0.038214
0.027125 0.134414 0.033615
0.026051 0.128799 0.031058
0.025425 0.124468 0.029329
0.025627 0.119882 0.029881
0.034382 0.118681 0.030858
0.053077 0.119057 0.034831
0.074509 0.116194 0.038692
0.096293 0.117378 0.042773
0.125779 0.118856 0.044730
0.178140 0.121254 0.050609
0.265273 0.125263 0.061212
0.373712 0.132544 0.080166
0.488364 0.154521 0.113849
0.593895 0.211331 0.178998
0.691383 0.305308 0.263989
0.753393 0.391245 0.328889
0.794198 0.457444 0.385397
0.814582 0.497863 0.415136
0.823477 0.515872 0.419855
0.835000 0.541641 0.426835
0.849918 0.573563 0.431198
0.868078 0.613031 0.435621
0.883158 0.656456 0.438875
0.896555 0.704631 0.436464
0.910188 0.752409 0.443549
0.920270 0.797603 0.449307
0.929341 0.837580 0.455041
0.934899 0.872952 0.456059
0.941956 0.909640 0.460748
0.944356 0.937934 0.465936
0.945654 0.959254 0.467216
0.041648 0.203635 0.049919
0.038949 0.191685 0.045658
0.036955 0.182208 0.043853
0.035478 0.174358 0.042290
0.034426 0.167958 0.040361
0.033381 0.162725 0.038878
0.038233 0.158982 0.039291
0.052545 0.156837 0.041751
0.074608 0.154418 0.045040
0.098723 0.152169 0.049456
0.125349 0.151592 0.055915
0.167960 0.154869 0.058418
0.246863 0.158223 0.064266
0.353976 0.163547 0.083618
0.471176 0.182427 0.114374
0.586024 0.240829 0.170865
0.692997 0.334084 0.255192
0.773871 0.429914 0.336431
0.804872 0.482348 0.384931
0.826516 0.523694 0.422274
0.833779 0.538216 0.425135
0.842334 0.558028 0.429440
0.856460 0.586867 0.431977
0.871406 0.623031 0.436650
0.885783 0.663968 0.438551
0.897918 0.709742 0.435821
0.910976 0.755874 0.443616
0.920935 0.799668 0.449163
0.929617 0.838847 0.454855
0.935016 0.873668 0.455690
0.942000 0.910020 0.460619
0.944328 0.938107 0.465700
0.945660 0.959350 0.466990
0.056901 0.280812 0.067451
0.054425 0.268300 0.064120
0.050791 0.258107 0.060301
0.049172 0.246999 0.058162
0.048072 0.237798 0.056379
0.047365 0.232380 0.054620
0.050456 0.227074 0.054418
0.060568 0.221245 0.056291
0.082972 0.215425 0.059589
0.105075 0.210244 0.064045
0.130292 0.206294 0.067001
0.168881 0.204556 0.075320
0.236874 0.209014 0.079471
0.340837 0.214627 0.095643
0.460467 0.233835 0.127886
0.583315 0.289713 0.184752
0.700048 0.377986 0.252407
0.795236 0.477120 0.338452
0.819837 0.515791 0.386474
0.839378 0.552890 0.424350
0.847001 0.565657 0.430701
0.854396 0.581119 0.431305
0.864444 0.605204 0.434091
0.876123 0.637142 0.437212
0.889463 0.674583 0.438175
0.899831 0.717043 0.435075
0.911895 0.760831 0.443483
0.921857 0.802647 0.449007
0.930022 0.840678 0.454589
0.935182 0.874701 0.455163
0.942066 0.910573 0.460438
0.944289 0.938360 0.465357
0.945663 0.959487 0.466639
0.081796 0.373058 0.097861
0.078578 0.362947 0.093671
0.075620 0.353150 0.090653
0.072900 0.344069 0.088035
0.070211 0.337115 0.086155
0.067705 0.330623 0.084392
0.068849 0.325255 0.082267
0.074838 0.318455 0.081038
0.097822 0.310219 0.085431
0.121177 0.302524 0.088251
0.146391 0.294638 0.092442
0.181710 0.288310 0.098705
0.240518 0.286927 0.112920
0.335286 0.295079 0.123441
0.457805 0.314856 0.154643
0.590286 0.364066 0.208624
0.715395 0.444357 0.275309
0.808221 0.534271 0.338256
0.840757 0.569224 0.387386
0.856077 0.591142 0.424876
0.864553 0.599172 0.432744
0.868025 0.610399 0.435630
0.872247 0.628511 0.435518
0.882733 0.656122 0.437977
0.893489 0.689245 0.438000
0.902096 0.727366 0.434444
0.913109 0.767854 0.443217
0.923100 0.806920 0.448889
0.930512 0.843245 0.453949
0.935419 0.876187 0.454415
0.942163 0.911374 0.460191
0.944233 0.938728 0.464861
0.945667 0.959687 0.466135
0.120424 0.475889 0.138808
0.116745 0.467276 0.135141
0.113569 0.459840 0.131829
0.110703 0.453153 0.128766
0.108240 0.447034 0.126071
0.106813 0.441927 0.124243
0.105131 0.436012 0.122118
0.113121 0.429109 0.122407
0.129159 0.421368 0.124460
0.153745 0.414789 0.128862
0.176207 0.405556 0.132976
0.208241 0.396433 0.136956
0.263381 0.393321 0.152339
0.350821 0.399816 0.175689
0.468076 0.420217 0.202924
0.607175 0.464932 0.251189
0.732925 0.530084 0.312649
0.824092 0.600222 0.360585
0.861939 0.634812 0.378890
0.872446 0.639652 0.420428
0.877930 0.641305 0.437035
0.879100 0.647181 0.437689
0.883049 0.660383 0.437675
0.890239 0.680835 0.437578
0.897029 0.708142 0.437345
0.904765 0.741409 0.433828
0.915054 0.777651 0.443209
0.924710 0.813002 0.448942
0.931038 0.846821 0.452809
0.935751 0.878308 0.453372
0.942170 0.912415 0.459286
0.944155 0.939265 0.464146
0.945671 0.959979 0.465417
0.166516 0.579858 0.185376
0.164132 0.574438 0.182897
0.162377 0.569629 0.181085
0.160776 0.565087 0.179434
0.159245 0.560744 0.177856
0.159428 0.557212 0.176792
0.161072 0.553612 0.175931
0.163292 0.548651 0.174739
0.181058 0.542861 0.177634
0.202469 0.536600 0.181774
0.224033 0.529686 0.186176
0.253299 0.521889 0.191618
0.302288 0.518610 0.202816
0.385633 0.522656 0.225646
0.496517 0.541324 0.258789
0.629640 0.579190 0.300857
0.752710 0.628338 0.348763
0.839590 0.675536 0.379453
0.892007 0.714027 0.402468
0.888625 0.700695 0.405433
0.892811 0.690761 0.436069
0.893713 0.691058 0.438506
0.894332 0.698461 0.437035
0.899266 0.712000 0.435274
0.902538 0.732694 0.432839
0.909287 0.759163 0.434122
0.917813 0.790091 0.442393
0.926047 0.820918 0.447029
0.931716 0.851906 0.451627
0.936207 0.881301 0.451949
0.942176 0.913912 0.458091
0.944047 0.940045 0.463122
0.945672 0.960402 0.464404
0.203497 0.677197 0.222724
0.202999 0.674366 0.221780
0.202569 0.671519 0.220921
0.202149 0.668770 0.220093
0.201735 0.666111 0.219293
0.203764 0.664150 0.219299
0.210670 0.662955 0.220744
0.220306 0.661286 0.222755
0.233241 0.658959 0.225423
0.249974 0.655789 0.228833
0.270079 0.651516 0.232601
0.299205 0.647352 0.238193
0.347665 0.646212 0.250708
0.427125 0.650286 0.272721
0.532309 0.664688 0.306407
0.652374 0.691051 0.341655
0.767141 0.723453 0.372170
0.849537 0.752611 0.396229
0.907022 0.779719 0.412126
0.908752 0.769752 0.412142
0.902879 0.749318 0.415046
0.904324 0.740180 0.428064
0.904071 0.742005 0.427523
0.905870 0.748389 0.427568
0.910035 0.761909 0.429139
0.915207 0.780991 0.433963
0.921059 0.805108 0.440955
0.927537 0.831585 0.444672
0.932387 0.859081 0.450057
0.936804 0.885335 0.449390
0.942177 0.916050 0.456611
0.943903 0.941178 0.461671
0.945667 0.961016 0.463003
0.232040 0.743618 0.249033
0.233152 0.742662 0.249040
0.234231 0.741730 0.249048
0.235277 0.740820 0.249056
0.236872 0.740059 0.249235
0.242550 0.740222 0.250628
0.249361 0.740418 0.252297
0.258982 0.740693 0.254652
0.272385 0.741074 0.257926
0.287139 0.739926 0.261440
0.307216 0.738620 0.266284
0.335231 0.737962 0.273292
0.381583 0.739610 0.286366
0.456818 0.748747 0.306491
0.552215 0.764849 0.328991
0.663270 0.785056 0.355413
0.772406 0.805819 0.381421
0.853766 0.823953 0.399971
0.907797 0.837256 0.412369
0.925065 0.835785 0.415105
0.920161 0.810795 0.414851
0.915706 0.791668 0.417282
0.914066 0.787437 0.418314
0.914930 0.788826 0.420919
0.916809 0.795280 0.424887
0.920352 0.807881 0.430404
0.924576 0.824879 0.434799
0.929276 0.845572 0.438925
0.933357 0.867846 0.443285
0.937547 0.890668 0.444910
0.942166 0.919074 0.454982
0.943720 0.942818 0.459640
0.945643 0.961903 0.461119
0.253933 0.789089 0.266984
0.255142 0.788862 0.267188
0.258502 0.788997 0.268055
0.263825 0.789462 0.269528
0.269065 0.789920 0.270978
0.274223 0.790371 0.272405
0.280464 0.790917 0.274131
0.289379 0.791697 0.276597
0.301994 0.792804 0.280086
0.315116 0.793359 0.284028
0.333015 0.794145 0.289445
0.359561 0.797802 0.294815
0.401581 0.805439 0.302715
0.467791 0.816982 0.318442
0.554849 0.833993 0.337842
0.659013 0.850693 0.360519
0.762092 0.866438 0.382233
0.844814 0.878483 0.397425
0.901098 0.885664 0.408468
0.935501 0.888170 0.414350
0.931764 0.867058 0.414233
0.926074 0.841726 0.415559
0.924442 0.833471 0.415288
0.923883 0.830709 0.415314
0.924747 0.831335 0.417920
0.925207 0.837319 0.420442
0.928810 0.847983 0.426839
0.931133 0.862599 0.431744
0.935186 0.879196 0.435258
0.938447 0.898200 0.440996
0.942133 0.923274 0.452297
0.943261 0.945358 0.454412
0.945573 0.963177 0.458699
0.291652 0.827007 0.285072
0.295134 0.827513 0.285875
0.298574 0.828015 0.286668
0.301975 0.828512 0.287452
0.305336 0.829003 0.288227
0.308660 0.829490 0.288994
0.312699 0.830082 0.289926
0.318506 0.830935 0.291265
0.325964 0.832304 0.293065
0.336208 0.834286 0.295568
0.350461 0.837036 0.299054
0.374943 0.841043 0.303744
0.411654 0.846810 0.310212
0.470952 0.858507 0.323550
0.549500 0.874026 0.339591
0.644247 0.890747 0.358617
0.743833 0.906982 0.376490
0.829170 0.916843 0.393496
0.889771 0.922338 0.402612
0.929783 0.922313 0.412944
0.938520 0.910471 0.414673
0.935336 0.889109 0.414301
0.932639 0.874308 0.414336
0.931479 0.869673 0.413644
0.931040 0.867153 0.414391
0.931011 0.867089 0.415049
0.932386 0.873171 0.417363
0.933808 0.881652 0.420658
0.936568 0.892232 0.423317
0.938709 0.906598 0.430629
0.942122 0.928534 0.441224
0.942704 0.948798 0.448223
0.945403 0.964995 0.455834
0.322526 0.848535 0.292792
0.324741 0.849223 0.293240
0.326937 0.849904 0.293684
0.329230 0.850559 0.294171
0.331689 0.851171 0.294731
0.334127 0.851778 0.295286
0.337100 0.852518 0.295963
0.341390 0.853587 0.296939
0.347546 0.855121 0.298341
0.356311 0.857305 0.300336
0.368653 0.860381 0.303147
0.390753 0.866115 0.308515
0.422637 0.874456 0.316374
0.472107 0.886872 0.327057
0.539896 0.901405 0.340795
0.623491 0.916260 0.356064
0.715458 0.930663 0.373408
0.802680 0.941325 0.388148
0.868202 0.946522 0.400478
0.914207 0.946183 0.411333
0.939983 0.940971 0.416625
0.940162 0.925268 0.414755
0.938409 0.908266 0.413940
0.936411 0.902802 0.415067
0.936799 0.898574 0.413773
0.935619 0.897100 0.413335
0.935611 0.897403 0.414912
0.936725 0.900868 0.415934
0.938637 0.907643 0.417730
0.940112 0.916520 0.424603
0.942193 0.935218 0.432788
0.942362 0.953152 0.441573
0.944708 0.966823 0.449301
0.355277 0.857156 0.301316
0.356929 0.857598 0.301764
0.358571 0.858037 0.302209
0.360204 0.858474 0.302652
0.361827 0.858908 0.303093
0.363440 0.859339 0.303531
0.365413 0.859866 0.304068
0.368272 0.860630 0.304845
0.372397 0.861731 0.305969
0.378316 0.863310 0.307585
0.389781 0.866302 0.310078
0.407442 0.870887 0.313681
0.431962 0.877252 0.318677
0.469440 0.886191 0.326151
0.521711 0.898381 0.336487
0.589065 0.915120 0.349811
0.673210 0.933072 0.365313
0.761529 0.949467 0.380203
0.839227 0.959936 0.395543
0.893989 0.963196 0.408826
0.929987 0.961103 0.415611
0.941361 0.952317 0.417163
0.940769 0.936850 0.416464
0.940647 0.928769 0.416602
0.940193 0.924611 0.415376
0.940390 0.921737 0.415725
0.940116 0.919355 0.415678
0.939560 0.919777 0.415754
0.940095 0.923095 0.416221
0.940531 0.928843 0.418164
0.940716 0.943185 0.416718
0.942202 0.958338 0.425560
0.943464 0.968383 0.438446
0.388553 0.866016 0.310623
0.389704 0.866326 0.310930
0.390994 0.866667 0.311241
0.392543 0.867067 0.311560
0.394086 0.867465 0.311879
0.395623 0.867862 0.312196
0.397507 0.868348 0.312584
0.400243 0.869055 0.313149
0.404207 0.870079 0.313966
0.409928 0.871556 0.315146
0.418138 0.873676 0.316839
0.429828 0.876696 0.319248
0.446290 0.880950 0.322639
0.474623 0.887550 0.327813
0.513735 0.896605 0.334895
0.566051 0.908965 0.344505
0.632430 0.924537 0.356528
0.711547 0.940839 0.372251
0.793722 0.954551 0.386480
0.860054 0.962171 0.400647
0.908844 0.967346 0.411145
0.937965 0.968264 0.418069
0.941108 0.960840 0.417668
0.940834 0.950876 0.416706
0.941560 0.946414 0.417208
0.941180 0.942218 0.417258
0.941313 0.939857 0.416794
0.941896 0.938618 0.416993
0.941329 0.939018 0.417530
0.942062 0.941091 0.418076
0.940180 0.953896 0.418304
0.942831 0.963650 0.423099
0.942147 0.969456 0.430690
0.427653 0.875898 0.317146
0.428721 0.876146 0.317363
0.429785 0.876392 0.317580
0.430846 0.876638 0.317796
0.431904 0.876883 0.318011
0.432960 0.877127 0.318226
0.434255 0.877427 0.318490
0.436139 0.877863 0.318873
0.438877 0.878496 0.319430
0.442843 0.879413 0.320236
0.448566 0.880736 0.321399
0.457052 0.882729 0.323125
0.470526 0.886052 0.325874
0.489504 0.890736 0.329746
0.515840 0.897241 0.335120
0.552852 0.906175 0.342383
0.602717 0.917828 0.352058
0.668091 0.931798 0.364359
0.742039 0.946248 0.377178
0.816754 0.957978 0.390993
0.876006 0.964592 0.404681
0.917558 0.967582 0.414154
0.939898 0.968935 0.418120
0.941220 0.968213 0.418946
0.941299 0.964534 0.419690
0.941798 0.961598 0.418034
0.941328 0.958976 0.417291
0.941183 0.956238 0.417809
0.940969 0.955778 0.416986
0.940964 0.956683 0.417558
0.940740 0.963301 0.417466
0.942409 0.968469 0.419053
0.940617 0.969647 0.418834
0.476137 0.887815 0.327383
0.476900 0.887998 0.327548
0.477662 0.888180 0.327712
0.478422 0.888362 0.327876
0.479181 0.888543 0.328040
0.479938 0.888724 0.328203
0.480868 0.888947 0.328404
0.482224 0.889271 0.328696
0.484197 0.889743 0.329122
0.487063 0.890429 0.329740
0.491216 0.891422 0.330636
0.497207 0.892857 0.331929
0.505802 0.894915 0.333785
0.518038 0.897847 0.336429
0.535792 0.902116 0.340101
0.562107 0.908472 0.345042
0.597976 0.917081 0.351779
0.646493 0.927994 0.360449
0.706222 0.939451 0.372259
0.774445 0.952138 0.383004
0.837410 0.959640 0.394787
0.890236 0.966028 0.407276
0.926842 0.968682 0.415669
0.939762 0.968931 0.418071
0.940203 0.969233 0.418420
0.940518 0.969235 0.418528
0.941789 0.969345 0.419030
0.940996 0.968700 0.418591
0.941585 0.967652 0.418471
0.940471 0.967229 0.418370
0.942026 0.969327 0.419098
0.940730 0.969760 0.418947
0.940224 0.969254 0.418441
0.553847 0.907419 0.342689
0.554294 0.907523 0.342784
0.554741 0.907626 0.342879
0.555187 0.907730 0.342973
0.555632 0.907833 0.343068
0.556077 0.907936 0.343163
0.556624 0.908063 0.343279
0.557421 0.908248 0.343448
0.558583 0.908518 0.343695
0.560275 0.908910 0.344055
0.562732 0.909481 0.344577
0.566291 0.910308 0.345332
0.571490 0.911509 0.346356
0.579340 0.913267 0.347425
0.590516 0.915767 0.348948
0.606255 0.919282 0.351095
0.628180 0.924160 0.354443
0.658655 0.930902 0.361708
0.698713 0.938806 0.370406
0.747800 0.947149 0.378989
0.800870 0.955890 0.387201
0.857291 0.962065 0.400033
0.901136 0.966465 0.410178
0.932814 0.968440 0.416745
0.939904 0.968934 0.418121
0.939904 0.968934 0.418121
0.939904 0.968934 0.418121
0.939904 0.968934 0.418121
0.939938 0.968968 0.418155
0.940495 0.969525 0.418712
0.939926 0.968956 0.418143
0.939904 0.968934 0.418121
0.940248 0.969216 0.419561
0.647400 0.930515 0.416657
0.647690 0.930567 0.416609
0.647980 0.930618 0.416560
0.648270 0.930670 0.416511
0.648559 0.930721 0.416463
0.648849 0.930773 0.416414
0.649204 0.930836 0.416355
0.649723 0.930928 0.416268
0.650480 0.931063 0.416141
0.651584 0.931259 0.415956
0.653190 0.931544 0.415687
0.655523 0.931959 0.415296
0.658904 0.932560 0.414731
0.663782 0.933428 0.413917
0.670783 0.934673 0.412752
0.680752 0.936446 0.411099
0.694607 0.938882 0.407961
0.713786 0.942247 0.403411
