output/ACEScct_display/ACEScct_to_ETERNA-BB_33grid.cube
TITLE "ACEScct_to_ETERNA-BB"
# Input: ACEScct (AP1 primaries, log encoding, D60)
# Output: BT.709 / Gamma 2.2 (display-referred)
# Use: Display/output transform in DaVinci Resolve ACES pipeline (replaces ODT)
# Source: FLog2C_to_ETERNA-BB_65grid_V.1.00.cube
# Generated from Fujifilm GFX ETERNA 55 F-Log2C LUT
LUT_3D_SIZE 5
0.000282 0.000191 0.000111
0.098017 0.017927 0.021492
0.696713 0.270849 0.292297
0.877756 0.637679 0.437090
0.945614 0.959008 0.467683
0.016477 0.083875 0.025850
0.075702 0.073032 0.028619
0.689447 0.270446 0.264780
0.880704 0.647824 0.438086
0.945635 0.959138 0.467435
0.203497 0.677197 0.222724
0.233241 0.658959 0.225423
0.767141 0.723453 0.372170
0.910035 0.761909 0.429139
0.945667 0.961016 0.463003
0.476137 0.887815 0.327383
0.484197 0.889743 0.329122
0.597976 0.917081 0.351779
0.940203 0.969233 0.418420
0.940224 0.969254 0.418441
0.986519 0.993238 0.911090
0.986515 0.993235 0.911038
0.986452 0.993189 0.910233
0.983224 0.991778 0.894393
0.981878 0.989849 0.880070
0.007524 0.003100 0.047215
0.096838 0.015937 0.055970
0.681776 0.240345 0.268222
0.886148 0.654388 0.461042
0.946627 0.959465 0.481630
0.031232 0.104957 0.098759
0.085964 0.087002 0.085561
0.682561 0.266139 0.268061
0.890160 0.664798 0.463315
0.946613 0.959603 0.481376
0.223650 0.710383 0.295557
0.243464 0.693400 0.287779
0.757724 0.739936 0.395516
0.920654 0.773463 0.477196
0.946270 0.961563 0.477805
0.480211 0.888869 0.328802
0.487774 0.890623 0.330342
0.596292 0.916246 0.351481
0.940201 0.969231 0.418418
0.940536 0.969545 0.419062
0.986983 0.993283 0.912807
0.986980 0.993280 0.912755
0.986940 0.993237 0.911960
0.983444 0.992065 0.896252
0.982062 0.990070 0.882115
0.144718 0.168060 0.495208
0.199880 0.157667 0.466530
0.719652 0.307158 0.557645
0.942005 0.721637 0.709599
0.959859 0.963549 0.655312
0.179152 0.271518 0.541143
0.220983 0.242654 0.513512
0.736658 0.369553 0.597310
0.943809 0.728555 0.712248
0.959814 0.963693 0.654979
0.339744 0.788642 0.737465
0.371128 0.783978 0.737856
0.803873 0.804478 0.803900
0.962022 0.805235 0.734970
0.959072 0.965903 0.649911
0.557580 0.926647 0.654154
0.564421 0.928036 0.655374
0.648622 0.943573 0.667744
0.957929 0.977318 0.642609
0.952182 0.974675 0.571415
0.989886 0.994422 0.933005
0.989901 0.994428 0.932989
0.990137 0.994524 0.932755
0.988778 0.993498 0.920312
0.984940 0.992924 0.904895
0.670887 0.752292 0.869662
0.681600 0.754038 0.872860
0.803503 0.779516 0.913823
0.965108 0.818837 0.941864
0.988808 0.970417 0.964448
0.670078 0.756906 0.870585
0.680726 0.758679 0.873698
0.802806 0.783458 0.914423
0.965339 0.821211 0.942547
0.988834 0.970553 0.964503
0.660111 0.811392 0.881730
0.670311 0.812463 0.884863
0.788228 0.829560 0.920745
0.968266 0.853831 0.950691
0.989228 0.972613 0.965332
0.617939 0.950477 0.904285
0.622100 0.951012 0.905311
0.682062 0.958641 0.919687
0.989241 0.992296 0.990033
0.993866 0.997034 0.967275
0.999441 0.999808 0.999684
0.999482 0.999822 0.999707
1.000000 1.000000 1.000000
1.000000 1.000000 1.000000
0.999180 0.999638 0.999111
0.950884 0.993202 0.986145
0.951105 0.993242 0.986213
0.954453 0.993857 0.987248
1.000000 1.000000 1.000000
1.000000 1.000000 1.000000
0.950872 0.993199 0.986138
0.951092 0.993239 0.986206
0.954440 0.993857 0.987246
1.000000 1.000000 1.000000
1.000000 1.000000 1.000000
0.950690 0.993156 0.986041
0.950909 0.993199 0.986114
0.954230 0.993849 0.987221
1.000000 1.000000 1.000000
1.000000 1.000000 1.000000
0.945760 0.992875 0.985074
0.946022 0.992925 0.985144
0.949262 0.993341 0.985731
0.995259 0.998434 0.997362
1.000000 1.000000 1.000000
1.000000 1.000000 1.000000
1.000000 1.000000 1.000000
1.000000 1.000000 1.000000
1.000000 1.000000 1.000000
1.000000 1.000000 1.000000
