output/ACEScct_display/ACEScct_to_CLASSIC-Neg._33grid.cube
TITLE "ACEScct_to_CLASSIC-Neg."
# Input: ACEScct (AP1 primaries, log encoding, D60)
# Output: BT.709 / Gamma 2.2 (display-referred)
# Use: Display/output transform in DaVinci Resolve ACES pipeline (replaces ODT)
# Source: FLog2C_to_CLASSIC-Neg._65grid_V.1.00.cube
# Generated from Fujifilm GFX ETERNA 55 F-Log2C LUT
LUT_3D_SIZE 5
0.000129 0.000120 0.000052
0.120025 0.009538 0.000042
0.946001 0.197808 0.198666
0.956270 0.526757 0.231420
0.957006 0.973173 0.310751
0.001773 0.086736 0.019454
0.059953 0.060251 0.001757
0.943514 0.202304 0.133821
0.956418 0.538872 0.228197
0.956912 0.973380 0.310365
0.023582 0.745110 0.125430
0.022257 0.716303 0.119444
0.811284 0.676030 0.003502
0.958432 0.683864 0.189501
0.955431 0.976705 0.303171
0.029407 0.944560 0.157206
0.029410 0.944563 0.157209
0.029291 0.944444 0.157090
0.937699 0.994115 0.074759
0.944549 0.994210 0.222997
0.983079 0.994227 0.873233
0.983071 0.994224 0.873160
0.982947 0.994184 0.872043
0.980671 0.993583 0.852647
0.979134 0.994199 0.835152
0.008142 0.003239 0.050062
0.129216 0.008253 0.018453
0.944247 0.172101 0.173182
0.957969 0.548003 0.279830
0.957958 0.972718 0.337310
0.006986 0.116675 0.124173
0.071618 0.082509 0.068165
0.940410 0.209324 0.131643
0.958431 0.560379 0.281765
0.957848 0.972926 0.336930
0.029533 0.782734 0.255461
0.027704 0.757281 0.235226
0.790519 0.705149 0.127562
0.962577 0.700419 0.293026
0.956280 0.976323 0.329756
0.030267 0.945420 0.158066
0.030267 0.945420 0.158066
0.030118 0.945271 0.157917
0.940064 0.994178 0.133805
0.945218 0.994299 0.243830
0.983359 0.994358 0.875180
0.983350 0.994356 0.875106
0.983212 0.994326 0.873971
0.980889 0.993587 0.855136
0.979351 0.994276 0.837113
0.196088 0.241290 0.730964
0.287285 0.210555 0.647022
0.946681 0.268151 0.555653
0.975500 0.652721 0.636037
0.972077 0.970448 0.586771
0.190221 0.357126 0.800947
0.271561 0.310399 0.725479
0.935718 0.326654 0.582015
0.975517 0.661852 0.640091
0.971987 0.970675 0.586388
0.059218 0.832385 0.993598
0.058549 0.820388 0.980075
0.838508 0.790649 0.782106
0.979246 0.758106 0.678393
0.970630 0.974122 0.580609
0.053484 0.941484 0.758654
0.053424 0.941515 0.758478
0.057287 0.941590 0.751072
0.963925 0.993046 0.567119
0.958433 0.994704 0.482697
0.985967 0.995204 0.902165
0.985955 0.995202 0.902098
0.985761 0.995176 0.901062
0.984614 0.994872 0.884024
0.981662 0.994372 0.865281
0.795886 0.811535 0.993065
0.807219 0.812106 0.991676
0.898719 0.819128 0.980123
0.989818 0.801369 0.928968
0.994797 0.964498 0.954517
0.791717 0.814452 0.994018
0.803266 0.814949 0.992828
0.896890 0.821864 0.980898
0.989957 0.803741 0.929674
0.994794 0.964659 0.954546
0.732785 0.850460 0.999741
0.746262 0.851110 0.999771
0.869417 0.855859 0.991374
0.991470 0.834786 0.940056
0.994750 0.967095 0.954994
0.158109 0.947718 0.999944
0.165436 0.948150 0.999954
0.270806 0.954776 0.999848
0.990272 0.991918 0.990157
0.992001 0.996961 0.953504
0.999395 0.999849 0.999869
0.999439 0.999860 0.999879
1.000000 1.000000 1.000000
1.000000 1.000000 1.000000
0.999366 0.999889 0.998968
0.939232 0.995461 0.999405
0.939584 0.995477 0.999416
0.944940 0.995722 0.999580
1.000000 1.000000 1.000000
1.000000 1.000000 1.000000
0.939209 0.995461 0.999402
0.939561 0.995477 0.999412
0.944916 0.995719 0.999577
1.000000 1.000000 1.000000
1.000000 1.000000 1.000000
0.938870 0.995454 0.999346
0.939221 0.995467 0.999358
0.944561 0.995653 0.999546
0.999870 1.000000 1.000000
1.000000 1.000000 1.000000
0.933216 0.994691 0.999972
0.933589 0.994701 0.999973
0.938586 0.994923 0.999845
0.994770 0.998729 0.998712
1.000000 1.000000 1.000000
1.000000 1.000000 1.000000
1.000000 1.000000 1.000000
1.000000 1.000000 1.000000
1.000000 1.000000 1.000000
1.000000 1.000000 1.000000
