output/ACEScct_display/ACEScct_to_ASTIA_33grid.cube
TITLE "ACEScct_to_ASTIA"
# Input: ACEScct (AP1 primaries, log encoding, D60)
# Output: BT.709 / Gamma 2.2 (display-referred)
# Use: Display/output transform in DaVinci Resolve ACES pipeline (replaces ODT)
# Source: FLog2C_to_ASTIA_65grid_V.1.00.cube
# Generated from Fujifilm GFX ETERNA 55 F-Log2C LUT
LUT_3D_SIZE 33
0.000334 0.000257 0.000073
0.000334 0.000257 0.000073
0.000334 0.000257 0.000073
0.002941 0.000184 0.000010
0.020794 0.000936 0.000070
0.037894 0.001571 0.001026
0.061029 0.002414 0.002847
0.094941 0.002906 0.002703
0.158677 0.003625 0.005802
0.261051 0.004544 0.004030
0.396775 0.003202 0.009189
0.566507 0.000560 0.026357
0.743433 0.000460 0.075582
0.907506 0.000265 0.187781
0.995260 0.000021 0.322297
0.999620 0.000016 0.465424
0.999980 0.000411 0.516869
0.999927 0.052435 0.533324
0.999458 0.120821 0.524475
0.999739 0.162897 0.499820
0.999919 0.211717 0.467591
0.999435 0.270133 0.428759
0.999649 0.329409 0.384090
0.999521 0.397333 0.326307
0.999489 0.472428 0.257246
0.999112 0.549573 0.172999
0.998977 0.623986 0.104122
0.999266 0.690728 0.061667
0.999334 0.754245 0.021228
0.999223 0.815482 0.001725
0.998970 0.884878 0.000138
0.993865 0.937566 0.000142
0.988082 0.987033 0.013296
0.000334 0.000257 0.000073
0.000334 0.000257 0.000073
0.000334 0.000257 0.000073
0.005887 0.000381 0.000008
0.023036 0.000919 0.000097
0.040628 0.001769 0.001274
0.063722 0.002443 0.003037
0.098196 0.002932 0.002707
0.162508 0.003699 0.006182
0.264989 0.004515 0.004252
0.400203 0.003167 0.009280
0.569232 0.000520 0.026848
0.726864 0.000268 0.069560
0.871220 0.000238 0.154428
0.983057 0.000171 0.287920
0.999717 0.000000 0.439948
0.999667 0.000015 0.512685
0.999953 0.048451 0.528175
0.999610 0.127536 0.519548
0.999681 0.168864 0.496634
0.999916 0.216926 0.464357
0.999465 0.274001 0.426013
0.999680 0.332182 0.382049
0.999540 0.399230 0.324612
0.999459 0.473874 0.255747
0.999099 0.550574 0.171852
0.998961 0.624608 0.103564
0.999273 0.691143 0.061174
0.999336 0.754514 0.020901
0.999219 0.815661 0.001743
0.998969 0.884960 0.000139
0.993855 0.937604 0.000141
0.988078 0.987056 0.013316
0.000334 0.000257 0.000073
0.000334 0.000257 0.000073
0.000334 0.000257 0.000073
0.008740 0.000571 0.000005
0.025225 0.000902 0.000123
0.043306 0.001963 0.001516
0.066369 0.002472 0.003223
0.101700 0.002950 0.002748
0.166294 0.003771 0.006558
0.268240 0.004497 0.004401
0.391107 0.003184 0.008759
0.537752 0.000780 0.021545
0.688522 0.000077 0.055525
0.839665 0.000134 0.129654
0.974236 0.000017 0.259049
0.999853 0.000088 0.415993
0.999372 0.000005 0.508499
0.999978 0.044705 0.523370
0.999751 0.133961 0.514810
0.999745 0.175244 0.492146
0.999913 0.222019 0.461196
0.999495 0.277807 0.423311
0.999708 0.334929 0.380025
0.999559 0.401112 0.322931
0.999428 0.475315 0.254254
0.999086 0.551571 0.170710
0.998944 0.625228 0.103008
0.999279 0.691557 0.060682
0.999337 0.754783 0.020574
0.999216 0.815840 0.001761
0.998969 0.885042 0.000140
0.993845 0.937642 0.000140
0.988074 0.987078 0.013336
0.000008 0.003468 0.000060
0.000007 0.004258 0.000059
0.000006 0.005044 0.000057
0.006735 0.004371 0.000000
0.021918 0.004103 0.000634
0.038736 0.001962 0.000610
0.059546 0.001947 0.004223
0.091236 0.003496 0.003738
0.147600 0.003895 0.005890
0.237475 0.003846 0.007183
0.356118 0.003989 0.007512
0.500537 0.001448 0.017295
0.656380 0.000075 0.043384
0.810766 0.000042 0.110329
0.954070 0.000002 0.234493
0.999962 0.000242 0.393141
0.999676 0.000029 0.503763
0.999987 0.045315 0.516508
0.999775 0.140114 0.509661
0.999807 0.181426 0.487797
0.999910 0.227002 0.458105
0.999528 0.281457 0.420644
0.999733 0.337649 0.378018
0.999579 0.402979 0.321263
0.999396 0.476749 0.252768
0.999073 0.552564 0.169572
0.998927 0.625847 0.102455
0.999286 0.691970 0.060192
0.999339 0.755052 0.020245
0.999213 0.816019 0.001778
0.998969 0.885125 0.000141
0.993835 0.937679 0.000140
0.988070 0.987100 0.013356
0.000393 0.016058 0.000020
0.000434 0.016608 0.000017
0.000475 0.017152 0.000015
0.000997 0.014404 0.000000
0.015179 0.014789 0.000196
0.032954 0.012106 0.000281
0.051981 0.007465 0.000677
0.081905 0.006909 0.001050
0.130121 0.005975 0.001976
0.212075 0.005728 0.003876
0.328110 0.004604 0.007911
0.470930 0.001614 0.016245
0.629599 0.000147 0.035707
0.785092 0.000033 0.096679
0.934130 0.000007 0.213276
0.999522 0.000284 0.370311
0.999942 0.000051 0.499112
0.999993 0.046602 0.509607
0.999800 0.146049 0.504728
0.999868 0.187422 0.483581
0.999907 0.231879 0.455080
0.999567 0.284882 0.418005
0.999756 0.340344 0.376027
0.999598 0.404831 0.319609
0.999363 0.478177 0.251288
0.999060 0.553553 0.168439
0.998910 0.626464 0.101904
0.999292 0.692382 0.059702
0.999341 0.755320 0.019916
0.999209 0.816198 0.001795
0.998969 0.885207 0.000142
0.993825 0.937717 0.000139
0.988066 0.987123 0.013376
0.000254 0.027863 0.000017
0.000219 0.028503 0.000019
0.000185 0.029139 0.000020
0.001003 0.025962 0.000039
0.010091 0.024658 0.000286
0.025037 0.021347 0.000395
0.042246 0.019822 0.000015
0.071730 0.017262 0.000011
0.119672 0.013115 0.000193
0.193993 0.011160 0.001070
0.307139 0.007766 0.004526
0.445748 0.002664 0.010889
0.606622 0.000288 0.029800
0.763256 0.000044 0.085194
0.915912 0.000016 0.194534
0.999258 0.000282 0.349165
0.999691 0.000067 0.484639
0.999981 0.047984 0.502828
0.999824 0.151785 0.499993
0.999928 0.193244 0.479488
0.999904 0.236657 0.452119
0.999605 0.288259 0.415403
0.999776 0.343015 0.374053
0.999591 0.406797 0.317858
0.999329 0.479599 0.249814
0.999064 0.554555 0.167154
0.998893 0.627080 0.101356
0.999299 0.692793 0.059213
0.999342 0.755588 0.019586
0.999206 0.816377 0.001812
0.998969 0.885290 0.000143
0.993816 0.937755 0.000138
0.988062 0.987145 0.013396
0.000057 0.043266 0.000051
0.000060 0.043899 0.000052
0.000021 0.044145 0.000032
0.000371 0.039091 0.000115
0.007353 0.035403 0.000095
0.021584 0.032225 0.000138
0.037378 0.031285 0.000136
0.063678 0.029455 0.000160
0.109149 0.027467 0.000970
0.178280 0.022922 0.000399
0.286080 0.018665 0.001211
0.420812 0.013305 0.001123
0.581954 0.005600 0.019542
0.743052 0.000270 0.067531
0.897505 0.000132 0.169213
0.999615 0.000104 0.324634
0.999402 0.000087 0.468242
0.999743 0.051565 0.492180
0.999845 0.158737 0.494283
0.999982 0.200387 0.474608
0.999917 0.242320 0.448181
0.999651 0.292348 0.412253
0.999797 0.346268 0.371644
0.999563 0.409294 0.315639
0.999285 0.481342 0.248008
0.999076 0.555792 0.165499
0.998871 0.627836 0.100685
0.999307 0.693298 0.058614
0.999344 0.755918 0.019178
0.999202 0.816596 0.001832
0.998969 0.885391 0.000144
0.993803 0.937802 0.000137
0.988057 0.987172 0.013421
0.000449 0.063853 0.000027
0.000432 0.064488 0.000026
0.000278 0.062297 0.000015
0.000130 0.056791 0.000000
0.001704 0.053305 0.000140
0.011698 0.050892 0.000231
0.028033 0.048565 0.000100
0.052757 0.044799 0.000000
0.094054 0.042716 0.000573
0.160267 0.039457 0.000301
0.261512 0.035585 0.000151
0.392512 0.030159 0.000332
0.552416 0.022608 0.004199
0.717049 0.012318 0.044061
0.872236 0.003981 0.135521
0.999618 0.000234 0.286327
0.999735 0.000520 0.444491
0.999422 0.056437 0.477705
0.999856 0.168674 0.486184
0.999979 0.211311 0.467752
0.999940 0.250323 0.442495
0.999717 0.298196 0.407746
0.999821 0.350958 0.368165
0.999521 0.412904 0.312439
0.999219 0.483872 0.245386
0.999094 0.557591 0.163092
0.998840 0.628937 0.099712
0.999319 0.694034 0.057740
0.999347 0.756398 0.018580
0.999196 0.816917 0.001859
0.998969 0.885540 0.000146
0.993786 0.937870 0.000136
0.988050 0.987213 0.013457
0.000017 0.098343 0.000004
0.000017 0.099089 0.000003
0.000102 0.089885 0.000000
0.000832 0.083664 0.000044
0.000178 0.078683 0.000115
0.003573 0.076118 0.000124
0.019107 0.070655 0.000025
0.042754 0.067482 0.000000
0.079519 0.063595 0.000323
0.142637 0.061522 0.000219
0.232519 0.058832 0.000052
0.361389 0.051640 0.000133
0.518543 0.046545 0.000138
0.683975 0.037246 0.012762
0.841966 0.024989 0.089306
0.985419 0.015424 0.232962
0.999836 0.012614 0.406316
0.999429 0.067949 0.458448
0.999863 0.181456 0.473779
0.999975 0.226406 0.458293
0.999971 0.261525 0.434538
0.999810 0.306488 0.401358
0.999841 0.357680 0.363166
0.999461 0.418094 0.307851
0.999117 0.487536 0.241590
0.999121 0.560204 0.159599
0.998804 0.630537 0.098307
0.999336 0.695105 0.056470
0.999351 0.757099 0.017701
0.999188 0.817385 0.001898
0.998969 0.885757 0.000149
0.993760 0.937970 0.000134
0.988039 0.987271 0.013510
0.000027 0.151838 0.000039
0.000110 0.148237 0.000265
0.000141 0.136958 0.000551
0.000074 0.126738 0.000277
0.000293 0.118821 0.000380
0.001649 0.113397 0.000367
0.007840 0.108764 0.000012
0.030732 0.104150 0.000099
0.063800 0.097397 0.000300
0.119367 0.093280 0.000466
0.206117 0.088091 0.000738
0.330390 0.084740 0.000346
0.480270 0.077550 0.000171
0.649159 0.070729 0.000794
0.806903 0.061185 0.040413
0.954990 0.053984 0.167098
0.999379 0.047591 0.344175
0.999800 0.088094 0.431478
0.999843 0.195347 0.451849
0.999951 0.246798 0.444774
0.999882 0.277662 0.422857
0.999898 0.318461 0.392025
0.999798 0.367585 0.354503
0.999375 0.425508 0.301329
0.998955 0.492821 0.236115
0.999161 0.563987 0.154543
0.998762 0.632857 0.096283
0.999362 0.696658 0.054628
0.999356 0.758119 0.016406
0.999177 0.818066 0.001948
0.998968 0.886076 0.000152
0.993722 0.938115 0.000132
0.988024 0.987357 0.013588
0.000223 0.235565 0.000110
0.000249 0.216689 0.000255
0.000125 0.202335 0.000452
0.000262 0.190441 0.000247
0.000209 0.180929 0.000221
0.000150 0.172168 0.000051
0.001522 0.164232 0.000110
0.015901 0.157873 0.000287
0.045285 0.150599 0.000022
0.096297 0.143644 0.000111
0.177751 0.135475 0.000097
0.299266 0.129554 0.000138
0.442340 0.124052 0.000006
0.611376 0.118143 0.000139
0.767822 0.113286 0.002641
0.918044 0.110187 0.086414
0.999829 0.104382 0.258741
0.999973 0.124419 0.389538
0.999787 0.216176 0.418506
0.999706 0.273828 0.426204
0.999506 0.300856 0.405639
0.999929 0.335718 0.378354
0.999782 0.381368 0.342605
0.999273 0.436044 0.292078
0.998720 0.500407 0.228224
0.999222 0.569439 0.147261
0.998704 0.636212 0.093377
0.999399 0.698907 0.051964
0.999363 0.759601 0.014490
0.999160 0.819057 0.002012
0.998967 0.886543 0.000158
0.993667 0.938327 0.000128
0.988001 0.987481 0.013701
0.000129 0.328088 0.000225
0.000160 0.309996 0.000330
0.000102 0.293515 0.000255
0.000108 0.279950 0.000110
0.000322 0.269701 0.000234
0.000505 0.259095 0.000721
0.000649 0.249819 0.000566
0.004245 0.240656 0.000011
0.026153 0.229271 0.000004
0.072945 0.217139 0.000001
0.149137 0.204627 0.000194
0.261271 0.198960 0.000373
0.405196 0.190352 0.000005
0.568033 0.184488 0.000073
0.723245 0.181450 0.000195
0.874786 0.182305 0.012981
0.993841 0.180437 0.151201
0.999812 0.182625 0.330099
0.999585 0.249866 0.373376
0.999244 0.309148 0.399864
0.999402 0.330060 0.383985
0.999786 0.359122 0.359833
0.999788 0.400045 0.326334
0.999204 0.450663 0.278597
0.998962 0.511331 0.216121
0.999316 0.577252 0.136833
0.998628 0.641038 0.089239
0.999455 0.702146 0.048133
0.999373 0.761750 0.011643
0.999137 0.820495 0.002084
0.998965 0.887229 0.000166
0.993586 0.938636 0.000122
0.987960 0.987650 0.013841
0.000251 0.431971 0.000137
0.000041 0.416398 0.000409
0.000209 0.402162 0.000693
0.000261 0.388009 0.000322
0.000339 0.376315 0.000012
0.000530 0.369066 0.000051
0.000418 0.360285 0.000253
0.000066 0.348641 0.000626
0.006004 0.336507 0.000548
0.046679 0.321835 0.000020
0.117277 0.308029 0.000751
0.224911 0.295636 0.000082
0.366428 0.286007 0.000015
0.523767 0.277663 0.000009
0.680732 0.275424 0.000013
0.828724 0.276399 0.000017
0.977483 0.277720 0.034336
0.999789 0.271086 0.225185
0.999466 0.300081 0.310552
0.999408 0.351631 0.358020
0.999209 0.367819 0.352437
0.999328 0.390289 0.334761
0.999326 0.424401 0.301502
0.999260 0.470510 0.258489
0.999446 0.526528 0.199346
0.999443 0.588284 0.122633
0.998738 0.647887 0.082459
0.999538 0.706783 0.042661
0.999384 0.764852 0.007384
0.999107 0.822578 0.002141
0.998961 0.888237 0.000178
0.993469 0.939086 0.000114
0.987894 0.987888 0.014030
0.000207 0.542001 0.000348
0.000111 0.529261 0.000059
0.000050 0.517983 0.000021
0.000001 0.507717 0.000029
0.000027 0.499730 0.000298
0.000053 0.492272 0.000544
0.000096 0.483829 0.000294
0.000176 0.472452 0.000127
0.001041 0.457652 0.000681
0.017209 0.444036 0.000355
0.080480 0.428853 0.000227
0.184517 0.413673 0.000241
0.326983 0.398535 0.000265
0.480362 0.388496 0.000298
0.637247 0.385278 0.000027
0.782967 0.384401 0.000119
0.927555 0.384390 0.000030
0.999666 0.375629 0.075317
0.999777 0.373868 0.221855
0.999687 0.405045 0.293375
0.999797 0.415738 0.310815
0.999486 0.431261 0.297016
0.999253 0.458434 0.268729
0.999258 0.497924 0.230236
0.999756 0.547360 0.175308
0.999498 0.602860 0.106150
0.999057 0.657541 0.072168
0.999661 0.713360 0.034924
0.999391 0.769332 0.004014
0.999068 0.825579 0.002126
0.998952 0.889722 0.000196
0.993298 0.939742 0.000103
0.987797 0.988234 0.014302
0.000078 0.652909 0.000264
0.000027 0.643864 0.000291
0.000009 0.636325 0.000237
0.000005 0.629702 0.000144
0.000003 0.623387 0.000108
0.000002 0.617084 0.000270
0.000000 0.609767 0.000461
0.000112 0.600952 0.000541
0.000225 0.589935 0.000526
0.003750 0.576206 0.000427
0.044593 0.559190 0.000378
0.144498 0.542298 0.000094
0.286361 0.524467 0.000446
0.438877 0.510840 0.000039
0.598309 0.500983 0.000009
0.742258 0.498393 0.000163
0.879651 0.494622 0.000008
0.995135 0.485991 0.003298
0.999720 0.470391 0.100311
0.999199 0.476307 0.197091
0.999240 0.477215 0.252554
0.999676 0.484193 0.245036
0.999743 0.503922 0.223802
0.999459 0.534888 0.189747
0.999173 0.575362 0.137532
0.999573 0.622025 0.086970
0.999420 0.671038 0.058215
0.999849 0.722567 0.024142
0.999406 0.775772 0.003481
0.999024 0.829877 0.001900
0.998733 0.891122 0.000187
0.993051 0.940693 0.000087
0.987653 0.988737 0.014692
0.000019 0.753093 0.000341
0.000013 0.747681 0.000405
0.000009 0.743184 0.000409
0.000005 0.738991 0.000407
0.000001 0.734988 0.000405
0.000000 0.731194 0.000361
0.000001 0.726768 0.000272
0.000003 0.720669 0.000149
0.000147 0.712048 0.000463
0.000178 0.701482 0.000659
0.019187 0.689405 0.000375
0.102372 0.673991 0.000293
0.243874 0.657538 0.000124
0.397544 0.640615 0.000055
0.559683 0.626244 0.000447
0.701403 0.617361 0.000220
0.836338 0.606190 0.000127
0.973720 0.601003 0.000000
0.999558 0.585088 0.000099
0.999141 0.565927 0.058811
0.999203 0.547983 0.172629
0.999308 0.549156 0.173598
0.998963 0.559448 0.159983
0.999497 0.580480 0.130430
0.999172 0.610709 0.090200
0.999489 0.647194 0.061984
0.999474 0.689399 0.040606
0.999670 0.735423 0.017527
0.999457 0.784908 0.002509
0.998984 0.835978 0.001151
0.998405 0.893150 0.000171
0.992693 0.942070 0.000065
0.987441 0.989463 0.015245
0.000000 0.844956 0.000222
0.000000 0.841844 0.000189
0.000000 0.838843 0.000146
0.000000 0.835945 0.000106
0.000000 0.833143 0.000067
0.000021 0.830489 0.000052
0.000083 0.827443 0.000071
0.000171 0.823193 0.000098
0.000209 0.817345 0.000230
0.000047 0.809438 0.000647
0.004761 0.800069 0.000276
0.066840 0.787645 0.000259
0.199399 0.772432 0.000371
0.356817 0.757168 0.000047
0.518485 0.740033 0.000010
0.662850 0.716743 0.000000
0.793915 0.696269 0.000211
0.924049 0.680391 0.000113
0.999190 0.680997 0.000022
0.999223 0.668856 0.000096
0.999279 0.637084 0.034580
0.999262 0.623394 0.068658
0.999226 0.624665 0.067053
0.999220 0.634523 0.055511
0.999360 0.653458 0.039747
0.999202 0.678787 0.029755
0.999327 0.713294 0.014339
0.999138 0.753100 0.006016
0.999464 0.797560 0.001107
0.999099 0.843271 0.000009
0.997907 0.896074 0.000141
0.992179 0.944053 0.000037
0.987125 0.990509 0.016021
0.000129 0.929144 0.000331
0.000141 0.927162 0.000422
0.000154 0.925230 0.000510
0.000166 0.923344 0.000594
0.000174 0.921479 0.000655
0.000147 0.919483 0.000570
0.000115 0.917093 0.000470
0.000068 0.913722 0.000331
0.000002 0.909038 0.000144
0.000000 0.903708 0.000137
0.004462 0.896518 0.000142
0.030862 0.886878 0.000225
0.145331 0.873888 0.000302
0.306215 0.856048 0.000194
0.470929 0.829200 0.000024
0.620364 0.804520 0.000138
0.752308 0.782071 0.000040
0.877597 0.760896 0.000030
0.992503 0.746254 0.000017
0.999226 0.744934 0.000060
0.998892 0.728150 0.000031
0.999415 0.698313 0.002730
0.999404 0.692697 0.003863
0.999132 0.693878 0.002468
0.999128 0.702426 0.000076
0.998865 0.719454 0.004881
0.999344 0.744136 0.003729
0.998912 0.776324 0.001133
0.999202 0.812849 0.000050
0.999496 0.850665 0.000061
0.997141 0.900267 0.000088
0.991444 0.946895 0.000002
0.986651 0.992003 0.017085
0.000000 0.997119 0.000334
0.000000 0.996967 0.000341
0.000000 0.996835 0.000345
0.000000 0.996719 0.000346
0.000000 0.996609 0.000347
0.000000 0.996503 0.000347
0.000000 0.996379 0.000348
0.000000 0.996210 0.000349
0.000000 0.995988 0.000350
0.000000 0.992362 0.000234
0.000000 0.987407 0.000074
0.011862 0.979036 0.000518
0.086586 0.963660 0.000772
0.242050 0.940707 0.000271
0.414019 0.914753 0.000103
0.570300 0.888848 0.000063
0.705872 0.865302 0.000043
0.830102 0.843235 0.000201
0.958642 0.822324 0.000067
0.999242 0.809083 0.000007
0.999439 0.791735 0.000136
0.999557 0.773796 0.000267
0.998991 0.762164 0.000019
0.999028 0.758479 0.000094
0.999304 0.758380 0.000133
0.999326 0.767956 0.000001
0.999042 0.783238 0.000223
0.999208 0.803923 0.000269
0.998978 0.833268 0.000119
0.999735 0.862383 0.000175
0.996120 0.906179 0.000005
0.990902 0.950590 0.000000
0.985932 0.994118 0.018495
0.000000 1.000000 0.000285
0.000000 1.000000 0.000285
0.000000 1.000000 0.000285
0.000000 1.000000 0.000285
0.000000 1.000000 0.000285
0.000000 1.000000 0.000285
0.000000 1.000000 0.000285
0.000000 1.000000 0.000285
0.000000 1.000000 0.000285
0.000000 1.000000 0.000285
0.000000 1.000000 0.000285
0.012456 1.000000 0.000342
0.042468 0.999995 0.000437
0.167958 0.999925 0.000181
0.342240 0.989875 0.000235
0.509603 0.974973 0.000028
0.655603 0.950513 0.000390
0.782761 0.926842 0.000171
0.906936 0.903186 0.000010
0.995356 0.879718 0.000058
0.998705 0.850983 0.000003
0.999283 0.826468 0.000083
0.999108 0.815336 0.000086
0.999736 0.809392 0.000336
0.999076 0.808640 0.000030
0.999430 0.811599 0.000000
0.999372 0.819756 0.000283
0.999542 0.833271 0.000181
0.999007 0.851742 0.000287
0.999421 0.873785 0.000086
0.995577 0.913803 0.000050
0.990289 0.955703 0.000000
0.984831 0.997069 0.020268
0.000000 1.000000 0.000285
0.000000 1.000000 0.000285
0.000000 1.000000 0.000285
0.000000 1.000000 0.000285
0.000000 1.000000 0.000285
0.000000 1.000000 0.000285
0.000000 1.000000 0.000285
0.000000 1.000000 0.000285
0.000000 1.000000 0.000285
0.000000 1.000000 0.000285
0.000000 1.000000 0.000285
0.000271 0.999956 0.000268
0.000685 0.999889 0.000243
0.098820 0.999931 0.000351
0.258166 0.999857 0.000333
0.436068 0.999663 0.000430
0.594338 0.999896 0.000754
0.724017 0.996789 0.000010
0.843326 0.977936 0.000154
0.959861 0.948595 0.000076
0.991727 0.918627 0.000012
0.995407 0.882054 0.000012
0.999172 0.858629 0.000149
0.999050 0.851953 0.000165
0.999376 0.847322 0.000000
0.999174 0.846306 0.000492
0.998991 0.850114 0.000034
0.999111 0.857533 0.000041
0.998723 0.870564 0.000047
0.997768 0.887525 0.000022
0.994431 0.923770 0.000045
0.989589 0.962536 0.000096
0.984372 0.998372 0.021625
0.000000 1.000000 0.000285
0.000000 1.000000 0.000285
0.000000 1.000000 0.000285
0.000000 1.000000 0.000285
0.000000 1.000000 0.000285
0.000000 1.000000 0.000285
0.000000 1.000000 0.000285
0.000000 1.000000 0.000285
0.000000 1.000000 0.000285
0.000000 1.000000 0.000285
0.005246 0.999962 0.000309
0.015136 0.999890 0.000354
0.028626 0.999792 0.000416
0.094186 0.999675 0.000329
0.210058 0.999564 0.000140
0.359451 0.999838 0.000076
0.510854 0.999739 0.000531
0.647297 0.999809 0.000279
0.770688 0.999564 0.000184
0.886643 0.997409 0.000316
0.986624 0.980564 0.007137
0.990279 0.950445 0.000252
0.992393 0.908529 0.000043
0.994613 0.892336 0.000000
0.995501 0.885338 0.000253
0.996399 0.882176 0.000042
0.996849 0.880887 0.000110
0.995932 0.884806 0.000000
0.996321 0.892186 0.000187
0.996161 0.904400 0.000002
0.991849 0.936083 0.000000
0.988416 0.970886 0.001047
0.984410 0.998066 0.022218
0.000000 1.000000 0.000285
0.000000 1.000000 0.000285
0.000437 0.999996 0.000288
0.001683 0.999985 0.000298
0.002923 0.999975 0.000307
0.004157 0.999964 0.000316
0.005668 0.999951 0.000328
0.007862 0.999932 0.000344
0.011035 0.999905 0.000369
0.015605 0.999865 0.000403
0.022143 0.999809 0.000454
0.031410 0.999731 0.000526
0.044373 0.999622 0.000629
0.106222 0.999549 0.000653
0.194707 0.999456 0.000671
0.306381 0.999670 0.000486
0.438223 0.999602 0.000168
0.572145 0.999680 0.000006
0.694676 0.999822 0.000490
0.808966 0.999692 0.000161
0.922201 0.999531 0.004664
0.983048 0.996466 0.019560
0.987680 0.973081 0.004905
0.988576 0.942372 0.000000
0.990789 0.931638 0.000194
0.991836 0.922006 0.000144
0.992657 0.917125 0.000055
0.992178 0.915344 0.000052
0.992294 0.917608 0.000000
0.991410 0.925427 0.000126
0.988838 0.954666 0.000000
0.986084 0.984662 0.009772
0.983929 0.999083 0.022809
0.021578 0.999913 0.000484
0.022336 0.999910 0.000491
0.023092 0.999907 0.000498
0.023844 0.999904 0.000505
0.024594 0.999901 0.000512
0.025341 0.999898 0.000519
0.026257 0.999894 0.000527
0.027589 0.999888 0.000540
0.029519 0.999880 0.000558
0.032307 0.999868 0.000584
0.036313 0.999851 0.000622
0.045922 0.999831 0.000653
0.079198 0.999826 0.000584
0.126068 0.999820 0.000484
0.191118 0.999813 0.000345
0.274407 0.999838 0.000345
0.379982 0.999841 0.000397
0.498482 0.999668 0.000441
0.615066 0.999451 0.000087
0.729455 0.999803 0.000323
0.839940 0.999783 0.000117
0.947781 0.999554 0.009618
0.983737 1.000000 0.022016
0.984787 0.992333 0.015424
0.985729 0.981402 0.007335
0.987014 0.972558 0.003927
0.986830 0.965235 0.000291
0.987929 0.958242 0.000600
0.989509 0.954808 0.000084
0.987672 0.958112 0.000000
0.986407 0.978295 0.005622
0.983788 0.994886 0.018469
0.983737 1.000000 0.022016
0.082792 0.999631 0.000756
0.084696 0.999631 0.000746
0.086597 0.999631 0.000735
0.088495 0.999632 0.000724
0.090388 0.999632 0.000714
0.092278 0.999632 0.000703
0.094600 0.999633 0.000691
0.097983 0.999633 0.000672
0.102908 0.999634 0.000645
0.110061 0.999636 0.000605
0.120422 0.999638 0.000548
0.135373 0.999641 0.000466
0.156823 0.999647 0.000349
0.187352 0.999656 0.000185
0.229839 0.999649 0.000073
0.287308 0.999573 0.000288
0.364928 0.999494 0.000554
0.454650 0.999787 0.000490
0.556079 0.999657 0.000230
0.659244 0.999562 0.000152
0.762782 0.999525 0.000226
0.867170 0.999578 0.000038
0.967846 0.999637 0.017290
0.983737 1.000000 0.022016
0.983447 0.999735 0.021694
0.983674 0.999230 0.021461
0.983473 0.996566 0.019503
0.985238 0.993930 0.017827
0.983396 0.991418 0.015311
0.984976 0.990225 0.013425
0.983576 0.996586 0.019566
0.983737 1.000000 0.022016
0.983737 0.999969 0.022583
0.251617 0.999642 0.000038
0.252736 0.999645 0.000038
0.253854 0.999647 0.000038
0.254971 0.999650 0.000039
0.256086 0.999653 0.000039
0.257199 0.999655 0.000039
0.258568 0.999659 0.000039
0.260565 0.999664 0.000039
0.263475 0.999671 0.000039
0.267711 0.999681 0.000039
0.273865 0.999696 0.000040
0.282781 0.999718 0.000040
0.295384 0.999740 0.000051
0.311848 0.999720 0.000132
0.335295 0.999693 0.000249
0.368328 0.999657 0.000419
0.413491 0.999639 0.000588
0.469815 0.999830 0.000262
0.538759 0.999916 0.000216
0.615529 0.999630 0.000424
0.698696 0.999494 0.000053
0.794716 0.999457 0.000011
0.898989 0.999894 0.001942
0.979096 0.999631 0.021087
0.983737 1.000000 0.022016
0.983737 1.000000 0.022016
0.983737 1.000000 0.022016
0.983737 1.000000 0.022016
0.983714 0.999983 0.021993
0.983737 1.000000 0.022016
0.983737 1.000000 0.022016
0.983737 1.000000 0.022016
0.983737 0.999972 0.022240
0.417190 0.999741 0.000325
0.417777 0.999740 0.000324
0.418363 0.999739 0.000322
0.418949 0.999738 0.000321
0.419534 0.999737 0.000319
0.420119 0.999736 0.000318
0.420839 0.999735 0.000316
0.421889 0.999734 0.000314
0.423420 0.999732 0.000310
0.425652 0.999729 0.000304
0.428901 0.999724 0.000296
0.433621 0.999718 0.000284
0.440459 0.999708 0.000267
0.450329 0.999695 0.000242
0.464496 0.999677 0.000207
0.484672 0.999653 0.000156
0.510220 0.999696 0.000153
0.544767 0.999776 0.000172
0.589393 0.999791 0.000192
