output/ACEScct_display/ACEScct_to_ETERNA_33grid.cube
TITLE "ACEScct_to_ETERNA"
# Input: ACEScct (AP1 primaries, log encoding, D60)
# Output: BT.709 / Gamma 2.2 (display-referred)
# Use: Display/output transform in DaVinci Resolve ACES pipeline (replaces ODT)
# Source: FLog2C_to_ETERNA_65grid_V.1.00.cube
# Generated from Fujifilm GFX ETERNA 55 F-Log2C LUT
LUT_3D_SIZE 9
0.006510 0.006095 0.006119
0.044915 0.008323 0.011161
0.188129 0.018351 0.029185
0.632778 0.094297 0.083054
0.941297 0.256884 0.189458
0.941001 0.386464 0.230749
0.928897 0.539834 0.065538
0.926217 0.740817 0.056467
0.930795 0.971935 0.054211
0.004682 0.031750 0.004063
0.035054 0.028356 0.005293
0.170209 0.020434 0.026636
0.532708 0.070567 0.071700
0.938266 0.238980 0.142816
0.940107 0.396429 0.222873
0.928836 0.543399 0.065009
0.926208 0.741637 0.056446
0.930791 0.972073 0.054220
0.005159 0.145950 0.000058
0.006771 0.128096 0.000093
0.127361 0.113548 0.005511
0.438999 0.122843 0.049069
0.935113 0.265795 0.097518
0.938144 0.413458 0.207288
0.928744 0.549158 0.064072
0.926194 0.742996 0.056409
0.930784 0.972303 0.054236
0.006127 0.371002 0.000004
0.006879 0.332634 0.000207
0.042729 0.307153 0.000645
0.327604 0.284817 0.005659
0.868794 0.366172 0.071196
0.933332 0.475554 0.144610
0.927987 0.573866 0.062505
0.926143 0.748943 0.056221
0.930866 0.973255 0.054596
0.009912 0.753920 0.000101
0.009405 0.742301 0.000297
0.010745 0.727078 0.000520
0.249729 0.685725 0.000010
0.731523 0.657934 0.017120
0.926140 0.643957 0.060058
0.925951 0.657587 0.058972
0.926769 0.773539 0.055689
0.931573 0.977323 0.057085
0.022818 0.999838 0.000199
0.022795 0.999841 0.000199
0.022694 0.999853 0.000199
0.129107 0.999974 0.000925
0.575952 0.981373 0.000404
0.929960 0.926427 0.055500
0.927152 0.837058 0.054038
0.926963 0.854211 0.053403
0.933678 0.992492 0.066800
0.212009 0.999725 0.000097
0.216786 0.999736 0.000093
0.224660 0.999755 0.000087
0.258580 0.999833 0.000061
0.397523 0.999781 0.000367
0.733063 0.999870 0.008905
0.934402 0.999801 0.081864
0.932556 0.997033 0.069498
0.932505 0.999629 0.082445
0.664856 0.999697 0.444594
0.665437 0.999701 0.444350
0.666402 0.999706 0.443945
0.670671 0.999728 0.442155
0.689512 0.999829 0.434306
0.761372 0.999640 0.400999
0.931808 0.999476 0.272362
0.932959 0.999680 0.082827
0.944625 0.999742 0.219182
0.980649 0.999838 0.764602
0.980648 0.999839 0.764563
0.980645 0.999839 0.764498
0.980635 0.999843 0.764206
0.980589 0.999859 0.762888
0.980123 0.999910 0.756765
0.978689 0.999797 0.732103
0.975390 0.999643 0.676132
0.976563 0.999838 0.704828
0.006772 0.006078 0.036904
0.050923 0.006410 0.033711
0.187195 0.016459 0.030638
0.623522 0.092878 0.083545
0.939676 0.248244 0.177161
0.939996 0.393333 0.225003
0.928280 0.546106 0.066353
0.925506 0.742669 0.056201
0.930795 0.971953 0.054212
0.007766 0.041307 0.045015
0.034206 0.035610 0.033935
0.163072 0.028272 0.028656
0.511240 0.067850 0.070326
0.936747 0.239687 0.131025
0.939434 0.403236 0.216068
0.928080 0.549814 0.066234
0.925525 0.743494 0.056201
0.930791 0.972090 0.054221
0.010089 0.153739 0.052394
0.007601 0.135847 0.025960
0.126383 0.120640 0.014197
0.426023 0.129707 0.046259
0.933618 0.267390 0.097872
0.937429 0.420251 0.204152
0.927747 0.555816 0.066030
0.925558 0.744859 0.056203
0.930784 0.972320 0.054237
0.009621 0.383147 0.004533
0.008167 0.347503 0.000598
0.032603 0.318880 0.000481
0.321691 0.292002 0.003970
0.856798 0.369504 0.069040
0.932788 0.482332 0.133031
0.927128 0.579271 0.063418
0.925725 0.750813 0.056252
0.930869 0.973271 0.054605
0.009119 0.771989 0.000466
0.009518 0.758614 0.000435
0.009190 0.742597 0.000242
0.230948 0.700354 0.000067
0.717010 0.665912 0.013247
0.926756 0.654694 0.060819
0.925744 0.663275 0.059555
0.927119 0.774510 0.054753
0.931575 0.977338 0.057094
0.022818 0.999838 0.000199
0.022818 0.999838 0.000199
0.022818 0.999838 0.000199
0.100448 0.999878 0.000085
0.559474 0.983684 0.000026
0.929623 0.928828 0.054972
0.927546 0.838593 0.054650
0.927092 0.855232 0.053616
0.933678 0.992499 0.066806
0.211260 0.999440 0.000020
0.215906 0.999444 0.000019
0.223564 0.999451 0.000017
0.256550 0.999480 0.000012
0.392440 0.999383 0.000518
0.728192 0.999794 0.007359
0.934402 0.999801 0.081867
0.932558 0.997044 0.069506
0.932505 0.999629 0.082445
0.665427 0.999622 0.454974
0.666004 0.999625 0.454742
0.666962 0.999630 0.454357
0.671199 0.999653 0.452658
0.689899 0.999757 0.445206
0.761721 0.999668 0.412263
0.932524 0.999450 0.285156
0.933307 0.999719 0.083139
0.945184 0.999741 0.228460
0.980692 0.999827 0.765848
0.980691 0.999827 0.765808
0.980688 0.999828 0.765742
0.980678 0.999832 0.765450
0.980632 0.999849 0.764126
0.980187 0.999904 0.758002
0.978808 0.999814 0.733474
0.975501 0.999650 0.677645
0.976588 0.999848 0.706044
0.011216 0.003591 0.126027
0.058842 0.003990 0.118688
0.192928 0.007114 0.108376
0.576430 0.078296 0.097018
0.938283 0.232740 0.153689
0.939691 0.401659 0.228612
0.931214 0.551268 0.150154
0.925673 0.744417 0.056488
0.930790 0.971988 0.054277
0.013400 0.060834 0.143166
0.032885 0.046604 0.128154
0.164398 0.036432 0.126597
0.485551 0.067008 0.134636
0.937493 0.239853 0.129527
0.939542 0.412582 0.224801
0.931368 0.554875 0.148332
0.925726 0.745204 0.056583
0.930787 0.972125 0.054275
0.015839 0.169830 0.161845
0.014233 0.145620 0.135683
0.128170 0.129559 0.126749
0.418551 0.133584 0.131329
0.929238 0.266438 0.123772
0.938551 0.429519 0.224138
0.931611 0.560700 0.145460
0.925810 0.746509 0.056691
0.930781 0.972352 0.054271
0.019065 0.407584 0.151465
0.017074 0.367976 0.128266
0.034741 0.336359 0.111752
0.323329 0.304909 0.108391
0.843057 0.373444 0.093884
0.936477 0.492125 0.218079
0.930861 0.584343 0.131616
0.926129 0.752237 0.056446
0.930873 0.973296 0.054620
0.016045 0.787187 0.007872
0.015065 0.775788 0.002730
0.013372 0.760612 0.001184
0.219744 0.718921 0.000422
0.705504 0.677982 0.012791
0.928048 0.662854 0.097510
0.927142 0.668129 0.078961
0.926597 0.776309 0.057026
0.931580 0.977363 0.057109
0.022818 0.999838 0.000199
0.022818 0.999838 0.000199
0.022818 0.999838 0.000199
0.060650 0.999967 0.000057
0.538150 0.985253 0.000278
0.928866 0.931699 0.053985
0.927292 0.840810 0.054715
0.926950 0.856035 0.053699
0.933677 0.992510 0.066815
0.211272 0.999645 0.000638
0.215848 0.999647 0.000602
0.223391 0.999648 0.000543
0.255890 0.999655 0.000286
0.387031 0.999317 0.000200
0.722478 0.999772 0.006955
0.934402 0.999797 0.081896
0.932560 0.997063 0.069519
0.932505 0.999629 0.082445
0.666350 0.999500 0.471717
0.666920 0.999503 0.471505
0.667866 0.999508 0.471153
0.672051 0.999533 0.469600
0.690524 0.999642 0.462790
0.762285 0.999711 0.430434
0.933681 0.999406 0.305810
0.933871 0.999783 0.083649
0.946085 0.999738 0.243441
0.980763 0.999808 0.767906
0.980762 0.999808 0.767867
0.980760 0.999809 0.767800
0.980750 0.999813 0.767506
0.980703 0.999832 0.766173
0.980292 0.999893 0.760047
0.979005 0.999843 0.735741
0.975686 0.999662 0.680145
0.976630 0.999864 0.708057
0.023054 0.032944 0.315914
0.075273 0.015667 0.285903
0.192382 0.008396 0.276519
0.504127 0.036901 0.298029
0.948199 0.215821 0.357714
0.945608 0.434736 0.383302
0.940361 0.566530 0.329839
0.935458 0.745476 0.231004
0.931700 0.971771 0.062752
0.025943 0.123550 0.349736
0.038723 0.098067 0.303597
0.168337 0.086129 0.293429
0.460584 0.096775 0.300935
0.942981 0.232098 0.363548
0.945538 0.445013 0.385042
0.940227 0.570011 0.329679
0.935448 0.746283 0.230603
0.931661 0.971920 0.062210
0.029523 0.208039 0.385102
0.026418 0.179314 0.333790
0.138134 0.164142 0.314237
0.416890 0.159039 0.309582
0.924506 0.262624 0.364730
0.945368 0.460628 0.388122
0.940007 0.575663 0.329420
0.935432 0.747617 0.229942
0.931595 0.972170 0.061305
0.035741 0.452563 0.432683
0.033529 0.417343 0.396364
0.039950 0.384374 0.360650
0.338648 0.339161 0.338456
0.834149 0.382361 0.361911
0.944037 0.517810 0.396428
0.940445 0.597725 0.325990
0.935359 0.753426 0.227103
0.931627 0.973132 0.060627
0.041389 0.799306 0.389138
0.040148 0.790158 0.377314
0.037983 0.777467 0.359558
0.220313 0.738456 0.335629
0.707755 0.692321 0.333906
0.942653 0.673085 0.361522
0.939324 0.674262 0.310862
0.934683 0.776966 0.210647
0.932201 0.977244 0.062054
0.042769 0.999528 0.095762
0.041924 0.999613 0.092205
0.040580 0.999748 0.086537
0.038431 0.999146 0.068856
0.498377 0.979536 0.108399
0.926053 0.933553 0.101576
0.936726 0.839871 0.216298
0.931360 0.856026 0.116622
0.933560 0.992614 0.066855
0.216895 0.999577 0.000150
0.221046 0.999572 0.000155
0.227889 0.999566 0.000164
0.257364 0.999537 0.000199
0.374639 0.999855 0.000389
0.702616 0.999800 0.002696
0.934402 0.999795 0.081938
0.932694 0.997271 0.069704
0.932505 0.999629 0.082445
0.669390 0.998811 0.534034
0.669955 0.998824 0.533853
0.670893 0.998845 0.533552
0.675043 0.998941 0.532222
0.693369 0.999368 0.526368
0.762193 0.999769 0.496774
0.935202 0.999641 0.382176
0.937929 0.999898 0.122999
0.949150 0.999624 0.294323
0.981073 0.999726 0.776858
0.981072 0.999727 0.776817
0.981070 0.999728 0.776749
0.981060 0.999734 0.776446
0.981013 0.999761 0.775072
0.980750 0.999848 0.768941
0.979860 0.999968 0.745602
0.976272 0.999723 0.690611
0.976810 0.999935 0.716835
0.047429 0.224138 0.701469
0.125208 0.211964 0.686515
0.222011 0.200328 0.671586
0.478291 0.188132 0.650472
0.913590 0.262625 0.678151
0.954825 0.492430 0.592202
0.952615 0.600884 0.568878
0.950871 0.749414 0.492916
0.951376 0.964445 0.356893
0.049116 0.265778 0.714842
0.105565 0.250476 0.698517
0.211529 0.236570 0.685565
0.464550 0.220045 0.661298
0.898370 0.283497 0.680799
0.955587 0.501621 0.596358
0.952629 0.603670 0.569483
0.950875 0.750122 0.492741
0.951365 0.964581 0.356648
0.051119 0.326976 0.728395
0.079178 0.310195 0.711566
0.191135 0.292955 0.700772
0.445723 0.266688 0.677109
0.878775 0.314805 0.686031
0.956659 0.515897 0.602784
0.952653 0.608197 0.570465
0.950880 0.751293 0.492452
0.951343 0.964802 0.356229
0.054820 0.522764 0.750566
0.053291 0.506212 0.735071
0.102030 0.486206 0.722136
0.383647 0.440751 0.708840
0.822321 0.437196 0.698222
0.956130 0.565751 0.624631
0.952809 0.626630 0.574083
0.950930 0.756414 0.491114
0.951246 0.965785 0.354374
0.066690 0.797848 0.730155
0.066471 0.792833 0.724609
0.065207 0.784300 0.715427
0.239018 0.757248 0.708922
0.711022 0.712337 0.711383
0.958842 0.692779 0.659493
0.954273 0.689459 0.582298
0.951379 0.777951 0.485170
0.950804 0.970179 0.346123
0.078969 0.976877 0.587456
0.078763 0.976130 0.586127
0.078407 0.974943 0.583953
0.077143 0.969912 0.573063
0.461800 0.952002 0.602410
0.925943 0.914909 0.598544
0.957401 0.834796 0.557116
0.951640 0.850086 0.447577
0.948795 0.987650 0.310877
0.277176 0.996994 0.400236
0.281213 0.996979 0.400639
0.287870 0.996955 0.401301
0.316583 0.996850 0.404141
0.421918 0.998259 0.409381
0.693138 0.999814 0.395771
0.950459 0.999693 0.314703
0.944912 0.994632 0.249555
0.942666 0.999697 0.189093
0.675430 0.994565 0.679164
0.676022 0.994593 0.679148
0.677006 0.994640 0.679121
0.681360 0.994849 0.679003
0.700615 0.995773 0.678509
0.765673 0.998002 0.664940
0.940065 0.999701 0.591844
0.953860 0.999899 0.371242
0.960100 0.999848 0.462103
0.983915 0.999224 0.811506
0.983911 0.999221 0.811466
0.983905 0.999218 0.811400
0.983878 0.999201 0.811104
0.983754 0.999124 0.809765
0.983111 0.999107 0.804520
0.981310 0.999656 0.782632
0.977537 1.000000 0.730338
0.979640 1.000000 0.750854
0.254363 0.542335 0.963646
0.283764 0.538502 0.966791
0.330779 0.533520 0.972703
0.496327 0.518608 0.989970
0.818594 0.502008 0.981666
0.967221 0.555908 0.845778
0.964920 0.639248 0.769660
0.966094 0.764625 0.749843
0.971871 0.950498 0.695646
0.247222 0.553104 0.960166
0.277219 0.549585 0.963432
0.324126 0.544480 0.969770
0.489781 0.529621 0.988084
0.813834 0.512386 0.981277
0.967424 0.560732 0.848264
0.964870 0.641613 0.770164
0.966106 0.765148 0.749917
0.971873 0.950631 0.695535
0.236237 0.570031 0.954950
0.267221 0.566983 0.958702
0.313847 0.561647 0.965406
0.479534 0.547171 0.985080
0.806196 0.528359 0.980345
0.967749 0.568464 0.852244
0.964788 0.645480 0.770989
0.966125 0.766015 0.750039
0.971876 0.950853 0.695350
0.193809 0.630205 0.937027
0.226678 0.627504 0.941662
0.274850 0.623276 0.947659
0.436404 0.608738 0.968692
0.775896 0.586030 0.975264
0.967917 0.600897 0.866267
0.964573 0.661594 0.774525
0.966211 0.769808 0.750575
0.971890 0.951837 0.694529
0.086927 0.765975 0.893607
0.105802 0.764608 0.896073
0.134797 0.762498 0.899860
0.307129 0.752566 0.924965
0.673163 0.730532 0.949418
0.974325 0.703734 0.906401
0.966603 0.717469 0.789463
0.967197 0.786254 0.751464
0.971949 0.956241 0.690871
0.091336 0.928834 0.840012
0.091258 0.928053 0.839127
0.091136 0.926792 0.837697
0.101953 0.921952 0.832530
0.425897 0.909786 0.861397
0.883098 0.884441 0.883116
0.973649 0.835379 0.813836
0.969701 0.845651 0.747169
0.971842 0.974536 0.674865
0.195402 0.984968 0.729209
0.201002 0.984961 0.729385
0.210241 0.984949 0.729674
0.244386 0.985215 0.730262
0.362040 0.986313 0.732552
0.675696 0.992683 0.755324
0.979069 0.997814 0.742125
0.973504 0.978002 0.680846
0.970646 0.999870 0.612721
0.623927 0.987868 0.858752
0.624716 0.987888 0.858761
0.626026 0.987923 0.858775
0.631822 0.988076 0.858839
0.657115 0.988765 0.859078
0.743501 0.991695 0.858584
0.930726 0.999413 0.845138
0.977981 0.999816 0.728387
0.979281 0.999609 0.745892
0.991074 0.999831 0.905876
0.991075 0.999831 0.905849
0.991076 0.999832 0.905803
0.991084 0.999836 0.905601
0.991118 0.999852 0.904685
0.990504 0.999842 0.900013
0.989017 0.999764 0.883462
0.986740 0.999879 0.842457
0.987670 0.999842 0.852764
0.476159 0.684231 0.959561
0.482511 0.684336 0.960504
0.492857 0.684509 0.962037
0.535627 0.684979 0.968048
0.672240 0.689911 0.985481
0.933330 0.694404 0.999459
0.976572 0.702675 0.962187
0.977162 0.775214 0.915762
0.987001 0.936847 0.924414
0.474870 0.685957 0.959017
0.481219 0.686054 0.959949
0.491560 0.686215 0.961465
0.534385 0.686645 0.967563
0.671163 0.691465 0.985063
0.932258 0.696042 0.999446
0.976582 0.703741 0.962311
0.977199 0.775685 0.915828
0.987009 0.936958 0.924407
0.472770 0.688793 0.958118
0.479112 0.688878 0.959032
0.489445 0.689018 0.960518
0.532364 0.689383 0.966777
0.669408 0.694021 0.984378
0.930496 0.698742 0.999425
0.976600 0.705501 0.962517
0.977259 0.776466 0.915937
0.987021 0.937143 0.924395
0.464063 0.700886 0.954209
0.470377 0.700919 0.955046
0.480719 0.700962 0.956544
0.524059 0.701091 0.963578
0.662151 0.704964 0.981461
0.922577 0.709580 0.999508
0.976674 0.713125 0.963414
0.977522 0.779896 0.916419
0.987075 0.937961 0.924342
0.429186 0.746592 0.941569
0.435569 0.746435 0.942522
0.445985 0.746178 0.944077
0.488731 0.745300 0.950018
0.630149 0.745428 0.969540
0.891401 0.750414 0.999564
0.978753 0.743691 0.966990
0.978411 0.794411 0.918517
0.987318 0.941629 0.924106
0.321156 0.874444 0.903282
0.327032 0.873705 0.904209
0.336674 0.872494 0.905730
0.377485 0.867550 0.912145
0.522493 0.856065 0.935080
0.808861 0.850232 0.981109
0.983745 0.832999 0.974583
0.981232 0.846655 0.923928
0.988149 0.958030 0.923033
0.196657 0.979780 0.867043
0.201200 0.979790 0.867702
0.208710 0.979806 0.868792
0.241389 0.979876 0.873533
0.336125 0.980459 0.887820
0.610654 0.986253 0.929865
0.976644 0.984025 0.980608
0.990057 0.960536 0.933630
0.989062 0.999079 0.903709
0.578663 0.985208 0.924824
0.579375 0.985227 0.924949
0.580558 0.985259 0.925157
0.585794 0.985402 0.926080
0.608977 0.986034 0.930164
0.697558 0.988245 0.944015
0.900578 0.995540 0.979300
0.996070 0.999638 0.977051
0.996309 0.999856 0.977959
0.998551 0.999953 0.999480
0.998590 0.999954 0.999494
0.998656 0.999956 0.999517
0.998948 0.999966 0.999622
1.000000 1.000000 1.000000
1.000000 1.000000 1.000000
1.000000 1.000000 1.000000
0.999369 1.000000 0.996015
0.999628 1.000000 0.997648
0.623555 0.929216 0.939283
0.625363 0.929037 0.939593
0.628360 0.928741 0.940107
0.640089 0.927385 0.942415
0.689568 0.921667 0.952252
0.824619 0.905128 0.976482
0.987312 0.870301 0.999506
0.987949 0.839123 0.999535
0.993495 0.955650 0.999057
0.623160 0.929539 0.939152
0.624971 0.929360 0.939462
0.627972 0.929064 0.939977
0.639683 0.927710 0.942288
0.689214 0.922005 0.952133
0.824409 0.905453 0.976406
0.987342 0.870633 0.999509
0.987982 0.839405 0.999538
0.993502 0.955757 0.999052
0.622508 0.930075 0.938934
0.624324 0.929896 0.939246
0.627333 0.929600 0.939762
0.639012 0.928249 0.942078
0.688627 0.922566 0.951936
0.824062 0.905993 0.976282
0.987393 0.871184 0.999514
0.988036 0.839874 0.999543
0.993513 0.955936 0.999043
0.619676 0.932441 0.937984
0.621513 0.932263 0.938298
0.624347 0.931962 0.938825
0.636082 0.930633 0.941155
0.686069 0.925048 0.951071
0.822545 0.908372 0.975739
0.987620 0.873618 0.999534
0.988277 0.841948 0.999568
0.993563 0.956729 0.999004
0.606699 0.942716 0.934029
0.608358 0.942545 0.934357
0.611108 0.942262 0.934900
0.623170 0.941025 0.937278
0.673869 0.935837 0.947129
0.814861 0.918809 0.973191
0.988727 0.884331 0.999619
0.988841 0.850875 0.999607
0.993782 0.960285 0.998831
0.539265 0.976657 0.919239
0.541394 0.976605 0.919604
0.544923 0.976519 0.920208
0.560426 0.976146 0.922861
0.616999 0.973158 0.933081
0.778407 0.957931 0.962452
0.990639 0.926869 0.999777
0.989813 0.886204 0.999747
0.994227 0.974191 0.998342
0.498272 0.983013 0.911292
0.499656 0.983055 0.911515
0.501953 0.983124 0.911885
0.512073 0.983428 0.913513
0.553646 0.984310 0.920898
0.691757 0.988160 0.943908
0.943706 0.997276 0.986626
0.994872 0.981438 0.998295
1.000000 1.000000 1.000000
0.638690 0.987018 0.934540
0.639240 0.987036 0.934630
0.640153 0.987066 0.934779
0.644117 0.987184 0.935426
0.660318 0.987463 0.938060
0.725008 0.989066 0.949115
0.893648 0.995546 0.977817
1.000000 1.000000 1.000000
1.000000 1.000000 1.000000
0.995775 0.999507 0.998248
0.995791 0.999509 0.998255
0.995818 0.999512 0.998266
0.995935 0.999526 0.998314
0.996468 0.999588 0.998535
0.998825 0.999863 0.999513
1.000000 1.000000 1.000000
1.000000 1.000000 1.000000
1.000000 1.000000 1.000000
0.866601 0.994689 0.973772
0.866847 0.994695 0.973807
0.867255 0.994705 0.973866
0.869068 0.994749 0.974125
0.877202 0.994946 0.975285
0.910466 0.996137 0.980902
1.000000 1.000000 1.000000
1.000000 1.000000 1.000000
1.000000 1.000000 1.000000
0.866584 0.994689 0.973769
0.866830 0.994695 0.973804
0.867238 0.994705 0.973862
0.869050 0.994749 0.974121
0.877183 0.994945 0.975279
0.910441 0.996136 0.980896
1.000000 1.000000 1.000000
1.000000 1.000000 1.000000
1.000000 1.000000 1.000000
0.866556 0.994688 0.973762
0.866801 0.994694 0.973797
0.867209 0.994704 0.973855
0.869021 0.994748 0.974114
0.877151 0.994944 0.975269
0.910399 0.996134 0.980886
1.000000 1.000000 1.000000
1.000000 1.000000 1.000000
1.000000 1.000000 1.000000
0.866429 0.994686 0.973734
0.866674 0.994692 0.973768
0.867082 0.994701 0.973826
0.868892 0.994745 0.974082
0.877011 0.994937 0.975225
0.910212 0.996127 0.980840
0.999990 0.999999 0.999996
1.000000 1.000000 1.000000
1.000000 1.000000 1.000000
0.865863 0.994672 0.973597
0.866106 0.994678 0.973630
0.866512 0.994687 0.973685
0.868310 0.994727 0.973929
0.876381 0.994908 0.975020
0.909380 0.996096 0.980643
0.999554 0.999947 0.999814
1.000000 1.000000 1.000000
1.000000 1.000000 1.000000
0.863401 0.994456 0.973063
0.863642 0.994463 0.973097
0.864043 0.994476 0.973153
0.865824 0.994529 0.973405
0.873820 0.994771 0.974534
0.906457 0.996057 0.980319
0.997813 0.999740 0.999090
1.000000 1.000000 1.000000
1.000000 1.000000 1.000000
0.856229 0.993736 0.971424
0.856463 0.993742 0.971460
0.856852 0.993752 0.971518
0.858559 0.993805 0.971788
0.865857 0.994181 0.973199
0.897074 0.995786 0.979206
0.986827 0.999917 0.995726
1.000000 1.000000 1.000000
1.000000 1.000000 1.000000
0.871851 0.994858 0.974982
0.872016 0.994868 0.975008
0.872290 0.994884 0.975051
0.873514 0.994913 0.975259
0.879052 0.994994 0.976214
0.903119 0.995343 0.980368
0.981118 0.999321 0.994885
1.000000 1.000000 1.000000
1.000000 1.000000 1.000000
1.000000 1.000000 1.000000
1.000000 1.000000 1.000000
1.000000 1.000000 1.000000
1.000000 1.000000 1.000000
1.000000 1.000000 1.000000
1.000000 1.000000 1.000000
1.000000 1.000000 1.000000
1.000000 1.000000 1.000000
1.000000 1.000000 1.000000
