output/ACEScct_display/ACEScct_to_CLASSIC-Neg._33grid.cube
TITLE "ACEScct_to_CLASSIC-Neg."
# Input: ACEScct (AP1 primaries, log encoding, D60)
# Output: BT.709 / Gamma 2.2 (display-referred)
# Use: Display/output transform in DaVinci Resolve ACES pipeline (replaces ODT)
# Source: FLog2C_to_CLASSIC-Neg._65grid_V.1.00.cube
# Generated from Fujifilm GFX ETERNA 55 F-Log2C LUT
LUT_3D_SIZE 9
0.000129 0.000120 0.000052
0.014159 0.001034 0.000027
0.120025 0.009538 0.000042
0.738878 0.067623 0.000045
0.946001 0.197808 0.198666
0.952645 0.345964 0.268688
0.956270 0.526757 0.231420
0.963018 0.784899 0.243020
0.957006 0.973173 0.310751
0.000077 0.008774 0.001109
0.007050 0.008078 0.000030
0.104816 0.009798 0.000025
0.598233 0.050496 0.000012
0.944972 0.176686 0.172796
0.953335 0.356927 0.266882
0.956315 0.531365 0.230207
0.963029 0.785778 0.242893
0.956971 0.973251 0.310606
0.001773 0.086736 0.019454
0.001153 0.070848 0.011421
0.059953 0.060251 0.001757
0.429465 0.083190 0.000655
0.943514 0.202304 0.133821
0.953253 0.375294 0.263723
0.956418 0.538872 0.228197
0.963047 0.787230 0.242686
0.956912 0.973380 0.310365
0.009054 0.300874 0.049566
0.007308 0.259401 0.041569
0.006747 0.230367 0.038382
0.232270 0.216676 0.004450
0.911668 0.315777 0.035684
0.954497 0.446527 0.251101
0.956258 0.570583 0.218411
0.963131 0.793549 0.241835
0.956643 0.973972 0.309130
0.023582 0.745110 0.125430
0.023103 0.732733 0.121340
0.022257 0.716303 0.119444
0.029289 0.670396 0.110244
0.811284 0.676030 0.003502
0.957546 0.662851 0.168960
0.958432 0.683864 0.189501
0.963771 0.819322 0.236503
0.955431 0.976705 0.303171
0.030267 0.945420 0.158066
0.030192 0.945345 0.157991
0.029840 0.944993 0.157639
0.029291 0.944444 0.157090
0.160183 0.938740 0.139827
0.950195 0.945307 0.035476
0.962516 0.877098 0.165835
0.965149 0.891170 0.212836
0.950696 0.986678 0.279390
0.029407 0.944560 0.157206
0.029408 0.944561 0.157207
0.029410 0.944563 0.157209
0.029418 0.944571 0.157217
0.029291 0.944444 0.157090
0.608809 0.977644 0.081410
0.937699 0.994115 0.074759
0.941998 0.988296 0.119583
0.944549 0.994210 0.222997
0.467741 0.965898 0.707388
0.469485 0.966002 0.706927
0.472382 0.966176 0.706160
0.485189 0.966945 0.702774
0.541702 0.970337 0.687858
0.738117 0.982379 0.633192
0.949830 0.994207 0.530313
0.951492 0.994837 0.357729
0.958656 0.993358 0.498321
0.983079 0.994227 0.873233
0.983076 0.994226 0.873205
0.983071 0.994224 0.873160
0.983049 0.994217 0.872958
0.982947 0.994184 0.872043
0.982447 0.994219 0.868164
0.980671 0.993583 0.852647
0.977283 0.993712 0.817520
0.979134 0.994199 0.835152
0.001135 0.000590 0.008141
0.019079 0.001751 0.003165
0.121043 0.009844 0.000252
0.728791 0.066675 0.000008
0.945258 0.188546 0.189098
0.953135 0.352148 0.266958
0.956613 0.534420 0.231651
0.963864 0.786979 0.265626
0.957517 0.972996 0.320636
0.000224 0.015228 0.015832
0.009655 0.011687 0.010245
0.098492 0.012209 0.000342
0.559849 0.048095 0.000018
0.944365 0.177548 0.162924
0.953689 0.363064 0.264884
0.956617 0.539313 0.231097
0.963874 0.787869 0.265512
0.957482 0.973073 0.320487
0.002941 0.096546 0.044569
0.002921 0.079537 0.029131
0.062250 0.068511 0.012724
0.406563 0.086229 0.000050
0.942189 0.204743 0.122378
0.953724 0.381999 0.262863
0.956630 0.547262 0.230291
0.963891 0.789344 0.265327
0.957423 0.973202 0.320240
0.010541 0.318542 0.089303
0.008502 0.276727 0.066550
0.007559 0.244849 0.052950
0.228083 0.224173 0.018303
0.905689 0.320782 0.037394
0.954783 0.455655 0.249208
0.957134 0.579428 0.228943
0.963957 0.795811 0.264573
0.957159 0.973803 0.318983
0.024710 0.763970 0.128072
0.024219 0.751515 0.125184
0.022363 0.735685 0.122913
0.026222 0.687817 0.114958
0.794501 0.688185 0.025345
0.959207 0.677797 0.221170
0.961228 0.691149 0.235316
0.964822 0.820575 0.259987
0.955994 0.976590 0.312964
0.030267 0.945420 0.158066
0.030267 0.945420 0.158066
0.030267 0.945420 0.158066
0.030267 0.945420 0.158066
0.136131 0.939226 0.140897
0.951661 0.947396 0.082363
0.964341 0.878207 0.207123
0.965954 0.891628 0.234184
0.950977 0.986540 0.289385
0.030092 0.945245 0.157891
0.030093 0.945246 0.157892
0.030095 0.945248 0.157894
0.030102 0.945255 0.157901
0.029291 0.944444 0.157090
0.599719 0.977455 0.082561
0.938421 0.994202 0.098740
0.942611 0.988414 0.136131
0.944801 0.994244 0.230977
0.470721 0.966166 0.715743
0.472451 0.966270 0.715290
0.475324 0.966442 0.714539
0.488027 0.967204 0.711218
0.544083 0.970565 0.696592
0.738895 0.982275 0.642347
0.950320 0.994078 0.539757
0.951883 0.994699 0.366090
0.959010 0.993393 0.503909
0.983185 0.994276 0.873966
0.983182 0.994275 0.873939
0.983177 0.994274 0.873893
0.983153 0.994267 0.873690
0.983047 0.994237 0.872770
0.982531 0.994260 0.868919
0.980753 0.993585 0.853585
0.977374 0.993720 0.818466
0.979216 0.994228 0.835891
0.008142 0.003239 0.050062
0.032441 0.004155 0.038626
0.129216 0.008253 0.018453
0.665077 0.056624 0.000002
0.944247 0.172101 0.173182
0.953549 0.362316 0.272828
0.957969 0.548003 0.279830
0.965640 0.789949 0.300160
0.957958 0.972718 0.337310
0.007090 0.032195 0.076869
0.017842 0.023227 0.057891
0.104992 0.020276 0.037567
0.517528 0.048942 0.003597
0.943371 0.178821 0.154692
0.954249 0.374812 0.274702
0.958147 0.552728 0.280560
0.965671 0.790805 0.300058
0.957917 0.972796 0.337167
0.006986 0.116675 0.124173
0.005255 0.094830 0.096741
0.071618 0.082509 0.068165
0.399012 0.096207 0.031217
0.940410 0.209324 0.131643
0.953543 0.396579 0.279673
0.958431 0.560379 0.281765
0.965722 0.792221 0.299891
0.957848 0.972926 0.336930
0.016166 0.358323 0.204811
0.013380 0.311463 0.170378
0.011571 0.273735 0.146582
0.236067 0.245251 0.093818
0.902266 0.331325 0.100631
0.957298 0.474741 0.299645
0.959545 0.592367 0.285530
0.965948 0.798401 0.299199
0.957556 0.973534 0.335695
0.029533 0.782734 0.255461
0.029073 0.772588 0.247747
0.027704 0.757281 0.235226
0.030846 0.712138 0.210862
0.790519 0.705149 0.127562
0.963496 0.692490 0.299364
0.962577 0.700419 0.293026
0.965959 0.822463 0.294625
0.956280 0.976323 0.329756
0.028951 0.946091 0.158066
0.029106 0.946011 0.158066
0.029574 0.945773 0.158066
0.030267 0.945420 0.158066
0.117267 0.939424 0.144135
0.955213 0.949095 0.163922
0.966351 0.879975 0.263887
0.967027 0.892087 0.265888
0.951426 0.986321 0.305325
0.030267 0.945420 0.158066
0.030267 0.945420 0.158066
0.030267 0.945420 0.158066
0.030267 0.945420 0.158066
0.030118 0.945271 0.157917
0.587527 0.977189 0.086303
0.940064 0.994178 0.133805
0.944247 0.988021 0.159998
0.945218 0.994299 0.243830
0.475529 0.966600 0.729219
0.477236 0.966702 0.728781
0.480071 0.966872 0.728054
0.492607 0.967622 0.724839
0.547925 0.970932 0.710681
0.740152 0.982106 0.657116
0.951111 0.993870 0.555005
0.952517 0.994476 0.379631
0.959588 0.993452 0.513023
0.983359 0.994358 0.875180
0.983356 0.994357 0.875152
0.983350 0.994356 0.875106
0.983325 0.994350 0.874901
0.983212 0.994326 0.873971
0.982672 0.994328 0.870168
0.980889 0.993587 0.855136
0.977524 0.993734 0.820031
0.979351 0.994276 0.837113
0.061608 0.037954 0.217857
0.076467 0.025605 0.173149
0.150239 0.020761 0.144195
0.561884 0.049608 0.104619
0.948932 0.174110 0.283344
0.959416 0.419567 0.412003
0.964902 0.583384 0.418281
0.970029 0.798055 0.409195
0.961594 0.973343 0.400858
0.059537 0.100019 0.283478
0.063316 0.077166 0.223060
0.130512 0.066148 0.186307
0.488834 0.085760 0.134183
0.946178 0.194343 0.272675
0.960300 0.432113 0.418463
0.964981 0.587760 0.419431
0.970024 0.798870 0.409149
0.961561 0.973439 0.400701
0.045437 0.170817 0.355932
0.038811 0.140848 0.289657
0.110454 0.127782 0.240750
0.417141 0.132845 0.176131
0.940389 0.229495 0.267098
0.961555 0.451681 0.427999
0.965105 0.594856 0.421294
0.970016 0.800218 0.409075
0.961507 0.973599 0.400439
0.030653 0.437795 0.520825
0.027482 0.392052 0.462329
0.032431 0.351444 0.408132
0.284965 0.305263 0.300377
0.902879 0.365130 0.283971
0.964770 0.525700 0.457347
0.966283 0.624409 0.429366
0.969992 0.806091 0.408768
0.961276 0.974176 0.399185
0.044773 0.809741 0.648253
0.044133 0.801678 0.631782
0.043376 0.789212 0.608803
0.058061 0.752971 0.542669
0.797672 0.740337 0.394968
0.970941 0.719836 0.487177
0.969354 0.721913 0.448721
0.970198 0.828435 0.407151
0.960263 0.976524 0.393577
0.044535 0.944003 0.511936
0.044403 0.943794 0.510094
0.044192 0.943464 0.507164
0.043065 0.943631 0.493086
0.112743 0.938019 0.454210
0.961257 0.952003 0.396307
0.973667 0.883414 0.434543
0.971296 0.894412 0.382426
0.956280 0.984929 0.369728
0.036764 0.944095 0.320528
0.036733 0.944109 0.320045
0.036682 0.944131 0.319246
0.036459 0.944228 0.315766
0.034695 0.944015 0.301704
0.561802 0.974560 0.247195
0.946967 0.993468 0.255355
0.948467 0.987946 0.251311
0.948287 0.994678 0.298545
0.497416 0.967525 0.778482
0.499021 0.967627 0.778075
0.501688 0.967796 0.777398
0.513480 0.968544 0.774406
0.565515 0.971848 0.761215
0.745779 0.982633 0.711608
0.952160 0.993239 0.611675
0.955414 0.994004 0.434435
0.962008 0.993880 0.550240
0.984117 0.994714 0.880455
0.984113 0.994714 0.880426
0.984105 0.994714 0.880378
0.984074 0.994714 0.880164
0.983930 0.994712 0.879195
0.983281 0.994621 0.875600
0.981480 0.993596 0.861882
0.978179 0.993858 0.826515
0.979941 0.994487 0.842446
0.196088 0.241290 0.730964
0.228100 0.226514 0.692062
0.287285 0.210555 0.647022
0.590147 0.203960 0.544507
0.946681 0.268151 0.555653
0.970669 0.518543 0.613058
0.975500 0.652721 0.636037
0.978866 0.812584 0.628661
0.972077 0.970448 0.586771
0.195161 0.287525 0.761048
0.223752 0.267281 0.723984
0.282280 0.248380 0.679816
0.574339 0.234464 0.574303
0.942905 0.289600 0.565521
0.970873 0.530396 0.619545
0.975505 0.656200 0.637581
0.978892 0.813246 0.628795
0.972044 0.970532 0.586628
0.190221 0.357126 0.800947
0.217600 0.334231 0.768040
0.271561 0.310399 0.725479
0.551377 0.282582 0.616905
0.935718 0.326654 0.582015
0.971240 0.548817 0.629639
0.975517 0.661852 0.640091
0.978934 0.814340 0.629018
0.971987 0.970675 0.586388
0.150522 0.578774 0.899420
0.173463 0.557665 0.876739
0.221660 0.532187 0.845130
0.467435 0.479644 0.746113
0.915780 0.471085 0.644713
0.974506 0.614690 0.667217
0.975949 0.684705 0.649593
0.979102 0.819058 0.629822
0.971737 0.971307 0.585326
0.059218 0.832385 0.993598
0.058803 0.827644 0.988974
0.058549 0.820388 0.980075
0.207265 0.803658 0.926803
0.838508 0.790649 0.782106
0.982044 0.764216 0.735582
0.979246 0.758106 0.678393
0.979654 0.838508 0.632228
0.970630 0.974122 0.580609
0.060372 0.941254 0.947765
0.060274 0.940961 0.946714
0.060126 0.940475 0.945003
0.059839 0.937592 0.936796
0.190664 0.935141 0.894416
0.964253 0.949740 0.749185
0.984078 0.887411 0.702796
0.980997 0.896706 0.624677
0.966389 0.984055 0.559239
0.053484 0.941484 0.758654
0.053462 0.941496 0.758588
0.053424 0.941515 0.758478
0.053264 0.941595 0.757986
0.057287 0.941590 0.751072
0.553198 0.971432 0.656410
0.963925 0.993046 0.567119
0.962646 0.986459 0.516405
0.958433 0.994704 0.482697
0.566124 0.971897 0.886893
0.567705 0.971990 0.886624
0.570333 0.972146 0.886177
0.581956 0.972832 0.884203
0.633343 0.975871 0.875487
0.771992 0.983980 0.841265
0.955690 0.993425 0.761970
0.964814 0.993578 0.609360
0.968274 0.992486 0.672219
0.985967 0.995204 0.902165
0.985963 0.995203 0.902140
0.985955 0.995202 0.902098
0.985920 0.995197 0.901910
0.985761 0.995176 0.901062
0.985631 0.995064 0.897993
0.984614 0.994872 0.884024
0.980729 0.994614 0.851108
0.981662 0.994372 0.865281
0.670520 0.695852 0.990442
0.688597 0.692096 0.986311
0.716085 0.686805 0.978982
0.807929 0.666552 0.952389
0.945814 0.624176 0.901982
0.981869 0.637362 0.823115
0.982233 0.721687 0.797669
0.986789 0.839356 0.820892
0.986998 0.967071 0.822604
0.663448 0.705117 0.992524
0.682162 0.701976 0.989154
0.710101 0.696778 0.981968
0.803691 0.677315 0.956101
0.944760 0.635614 0.905267
0.982033 0.643443 0.826029
0.982344 0.724187 0.798818
0.986809 0.839797 0.821064
0.986976 0.967145 0.822570
0.652004 0.719502 0.995946
0.671820 0.717260 0.993502
0.700821 0.712337 0.986628
0.797256 0.694542 0.961973
0.942545 0.653485 0.910231
0.982293 0.653198 0.830699
0.982525 0.728274 0.800698
0.986843 0.840529 0.821349
0.986940 0.967268 0.822515
0.600572 0.765602 0.999751
0.623619 0.764979 0.999314
0.656967 0.762858 0.998218
0.764677 0.751772 0.980343
0.931985 0.716224 0.927858
0.984431 0.693093 0.850860
0.983300 0.745385 0.808558
0.986991 0.843727 0.822595
0.986780 0.967813 0.822268
0.399982 0.851907 0.999381
0.420577 0.852492 0.999472
0.452721 0.853417 0.999623
0.590478 0.853904 0.999874
0.877953 0.844688 0.968765
0.988867 0.803536 0.903328
0.986636 0.801260 0.834991
0.987611 0.857246 0.827628
0.986065 0.970250 0.821187
0.071158 0.924544 0.999794
0.073120 0.924335 0.999843
0.076212 0.923995 0.999921
0.113868 0.923670 0.999709
0.435661 0.934953 0.999816
0.956810 0.940235 0.938442
0.991022 0.896969 0.878856
0.989170 0.901074 0.837461
0.982371 0.980050 0.815172
0.064405 0.942857 0.999787
0.064417 0.942852 0.999787
0.064436 0.942842 0.999787
0.064295 0.942742 0.999810
0.098151 0.944625 0.999011
0.609133 0.975118 0.934758
0.982406 0.993873 0.860107
0.982775 0.982862 0.818300
0.975605 0.993204 0.777151
0.590389 0.974410 0.995921
0.591876 0.974507 0.995860
0.594347 0.974669 0.995758
0.605275 0.975383 0.995311
0.652662 0.978472 0.992967
0.794115 0.987393 0.969696
0.958906 0.995409 0.927812
0.981180 0.994349 0.850562
0.981731 0.994003 0.860732
0.992803 0.997736 0.955383
0.992800 0.997736 0.955368
0.992796 0.997736 0.955343
0.992779 0.997737 0.955233
0.992700 0.997740 0.954735
0.992404 0.997489 0.952652
0.991156 0.996958 0.943695
0.987868 0.995606 0.919429
0.988082 0.995716 0.924583
0.795886 0.811535 0.993065
0.800194 0.811752 0.992534
0.807219 0.812106 0.991676
0.832512 0.813461 0.988866
0.898719 0.819128 0.980123
0.989496 0.818962 0.968649
0.989818 0.801369 0.928968
0.991051 0.856572 0.920620
0.994797 0.964498 0.954517
0.794296 0.812640 0.993419
0.798636 0.812846 0.992917
0.805712 0.813182 0.992106
0.831258 0.814532 0.989252
0.898024 0.820161 0.980416
0.989363 0.820185 0.968934
0.989870 0.802264 0.929234
0.991071 0.856929 0.920743
0.994796 0.964558 0.954528
0.791717 0.814452 0.994018
0.796108 0.814641 0.993563
0.803266 0.814949 0.992828
0.829235 0.816296 0.989877
0.896890 0.821864 0.980898
0.989152 0.822201 0.969404
0.989957 0.803741 0.929674
0.991105 0.857521 0.920947
0.994794 0.964659 0.954546
0.781174 0.822134 0.996830
0.785774 0.822250 0.996572
0.792959 0.822497 0.995976
0.821152 0.823875 0.992441
0.892180 0.829212 0.982984
0.987570 0.829989 0.970777
0.990334 0.810145 0.931583
0.991254 0.860121 0.921841
0.994786 0.965103 0.954627
0.732785 0.850460 0.999741
0.737901 0.850708 0.999752
0.746262 0.851110 0.999771
0.779375 0.852583 0.998902
0.869417 0.855859 0.991374
0.978504 0.858652 0.976027
0.991470 0.834786 0.940056
0.991583 0.871202 0.925875
0.994750 0.967095 0.954994
0.481076 0.915816 0.999639
0.489312 0.915926 0.999681
0.502818 0.916108 0.999749
0.559573 0.916827 0.999951
0.738098 0.919663 0.999900
0.939313 0.922128 0.992778
0.993911 0.901667 0.962327
0.993564 0.908648 0.939318
0.995874 0.976223 0.956519
0.158109 0.947718 0.999944
0.160870 0.947880 0.999948
0.165436 0.948150 0.999954
0.185322 0.949321 0.999984
0.270806 0.954776 0.999848
0.673197 0.979087 0.999947
0.990272 0.991918 0.990157
0.995593 0.978228 0.962932
0.992001 0.996961 0.953504
0.619898 0.975421 0.999584
0.621038 0.975491 0.999582
0.622933 0.975605 0.999578
0.631315 0.976113 0.999563
0.668438 0.978362 0.999494
0.797523 0.986311 0.999880
0.957853 0.996087 0.999438
0.996603 0.999194 0.990875
0.997386 0.999231 0.991051
0.999395 0.999849 0.999869
0.999411 0.999853 0.999873
0.999439 0.999860 0.999879
0.999560 0.999891 0.999905
1.000000 1.000000 1.000000
1.000000 1.000000 1.000000
1.000000 1.000000 1.000000
0.998926 0.999812 0.998251
0.999366 0.999889 0.998968
0.771694 0.960428 0.999728
0.774177 0.960458 0.999736
0.778294 0.960508 0.999751
0.790882 0.960436 0.999755
0.843118 0.960100 0.999739
0.936226 0.952560 0.997878
0.995096 0.929065 0.985457
0.995041 0.908994 0.981959
0.996246 0.977216 0.994231
0.770976 0.960570 0.999732
0.773473 0.960601 0.999741
0.777613 0.960653 0.999755
0.790151 0.960580 0.999756
0.842668 0.960267 0.999733
0.936066 0.952743 0.997930
0.995108 0.929265 0.985502
0.995045 0.909188 0.981982
0.996245 0.977274 0.994249
0.769795 0.960806 0.999739
0.772315 0.960839 0.999747
0.776493 0.960894 0.999761
0.788942 0.960820 0.999758
0.841927 0.960543 0.999722
0.935800 0.953047 0.998016
0.995128 0.929597 0.985577
0.995051 0.909510 0.982019
0.996244 0.977369 0.994279
0.764743 0.961862 0.999768
0.767363 0.961903 0.999776
0.770892 0.961927 0.999779
0.783710 0.961885 0.999762
0.838751 0.961772 0.999674
0.934639 0.954388 0.998402
0.995217 0.931066 0.985909
0.995077 0.910935 0.982185
0.996242 0.977790 0.994412
0.739777 0.966152 0.999829
0.741812 0.966168 0.999821
0.745186 0.966194 0.999807
0.760018 0.966314 0.999746
0.821316 0.966661 0.999551
0.928554 0.959985 0.999411
0.995627 0.937516 0.987368
0.995315 0.916588 0.983453
0.996235 0.979688 0.994999
0.576168 0.970934 0.999547
0.579650 0.971132 0.999535
0.585423 0.971461 0.999516
0.610778 0.972908 0.999433
0.702346 0.976900 0.999638
0.894967 0.979516 0.999740
0.996958 0.962567 0.992427
0.995906 0.938490 0.987496
0.996859 0.987678 0.996700
0.488868 0.967808 0.999720
0.491031 0.967948 0.999716
0.494622 0.968181 0.999710
0.510440 0.969208 0.999682
0.578494 0.973573 0.999746
0.788693 0.986016 0.999504
0.976389 0.997877 0.998973
0.997044 0.991058 0.995770
1.000000 1.000000 1.000000
0.716972 0.981791 0.999679
0.717856 0.981839 0.999679
0.719324 0.981920 0.999679
0.725493 0.982262 0.999678
0.747214 0.983518 0.999614
0.828227 0.988380 0.999489
0.953429 0.995964 0.999426
1.000000 1.000000 1.000000
1.000000 1.000000 1.000000
0.999146 0.999974 0.999965
0.999149 0.999974 0.999965
0.999155 0.999974 0.999966
0.999178 0.999975 0.999967
0.999286 0.999978 0.999971
0.999762 0.999992 0.999990
1.000000 1.000000 1.000000
1.000000 1.000000 1.000000
1.000000 1.000000 1.000000
0.939232 0.995461 0.999405
0.939364 0.995467 0.999409
0.939584 0.995477 0.999416
0.940560 0.995522 0.999446
0.944940 0.995722 0.999580
0.962038 0.996701 0.999935
1.000000 1.000000 1.000000
1.000000 1.000000 1.000000
1.000000 1.000000 1.000000
0.939223 0.995461 0.999404
0.939355 0.995467 0.999408
0.939575 0.995477 0.999415
0.940551 0.995522 0.999444
0.944931 0.995721 0.999579
0.962027 0.996698 0.999935
1.000000 1.000000 1.000000
1.000000 1.000000 1.000000
1.000000 1.000000 1.000000
0.939209 0.995461 0.999402
0.939341 0.995467 0.999406
0.939561 0.995477 0.999412
0.940537 0.995522 0.999442
0.944916 0.995719 0.999577
0.962008 0.996694 0.999935
1.000000 1.000000 1.000000
1.000000 1.000000 1.000000
1.000000 1.000000 1.000000
0.939147 0.995461 0.999391
0.939279 0.995467 0.999395
0.939498 0.995476 0.999402
0.940474 0.995519 0.999433
0.944851 0.995708 0.999571
0.961924 0.996674 0.999933
0.999997 1.000000 1.000000
1.000000 1.000000 1.000000
1.000000 1.000000 1.000000
0.938870 0.995454 0.999346
0.939002 0.995459 0.999350
0.939221 0.995467 0.999358
0.940194 0.995501 0.999392
0.944561 0.995653 0.999546
0.961558 0.996589 0.999923
0.999870 1.000000 1.000000
1.000000 1.000000 1.000000
1.000000 1.000000 1.000000
0.937163 0.995408 0.999449
0.937297 0.995414 0.999449
0.937521 0.995424 0.999450
0.938512 0.995470 0.999452
0.942967 0.995678 0.999459
0.959690 0.996755 0.999411
0.999361 1.000000 1.000000
1.000000 1.000000 1.000000
1.000000 1.000000 1.000000
0.933216 0.994691 0.999972
0.933356 0.994695 0.999972
0.933589 0.994701 0.999973
0.934598 0.994730 0.999970
0.938586 0.994923 0.999845
0.955648 0.995761 0.999327
0.994770 0.998729 0.998712
1.000000 1.000000 1.000000
1.000000 1.000000 1.000000
0.943112 0.995569 0.999502
0.943205 0.995577 0.999502
0.943361 0.995590 0.999503
0.943971 0.995650 0.999515
0.946631 0.995920 0.999576
0.958190 0.997093 0.999843
0.991373 0.997864 0.997923
1.000000 1.000000 1.000000
1.000000 1.000000 1.000000
1.000000 1.000000 1.000000
1.000000 1.000000 1.000000
1.000000 1.000000 1.000000
1.000000 1.000000 1.000000
1.000000 1.000000 1.000000
1.000000 1.000000 1.000000
1.000000 1.000000 1.000000
1.000000 1.000000 1.000000
1.000000 1.000000 1.000000
