output/ACEScct_display/ACEScct_to_CLASSIC-CHROME_33grid.cube
TITLE "ACEScct_to_CLASSIC-CHROME"
# Input: ACEScct (AP1 primaries, log encoding, D60)
# Output: BT.709 / Gamma 2.2 (display-referred)
# Use: Display/output transform in DaVinci Resolve ACES pipeline (replaces ODT)
# Source: FLog2C_to_CLASSIC-CHROME_65grid_V.1.00.cube
# Generated from Fujifilm GFX ETERNA 55 F-Log2C LUT
LUT_3D_SIZE 5
0.000178 0.000085 0.000052
0.131283 0.004079 0.005008
0.961029 0.283118 0.393029
0.953401 0.593075 0.349711
0.962642 0.952263 0.206052
0.000663 0.065849 0.000540
0.060442 0.040988 0.000062
0.962017 0.285884 0.321752
0.953222 0.602187 0.342633
0.962639 0.952550 0.205226
0.021457 0.754502 0.010337
0.019740 0.729510 0.009477
0.796668 0.678324 0.064852
0.951633 0.703761 0.254846
0.963224 0.956666 0.205658
0.070884 0.967219 0.036779
0.086570 0.967047 0.038490
0.343995 0.962817 0.071012
0.964568 0.973038 0.212368
0.964568 0.973038 0.212368
0.989568 0.992998 0.836844
0.989564 0.992994 0.836767
0.989511 0.992930 0.835584
0.987786 0.992195 0.814308
0.986906 0.991620 0.793780
0.000227 0.000378 0.042754
0.132602 0.001194 0.030031
0.963006 0.251203 0.375618
0.952940 0.606710 0.392471
0.963608 0.952520 0.225403
0.000107 0.090635 0.095107
0.053330 0.054439 0.052557
0.961070 0.280009 0.312310
0.952766 0.616185 0.391550
0.963617 0.952810 0.224550
0.023390 0.780050 0.014012
0.023071 0.757499 0.011447
0.769154 0.693304 0.077413
0.952124 0.714691 0.368053
0.963862 0.956939 0.221637
0.066460 0.966935 0.036122
0.081235 0.966772 0.037684
0.325354 0.963149 0.068222
0.964568 0.973038 0.212368
0.964568 0.973038 0.212368
0.989816 0.993069 0.839182
0.989813 0.993064 0.839107
0.989760 0.992994 0.837958
0.987900 0.992296 0.816826
0.987006 0.991613 0.796482
0.004009 0.138465 0.734868
0.103948 0.115692 0.681653
0.927991 0.259069 0.667245
0.954397 0.664868 0.679945
0.973371 0.957094 0.534118
0.005121 0.275484 0.769882
0.050099 0.235713 0.724384
0.899622 0.316068 0.673671
0.954787 0.671968 0.681593
0.973362 0.957335 0.533372
0.053100 0.807978 0.810965
0.049847 0.795552 0.796494
0.739144 0.740305 0.739556
0.958272 0.747309 0.698541
0.973219 0.960930 0.521931
0.093075 0.963623 0.405779
0.107359 0.963252 0.406902
0.320827 0.959685 0.419648
0.973599 0.980524 0.474382
0.969547 0.977750 0.359285
0.990750 0.993739 0.869564
0.990752 0.993739 0.869503
0.990790 0.993739 0.868570
0.990820 0.993419 0.849468
0.988411 0.992541 0.829235
0.373952 0.691388 0.959887
0.401135 0.692389 0.959868
0.665420 0.707492 0.956352
0.962966 0.755328 0.933478
0.985967 0.949139 0.941143
0.367855 0.696045 0.959724
0.395477 0.696926 0.959651
0.661845 0.711504 0.956386
0.963191 0.757990 0.933914
0.985999 0.949360 0.941192
0.284938 0.754361 0.957636
0.314148 0.754105 0.957295
0.607128 0.761393 0.956222
0.965323 0.792158 0.941241
0.986485 0.952712 0.941943
0.099927 0.957127 0.934477
0.099927 0.957100 0.934615
0.100121 0.956962 0.935319
0.976979 0.983855 0.980830
0.993865 0.995958 0.931762
0.998586 0.999785 0.999491
0.998688 0.999801 0.999528
1.000000 1.000000 1.000000
1.000000 1.000000 1.000000
0.999628 0.999948 0.997978
0.874384 0.985938 0.977826
0.875015 0.986007 0.977914
0.884623 0.987060 0.979253
1.000000 1.000000 1.000000
1.000000 1.000000 1.000000
0.874337 0.985938 0.977815
0.874968 0.986007 0.977903
0.884580 0.987059 0.979244
1.000000 1.000000 1.000000
1.000000 1.000000 1.000000
0.873641 0.985935 0.977651
0.874276 0.986003 0.977741
0.883942 0.987039 0.979101
0.999554 0.999947 0.999814
1.000000 1.000000 1.000000
0.863594 0.985345 0.976573
0.864254 0.985408 0.976658
0.873073 0.986406 0.978191
0.987248 0.997963 0.995847
1.000000 1.000000 1.000000
1.000000 1.000000 1.000000
1.000000 1.000000 1.000000
1.000000 1.000000 1.000000
1.000000 1.000000 1.000000
1.000000 1.000000 1.000000
