output/ACEScct_display/ACEScct_to_PROVIA_33grid.cube
TITLE "ACEScct_to_PROVIA"
# Input: ACEScct (AP1 primaries, log encoding, D60)
# Output: BT.709 / Gamma 2.2 (display-referred)
# Use: Display/output transform in DaVinci Resolve ACES pipeline (replaces ODT)
# Source: FLog2C_to_PROVIA_65grid_V.1.00.cube
# Generated from Fujifilm GFX ETERNA 55 F-Log2C LUT
LUT_3D_SIZE 33
0.000459 0.000290 0.000061
0.000459 0.000290 0.000061
0.000459 0.000290 0.000061
0.003493 0.000269 0.000114
0.025236 0.002451 0.000587
0.048019 0.003445 0.003623
0.077127 0.003443 0.008849
0.118118 0.005544 0.012268
0.184454 0.008350 0.017398
0.282940 0.008976 0.030796
0.410169 0.013536 0.047791
0.577641 0.016692 0.076317
0.768700 0.021994 0.126915
0.936335 0.037003 0.218762
0.999764 0.056580 0.317086
0.999939 0.089691 0.420610
0.999838 0.148769 0.453378
0.999797 0.220550 0.473399
0.999605 0.272059 0.467367
0.999988 0.301050 0.445616
0.999185 0.333236 0.416230
0.999764 0.370628 0.381969
0.999329 0.412067 0.342673
0.999671 0.463624 0.289540
0.999680 0.519622 0.223589
0.999647 0.581066 0.140992
0.999209 0.643475 0.072285
0.999607 0.704884 0.029025
0.999489 0.767242 0.006436
0.999239 0.824470 0.000000
0.999249 0.880387 0.000153
0.999423 0.923591 0.000030
0.999156 0.960334 0.008667
0.000459 0.000290 0.000061
0.000459 0.000290 0.000061
0.000459 0.000290 0.000061
0.006914 0.000522 0.000243
0.028223 0.002891 0.000568
0.051662 0.003306 0.004509
0.080374 0.003539 0.009270
0.121608 0.005842 0.012299
0.188499 0.008243 0.018184
0.286747 0.009023 0.031486
0.413557 0.013584 0.048337
0.580399 0.016718 0.076878
0.752264 0.021045 0.121000
0.900642 0.031374 0.191978
0.995397 0.050652 0.293135
0.999209 0.080704 0.405037
0.999727 0.138872 0.451121
0.999753 0.217017 0.466708
0.999684 0.277247 0.463221
0.999996 0.304980 0.443162
0.999211 0.336326 0.413502
0.999734 0.373325 0.379433
0.999339 0.414204 0.340689
0.999671 0.465085 0.287934
0.999692 0.520754 0.222156
0.999675 0.581854 0.139889
0.999217 0.644026 0.071665
0.999597 0.705271 0.028779
0.999491 0.767497 0.006327
0.999236 0.824584 0.000000
0.999248 0.880433 0.000150
0.999425 0.923613 0.000030
0.999156 0.960347 0.008672
0.000459 0.000290 0.000061
0.000459 0.000290 0.000061
0.000459 0.000290 0.000061
0.010228 0.000767 0.000368
0.031139 0.003319 0.000550
0.055230 0.003170 0.005378
0.083565 0.003634 0.009684
0.125200 0.006188 0.012247
0.192498 0.008136 0.018961
0.289917 0.008998 0.032101
0.404178 0.013105 0.046345
0.549460 0.016751 0.069801
0.710294 0.019306 0.108191
0.868674 0.029987 0.170198
0.985985 0.048072 0.269928
0.999133 0.074894 0.388653
0.999571 0.130123 0.448827
0.999710 0.213701 0.460451
0.999760 0.282176 0.459192
0.999901 0.308970 0.438864
0.999236 0.339348 0.410834
0.999705 0.375980 0.376937
0.999349 0.416314 0.338729
0.999671 0.466536 0.286337
0.999702 0.521880 0.220729
0.999702 0.582638 0.138791
0.999225 0.644575 0.071047
0.999587 0.705658 0.028530
0.999493 0.767751 0.006217
0.999233 0.824699 0.000000
0.999247 0.880480 0.000148
0.999427 0.923636 0.000031
0.999156 0.960361 0.008678
0.000017 0.003769 0.000048
0.000019 0.004632 0.000043
0.000020 0.005493 0.000039
0.008150 0.004275 0.000244
0.025953 0.005617 0.000425
0.049423 0.003986 0.002693
0.076375 0.003004 0.007747
0.112133 0.005701 0.010927
0.176795 0.006884 0.017850
0.261050 0.009741 0.028111
0.371532 0.012650 0.041201
0.513764 0.015775 0.063197
0.674484 0.019411 0.096983
0.839942 0.027203 0.157142
0.977843 0.043549 0.253518
0.999661 0.071871 0.370759
0.999400 0.126671 0.443689
0.999716 0.214403 0.453476
0.999780 0.286123 0.453911
0.999809 0.312837 0.434702
0.999260 0.342303 0.408224
0.999674 0.378531 0.374552
0.999361 0.418397 0.336791
0.999671 0.467976 0.284749
0.999713 0.523000 0.219307
0.999730 0.583419 0.137697
0.999233 0.645123 0.070432
0.999577 0.706045 0.028279
0.999495 0.768004 0.006107
0.999230 0.824813 0.000000
0.999245 0.880526 0.000145
0.999430 0.923659 0.000031
0.999156 0.960374 0.008683
0.000216 0.017370 0.000321
0.000236 0.017952 0.000354
0.000255 0.018530 0.000387
0.002007 0.014995 0.000281
0.017996 0.015258 0.000677
0.040563 0.013792 0.000166
0.062538 0.009544 0.000991
0.102033 0.009517 0.008269
0.155833 0.010414 0.011614
0.238413 0.010728 0.023147
0.345309 0.012497 0.039523
0.483615 0.013981 0.059858
0.644927 0.018936 0.089522
0.813879 0.024749 0.146723
0.963641 0.040723 0.238133
0.999684 0.068410 0.352998
0.999247 0.123655 0.438691
0.999730 0.215723 0.446691
0.999799 0.289932 0.448851
0.999720 0.316588 0.430669
0.999284 0.345196 0.405670
0.999637 0.380935 0.372328
0.999372 0.420454 0.334874
0.999672 0.469407 0.283171
0.999722 0.524113 0.217889
0.999758 0.584197 0.136609
0.999242 0.645671 0.069818
0.999568 0.706431 0.028027
0.999497 0.768258 0.005995
0.999227 0.824927 0.000000
0.999244 0.880573 0.000143
0.999432 0.923682 0.000031
0.999155 0.960388 0.008689
0.000352 0.029344 0.000195
0.000352 0.029979 0.000167
0.000352 0.030609 0.000138
0.000838 0.028784 0.000111
0.009211 0.026108 0.000413
0.028744 0.023491 0.000527
0.052365 0.022117 0.000295
0.086492 0.021082 0.000685
0.141784 0.018536 0.007561
0.220069 0.017929 0.016450
0.324204 0.017793 0.032898
0.458064 0.015286 0.053630
0.619586 0.020326 0.081764
0.790644 0.025305 0.134822
0.945271 0.039447 0.223224
0.999649 0.067598 0.335555
0.999423 0.130401 0.424976
0.999735 0.217058 0.440075
0.999818 0.293615 0.443994
0.999634 0.320230 0.426756
0.999307 0.348029 0.403169
0.999602 0.383303 0.370138
0.999384 0.422486 0.332979
0.999661 0.470888 0.281470
0.999731 0.525220 0.216477
0.999761 0.584994 0.135375
0.999250 0.646216 0.069206
0.999558 0.706816 0.027772
0.999499 0.768510 0.005883
0.999224 0.825042 0.000000
0.999242 0.880619 0.000140
0.999434 0.923705 0.000031
0.999155 0.960402 0.008694
0.001232 0.046768 0.000622
0.001282 0.047519 0.000658
0.001264 0.047740 0.000683
0.000138 0.041242 0.000010
0.004766 0.038466 0.000031
0.018030 0.036326 0.000014
0.039834 0.034469 0.000252
0.073917 0.033712 0.000385
0.123604 0.032293 0.000219
0.201352 0.030289 0.006227
0.302566 0.029196 0.019349
0.433096 0.028743 0.037941
0.592569 0.027592 0.069097
0.768087 0.032457 0.115749
0.927271 0.048083 0.199465
0.999393 0.077559 0.310691
0.999624 0.138139 0.409398
0.999623 0.219602 0.430179
0.999786 0.298072 0.438577
0.999560 0.324681 0.422180
0.999402 0.351771 0.399670
0.999558 0.386171 0.367487
0.999400 0.424952 0.330674
0.999639 0.472740 0.279295
0.999741 0.526575 0.214744
0.999754 0.585984 0.133788
0.999261 0.646887 0.068455
0.999547 0.707290 0.027456
0.999501 0.768821 0.005743
0.999220 0.825183 0.000000
0.999241 0.880676 0.000137
0.999437 0.923733 0.000031
0.999155 0.960418 0.008701
0.001930 0.068745 0.000106
0.001914 0.069461 0.000126
0.001389 0.067813 0.000168
0.001160 0.061895 0.000249
0.001254 0.058082 0.000120
0.007515 0.056525 0.000246
0.024831 0.054363 0.000245
0.058612 0.051014 0.000499
0.104177 0.049985 0.000313
0.178431 0.047981 0.000541
0.277852 0.046576 0.004017
0.402931 0.044750 0.021463
0.561547 0.044924 0.049233
0.738801 0.050575 0.093355
0.903238 0.063610 0.169781
0.999618 0.093034 0.277589
0.999701 0.148589 0.387606
0.999474 0.223050 0.416700
0.999654 0.304423 0.431629
0.999580 0.331416 0.416133
0.999556 0.357167 0.394574
0.999496 0.390273 0.363696
0.999424 0.428491 0.327361
0.999606 0.475414 0.276161
0.999755 0.528539 0.212225
0.999745 0.587423 0.131482
0.999277 0.647863 0.067364
0.999531 0.707980 0.026989
0.999505 0.769275 0.005537
0.999214 0.825389 0.000000
0.999238 0.880759 0.000132
0.999441 0.923773 0.000031
0.999154 0.960443 0.008711
0.002199 0.103921 0.000185
0.002224 0.104617 0.000170
0.001919 0.096946 0.000734
0.001651 0.091166 0.000041
0.001906 0.085530 0.000671
0.000704 0.082690 0.000082
0.008772 0.078174 0.000276
0.037580 0.074951 0.000281
0.082905 0.073062 0.000002
0.153083 0.070896 0.000452
0.245718 0.070579 0.000362
0.368496 0.067930 0.003486
0.525049 0.069397 0.021240
0.702106 0.073045 0.059954
0.871850 0.086463 0.127592
0.999819 0.115547 0.233311
0.999846 0.166436 0.354101
0.999813 0.232281 0.396271
0.999486 0.312827 0.420243
0.999607 0.340721 0.407777
0.999772 0.364715 0.387444
0.999408 0.396085 0.358326
0.999461 0.433525 0.322633
0.999556 0.479254 0.271673
0.999771 0.531374 0.208570
0.999733 0.589513 0.128137
0.999299 0.649278 0.065795
0.999509 0.708986 0.026296
0.999510 0.769935 0.005230
0.999206 0.825691 0.000000
0.999234 0.880881 0.000125
0.999447 0.923833 0.000032
0.999154 0.960478 0.008726
0.002105 0.154722 0.000114
0.001963 0.151855 0.000137
0.002040 0.141256 0.000152
0.001260 0.131463 0.000048
0.001287 0.123937 0.000011
0.001538 0.118466 0.000168
0.001699 0.114366 0.000522
0.014211 0.111046 0.000583
0.058384 0.106283 0.000092
0.119621 0.103132 0.000488
0.213350 0.101308 0.000203
0.335083 0.100361 0.000060
0.483524 0.100003 0.001840
0.660337 0.104493 0.021518
0.836343 0.116862 0.080996
0.984741 0.145677 0.175204
0.999643 0.192176 0.301699
0.999826 0.247861 0.368750
0.999301 0.322940 0.397488
0.999766 0.354219 0.395972
0.999863 0.375763 0.377366
0.999257 0.404438 0.350319
0.999493 0.440631 0.314666
0.999477 0.484725 0.265305
0.999788 0.535448 0.203284
0.999720 0.592538 0.123306
0.999329 0.651326 0.063544
0.999478 0.710450 0.025260
0.999518 0.770897 0.004771
0.999194 0.826133 0.000000
0.999229 0.881059 0.000115
0.999455 0.923920 0.000032
0.999153 0.960531 0.008747
0.000572 0.230127 0.000084
0.001328 0.213819 0.000099
0.001595 0.200969 0.000051
0.000944 0.190806 0.000182
0.000826 0.182348 0.000321
0.002168 0.174689 0.000226
0.001861 0.168372 0.000415
0.001567 0.162077 0.000133
0.023262 0.155184 0.000161
0.084205 0.150730 0.000293
0.174719 0.144897 0.000438
0.296108 0.143028 0.000000
0.439006 0.143536 0.000299
0.612459 0.148392 0.000016
0.791531 0.161436 0.022742
0.954834 0.187196 0.102616
0.999615 0.227575 0.228462
0.999887 0.275755 0.330798
0.999266 0.335195 0.367613
0.999928 0.372688 0.380421
0.999571 0.392002 0.363227
0.998988 0.416405 0.338229
0.999477 0.450568 0.303661
0.999360 0.492463 0.256304
0.999792 0.541289 0.195600
0.999710 0.596898 0.116361
0.999367 0.654287 0.060312
0.999438 0.712574 0.023698
0.999529 0.772292 0.004076
0.999176 0.826781 0.000000
0.999220 0.881319 0.000101
0.999467 0.924047 0.000033
0.999151 0.960607 0.008779
0.000261 0.307290 0.000089
0.000026 0.292007 0.000114
0.000148 0.278827 0.000107
0.000378 0.268001 0.000068
0.000580 0.259499 0.000001
0.000457 0.250021 0.000012
0.000303 0.242674 0.000013
0.000134 0.236132 0.000036
0.002595 0.226682 0.000324
0.043784 0.217430 0.000076
0.128197 0.209403 0.000087
0.245778 0.207666 0.000364
0.391067 0.204589 0.000102
0.561065 0.206705 0.000224
0.745248 0.217010 0.000184
0.916948 0.240543 0.021236
0.999013 0.272823 0.139794
0.999706 0.314128 0.276923
0.999476 0.357232 0.327046
0.999769 0.397187 0.358875
0.999789 0.412617 0.342814
0.998948 0.433200 0.320789
0.999380 0.464316 0.288603
0.999316 0.503344 0.243407
0.999637 0.550294 0.183015
0.999713 0.603145 0.106450
0.999410 0.658545 0.055706
0.999389 0.715649 0.021312
0.999546 0.774313 0.003012
0.999149 0.827732 0.000000
0.999207 0.881697 0.000079
0.999485 0.924233 0.000033
0.999142 0.960788 0.008849
0.000220 0.396836 0.000020
0.000506 0.383147 0.000010
0.000074 0.370858 0.000051
0.000011 0.359419 0.000047
0.000014 0.349946 0.000042
0.000037 0.343746 0.000021
0.000037 0.336478 0.000046
0.000020 0.327031 0.000124
0.000022 0.316898 0.000047
0.007466 0.304598 0.000025
0.070584 0.294303 0.000060
0.188246 0.287838 0.000530
0.337739 0.282659 0.000093
0.508055 0.281723 0.000245
0.690687 0.288383 0.000462
0.867396 0.304312 0.000042
0.994486 0.331177 0.034814
0.999860 0.363198 0.187906
0.998945 0.390700 0.266918
0.999629 0.428855 0.318567
0.999517 0.440764 0.312602
0.999485 0.456798 0.295221
0.999499 0.483247 0.266116
0.999596 0.518310 0.224863
0.999439 0.562818 0.165621
0.999715 0.611998 0.092941
0.999403 0.664797 0.048866
0.999335 0.720081 0.017614
0.999571 0.777226 0.001353
0.999108 0.829130 0.000000
0.999186 0.882248 0.000047
0.999510 0.924502 0.000035
0.999123 0.961092 0.008964
0.000019 0.500372 0.000221
0.000016 0.488443 0.000456
0.000008 0.477834 0.000439
0.000000 0.468144 0.000394
0.000002 0.460078 0.000333
0.000004 0.452564 0.000274
0.000013 0.445303 0.000164
0.000088 0.435601 0.000187
0.000369 0.422680 0.000789
0.000074 0.411065 0.000181
0.015194 0.399538 0.000400
0.112015 0.387485 0.000267
0.272523 0.377664 0.000238
0.446889 0.373438 0.000055
0.634036 0.374436 0.000004
0.819201 0.384987 0.000090
0.973898 0.403571 0.000065
0.999275 0.429928 0.060871
0.999330 0.444549 0.183234
0.999084 0.468919 0.258072
0.999613 0.476627 0.273351
0.999618 0.488783 0.259125
0.999329 0.509847 0.235211
0.999584 0.538911 0.198459
0.999298 0.579513 0.141459
0.999667 0.624238 0.076385
0.999369 0.673814 0.038987
0.999296 0.726429 0.011774
0.999531 0.781348 0.000047
0.999047 0.831191 0.000000
0.999153 0.883050 0.000000
0.999546 0.924893 0.000036
0.999097 0.961529 0.009128
0.000036 0.613017 0.000041
0.000078 0.603493 0.000063
0.000080 0.595479 0.000280
0.000066 0.588385 0.000580
0.000095 0.581768 0.000829
0.000280 0.575764 0.000942
0.000498 0.568803 0.001080
0.000330 0.560037 0.000786
0.000023 0.549195 0.000488
0.000017 0.536980 0.000938
0.000300 0.522381 0.000619
0.021752 0.508142 0.000249
0.182565 0.493747 0.000641
0.373026 0.483137 0.000245
0.572701 0.477255 0.000279
0.762964 0.480780 0.000246
0.924336 0.491352 0.000191
0.999451 0.506529 0.001684
0.999491 0.517835 0.064957
0.999247 0.522815 0.164642
0.999531 0.524045 0.217855
0.999454 0.529306 0.211517
0.999157 0.544674 0.192136
0.998818 0.567720 0.158598
0.999506 0.601192 0.107197
0.999570 0.640921 0.055509
0.999378 0.686431 0.025429
0.999319 0.735447 0.002362
0.999350 0.787286 0.000031
0.998952 0.834239 0.000000
0.999155 0.884112 0.000033
0.999596 0.925458 0.000037
0.999062 0.962150 0.009358
0.000004 0.727269 0.000366
0.000000 0.721576 0.000260
0.000002 0.716253 0.000341
0.000005 0.711189 0.000442
0.000007 0.706349 0.000537
0.000007 0.701783 0.000486
0.000004 0.696480 0.000303
0.000000 0.689178 0.000053
0.000000 0.680653 0.000088
0.000000 0.669724 0.000246
0.000054 0.656313 0.000405
0.000044 0.641613 0.000189
0.064038 0.625426 0.000359
0.273345 0.609615 0.000227
0.492620 0.596022 0.000355
0.696693 0.587674 0.000012
0.870114 0.588942 0.000315
0.989209 0.595298 0.000144
0.999128 0.606748 0.000185
0.999552 0.593451 0.037224
0.999415 0.578967 0.139748
0.999590 0.579843 0.141959
0.999593 0.589891 0.127917
0.999249 0.605427 0.100073
0.999344 0.631156 0.057699
0.999278 0.663454 0.031550
0.999415 0.703573 0.014014
0.999223 0.748150 0.000020
0.999069 0.796037 0.000009
0.998805 0.838769 0.000000
0.999167 0.885653 0.000085
0.999665 0.926273 0.000037
0.999014 0.963023 0.009674
0.000066 0.836273 0.000358
0.000052 0.833089 0.000336
0.000044 0.830190 0.000295
0.000036 0.827392 0.000254
0.000028 0.824687 0.000213
0.000021 0.821768 0.000186
0.000015 0.817744 0.000179
0.000007 0.812125 0.000171
0.000010 0.804943 0.000158
0.000046 0.796643 0.000121
0.000017 0.785798 0.000090
0.000000 0.773328 0.000197
0.001908 0.758942 0.000251
0.124948 0.740700 0.000586
0.384706 0.719907 0.000058
0.613353 0.703534 0.000202
0.805773 0.684507 0.000329
0.958312 0.672324 0.000382
0.999424 0.678069 0.000245
0.999753 0.679148 0.000191
0.999186 0.653739 0.011805
0.999345 0.641863 0.036883
0.999282 0.642995 0.035847
0.999460 0.651644 0.025232
0.999597 0.668829 0.012861
0.998874 0.692993 0.005659
0.999374 0.726163 0.002368
0.998947 0.765169 0.000040
0.998712 0.808298 0.000081
0.998685 0.844483 0.000000
0.999205 0.887881 0.000171
0.999756 0.927439 0.000034
0.998954 0.964223 0.010094
0.000026 0.930722 0.000314
0.000028 0.928665 0.000425
0.000030 0.926660 0.000534
0.000033 0.924706 0.000639
0.000034 0.922791 0.000717
0.000032 0.920860 0.000622
0.000030 0.918545 0.000509
0.000025 0.915277 0.000351
0.000018 0.910730 0.000137
0.000020 0.904728 0.000265
0.000024 0.896865 0.000365
0.000040 0.887278 0.000182
0.000110 0.875094 0.000613
0.021521 0.861027 0.000284
0.213518 0.840123 0.000116
0.496916 0.808293 0.000103
0.722443 0.778691 0.000062
0.895694 0.758218 0.000317
0.999540 0.747178 0.000317
0.999417 0.743053 0.000052
0.999147 0.733663 0.000116
0.998827 0.711136 0.000195
0.999492 0.705851 0.000008
0.999338 0.706572 0.000048
0.998626 0.715830 0.000037
0.999290 0.731667 0.000053
0.998750 0.756489 0.000272
0.998738 0.785979 0.000111
0.998941 0.819017 0.000043
0.998864 0.849968 0.000000
0.999302 0.891087 0.000315
0.999870 0.929092 0.000024
0.998886 0.965821 0.010619
0.000000 0.997401 0.000352
0.000000 0.997286 0.000363
0.000000 0.997169 0.000362
0.000000 0.997051 0.000348
0.000000 0.996938 0.000335
0.000000 0.996830 0.000322
0.000000 0.996703 0.000307
0.000000 0.996529 0.000286
0.000000 0.996301 0.000257
0.000043 0.993096 0.000357
0.000105 0.988709 0.000499
0.000059 0.982284 0.000293
0.000006 0.974691 0.000187
0.000007 0.964145 0.000313
0.004108 0.951978 0.000606
0.307059 0.911205 0.000059
0.599961 0.872996 0.000353
0.813206 0.844427 0.000463
0.968173 0.825159 0.000201
0.999254 0.815110 0.000245
0.999165 0.789682 0.000254
0.999543 0.775527 0.000374
0.999215 0.768323 0.000129
0.999273 0.765978 0.000154
0.999107 0.766701 0.000233
0.999269 0.774246 0.000192
0.999168 0.790274 0.000113
0.999100 0.808977 0.000135
0.999306 0.833003 0.000050
0.999275 0.857762 0.000000
0.999434 0.895618 0.000480
0.999808 0.931796 0.000015
0.998827 0.967839 0.011206
0.000000 1.000000 0.000285
0.000000 1.000000 0.000285
0.000000 1.000000 0.000285
0.000000 1.000000 0.000285
0.000000 1.000000 0.000285
0.000000 1.000000 0.000285
0.000000 1.000000 0.000285
0.000000 1.000000 0.000285
0.000000 1.000000 0.000285
0.000000 1.000000 0.000285
0.000000 1.000000 0.000285
0.000000 1.000000 0.000285
0.000000 1.000000 0.000285
0.000000 1.000000 0.000285
0.000000 1.000000 0.000285
0.066081 0.992798 0.000175
0.402184 0.966570 0.000088
0.697572 0.929175 0.000030
0.894132 0.902317 0.000143
0.999327 0.879955 0.000040
0.999322 0.854047 0.000311
0.999497 0.822214 0.000049
0.999232 0.811356 0.000025
0.999322 0.806816 0.000222
0.999301 0.805886 0.000128
0.999125 0.808254 0.000242
0.999366 0.817016 0.000114
0.999700 0.830057 0.000042
0.999386 0.847137 0.000005
0.998875 0.867044 0.000004
0.999344 0.900998 0.000200
0.999758 0.935300 0.000006
0.998823 0.970144 0.011701
0.000000 1.000000 0.000285
0.000000 1.000000 0.000285
0.000000 1.000000 0.000285
0.000000 1.000000 0.000285
0.000000 1.000000 0.000285
0.000000 1.000000 0.000285
0.000000 1.000000 0.000285
0.000000 1.000000 0.000285
0.000000 1.000000 0.000285
0.000000 1.000000 0.000285
0.000000 1.000000 0.000285
0.000000 1.000000 0.000285
0.000000 1.000000 0.000285
0.000000 1.000000 0.000285
0.000000 1.000000 0.000285
0.000000 1.000000 0.000285
0.069784 0.999929 0.000066
0.488479 0.998717 0.000326
0.769997 0.971939 0.000091
0.944457 0.941596 0.000079
0.999439 0.913545 0.000112
0.999404 0.883141 0.000033
0.999109 0.852881 0.000020
0.999701 0.843358 0.000341
0.999080 0.840374 0.000060
0.998836 0.840909 0.000064
0.999364 0.843235 0.000006
0.999367 0.851201 0.000211
0.999213 0.862660 0.000163
0.998941 0.878139 0.000000
0.999336 0.908818 0.000027
0.999732 0.940538 0.000452
0.997622 0.973625 0.012973
0.000000 1.000000 0.000285
0.000000 1.000000 0.000285
0.000000 1.000000 0.000285
0.000000 1.000000 0.000285
0.000000 1.000000 0.000285
0.000000 1.000000 0.000285
0.000000 1.000000 0.000285
0.000000 1.000000 0.000285
0.000000 1.000000 0.000285
0.000000 1.000000 0.000285
0.000000 1.000000 0.000285
0.000000 1.000000 0.000285
0.000000 1.000000 0.000285
0.000000 1.000000 0.000285
0.000000 1.000000 0.000285
0.000000 1.000000 0.000285
0.008327 0.999997 0.000266
0.192502 0.999944 0.000443
0.568115 0.999819 0.000288
0.821543 0.994420 0.000050
0.975455 0.968637 0.000999
0.999442 0.939731 0.000084
0.999101 0.905680 0.000013
0.998756 0.888564 0.000001
0.999292 0.880454 0.000073
0.999072 0.875113 0.000037
0.998941 0.873196 0.000024
0.999291 0.874751 0.000000
0.999284 0.881676 0.000213
0.998950 0.893137 0.000000
0.998845 0.917162 0.000109
0.999499 0.950213 0.002896
0.994755 0.978058 0.014942
0.000000 1.000000 0.000285
0.000000 1.000000 0.000285
0.000000 1.000000 0.000285
0.000000 1.000000 0.000285
0.000000 1.000000 0.000285
0.000000 1.000000 0.000285
0.000000 1.000000 0.000285
0.000000 1.000000 0.000285
0.000000 1.000000 0.000285
0.000000 1.000000 0.000285
0.000000 1.000000 0.000285
0.000000 1.000000 0.000285
0.000000 1.000000 0.000285
0.000000 1.000000 0.000285
0.000000 1.000000 0.000285
0.000000 1.000000 0.000285
0.000000 1.000000 0.000285
0.019445 0.999981 0.000389
0.333065 0.999658 0.000063
0.662362 0.999665 0.000076
0.869625 0.996155 0.000087
0.981779 0.982396 0.013078
0.998317 0.959845 0.005905
0.999058 0.933241 0.000150
0.999369 0.925080 0.000519
0.999228 0.917249 0.000000
0.998963 0.911365 0.000140
0.999533 0.908466 0.000052
0.999377 0.909594 0.000001
0.998871 0.915042 0.000119
0.999112 0.938463 0.000873
0.998068 0.965859 0.009206
0.990325 0.982046 0.016090
0.000000 1.000000 0.000285
0.000000 1.000000 0.000285
0.000000 1.000000 0.000285
0.000000 1.000000 0.000285
0.000000 1.000000 0.000285
0.000000 1.000000 0.000285
0.000000 1.000000 0.000285
0.000000 1.000000 0.000285
0.000000 1.000000 0.000285
0.000000 1.000000 0.000285
0.000000 1.000000 0.000285
0.000000 1.000000 0.000285
0.000000 1.000000 0.000285
0.000000 1.000000 0.000285
0.000000 1.000000 0.000285
0.000000 1.000000 0.000285
0.000000 1.000000 0.000285
0.004441 0.999995 0.000305
0.105998 0.999936 0.000401
0.446882 0.999591 0.000412
0.730456 0.999693 0.000016
0.908602 0.993218 0.002824
0.982879 0.985706 0.016001
0.992691 0.977139 0.013637
0.997874 0.967641 0.010236
0.998541 0.960217 0.005250
0.999190 0.952163 0.004000
0.999147 0.947325 0.001555
0.999301 0.944654 0.000019
0.998870 0.945709 0.002620
0.998297 0.963606 0.008246
0.994009 0.978406 0.014921
0.985531 0.985390 0.016687
0.000000 1.000000 0.000285
0.000000 1.000000 0.000285
0.000000 1.000000 0.000285
0.000000 1.000000 0.000285
0.000000 1.000000 0.000285
0.000000 1.000000 0.000285
0.000000 1.000000 0.000285
0.000000 1.000000 0.000285
0.000000 1.000000 0.000285
0.000000 1.000000 0.000285
0.000000 1.000000 0.000285
0.000000 1.000000 0.000285
0.000000 1.000000 0.000285
0.000000 1.000000 0.000285
0.000000 1.000000 0.000285
0.000000 1.000000 0.000285
0.000000 1.000000 0.000285
0.000000 1.000000 0.000285
0.011159 0.999973 0.000374
0.225685 0.999636 0.000112
0.547540 0.999462 0.000375
0.789243 0.999817 0.000047
0.939972 0.989919 0.005190
0.982065 0.985606 0.015660
0.984022 0.984763 0.015762
0.986837 0.984229 0.016359
0.989638 0.980852 0.015066
0.991737 0.978733 0.014371
0.993550 0.975764 0.013276
0.994834 0.975017 0.012954
0.991953 0.980886 0.015870
0.985690 0.985309 0.016687
0.984532 0.985899 0.016687
0.000000 1.000000 0.000285
0.000000 1.000000 0.000285
0.000000 1.000000 0.000285
0.000000 1.000000 0.000285
0.000000 1.000000 0.000285
0.000000 1.000000 0.000285
0.000000 1.000000 0.000285
0.000000 1.000000 0.000285
0.000000 1.000000 0.000285
0.000000 1.000000 0.000285
0.000000 1.000000 0.000285
0.000000 1.000000 0.000285
0.000000 1.000000 0.000285
0.000000 1.000000 0.000285
0.000000 1.000000 0.000285
0.000000 1.000000 0.000285
0.000000 1.000000 0.000285
0.000000 1.000000 0.000285
0.002506 0.999998 0.000281
0.079915 0.999995 0.000259
0.364052 0.999898 0.000103
0.637603 0.999944 0.000754
0.839042 0.996997 0.000145
0.961183 0.987928 0.010444
0.982185 0.985620 0.015710
0.982185 0.985620 0.015710
0.982185 0.985620 0.015710
0.982707 0.985682 0.015927
0.982707 0.985628 0.015891
0.984501 0.985374 0.016329
0.984562 0.985884 0.016687
0.984532 0.985899 0.016687
0.984621 0.985854 0.016687
0.000000 1.000000 0.000285
0.000000 1.000000 0.000285
0.000000 1.000000 0.000285
0.000000 1.000000 0.000285
0.000000 1.000000 0.000285
0.000000 1.000000 0.000285
0.000000 1.000000 0.000285
0.000000 1.000000 0.000285
0.000000 1.000000 0.000285
0.000000 1.000000 0.000285
0.000000 1.000000 0.000285
0.000000 1.000000 0.000285
0.000000 1.000000 0.000285
0.000000 1.000000 0.000285
0.000000 1.000000 0.000285
0.000000 1.000000 0.000285
0.003167 0.999985 0.000296
0.008512 0.999958 0.000315
0.055136 0.999846 0.000285
