output/ACEScct_display/ACEScct_to_ETERNA-BB_33grid.cube
TITLE "ACEScct_to_ETERNA-BB"
# Input: ACEScct (AP1 primaries, log encoding, D60)
# Output: BT.709 / Gamma 2.2 (display-referred)
# Use: Display/output transform in DaVinci Resolve ACES pipeline (replaces ODT)
# Source: FLog2C_to_ETERNA-BB_65grid_V.1.00.cube
# Generated from Fujifilm GFX ETERNA 55 F-Log2C LUT
LUT_3D_SIZE 9
0.000282 0.000191 0.000111
0.018891 0.003068 0.001698
0.098017 0.017927 0.021492
0.452475 0.072757 0.107631
0.696713 0.270849 0.292297
0.795732 0.457275 0.403711
0.877756 0.637679 0.437090
0.928668 0.834428 0.455518
0.945614 0.959008 0.467683
0.002437 0.015783 0.003208
0.018167 0.016367 0.005814
0.088259 0.018115 0.018150
0.375290 0.062014 0.086931
0.683801 0.246628 0.270273
0.802361 0.470262 0.406543
0.878890 0.641542 0.437471
0.928801 0.835060 0.455421
0.945622 0.959057 0.467590
0.016477 0.083875 0.025850
0.015331 0.073404 0.017517
0.075702 0.073032 0.028619
0.306085 0.086763 0.063799
0.689447 0.270446 0.264780
0.812712 0.491332 0.413126
0.880704 0.647824 0.438086
0.929024 0.836107 0.455262
0.945635 0.959138 0.467435
0.056901 0.280812 0.067451
0.048072 0.237798 0.056379
0.082972 0.215425 0.059589
0.236874 0.209014 0.079471
0.700048 0.377986 0.252407
0.847001 0.565657 0.430701
0.889463 0.674583 0.438175
0.930022 0.840678 0.454589
0.945663 0.959487 0.466639
0.203497 0.677197 0.222724
0.201735 0.666111 0.219293
0.233241 0.658959 0.225423
0.347665 0.646212 0.250708
0.767141 0.723453 0.372170
0.902879 0.749318 0.415046
0.910035 0.761909 0.429139
0.932387 0.859081 0.450057
0.945667 0.961016 0.463003
0.322526 0.848535 0.292792
0.331689 0.851171 0.294731
0.347546 0.855121 0.298341
0.422637 0.874456 0.316374
0.715458 0.930663 0.373408
0.939983 0.940971 0.416625
0.936799 0.898574 0.413773
0.938637 0.907643 0.417730
0.944708 0.966823 0.449301
0.476137 0.887815 0.327383
0.479181 0.888543 0.328040
0.484197 0.889743 0.329122
0.505802 0.894915 0.333785
0.597976 0.917081 0.351779
0.837410 0.959640 0.394787
0.940203 0.969233 0.418420
0.941585 0.967652 0.418471
0.940224 0.969254 0.418441
0.815551 0.964552 0.708146
0.815925 0.964594 0.708033
0.816547 0.964665 0.707846
0.819296 0.964978 0.707018
0.831427 0.966361 0.703373
0.872789 0.970213 0.684230
0.948209 0.975564 0.614716
0.946653 0.971738 0.492646
0.954135 0.975193 0.588084
0.986519 0.993238 0.911090
0.986517 0.993237 0.911071
0.986515 0.993235 0.911038
0.986503 0.993227 0.910892
0.986452 0.993189 0.910233
0.985917 0.992963 0.907401
0.983224 0.991778 0.894393
0.979959 0.988235 0.862175
0.981878 0.989849 0.880070
0.000849 0.000963 0.010763
0.021928 0.003109 0.013037
0.097916 0.017259 0.022644
0.444974 0.072074 0.107258
0.691237 0.260546 0.284236
0.798204 0.464759 0.405284
0.878634 0.644839 0.437315
0.930636 0.835842 0.465064
0.946533 0.959065 0.473158
0.005822 0.023041 0.022559
0.019821 0.020891 0.019640
0.085016 0.023218 0.021899
0.359047 0.059065 0.082510
0.682455 0.245632 0.266329
0.804372 0.477367 0.408673
0.880263 0.648930 0.438015
0.930727 0.836487 0.464969
0.946544 0.959114 0.473067
0.021433 0.091268 0.052348
0.019177 0.079120 0.038359
0.077624 0.078020 0.037495
0.297065 0.089214 0.062535
0.687176 0.270527 0.261599
0.814652 0.498384 0.416319
0.882914 0.655562 0.439208
0.930875 0.837553 0.464815
0.946563 0.959195 0.472917
0.065467 0.297595 0.105924
0.053994 0.256210 0.080307
0.084884 0.228912 0.070465
0.235147 0.215587 0.081471
0.694971 0.380432 0.251425
0.849589 0.573235 0.432031
0.892011 0.682271 0.443665
0.931475 0.842211 0.464189
0.946586 0.959546 0.472202
0.208010 0.690729 0.228275
0.205365 0.680677 0.224432
0.229652 0.671848 0.227647
0.343459 0.657358 0.253725
0.758483 0.727572 0.370310
0.910677 0.760059 0.447353
0.915980 0.767754 0.451706
0.931956 0.860419 0.461152
0.946484 0.961093 0.469114
0.319397 0.846849 0.295279
0.328034 0.849253 0.297260
0.342327 0.853607 0.300228
0.412708 0.872733 0.314760
0.705770 0.930499 0.370705
0.939524 0.941750 0.416877
0.937486 0.899468 0.418332
0.938644 0.907946 0.428088
0.944969 0.966988 0.455465
0.477803 0.888124 0.327679
0.480760 0.888837 0.328321
0.485634 0.890012 0.329378
0.506623 0.895075 0.333935
0.597003 0.916708 0.352832
0.835661 0.959999 0.394446
0.940203 0.969233 0.418420
0.941585 0.967655 0.418471
0.940335 0.969365 0.418552
0.816299 0.964999 0.714718
0.816668 0.965042 0.714603
0.817281 0.965112 0.714413
0.819991 0.965424 0.713570
0.831947 0.966806 0.709856
0.873218 0.970525 0.691411
0.948344 0.975921 0.622197
0.946910 0.971832 0.497219
0.954422 0.975360 0.592571
0.986693 0.993255 0.911737
0.986692 0.993254 0.911718
0.986690 0.993252 0.911685
0.986680 0.993244 0.911540
0.986636 0.993207 0.910884
0.986087 0.992997 0.908040
0.983307 0.991886 0.895094
0.980085 0.988290 0.863094
0.981947 0.989932 0.880840
0.007524 0.003100 0.047215
0.030562 0.006072 0.048036
0.096838 0.015937 0.055970
0.409513 0.065831 0.103174
0.681776 0.240345 0.268222
0.805878 0.476112 0.412914
0.886148 0.654388 0.461042
0.932320 0.837725 0.479045
0.946627 0.959465 0.481630
0.015821 0.037664 0.066109
0.027371 0.031562 0.059759
0.087832 0.032483 0.065919
0.339210 0.060994 0.104101
0.680394 0.243805 0.263548
0.812756 0.489912 0.418488
0.887688 0.658365 0.461902
0.932398 0.838312 0.479038
0.946622 0.959517 0.481535
0.031232 0.104957 0.098759
0.027888 0.089140 0.082317
0.085964 0.087002 0.085561
0.293772 0.097166 0.109538
0.682561 0.266139 0.268061
0.822568 0.513230 0.429022
0.890160 0.664798 0.463315
0.932527 0.839286 0.479024
0.946613 0.959603 0.481376
0.083773 0.331160 0.175102
0.068716 0.286800 0.147961
0.101723 0.257782 0.139301
0.245451 0.236249 0.144983
0.700488 0.389949 0.304898
0.863257 0.589026 0.459217
0.899220 0.690911 0.467947
0.933078 0.843556 0.478919
0.946550 0.959970 0.480694
0.223650 0.710383 0.295557
0.219819 0.700557 0.289174
0.243464 0.693400 0.287779
0.353849 0.679376 0.299936
0.757724 0.739936 0.395516
0.918853 0.770206 0.479140
0.920654 0.773463 0.477196
0.935627 0.861759 0.475167
0.946270 0.961563 0.477805
0.319164 0.846199 0.294554
0.327392 0.848346 0.296534
0.340018 0.851974 0.299658
0.404762 0.870802 0.312215
0.693781 0.929314 0.367608
0.938186 0.942289 0.416598
0.940212 0.900444 0.453029
0.941085 0.908367 0.454327
0.945385 0.967250 0.465298
0.480211 0.888869 0.328802
0.483067 0.889531 0.329384
0.487774 0.890623 0.330342
0.508043 0.895321 0.334466
0.596292 0.916246 0.351481
0.832131 0.959681 0.394377
0.940201 0.969231 0.418418
0.941942 0.968019 0.418828
0.940536 0.969545 0.419062
0.817506 0.965721 0.725317
0.817866 0.965763 0.725199
0.818465 0.965833 0.725003
0.821111 0.966145 0.724135
0.832786 0.967525 0.720312
0.873911 0.971028 0.702996
0.948560 0.976497 0.634275
0.947327 0.971986 0.504624
0.954898 0.975643 0.599905
0.986983 0.993283 0.912807
0.986982 0.993282 0.912788
0.986980 0.993280 0.912755
0.986973 0.993272 0.912611
0.986940 0.993237 0.911960
0.986369 0.993054 0.909097
0.983444 0.992065 0.896252
0.980293 0.988382 0.864614
0.982062 0.990070 0.882115
0.039144 0.024127 0.150129
0.056862 0.017370 0.126426
0.106508 0.021331 0.126871
0.347557 0.049458 0.164185
0.686580 0.235260 0.335391
0.844281 0.531550 0.522448
0.911926 0.678645 0.544744
0.940384 0.843363 0.531296
0.948782 0.960132 0.517496
0.056795 0.085742 0.203021
0.059057 0.070103 0.164061
0.106751 0.067305 0.152780
0.321123 0.088964 0.179419
0.685299 0.247904 0.339308
0.851441 0.544044 0.530612
0.913321 0.682162 0.545659
0.940384 0.843956 0.531180
0.948781 0.960175 0.517395
0.074317 0.143073 0.256335
0.062006 0.120008 0.207638
0.111235 0.115265 0.191175
0.294716 0.125696 0.198626
0.684791 0.276175 0.351820
0.861910 0.563240 0.541731
0.915570 0.687867 0.547147
0.940386 0.844936 0.530988
0.948781 0.960247 0.517226
0.141511 0.399178 0.385426
0.123087 0.357842 0.342806
0.159390 0.327393 0.316083
0.289872 0.290264 0.289487
0.722812 0.421844 0.420668
0.895862 0.628010 0.571087
0.921222 0.711336 0.552825
0.940417 0.849208 0.530173
0.948842 0.960584 0.516544
0.258020 0.749133 0.523713
0.266526 0.744377 0.516014
0.296157 0.739342 0.509689
0.398995 0.726253 0.497051
0.773343 0.768358 0.542921
0.940911 0.786637 0.592802
0.937445 0.785593 0.562237
0.943055 0.865515 0.527260
0.949205 0.962126 0.513557
0.330194 0.863879 0.439110
0.337008 0.865338 0.438623
0.347880 0.867665 0.437851
0.404961 0.879510 0.442641
0.675932 0.928776 0.477762
0.940593 0.944976 0.517731
0.946876 0.904019 0.542810
0.945203 0.910325 0.512153
0.949375 0.968211 0.500437
0.497785 0.895799 0.374503
0.500286 0.896399 0.374653
0.504407 0.897386 0.374898
0.522160 0.901634 0.375937
0.597961 0.918232 0.376549
0.824155 0.958461 0.405310
0.942153 0.970232 0.429612
0.942473 0.968305 0.425947
0.943959 0.970651 0.456712
0.822024 0.968124 0.765040
0.822361 0.968154 0.764936
0.822920 0.968203 0.764764
0.825392 0.968420 0.764000
0.836303 0.969376 0.760642
0.877347 0.973454 0.746042
0.951208 0.978313 0.682134
0.949979 0.972994 0.538949
0.957421 0.977389 0.630966
0.988241 0.993403 0.917459
0.988241 0.993402 0.917440
0.988242 0.993401 0.917409
0.988246 0.993394 0.917270
0.988265 0.993365 0.916638
0.987592 0.993302 0.913692
0.984041 0.992843 0.901289
0.981071 0.988878 0.871066
0.982560 0.990670 0.887675
0.144718 0.168060 0.495208
0.165735 0.162105 0.481754
0.199880 0.157667 0.466530
0.382267 0.169884 0.454206
0.719652 0.307158 0.557645
0.895971 0.612451 0.687246
0.942005 0.721637 0.709599
0.960838 0.852497 0.687096
0.959859 0.963549 0.655312
0.158047 0.205116 0.514356
0.174565 0.195206 0.502178
0.207687 0.187161 0.488146
0.382143 0.196229 0.472038
0.724507 0.329558 0.572362
0.901301 0.622168 0.693971
0.942692 0.724273 0.710608
0.960816 0.853045 0.687111
0.959845 0.963602 0.655190
0.179152 0.271518 0.541143
0.191959 0.256095 0.527743
0.220983 0.242654 0.513512
0.385739 0.238045 0.499642
0.736658 0.369553 0.597310
0.909481 0.637219 0.704356
0.943809 0.728555 0.712248
0.960779 0.853952 0.687136
0.959814 0.963693 0.654979
0.262207 0.503055 0.625012
0.270758 0.486196 0.615469
0.290344 0.466928 0.604945
0.424478 0.442254 0.599416
0.778058 0.522366 0.684445
0.929794 0.688767 0.736547
0.948334 0.746268 0.718587
0.960652 0.857869 0.687257
0.959676 0.964096 0.654045
0.339744 0.788642 0.737465
0.351926 0.786079 0.738276
0.371128 0.783978 0.737856
0.470871 0.782461 0.748153
0.803873 0.804478 0.803900
0.964344 0.808468 0.788928
0.962022 0.805235 0.734970
0.960400 0.873995 0.687871
0.959072 0.965903 0.649911
0.370329 0.894249 0.731257
0.376181 0.895138 0.731862
0.385731 0.896579 0.732900
0.439083 0.903870 0.742014
0.673767 0.936062 0.782033
0.948095 0.949795 0.790551
0.964295 0.910713 0.745822
0.959718 0.916035 0.681735
0.957240 0.972762 0.633015
0.557580 0.926647 0.654154
0.560163 0.927171 0.654615
0.564421 0.928036 0.655374
0.582784 0.931761 0.658633
0.648622 0.943573 0.667744
0.831971 0.965493 0.678159
0.957929 0.977318 0.642609
0.954298 0.973294 0.599727
0.952182 0.974675 0.571415
0.835245 0.973486 0.855572
0.835598 0.973534 0.855599
0.836183 0.973614 0.855645
0.838773 0.973968 0.855848
0.850228 0.975531 0.856755
0.886813 0.979017 0.851510
0.960664 0.985274 0.812174
0.960655 0.979395 0.678805
0.964970 0.982791 0.733019
0.989886 0.994422 0.933005
0.989892 0.994424 0.932999
0.989901 0.994428 0.932989
0.989944 0.994445 0.932947
0.990137 0.994524 0.932755
0.989939 0.994413 0.930792
0.988778 0.993498 0.920312
0.983422 0.991578 0.895313
0.984940 0.992924 0.904895
0.467889 0.549091 0.751126
0.483342 0.549291 0.755165
0.509208 0.550654 0.762803
0.608020 0.556782 0.786771
0.828103 0.591944 0.852023
0.936229 0.682543 0.857035
0.953078 0.764834 0.847185
0.970059 0.866833 0.859344
0.977798 0.971010 0.859740
0.469535 0.562275 0.755118
0.484890 0.562535 0.759057
0.510584 0.563535 0.766513
0.608719 0.569501 0.791420
0.829992 0.602923 0.856450
0.937797 0.687388 0.859548
0.953484 0.766945 0.847990
0.970100 0.867223 0.859488
0.977814 0.971063 0.859719
0.471912 0.582868 0.761304
0.487391 0.583135 0.765140
0.512817 0.583607 0.772205
0.609881 0.589664 0.798984
0.831908 0.619920 0.862675
0.940310 0.695157 0.863593
0.954147 0.770397 0.849306
0.970168 0.867867 0.859725
0.977840 0.971153 0.859685
0.478980 0.653230 0.783361
0.492974 0.654320 0.788435
0.515946 0.655643 0.796201
0.608827 0.660693 0.824382
0.833115 0.681490 0.882079
0.949358 0.726430 0.882497
0.956874 0.784861 0.854885
0.970465 0.870684 0.860762
0.977955 0.971551 0.859532
0.474048 0.794718 0.826599
0.485079 0.795670 0.830243
0.502314 0.797175 0.835943
0.578247 0.804047 0.858062
0.803601 0.821074 0.910799
0.964444 0.821879 0.923179
0.963306 0.832923 0.875205
0.971445 0.882433 0.863453
0.978469 0.973330 0.858858
0.455928 0.896363 0.842401
0.461661 0.897250 0.843967
0.470915 0.898684 0.846495
0.512595 0.904521 0.856564
0.681608 0.924446 0.896656
0.940307 0.940927 0.940071
0.978168 0.915663 0.906815
0.976151 0.920310 0.870617
0.979824 0.980909 0.854644
0.567404 0.940805 0.844553
0.569430 0.941183 0.844874
0.572773 0.941806 0.845402
0.588098 0.944162 0.848053
0.653352 0.952712 0.859221
0.841006 0.976202 0.894574
0.984256 0.991957 0.899771
0.979360 0.983387 0.860084
0.976255 0.987363 0.825369
0.823771 0.976242 0.932059
0.824205 0.976296 0.932120
0.824927 0.976385 0.932220
0.828118 0.976781 0.932663
0.841989 0.978514 0.934579
0.886455 0.983949 0.940301
0.967820 0.992904 0.943975
0.983089 0.991022 0.892113
0.984466 0.992013 0.900330
0.992976 0.996693 0.967979
0.992975 0.996694 0.967970
0.992973 0.996694 0.967954
0.992964 0.996698 0.967884
0.992925 0.996716 0.967566
0.992811 0.996559 0.966047
0.992276 0.996063 0.960759
0.989662 0.995305 0.944017
0.990592 0.996253 0.949252
0.670887 0.752292 0.869662
0.674963 0.752955 0.870879
0.681600 0.754038 0.872860
0.710195 0.759362 0.882203
0.803503 0.779516 0.913823
0.945630 0.800886 0.955091
0.965108 0.818837 0.941864
0.970240 0.878371 0.940085
0.988808 0.970417 0.964448
0.670578 0.754034 0.870012
0.674644 0.754701 0.871217
0.681266 0.755790 0.873178
0.709820 0.761044 0.882569
0.803237 0.781006 0.914050
0.945387 0.802451 0.955270
0.965195 0.819732 0.942122
0.970295 0.878711 0.940175
0.988818 0.970468 0.964469
0.670078 0.756906 0.870585
0.674128 0.757579 0.871770
0.680726 0.758679 0.873698
0.709209 0.763806 0.883178
0.802806 0.783458 0.914423
0.944990 0.805032 0.955564
0.965339 0.821211 0.942547
0.970384 0.879274 0.940324
0.988834 0.970553 0.964503
0.668056 0.769290 0.872989
0.672039 0.769989 0.874088
0.678640 0.771101 0.876112
0.706699 0.775567 0.885892
0.801073 0.793961 0.916001
0.943163 0.815273 0.956198
0.965964 0.827614 0.944393
0.970779 0.881752 0.940979
0.988906 0.970929 0.964654
0.660111 0.811392 0.881730
0.663986 0.811798 0.882920
0.670311 0.812463 0.884863
0.696744 0.815862 0.893018
0.788228 0.829560 0.920745
0.934872 0.850682 0.958579
0.968266 0.853831 0.950691
0.972624 0.892038 0.943999
0.989228 0.972613 0.965332
0.630625 0.899692 0.895318
0.633804 0.899813 0.896154
0.639020 0.900013 0.897524
0.661241 0.900868 0.903427
0.745225 0.904771 0.925208
0.908608 0.919153 0.962897
0.978430 0.917015 0.965669
0.979052 0.924652 0.953478
0.990397 0.979963 0.965746
0.617939 0.950477 0.904285
0.619507 0.950678 0.904671
0.622100 0.951012 0.905311
0.633387 0.952461 0.908094
0.682062 0.958641 0.919687
0.828634 0.977627 0.956734
0.989241 0.992296 0.990033
0.991092 0.981492 0.969917
0.993866 0.997034 0.967275
0.811055 0.974818 0.952040
0.811430 0.974873 0.952136
0.812051 0.974965 0.952295
0.814802 0.975371 0.953000
0.826984 0.977171 0.956119
0.872862 0.983107 0.967349
0.961919 0.994680 0.987900
0.996475 0.998235 0.991713
0.996622 0.998101 0.992171
0.999441 0.999808 0.999684
0.999457 0.999814 0.999693
0.999482 0.999822 0.999707
0.999594 0.999861 0.999771
1.000000 1.000000 1.000000
1.000000 1.000000 1.000000
1.000000 1.000000 1.000000
0.998611 0.999387 0.998494
0.999180 0.999638 0.999111
0.821252 0.951260 0.950498
0.822225 0.951290 0.950721
0.823838 0.951339 0.951090
0.829834 0.951421 0.952185
0.855043 0.951777 0.956784
0.922021 0.950437 0.970831
0.983923 0.937117 0.981246
0.979780 0.919686 0.977894
0.993873 0.978434 0.992197
0.821098 0.951393 0.950473
0.822072 0.951423 0.950696
0.823685 0.951472 0.951065
0.829667 0.951555 0.952161
0.854914 0.951929 0.956815
0.921953 0.950599 0.970842
0.983947 0.937298 0.981287
0.979802 0.919872 0.977929
0.993883 0.978486 0.992217
0.820843 0.951613 0.950431
0.821818 0.951643 0.950654
0.823434 0.951694 0.951023
0.829392 0.951779 0.952122
0.854702 0.952181 0.956868
0.921841 0.950868 0.970860
0.983986 0.937597 0.981355
0.979839 0.920179 0.977988
0.993901 0.978571 0.992250
0.819737 0.952589 0.950250
0.820717 0.952622 0.950472
0.822195 0.952660 0.950784
0.828195 0.952772 0.951968
0.853784 0.953300 0.957120
0.921354 0.952059 0.970944
0.984159 0.938918 0.981656
0.980004 0.921543 0.978249
0.993979 0.978949 0.992396
0.814593 0.956843 0.949503
0.815453 0.956874 0.949715
0.816879 0.956925 0.950068
0.823134 0.957151 0.951613
0.849595 0.957983 0.958027
0.918951 0.956962 0.971435
0.984944 0.944722 0.982999
0.981363 0.926542 0.979234
0.994330 0.980664 0.993048
0.788794 0.970226 0.947021
0.789890 0.970357 0.947285
0.791708 0.970575 0.947723
0.799694 0.971534 0.949645
0.828313 0.973471 0.955715
0.906225 0.973615 0.972659
0.989449 0.965751 0.988870
0.985912 0.945911 0.982775
0.995594 0.989288 0.995386
0.768719 0.970596 0.941876
0.769439 0.970693 0.942049
0.770634 0.970855 0.942336
0.775900 0.971567 0.943601
0.797831 0.974220 0.948924
0.870108 0.982900 0.966681
0.977316 0.995899 0.991511
0.996434 0.992082 0.996385
1.000000 1.000000 1.000000
0.842439 0.979669 0.960137
0.842721 0.979710 0.960208
0.843189 0.979778 0.960327
0.845224 0.980065 0.960834
0.853591 0.981074 0.962835
0.886633 0.985115 0.970490
0.959628 0.994265 0.988067
1.000000 1.000000 1.000000
1.000000 1.000000 1.000000
0.999949 0.999978 0.999945
0.999949 0.999978 0.999945
0.999950 0.999978 0.999945
0.999951 0.999978 0.999947
0.999957 0.999981 0.999954
0.999985 0.999994 0.999984
1.000000 1.000000 1.000000
1.000000 1.000000 1.000000
1.000000 1.000000 1.000000
0.950884 0.993202 0.986145
0.950967 0.993217 0.986171
0.951105 0.993242 0.986213
0.951715 0.993354 0.986401
0.954453 0.993857 0.987248
0.965979 0.995096 0.989791
1.000000 1.000000 1.000000
1.000000 1.000000 1.000000
1.000000 1.000000 1.000000
0.950880 0.993201 0.986143
0.950962 0.993216 0.986168
0.951100 0.993241 0.986210
0.951710 0.993353 0.986399
0.954448 0.993857 0.987247
0.965972 0.995092 0.989789
1.000000 1.000000 1.000000
1.000000 1.000000 1.000000
1.000000 1.000000 1.000000
0.950872 0.993199 0.986138
0.950955 0.993214 0.986164
0.951092 0.993239 0.986206
0.951702 0.993352 0.986395
0.954440 0.993857 0.987246
0.965961 0.995086 0.989787
1.000000 1.000000 1.000000
1.000000 1.000000 1.000000
1.000000 1.000000 1.000000
0.950839 0.993190 0.986119
0.950922 0.993206 0.986145
0.951059 0.993231 0.986188
0.951668 0.993344 0.986379
0.954401 0.993854 0.987240
0.965913 0.995059 0.989774
1.000000 1.000000 1.000000
1.000000 1.000000 1.000000
1.000000 1.000000 1.000000
0.950690 0.993156 0.986041
0.950772 0.993172 0.986068
0.950909 0.993199 0.986114
0.951514 0.993317 0.986315
0.954230 0.993849 0.987221
0.965698 0.994924 0.989709
1.000000 1.000000 1.000000
1.000000 1.000000 1.000000
1.000000 1.000000 1.000000
0.948747 0.993176 0.985622
0.948835 0.993191 0.985648
0.948981 0.993218 0.985690
0.949629 0.993335 0.985880
0.952545 0.993860 0.986728
0.964806 0.994907 0.989331
1.000000 1.000000 1.000000
1.000000 1.000000 1.000000
1.000000 1.000000 1.000000
0.945760 0.992875 0.985074
0.945858 0.992894 0.985101
0.946022 0.992925 0.985144
0.946721 0.993049 0.985320
0.949262 0.993341 0.985731
0.960132 0.994623 0.987514
0.995259 0.998434 0.997362
1.000000 1.000000 1.000000
1.000000 1.000000 1.000000
0.951427 0.993735 0.987269
0.951496 0.993744 0.987298
0.951612 0.993757 0.987346
0.952062 0.993769 0.987421
0.954021 0.993767 0.987597
0.962535 0.993754 0.988362
0.992170 0.998087 0.994706
1.000000 1.000000 1.000000
1.000000 1.000000 1.000000
1.000000 1.000000 1.000000
1.000000 1.000000 1.000000
1.000000 1.000000 1.000000
1.000000 1.000000 1.000000
1.000000 1.000000 1.000000
1.000000 1.000000 1.000000
1.000000 1.000000 1.000000
1.000000 1.000000 1.000000
1.000000 1.000000 1.000000
