output/ACEScct_display/ACEScct_to_PRO-Neg.Std_33grid.cube
TITLE "ACEScct_to_PRO-Neg.Std"
# Input: ACEScct (AP1 primaries, log encoding, D60)
# Output: BT.709 / Gamma 2.2 (display-referred)
# Use: Display/output transform in DaVinci Resolve ACES pipeline (replaces ODT)
# Source: FLog2C_to_PRO-Neg.Std_65grid_V.1.00.cube
# Generated from Fujifilm GFX ETERNA 55 F-Log2C LUT
LUT_3D_SIZE 33
0.000438 0.000379 0.000085
0.000438 0.000379 0.000085
0.000438 0.000379 0.000085
0.003132 0.000718 0.000653
0.021523 0.005243 0.004301
0.038071 0.008115 0.009480
0.058136 0.008704 0.016240
0.087711 0.013776 0.023489
0.130122 0.019019 0.037078
0.194831 0.024898 0.055144
0.296060 0.035072 0.082601
0.440183 0.043896 0.121412
0.625180 0.051236 0.175088
0.791855 0.065513 0.257046
0.904786 0.081656 0.337680
0.945623 0.101049 0.423401
0.953660 0.154746 0.450985
0.962853 0.222498 0.474839
0.966884 0.271702 0.474584
0.968338 0.300674 0.454606
0.969229 0.329004 0.434328
0.970860 0.366239 0.404499
0.972275 0.406222 0.370470
0.973630 0.454140 0.326562
0.973232 0.509837 0.269925
0.973645 0.569249 0.199773
0.973170 0.632987 0.142724
0.972860 0.696327 0.109330
0.972337 0.758922 0.076041
0.970034 0.819516 0.045269
0.968170 0.894431 0.016980
0.963721 0.958234 0.002892
0.961942 0.999681 0.000402
0.000438 0.000379 0.000085
0.000438 0.000379 0.000085
0.000438 0.000379 0.000085
0.006169 0.001372 0.001365
0.023828 0.005954 0.004590
0.040586 0.008252 0.010685
0.060371 0.008725 0.016744
0.090031 0.014318 0.024059
0.132707 0.018954 0.038165
0.197589 0.025073 0.055934
0.298692 0.035323 0.083311
0.442820 0.043995 0.122167
0.607369 0.050671 0.169687
0.754818 0.061763 0.234452
0.877376 0.078093 0.315933
0.944242 0.096451 0.409420
0.952627 0.145785 0.447604
0.961850 0.219358 0.468881
0.966843 0.276350 0.471241
0.968537 0.304390 0.451873
0.969378 0.332196 0.431783
0.970979 0.368722 0.402244
0.972263 0.408092 0.368794
0.973685 0.455510 0.325188
0.973259 0.510926 0.268763
0.973629 0.570035 0.198780
0.973191 0.633558 0.142239
0.972851 0.696723 0.108952
0.972320 0.759184 0.075773
0.970018 0.819683 0.045062
0.968163 0.894540 0.016842
0.963719 0.958272 0.002902
0.961938 0.999692 0.000386
0.000438 0.000379 0.000085
0.000438 0.000379 0.000085
0.000438 0.000379 0.000085
0.009111 0.002006 0.002055
0.026079 0.006648 0.004871
0.043050 0.008387 0.011864
0.062568 0.008746 0.017240
0.092319 0.014863 0.024616
0.135262 0.018890 0.039239
0.199842 0.025169 0.056571
0.291139 0.034095 0.080739
0.414154 0.042892 0.113391
0.564366 0.049237 0.156735
0.725067 0.059877 0.217511
0.853919 0.075177 0.297922
0.943468 0.092487 0.395516
0.951688 0.137930 0.444693
0.960915 0.216410 0.463311
0.966833 0.280785 0.467975
0.968538 0.307994 0.449265
0.969524 0.335318 0.429294
0.971096 0.371166 0.400025
0.972253 0.409942 0.367146
0.973740 0.456868 0.323822
0.973287 0.512011 0.267606
0.973612 0.570818 0.197788
0.973212 0.634127 0.141757
0.972843 0.697119 0.108574
0.972303 0.759447 0.075504
0.970003 0.819849 0.044855
0.968155 0.894648 0.016703
0.963717 0.958310 0.002911
0.961934 0.999703 0.000371
0.000349 0.004076 0.000320
0.000433 0.005015 0.000383
0.000516 0.005951 0.000445
0.008440 0.006075 0.001338
0.024552 0.009353 0.002983
0.039210 0.008414 0.008258
0.058651 0.009095 0.016024
0.083104 0.013491 0.022426
0.121740 0.017992 0.035585
0.180163 0.024045 0.051252
0.263777 0.031911 0.072852
0.381249 0.042431 0.103466
0.528979 0.050311 0.144938
0.697318 0.056216 0.204188
0.833768 0.071314 0.283469
0.943186 0.089018 0.381931
0.950740 0.134253 0.441374
0.960881 0.216513 0.457110
0.967363 0.284863 0.463125
0.968536 0.311487 0.446735
0.969667 0.338372 0.426858
0.971175 0.373546 0.397946
0.972246 0.411773 0.365526
0.973794 0.458215 0.322465
0.973315 0.513091 0.266454
0.973596 0.571597 0.196798
0.973234 0.634695 0.141277
0.972835 0.697514 0.108198
0.972286 0.759708 0.075236
0.969987 0.820014 0.044649
0.968148 0.894757 0.016564
0.963715 0.958348 0.002921
0.961930 0.999715 0.000355
0.003144 0.019318 0.001467
0.003356 0.019999 0.001526
0.003567 0.020674 0.001584
0.004051 0.017292 0.000494
0.020762 0.019960 0.000615
0.035961 0.018251 0.003988
0.052153 0.016229 0.007806
0.077893 0.017904 0.019878
0.111543 0.020104 0.027250
0.165113 0.023897 0.045737
0.242949 0.030568 0.067808
0.355004 0.038073 0.098471
0.500441 0.047855 0.136837
0.670588 0.054101 0.192836
0.815686 0.068792 0.270650
0.932961 0.089620 0.367181
0.949868 0.131051 0.438078
0.960990 0.217107 0.451075
0.967876 0.288795 0.458474
0.968533 0.314877 0.444279
0.969808 0.341362 0.424473
0.971192 0.375847 0.396085
0.972241 0.413586 0.363933
0.973848 0.459552 0.321116
0.973343 0.514166 0.265307
0.973579 0.572372 0.195811
0.973256 0.635261 0.140798
0.972826 0.697909 0.107822
0.972268 0.759970 0.074968
0.969972 0.820180 0.044442
0.968141 0.894866 0.016424
0.963713 0.958386 0.002930
0.961926 0.999726 0.000339
0.005301 0.032425 0.001401
0.005355 0.033096 0.001362
0.005408 0.033761 0.001324
0.005769 0.031019 0.000204
0.016698 0.028830 0.000587
0.031674 0.028298 0.000981
0.047470 0.029287 0.004459
0.070081 0.028842 0.009259
0.105454 0.028744 0.023506
0.155611 0.030900 0.038939
0.229891 0.035615 0.060913
0.332369 0.038153 0.089943
0.478926 0.048043 0.128543
0.647169 0.055341 0.182083
0.799271 0.067537 0.258920
0.923545 0.091919 0.352770
0.950055 0.137805 0.426367
0.961064 0.217847 0.445204
0.968375 0.292595 0.454008
0.968528 0.318171 0.441892
0.969946 0.344291 0.422136
0.971209 0.378114 0.394251
0.972239 0.415382 0.362367
0.973868 0.460990 0.319658
0.973372 0.515238 0.264166
0.973553 0.573189 0.194724
0.973279 0.635827 0.140321
0.972818 0.698303 0.107446
0.972251 0.760231 0.074701
0.969956 0.820346 0.044236
0.968134 0.894974 0.016285
0.963711 0.958425 0.002939
0.961922 0.999737 0.000324
0.007908 0.048717 0.000665
0.008036 0.049390 0.000638
0.008116 0.049536 0.000380
0.007167 0.043921 0.000028
0.013489 0.041349 0.000025
0.027371 0.039898 0.000465
0.042927 0.040450 0.001833
0.065471 0.041130 0.005522
0.099161 0.042302 0.012618
0.147382 0.043026 0.030092
0.217204 0.047351 0.049802
0.316977 0.051893 0.079073
0.457611 0.055862 0.115826
0.626209 0.063966 0.167406
0.783018 0.077546 0.241050
0.913078 0.102366 0.332703
0.950277 0.145510 0.413055
0.960800 0.220823 0.436640
0.968563 0.297022 0.449121
0.968620 0.322315 0.438870
0.970132 0.347993 0.418785
0.971229 0.380859 0.392031
0.972239 0.417567 0.360475
0.973866 0.462833 0.317789
0.973407 0.516551 0.262768
0.973517 0.574212 0.193340
0.973308 0.636521 0.139737
0.972808 0.698787 0.106986
0.972230 0.760552 0.074372
0.969938 0.820549 0.043982
0.968125 0.895108 0.016113
0.963709 0.958471 0.002950
0.961918 0.999751 0.000304
0.011043 0.068597 0.000514
0.011174 0.069192 0.000497
0.010693 0.066807 0.000217
0.008787 0.062240 0.000021
0.010410 0.058964 0.000301
0.021310 0.057935 0.000331
0.037955 0.057610 0.000718
0.060659 0.056732 0.003101
0.091171 0.057947 0.006884
0.138445 0.059265 0.018099
0.204724 0.063175 0.034550
0.300009 0.068599 0.061666
0.433491 0.073351 0.097182
0.601766 0.081754 0.145952
0.761391 0.093716 0.216118
0.897480 0.118211 0.305563
0.950741 0.156086 0.395355
0.960450 0.224855 0.424998
0.968152 0.303058 0.443019
0.969186 0.329080 0.433871
0.970401 0.353291 0.413882
0.971259 0.384784 0.388858
0.972245 0.420714 0.357780
0.973860 0.465502 0.315084
0.973460 0.518458 0.260738
0.973464 0.575701 0.191331
0.973351 0.637532 0.138888
0.972793 0.699492 0.106314
0.972199 0.761020 0.073892
0.969910 0.820846 0.043612
0.968112 0.895303 0.015861
0.963705 0.958540 0.002966
0.961911 0.999772 0.000276
0.014428 0.099689 0.000475
0.014437 0.100339 0.000489
0.012683 0.092938 0.000042
0.013050 0.087459 0.000397
0.011205 0.082858 0.000060
0.013106 0.080385 0.000101
0.032829 0.078452 0.000423
0.055229 0.077598 0.000256
0.085067 0.078572 0.001599
0.128658 0.079019 0.007954
0.188395 0.083985 0.017812
0.278733 0.088157 0.041360
0.408599 0.094390 0.074120
0.570408 0.101799 0.119713
0.734654 0.116500 0.184039
0.875603 0.140821 0.269607
0.951473 0.173730 0.368552
0.960777 0.233430 0.408103
0.967552 0.311111 0.433480
0.969975 0.338415 0.426993
0.970778 0.360705 0.407016
0.971301 0.390346 0.384363
0.972266 0.425218 0.353984
0.973844 0.469355 0.311190
0.973538 0.521220 0.257801
0.973388 0.577863 0.188422
0.973399 0.639008 0.137681
0.972772 0.700520 0.105338
0.972154 0.761702 0.073193
0.969870 0.821280 0.043071
0.968094 0.895587 0.015491
0.963699 0.958641 0.002987
0.961900 0.999801 0.000235
0.019058 0.144700 0.000198
0.018432 0.141338 0.000125
0.016954 0.130755 0.000006
0.016490 0.123086 0.000155
0.015829 0.116127 0.000377
0.016736 0.111220 0.000398
0.023302 0.108965 0.000148
0.046271 0.107431 0.000298
0.077183 0.105751 0.000397
0.118082 0.107187 0.000684
0.176864 0.108582 0.006584
0.261517 0.115270 0.015227
0.381859 0.121985 0.045718
0.538646 0.130445 0.087348
0.704689 0.145211 0.146660
0.850402 0.169682 0.227195
0.948895 0.200226 0.328783
0.959921 0.247596 0.385331
0.966564 0.321020 0.415820
0.970669 0.351236 0.415655
0.971217 0.371055 0.398604
0.971524 0.398413 0.377521
0.972835 0.432088 0.347564
0.973807 0.474883 0.305618
0.973655 0.525207 0.253569
0.973277 0.580993 0.184226
0.973447 0.641150 0.135957
0.972741 0.702014 0.103920
0.972086 0.762695 0.072174
0.969811 0.821911 0.042283
0.968067 0.896002 0.014949
0.963691 0.958788 0.003017
0.961886 0.999845 0.000174
0.022796 0.206382 0.000235
0.022273 0.192875 0.000190
0.021271 0.182346 0.000518
0.020539 0.173083 0.000493
0.020076 0.165618 0.000323
0.019868 0.159026 0.000148
0.020644 0.154174 0.000165
0.035910 0.150559 0.000069
0.067133 0.149111 0.000000
0.108226 0.147793 0.000240
0.164468 0.148459 0.000162
0.245755 0.151449 0.000360
0.356861 0.159636 0.008809
0.505382 0.167947 0.042148
0.668580 0.184167 0.099604
0.820315 0.205828 0.175500
0.941432 0.235342 0.273510
0.960127 0.273189 0.350911
0.967076 0.331342 0.389351
0.971342 0.368470 0.401052
0.971652 0.385280 0.389342
0.972176 0.410127 0.366907
0.973535 0.441736 0.338320
0.973737 0.482701 0.297899
0.973827 0.530937 0.247429
0.973117 0.585504 0.178213
0.973507 0.644235 0.133470
0.972697 0.704181 0.101868
0.971987 0.764136 0.070694
0.969726 0.822829 0.041136
0.968028 0.896608 0.014150
0.963680 0.959005 0.003056
0.961864 0.999908 0.000084
0.022990 0.279871 0.000160
0.023790 0.265381 0.000073
0.024088 0.252698 0.000389
0.023544 0.242168 0.000403
0.022858 0.234055 0.000009
0.023419 0.225378 0.000101
0.023498 0.218125 0.000096
0.027913 0.211447 0.000028
0.053365 0.206251 0.000004
0.097201 0.203093 0.000072
0.151654 0.200794 0.000386
0.228633 0.204058 0.000008
0.335217 0.207517 0.000390
0.471228 0.217790 0.001856
0.632171 0.232866 0.039521
0.785108 0.254101 0.112000
0.923313 0.282693 0.204142
0.960995 0.310015 0.306559
0.966671 0.354087 0.352085
0.972112 0.391776 0.383798
0.972734 0.406308 0.372123
0.972405 0.426441 0.352017
0.973987 0.455223 0.325042
0.973548 0.493460 0.286990
0.973952 0.539203 0.236964
0.972886 0.591969 0.169665
0.973576 0.648651 0.129902
0.972633 0.707313 0.098912
0.971841 0.766223 0.068547
0.969603 0.824162 0.039470
0.967974 0.897489 0.012973
0.963662 0.959323 0.003103
0.961810 0.999936 0.000050
0.022118 0.366329 0.000478
0.022879 0.351595 0.000238
0.022188 0.339365 0.000033
0.022143 0.327904 0.000003
0.022382 0.318308 0.000002
0.023131 0.311736 0.000007
0.023229 0.304289 0.000153
0.022906 0.295041 0.000483
0.031370 0.286738 0.000578
0.077278 0.281241 0.000046
0.137248 0.274858 0.000308
0.212707 0.274921 0.000272
0.315122 0.277776 0.000030
0.443387 0.284524 0.000048
0.592855 0.297821 0.000493
0.749170 0.313919 0.036457
0.889395 0.338944 0.123424
0.960798 0.361230 0.232805
0.966579 0.386511 0.300248
0.972970 0.421508 0.350523
0.972691 0.433284 0.346898
0.971730 0.449192 0.331096
0.972871 0.474670 0.306303
0.973129 0.508140 0.271051
0.973957 0.550667 0.222213
0.972588 0.601161 0.158199
0.973402 0.655060 0.124238
0.972544 0.711819 0.094678
0.971622 0.769231 0.065446
0.969426 0.826090 0.037054
0.967897 0.898769 0.011228
0.963637 0.959793 0.003151
0.961718 0.999937 0.000060
0.015259 0.469644 0.000554
0.015497 0.458158 0.000174
0.016036 0.447731 0.000072
0.016576 0.438180 0.000020
0.017035 0.430597 0.000019
0.017465 0.423533 0.000017
0.017670 0.416173 0.000284
0.017995 0.406218 0.000513
0.020385 0.392934 0.000256
0.047453 0.383516 0.000693
0.110748 0.376410 0.000341
0.191856 0.369357 0.000088
0.295664 0.366314 0.000139
0.418530 0.367547 0.000022
0.561874 0.375217 0.000446
0.712380 0.389269 0.000249
0.853472 0.407602 0.029463
0.960657 0.428004 0.134917
0.967828 0.436860 0.229313
0.970866 0.460067 0.298306
0.972995 0.467384 0.312821
0.973152 0.480409 0.301695
0.972022 0.499484 0.281525
0.973114 0.528707 0.248137
0.973624 0.566776 0.201508
0.972196 0.613989 0.144384
0.973009 0.664237 0.115891
0.972421 0.718257 0.088669
0.971368 0.773558 0.060849
0.969172 0.828869 0.033564
0.967792 0.900624 0.008637
0.963599 0.960488 0.003179
0.961582 0.999938 0.000076
0.014086 0.575114 0.000270
0.014050 0.565690 0.000081
0.013834 0.558592 0.000032
0.013549 0.552766 0.000046
0.013493 0.547048 0.000077
0.014221 0.540778 0.000173
0.015075 0.533511 0.000286
0.015356 0.524704 0.000206
0.015699 0.514261 0.000225
0.024174 0.503883 0.000896
0.080334 0.492261 0.000650
0.166461 0.481570 0.000238
0.269506 0.474102 0.000023
0.392073 0.469447 0.000006
0.531000 0.470090 0.000051
0.678707 0.478700 0.000074
0.817326 0.490919 0.000081
0.939232 0.503902 0.026458
0.966834 0.507541 0.128665
0.970432 0.513306 0.217166
0.973235 0.513387 0.265460
0.973051 0.519054 0.260015
0.973196 0.532490 0.243374
0.973055 0.556839 0.214238
0.972402 0.589929 0.171874
0.971580 0.631390 0.127204
0.972672 0.677025 0.104753
0.972253 0.727367 0.080246
0.971142 0.779763 0.053946
0.968811 0.832847 0.028551
0.967525 0.903025 0.008226
0.963542 0.961523 0.003128
0.961383 0.999940 0.000101
0.011451 0.684619 0.000489
0.011887 0.678610 0.000427
0.011574 0.673419 0.000513
0.011165 0.668545 0.000615
0.010767 0.663888 0.000712
0.010737 0.659504 0.000661
0.011019 0.654419 0.000477
0.011420 0.647427 0.000230
0.011891 0.639274 0.000402
0.014699 0.628348 0.000541
0.043849 0.616263 0.000459
0.128144 0.605311 0.000329
0.236567 0.595447 0.000508
0.358949 0.585439 0.000161
0.499559 0.579511 0.000141
0.645755 0.579874 0.000304
0.785082 0.585148 0.000207
0.907368 0.592362 0.000179
0.965806 0.597525 0.016064
0.969366 0.582596 0.102902
0.974167 0.568520 0.198281
0.973521 0.568512 0.201446
0.971896 0.577538 0.188396
0.971745 0.594297 0.166031
0.971850 0.620589 0.130170
0.971389 0.654309 0.106332
0.972479 0.694344 0.088787
0.971815 0.740014 0.067129
0.970908 0.788567 0.043825
0.968305 0.838490 0.021400
0.967117 0.906566 0.007509
0.963457 0.963075 0.002863
0.961088 0.999942 0.000139
0.006469 0.791610 0.000227
0.006813 0.788003 0.000204
0.007225 0.784487 0.000179
0.007625 0.781088 0.000154
0.008014 0.777800 0.000131
0.008280 0.774751 0.000167
0.008385 0.771385 0.000322
0.008532 0.766689 0.000540
0.008712 0.760059 0.000720
0.008925 0.750667 0.000656
0.015037 0.740313 0.000268
0.082429 0.730536 0.000430
0.195549 0.720908 0.001052
0.325223 0.710329 0.000462
0.466089 0.699721 0.000007
0.611235 0.692246 0.000325
0.750702 0.687918 0.000055
0.873375 0.687480 0.000055
0.961090 0.689526 0.000231
0.964991 0.673168 0.003755
0.970779 0.643326 0.072556
0.971937 0.631669 0.112700
0.971259 0.632507 0.112311
0.971380 0.642014 0.101655
0.971860 0.659652 0.089528
0.971795 0.684102 0.078494
0.971794 0.717045 0.065306
0.970934 0.757396 0.049179
0.970678 0.800921 0.030485
0.967674 0.846590 0.014617
0.966482 0.911807 0.006222
0.963328 0.965424 0.002079
0.960651 0.999943 0.000199
0.001468 0.883298 0.000327
0.001550 0.881280 0.000353
0.001630 0.879311 0.000380
0.001709 0.877389 0.000406
0.001809 0.875495 0.000422
0.002063 0.873534 0.000370
0.002363 0.871186 0.000308
0.002780 0.867878 0.000220
0.003346 0.863288 0.000100
0.002624 0.857485 0.000291
0.006726 0.849991 0.000503
0.034720 0.841264 0.000541
0.138545 0.832885 0.000287
0.271801 0.824510 0.000159
0.418154 0.814380 0.000421
0.567407 0.801829 0.000498
0.709965 0.790619 0.000120
0.835681 0.779139 0.000013
0.941816 0.771882 0.000000
0.962328 0.764874 0.000031
0.966839 0.733949 0.001520
0.969554 0.701185 0.028726
0.970142 0.696231 0.038398
0.970361 0.697600 0.043332
0.970359 0.706260 0.044164
0.970870 0.722562 0.042460
0.971483 0.747821 0.037244
0.969368 0.779945 0.027345
0.969492 0.817265 0.020474
0.966908 0.858452 0.011579
0.965477 0.919598 0.003859
0.963130 0.969025 0.000122
0.959998 0.999941 0.000295
0.000174 0.964914 0.000727
0.000199 0.963879 0.000774
0.000198 0.962761 0.000749
0.000173 0.961568 0.000658
0.000149 0.960396 0.000569
0.000126 0.959244 0.000481
0.000098 0.957852 0.000375
0.000058 0.955868 0.000224
0.000002 0.953070 0.000011
0.000057 0.949125 0.000101
0.000126 0.943751 0.000224
0.004381 0.936415 0.000288
0.064631 0.929786 0.000432
0.198573 0.922272 0.000223
0.354305 0.908715 0.000021
0.506899 0.892945 0.000007
0.657384 0.876728 0.000247
0.791337 0.861473 0.000190
0.906753 0.848278 0.000151
0.958890 0.838900 0.000005
0.960984 0.813028 0.000086
0.966601 0.780524 0.000480
0.968782 0.765803 0.000681
0.968720 0.760094 0.002458
0.968771 0.761173 0.007452
0.969242 0.770006 0.009071
0.969843 0.785826 0.006689
0.968256 0.808815 0.009940
0.968134 0.838895 0.003424
0.965669 0.874930 0.001080
0.964142 0.930084 0.000000
0.962424 0.972630 0.000045
0.959018 0.999932 0.000456
0.000000 1.000000 0.000285
0.000000 1.000000 0.000285
0.000000 1.000000 0.000285
0.000000 1.000000 0.000285
0.000000 1.000000 0.000285
0.000000 1.000000 0.000285
0.000000 1.000000 0.000285
0.000000 1.000000 0.000285
0.000000 0.999955 0.000302
0.000000 0.999879 0.000331
0.000000 0.999781 0.000369
0.002480 0.998221 0.000326
0.012371 0.995204 0.000212
0.105667 0.990786 0.000050
0.267632 0.984415 0.000545
0.433846 0.972420 0.000085
0.595835 0.955808 0.000775
0.741634 0.938610 0.000008
0.861546 0.922699 0.000126
0.955782 0.906121 0.000000
0.958634 0.879655 0.000192
0.960955 0.850577 0.000000
0.964653 0.833134 0.000050
0.965138 0.827243 0.000095
0.965787 0.820891 0.000112
0.966248 0.822031 0.000055
0.965390 0.829708 0.000020
0.966156 0.844159 0.000170
0.966776 0.865655 0.000382
0.965206 0.892878 0.000210
0.963756 0.937171 0.000000
0.961359 0.977945 0.000082
0.957532 0.999906 0.000729
0.000000 1.000000 0.000285
0.000000 1.000000 0.000285
0.000000 1.000000 0.000285
0.000000 1.000000 0.000285
0.000000 1.000000 0.000285
0.000000 1.000000 0.000285
0.000000 1.000000 0.000285
0.000000 1.000000 0.000285
0.000000 1.000000 0.000285
0.000000 1.000000 0.000285
0.000000 1.000000 0.000285
0.000000 1.000000 0.000285
0.000000 1.000000 0.000285
0.046746 0.999846 0.000134
0.164180 0.999859 0.000049
0.339482 0.999494 0.000053
0.515053 0.999958 0.000005
0.673380 0.998270 0.000106
0.802353 0.983105 0.000137
0.910600 0.963688 0.000081
0.956021 0.940231 0.000204
0.956852 0.908993 0.000000
0.959905 0.882268 0.000108
0.960843 0.876310 0.000002
0.962575 0.871654 0.000034
0.963666 0.870728 0.000080
0.963213 0.873081 0.000098
0.964044 0.881502 0.000008
0.963994 0.894578 0.000048
0.963308 0.911300 0.000000
0.962317 0.948676 0.000020
0.959918 0.985176 0.000061
0.956305 0.999798 0.002253
0.000000 1.000000 0.000285
0.000000 1.000000 0.000285
0.000000 1.000000 0.000285
0.000000 1.000000 0.000285
0.000000 1.000000 0.000285
0.000000 1.000000 0.000285
0.000000 1.000000 0.000285
0.000000 1.000000 0.000285
0.000000 1.000000 0.000285
0.000000 1.000000 0.000285
0.000002 1.000000 0.000285
0.000003 1.000000 0.000285
0.000000 1.000000 0.000285
0.036148 0.999944 0.000180
0.110617 0.999828 0.000038
0.254597 0.999683 0.000419
0.412838 0.999445 0.000246
0.574271 0.999732 0.000360
0.722285 0.999306 0.000254
0.843322 0.999367 0.000095
0.939767 0.993672 0.000352
0.954996 0.966185 0.000074
0.956750 0.931853 0.000008
0.956988 0.917294 0.000177
0.957501 0.910595 0.000004
0.958728 0.906305 0.000448
0.959565 0.905222 0.000073
0.960494 0.909299 0.000024
0.961197 0.917539 0.000074
0.960930 0.930448 0.000071
0.960306 0.961210 0.000141
0.958754 0.991954 0.000006
0.955513 0.999711 0.003914
0.000000 1.000000 0.000285
0.000000 1.000000 0.000285
0.000000 1.000000 0.000285
0.000000 1.000000 0.000285
0.000000 1.000000 0.000285
0.000000 1.000000 0.000285
0.000000 1.000000 0.000285
0.000000 1.000000 0.000285
0.000000 1.000000 0.000285
0.000000 1.000000 0.000285
0.000000 1.000000 0.000285
0.000000 1.000000 0.000285
0.000000 1.000000 0.000285
0.039836 0.999857 0.000322
0.097600 0.999643 0.000376
0.204145 0.999717 0.000312
0.336328 0.999744 0.000128
0.482234 0.999688 0.000011
0.632595 0.999681 0.000448
0.764390 0.999850 0.000187
0.873827 0.999763 0.000030
0.947349 0.999604 0.000310
0.954602 0.986655 0.000312
0.954149 0.961211 0.000009
0.955635 0.952396 0.000143
0.954543 0.944882 0.000260
0.955924 0.939867 0.000119
0.955755 0.939562 0.000040
0.956759 0.940784 0.000228
0.956892 0.949661 0.000001
0.956660 0.974711 0.000108
0.956467 0.998575 0.000019
0.953492 0.999738 0.004119
0.005050 0.999974 0.000249
0.005226 0.999973 0.000248
0.005402 0.999972 0.000247
0.005576 0.999971 0.000246
0.005751 0.999970 0.000244
0.005924 0.999970 0.000243
0.006137 0.999969 0.000242
0.006446 0.999967 0.000239
0.006893 0.999965 0.000236
0.007538 0.999962 0.000232
0.008463 0.999957 0.000225
0.012579 0.999942 0.000213
0.032500 0.999875 0.000184
0.060468 0.999778 0.000142
0.099097 0.999641 0.000080
0.175692 0.999651 0.000120
0.279639 0.999627 0.000148
0.401707 0.999394 0.000091
0.537711 0.999383 0.000287
0.673886 0.999506 0.000103
0.797151 0.999325 0.000000
0.901591 0.999880 0.000105
0.950496 0.999755 0.000526
0.953647 0.999693 0.000037
0.953673 0.993344 0.000000
0.954290 0.986742 0.000000
0.954225 0.979998 0.000000
0.954022 0.974960 0.000015
0.954798 0.971394 0.000004
0.954785 0.974912 0.000000
0.954766 0.993555 0.000000
0.953591 0.999998 0.000000
0.950505 0.999688 0.000668
0.020666 0.999666 0.000165
0.022135 0.999671 0.000174
0.023601 0.999675 0.000183
0.025064 0.999680 0.000192
0.026524 0.999685 0.000201
0.027981 0.999690 0.000210
0.029770 0.999695 0.000220
0.032377 0.999704 0.000236
0.036171 0.999716 0.000259
0.041680 0.999734 0.000292
0.049655 0.999760 0.000340
0.061152 0.999796 0.000409
0.077627 0.999849 0.000508
0.101032 0.999922 0.000647
0.135982 0.999977 0.000756
0.191088 0.999908 0.000636
0.265716 0.999813 0.000462
0.356652 0.999739 0.000150
0.467764 0.999734 0.000171
0.591583 0.999881 0.000479
0.714927 0.999584 0.000347
0.827553 0.999670 0.000250
0.921389 0.999737 0.000241
0.950385 0.999674 0.000634
0.950560 0.999783 0.000463
0.951158 0.999707 0.000000
0.951779 0.999352 0.000047
0.951845 0.999791 0.000000
0.952807 0.998332 0.000000
0.953298 0.999496 0.000000
0.952466 0.999949 0.000109
0.950505 0.999688 0.000668
0.950825 0.999567 0.003259
0.166326 0.999857 0.000297
0.167334 0.999856 0.000293
0.168341 0.999855 0.000289
0.169347 0.999854 0.000285
0.170352 0.999853 0.000281
0.171355 0.999852 0.000277
0.172589 0.999851 0.000273
0.174388 0.999849 0.000266
0.177010 0.999846 0.000256
0.180826 0.999843 0.000241
0.186370 0.999837 0.000220
0.194402 0.999829 0.000189
0.205873 0.999823 0.000150
0.221598 0.999845 0.000131
0.243995 0.999877 0.000103
0.275554 0.999921 0.000062
0.319101 0.999936 0.000044
0.376313 0.999620 0.000326
0.449958 0.999324 0.000426
0.538999 0.999339 0.000178
0.639288 0.999554 0.000006
0.749672 0.999935 0.000176
0.854891 0.999537 0.000002
0.935204 0.999596 0.000256
0.950505 0.999688 0.000668
0.950505 0.999688 0.000668
0.950505 0.999688 0.000668
0.950505 0.999688 0.000668
0.950515 0.999694 0.000645
0.950505 0.999688 0.000668
0.950505 0.999688 0.000668
0.950505 0.999688 0.000668
0.950531 0.999738 0.001960
0.336329 0.999839 0.000185
0.336893 0.999840 0.000186
0.337456 0.999840 0.000187
0.338019 0.999841 0.000187
0.338582 0.999841 0.000188
0.339144 0.999842 0.000188
0.339835 0.999842 0.000189
0.340843 0.999843 0.000190
0.342315 0.999844 0.000192
0.344459 0.999846 0.000194
0.347580 0.999849 0.000197
0.352114 0.999853 0.000202
0.358683 0.999859 0.000209
0.368162 0.999867 0.000219
0.381765 0.999879 0.000233
0.401132 0.999898 0.000253
0.427872 0.999807 0.000241
0.464810 0.999641 0.000217
