output/ACEScct_display/ACEScct_to_ASTIA_33grid.cube
TITLE "ACEScct_to_ASTIA"
# Input: ACEScct (AP1 primaries, log encoding, D60)
# Output: BT.709 / Gamma 2.2 (display-referred)
# Use: Display/output transform in DaVinci Resolve ACES pipeline (replaces ODT)
# Source: FLog2C_to_ASTIA_65grid_V.1.00.cube
# Generated from Fujifilm GFX ETERNA 55 F-Log2C LUT
LUT_3D_SIZE 9
0.000334 0.000257 0.000073
0.020794 0.000936 0.000070
0.158677 0.003625 0.005802
0.743433 0.000460 0.075582
0.999980 0.000411 0.516869
0.999919 0.211717 0.467591
0.999489 0.472428 0.257246
0.999334 0.754245 0.021228
0.988082 0.987033 0.013296
0.000393 0.016058 0.000020
0.015179 0.014789 0.000196
0.130121 0.005975 0.001976
0.629599 0.000147 0.035707
0.999942 0.000051 0.499112
0.999907 0.231879 0.455080
0.999363 0.478177 0.251288
0.999341 0.755320 0.019916
0.988066 0.987123 0.013376
0.000017 0.098343 0.000004
0.000178 0.078683 0.000115
0.079519 0.063595 0.000323
0.518543 0.046545 0.000138
0.999836 0.012614 0.406316
0.999971 0.261525 0.434538
0.999117 0.487536 0.241590
0.999351 0.757099 0.017701
0.988039 0.987271 0.013510
0.000251 0.431971 0.000137
0.000339 0.376315 0.000012
0.006004 0.336507 0.000548
0.366428 0.286007 0.000015
0.977483 0.277720 0.034336
0.999209 0.367819 0.352437
0.999446 0.526528 0.199346
0.999384 0.764852 0.007384
0.987894 0.987888 0.014030
0.000000 0.844956 0.000222
0.000000 0.833143 0.000067
0.000209 0.817345 0.000230
0.199399 0.772432 0.000371
0.793915 0.696269 0.000211
0.999279 0.637084 0.034580
0.999360 0.653458 0.039747
0.999464 0.797560 0.001107
0.987125 0.990509 0.016021
0.000000 1.000000 0.000285
0.000000 1.000000 0.000285
0.000000 1.000000 0.000285
0.000685 0.999889 0.000243
0.594338 0.999896 0.000754
0.991727 0.918627 0.000012
0.999376 0.847322 0.000000
0.998723 0.870564 0.000047
0.984372 0.998372 0.021625
0.082792 0.999631 0.000756
0.090388 0.999632 0.000714
0.102908 0.999634 0.000645
0.156823 0.999647 0.000349
0.364928 0.999494 0.000554
0.762782 0.999525 0.000226
0.983447 0.999735 0.021694
0.983396 0.991418 0.015311
0.983737 0.999969 0.022583
0.649850 0.999718 0.241240
0.650542 0.999719 0.240798
0.651692 0.999720 0.240065
0.656778 0.999728 0.236823
0.679230 0.999756 0.222548
0.761935 0.999800 0.169221
0.976870 0.999744 0.111450
0.984992 0.999926 0.044073
0.986595 0.999932 0.090120
0.992139 0.999914 0.690341
0.992137 0.999915 0.690296
0.992134 0.999916 0.690220
0.992123 0.999923 0.689884
0.992072 0.999954 0.688363
0.992238 0.999887 0.681549
0.992375 0.999697 0.653884
0.990676 0.999366 0.588298
0.992160 0.999560 0.621810
0.000522 0.000073 0.020122
0.023033 0.000608 0.012844
0.156938 0.003654 0.005672
0.732269 0.000035 0.072358
0.999792 0.000020 0.511761
0.999633 0.223104 0.460871
0.999286 0.481196 0.248528
0.999272 0.752882 0.051438
0.988395 0.989208 0.015748
0.000249 0.019496 0.022387
0.013730 0.016839 0.013987
0.121377 0.009439 0.004669
0.603756 0.000124 0.031945
0.999927 0.000115 0.480633
0.999450 0.242648 0.446696
0.999301 0.487087 0.243387
0.999280 0.753933 0.050095
0.988381 0.989294 0.015833
0.000207 0.106279 0.007305
0.000209 0.085574 0.002125
0.076926 0.068699 0.000201
0.501175 0.052879 0.000424
0.999829 0.021584 0.377940
0.999861 0.274002 0.426883
0.999321 0.496649 0.235136
0.999293 0.755671 0.047884
0.988357 0.989437 0.015975
0.000082 0.448725 0.000365
0.000118 0.397865 0.000426
0.005256 0.352894 0.000010
0.356309 0.297031 0.000091
0.962555 0.289842 0.023416
0.999681 0.378668 0.343483
0.999456 0.533591 0.208323
0.999361 0.763241 0.038386
0.988202 0.990032 0.016462
0.000051 0.861435 0.000311
0.000009 0.847684 0.000118
0.000060 0.831538 0.000201
0.164918 0.785199 0.000080
0.776654 0.705348 0.000188
0.999775 0.643707 0.099926
0.999651 0.653847 0.110800
0.998846 0.795710 0.006059
0.987325 0.992559 0.018134
0.000000 1.000000 0.000285
0.000000 1.000000 0.000285
0.000000 1.000000 0.000285
0.000000 1.000000 0.000285
0.574748 0.999881 0.000021
0.991611 0.922020 0.000101
0.999026 0.857116 0.000009
0.999098 0.875499 0.000086
0.984684 0.998665 0.023152
0.080683 0.999418 0.000293
0.088091 0.999441 0.000284
0.100301 0.999481 0.000270
0.152874 0.999651 0.000213
0.358987 0.999853 0.000582
0.758408 0.999468 0.000378
0.983448 0.999736 0.021695
0.983394 0.991429 0.015321
0.983737 0.999959 0.022778
0.649122 0.999702 0.258326
0.649814 0.999702 0.257889
0.650964 0.999701 0.257163
0.656052 0.999698 0.253956
0.678509 0.999679 0.239831
0.761495 0.999780 0.187220
0.976735 0.999733 0.122048
0.985077 0.999873 0.046883
0.986703 0.999959 0.092364
0.992080 0.999914 0.691763
0.992079 0.999915 0.691718
0.992076 0.999916 0.691642
0.992065 0.999923 0.691306
0.992014 0.999954 0.689785
0.992201 0.999889 0.682977
0.992428 0.999714 0.655402
0.990704 0.999339 0.589899
0.992248 0.999587 0.623312
0.000121 0.000000 0.082738
0.024808 0.000106 0.070427
0.157603 0.000721 0.050091
0.679933 0.000002 0.064801
0.999629 0.000074 0.499887
0.999815 0.240186 0.457897
0.999547 0.487520 0.307355
0.999626 0.751563 0.104347
0.988896 0.992796 0.018740
0.000224 0.023338 0.104372
0.009289 0.018235 0.083562
0.115708 0.010397 0.069189
0.572256 0.000083 0.070503
0.999635 0.000210 0.464802
0.999676 0.259692 0.448634
0.999584 0.492887 0.304131
0.999626 0.752662 0.103043
0.988885 0.992884 0.018814
0.000208 0.118706 0.125010
0.000164 0.091928 0.090919
0.071614 0.072278 0.069583
0.484671 0.053895 0.051235
0.999790 0.033316 0.374077
0.999367 0.289346 0.438730
0.999648 0.501590 0.298956
0.999628 0.754479 0.100893
0.988866 0.993031 0.018938
0.000018 0.470888 0.030795
0.000004 0.421591 0.008494
0.001451 0.376715 0.002234
0.346617 0.312131 0.000017
0.943388 0.291994 0.133027
0.999823 0.394853 0.394707
0.999666 0.538472 0.276610
0.999648 0.762388 0.091620
0.988716 0.993542 0.019335
0.000071 0.875563 0.000317
0.000304 0.864972 0.000494
0.000149 0.848729 0.000861
0.130946 0.802440 0.000083
0.762165 0.726082 0.000016
0.999416 0.647086 0.206137
0.999722 0.654688 0.189715
0.999005 0.793833 0.048554
0.987889 0.995322 0.020749
0.000000 1.000000 0.000285
0.000000 1.000000 0.000285
0.000000 1.000000 0.000285
0.000000 1.000000 0.000285
0.549181 0.999363 0.000110
0.991750 0.927220 0.000147
0.999356 0.868706 0.000211
0.999421 0.882898 0.000052
0.985179 0.999133 0.025586
0.076617 0.999430 0.000572
0.083990 0.999446 0.000577
0.096143 0.999472 0.000585
0.148489 0.999586 0.000620
0.348668 0.999553 0.000125
0.750791 0.999887 0.000403
0.983450 0.999737 0.021696
0.983393 0.991445 0.015336
0.983743 0.999940 0.023134
0.647949 0.999677 0.285883
0.648642 0.999674 0.285453
0.649793 0.999670 0.284740
0.654882 0.999649 0.281588
0.677347 0.999554 0.267710
0.760787 0.999747 0.216256
0.976520 0.999715 0.139158
0.985214 0.999786 0.051432
0.986879 0.999996 0.096505
0.991984 0.999914 0.694114
0.991983 0.999915 0.694069
0.991980 0.999916 0.693993
0.991969 0.999923 0.693657
0.991918 0.999953 0.692135
0.992139 0.999892 0.685339
0.992516 0.999741 0.657910
0.990750 0.999294 0.592547
0.992393 0.999631 0.625797
0.003763 0.000009 0.390082
0.024977 0.000001 0.320369
0.140083 0.000163 0.282022
0.585899 0.000198 0.295712
0.999820 0.000172 0.620424
0.999862 0.293110 0.582820
0.999828 0.505463 0.458914
0.999657 0.746747 0.255747
0.989557 0.999831 0.029954
0.003895 0.044898 0.459719
0.006891 0.027273 0.378342
0.102901 0.017650 0.329135
0.529606 0.003012 0.307120
0.999752 0.000524 0.581585
0.999766 0.310834 0.578550
0.999864 0.510393 0.456935
0.999648 0.747743 0.254750
0.989543 0.999870 0.029980
0.000387 0.147693 0.515162
0.000135 0.111406 0.433889
0.063850 0.090722 0.380863
0.470281 0.060913 0.325926
0.997685 0.046601 0.528786
0.999587 0.337137 0.572875
0.999923 0.518388 0.453733
0.999634 0.749390 0.253103
0.989519 0.999934 0.030024
0.000121 0.488083 0.531816
0.000181 0.450563 0.483737
0.000825 0.411284 0.440111
0.337846 0.338603 0.338092
0.914494 0.299877 0.399044
0.999653 0.427058 0.550091
0.999564 0.550549 0.439434
0.999579 0.756570 0.245962
0.989376 0.999996 0.030394
0.000333 0.852416 0.363378
0.000406 0.843089 0.347893
0.000100 0.830847 0.327290
0.077837 0.791069 0.264745
0.741910 0.720087 0.195910
0.999733 0.649475 0.434991
0.999766 0.654591 0.383414
0.999660 0.786597 0.214975
0.988699 0.999979 0.032338
0.000000 1.000000 0.000285
0.000000 1.000000 0.000285
0.000000 1.000000 0.000285
0.000000 1.000000 0.000285
0.478061 0.999732 0.000074
0.989554 0.973096 0.014056
0.999611 0.859247 0.178612
0.999532 0.882113 0.078381
0.986528 0.999913 0.039388
0.078093 0.999477 0.000552
0.084729 0.999483 0.000532
0.095667 0.999494 0.000497
0.142776 0.999538 0.000349
0.326004 0.999551 0.000285
0.726760 0.999764 0.000224
0.984162 0.999637 0.025225
0.984698 0.995505 0.019229
0.984432 0.999737 0.030279
0.645726 0.999680 0.385887
0.646407 0.999679 0.385515
0.647538 0.999678 0.384896
0.652538 0.999672 0.382162
0.674609 0.999646 0.370137
0.757132 0.999697 0.321552
0.974518 0.999816 0.235033
0.985779 0.999607 0.068256
0.987658 0.999711 0.146388
0.991566 0.999912 0.704337
0.991564 0.999913 0.704292
0.991561 0.999915 0.704216
0.991550 0.999922 0.703879
0.991499 0.999953 0.702355
0.991874 0.999908 0.695610
0.992899 0.999861 0.668823
0.991132 0.999248 0.604252
0.993028 0.999824 0.636638
0.000567 0.126280 0.981098
0.012401 0.109783 0.948210
0.113852 0.089108 0.911762
0.513863 0.049221 0.833541
0.994507 0.039431 0.828069
0.999296 0.379322 0.726889
0.999666 0.546273 0.656850
0.999515 0.738211 0.521575
0.991913 0.999256 0.252188
0.000956 0.190027 0.990605
0.000660 0.166850 0.968814
0.089754 0.141887 0.930325
0.489364 0.096024 0.841172
0.980769 0.077544 0.819997
0.999580 0.393762 0.725918
0.999679 0.550052 0.655935
0.999512 0.739085 0.521107
0.991900 0.999288 0.251773
0.000600 0.279488 0.994669
0.000469 0.257347 0.984795
0.049364 0.229671 0.950675
0.452337 0.170273 0.847589
0.952129 0.139075 0.808981
0.999996 0.416097 0.724441
0.999700 0.556195 0.654451
0.999508 0.740532 0.520332
0.991879 0.999289 0.251059
0.000173 0.523991 0.987675
0.000294 0.505887 0.973537
0.000826 0.480902 0.952562
0.326757 0.418440 0.852912
0.872764 0.353001 0.767572
0.999948 0.491467 0.721719
0.999816 0.581274 0.648722
0.999519 0.746829 0.516705
0.991784 0.999296 0.247897
0.000457 0.830711 0.928821
0.000021 0.824506 0.921901
0.000572 0.816258 0.909737
0.035315 0.784220 0.862257
0.716133 0.717075 0.716416
0.999844 0.658761 0.701328
0.999352 0.660830 0.629614
0.999720 0.773087 0.500154
0.991367 0.999331 0.233901
0.000276 0.999610 0.664974
0.000196 0.999663 0.663275
0.000075 0.999738 0.660561
0.000056 0.999387 0.650582
0.359226 0.999836 0.567208
0.969032 0.940507 0.514422
0.999744 0.834886 0.539900
0.999279 0.858626 0.426428
0.989672 0.999487 0.175344
0.098728 0.999834 0.272320
0.105722 0.999834 0.271315
0.117253 0.999835 0.269654
0.166980 0.999839 0.262460
0.333793 0.999599 0.233131
0.686097 0.999349 0.157443
0.987966 0.999706 0.164389
0.988092 0.999475 0.100384
0.986911 0.999430 0.081272
0.638640 0.999863 0.606499
0.639352 0.999862 0.606315
0.640534 0.999861 0.606009
0.645766 0.999857 0.604659
0.668893 0.999839 0.598726
0.745248 0.999458 0.564040
0.963816 0.999763 0.487270
0.988054 0.999747 0.244149
0.987684 0.999423 0.353025
0.992442 0.999680 0.743311
0.992441 0.999679 0.743263
0.992440 0.999677 0.743183
0.992437 0.999670 0.742826
0.992422 0.999636 0.741208
0.992269 0.999593 0.735154
0.991449 0.999881 0.710868
0.993574 0.999943 0.652698
0.993453 0.999731 0.675735
0.021236 0.511217 0.999972
0.040695 0.505726 0.999997
0.122476 0.497842 0.999985
0.419726 0.469844 0.999762
0.850139 0.411810 0.999489
0.999592 0.455727 0.943874
0.999627 0.585492 0.828150
0.999769 0.741617 0.762485
0.994129 0.966693 0.633785
0.017214 0.524708 0.999976
0.033973 0.519702 0.999992
0.110172 0.512030 0.999968
0.406803 0.485040 0.999699
0.843702 0.427730 0.999375
0.999631 0.463031 0.944761
0.999603 0.588327 0.827950
0.999765 0.742268 0.762377
0.994116 0.966867 0.633620
0.010024 0.545624 0.999979
0.027161 0.541321 0.999967
0.088369 0.534235 0.999902
0.386992 0.509212 0.999573
0.833080 0.452192 0.999209
0.999695 0.474758 0.946168
0.999562 0.592962 0.827621
0.999758 0.743344 0.762199
0.994094 0.967156 0.633345
0.000443 0.617446 0.999932
0.000648 0.614413 0.999966
0.027414 0.609219 0.999876
0.302739 0.589049 0.999304
0.790065 0.537556 0.999614
0.999731 0.521915 0.951652
0.999413 0.612358 0.826207
0.999729 0.748052 0.761420
0.993998 0.968439 0.632126
0.000405 0.771559 0.999971
0.000308 0.770572 0.999965
0.000155 0.769052 0.999957
0.043793 0.756543 0.999924
0.645940 0.720719 0.999449
0.999472 0.653563 0.966625
0.999733 0.681421 0.820891
0.999778 0.767366 0.755984
0.993566 0.974175 0.626681
0.000265 0.949663 0.999927
0.000340 0.949117 0.999909
0.000461 0.948239 0.999880
0.000170 0.945168 0.999779
0.228079 0.943176 0.997816
0.884449 0.885426 0.884780
0.999399 0.818792 0.808055
0.999766 0.834738 0.729072
0.991697 0.992865 0.601815
0.000023 0.998330 0.867052
0.000025 0.998404 0.866052
0.000027 0.998526 0.864403
0.012897 0.998956 0.854526
0.150007 0.999821 0.806541
0.628702 0.999875 0.716609
0.993155 0.999823 0.666652
0.992015 0.998607 0.604909
0.989394 0.999595 0.520426
0.536354 0.999880 0.893717
0.537499 0.999879 0.893398
0.539401 0.999877 0.892868
0.547816 0.999870 0.890525
0.584209 0.999842 0.880405
0.694781 0.999668 0.848732
0.927995 0.999535 0.790455
0.992015 0.999580 0.648923
0.993267 0.999418 0.667871
0.995268 0.999591 0.864209
0.995270 0.999589 0.864168
0.995273 0.999587 0.864102
0.995288 0.999579 0.863805
0.995352 0.999539 0.862462
0.995091 0.999631 0.856533
0.993985 0.999576 0.832670
0.993332 1.000000 0.780222
0.993760 1.000000 0.792432
0.350349 0.665258 0.999775
0.360768 0.665005 0.999736
0.377753 0.664598 0.999674
0.444850 0.662780 0.999672
0.637661 0.660898 0.999310
0.959339 0.635446 0.999536
0.999494 0.638680 0.999340
0.999794 0.736995 0.952657
0.996631 0.930872 0.917101
0.347902 0.667325 0.999777
0.358373 0.667082 0.999741
0.375443 0.666691 0.999682
0.442621 0.664797 0.999654
0.636079 0.662745 0.999315
0.957888 0.637795 0.999520
0.999480 0.640067 0.999320
0.999786 0.737545 0.952607
0.996621 0.931027 0.917073
0.343946 0.670732 0.999782
0.354502 0.670505 0.999749
0.371711 0.670141 0.999697
0.438992 0.668107 0.999623
0.633503 0.665786 0.999325
0.955515 0.641669 0.999493
0.999457 0.642357 0.999286
0.999774 0.738455 0.952524
0.996604 0.931284 0.917027
0.328015 0.685423 0.999822
0.338918 0.685264 0.999806
0.356086 0.684847 0.999760
0.424036 0.682188 0.999447
0.622863 0.678821 0.999383
0.943637 0.656403 0.999474
0.999359 0.652285 0.999141
0.999719 0.742458 0.952159
0.996530 0.932424 0.916822
0.258469 0.738627 0.999863
0.269615 0.738152 0.999819
0.287820 0.737375 0.999748
0.360157 0.734412 0.999685
0.573226 0.726872 0.999750
0.896057 0.710105 0.999317
0.999705 0.690430 0.999623
0.999515 0.759594 0.950617
0.996195 0.937533 0.915912
0.041960 0.885682 0.999939
0.051087 0.884774 0.999942
0.066012 0.883291 0.999948
0.130253 0.877046 0.999959
0.390926 0.857615 0.999655
0.782709 0.834031 0.999597
0.999930 0.797343 0.999983
0.999821 0.820228 0.944719
0.995972 0.958125 0.906808
0.000389 0.972493 0.999708
0.000355 0.972459 0.999691
0.000297 0.972401 0.999663
0.000049 0.972153 0.999539
0.019869 0.997464 0.999794
0.488426 0.999915 0.999704
0.974426 0.984204 0.980947
0.996227 0.960398 0.920462
0.995439 0.999180 0.862307
0.438825 0.999534 0.999895
0.439927 0.999536 0.999893
0.441759 0.999539 0.999890
0.449867 0.999552 0.999876
0.485776 0.999610 0.999814
0.613260 0.999669 0.999413
0.870544 0.997724 0.999881
0.996056 0.999535 0.966857
0.996425 0.999794 0.968906
0.998112 0.999930 0.999712
0.998164 0.999932 0.999720
0.998249 0.999935 0.999733
0.998629 0.999949 0.999791
1.000000 1.000000 1.000000
1.000000 1.000000 1.000000
1.000000 1.000000 1.000000
0.999053 0.999922 0.994581
0.999441 0.999954 0.996801
0.527935 0.942253 0.999717
0.530748 0.941899 0.999714
0.535411 0.941312 0.999710
0.551657 0.938996 0.999710
0.619756 0.929326 0.999693
0.791267 0.896722 0.999553
0.999518 0.833121 0.999835
0.999968 0.796102 0.999866
0.997334 0.943242 0.999900
0.527255 0.942691 0.999723
0.530073 0.942337 0.999721
0.534745 0.941752 0.999717
0.550952 0.939446 0.999715
0.619277 0.929797 0.999686
0.790930 0.897163 0.999558
0.999519 0.833528 0.999832
0.999968 0.796447 0.999875
0.997331 0.943388 0.999902
0.526130 0.943418 0.999734
0.528958 0.943066 0.999732
0.533645 0.942484 0.999728
0.549788 0.940195 0.999722
0.618488 0.930578 0.999674
0.790371 0.897895 0.999566
0.999521 0.834203 0.999829
0.999968 0.797020 0.999889
0.997325 0.943631 0.999905
0.521252 0.946633 0.999783
0.524119 0.946289 0.999781
0.528296 0.945751 0.999776
0.544739 0.943502 0.999751
0.615085 0.934032 0.999617
0.787915 0.901120 0.999603
0.999535 0.837187 0.999812
0.999968 0.799558 0.999953
0.997302 0.944709 0.999918
0.498454 0.960845 0.999922
0.500928 0.960550 0.999909
0.505029 0.960061 0.999888
0.523027 0.957920 0.999794
0.597943 0.948699 0.999499
0.776466 0.915152 0.999738
0.999658 0.850257 0.999735
0.999968 0.810172 0.999965
0.997192 0.949536 0.999977
0.376645 0.996191 0.999717
0.380261 0.996107 0.999710
0.386258 0.995967 0.999698
0.412605 0.995366 0.999645
0.503568 0.993210 0.999603
0.726021 0.968334 0.999632
0.997526 0.905955 0.999545
0.999591 0.853709 0.999834
0.996473 0.968082 0.999984
0.302322 0.999856 0.999985
0.304769 0.999856 0.999986
0.308829 0.999857 0.999987
0.326720 0.999860 0.999992
0.396984 0.999738 0.999984
0.605354 0.999570 0.999813
0.927433 0.998471 0.998749
0.996662 0.976297 0.998963
1.000000 1.000000 1.000000
0.532582 0.999812 0.999778
0.533430 0.999811 0.999779
0.534840 0.999810 0.999781
0.540816 0.999804 0.999791
0.562836 0.999759 0.999807
0.650267 0.999337 0.999886
0.862956 0.997314 0.999572
1.000000 1.000000 1.000000
1.000000 1.000000 1.000000
0.993555 0.999754 0.997685
0.993579 0.999755 0.997694
0.993619 0.999756 0.997708
0.993798 0.999763 0.997773
0.994611 0.999794 0.998064
0.998207 0.999932 0.999356
1.000000 1.000000 1.000000
1.000000 1.000000 1.000000
1.000000 1.000000 1.000000
0.830491 0.996932 0.999529
0.830774 0.996936 0.999528
0.831244 0.996944 0.999526
0.833332 0.996978 0.999519
0.842698 0.997129 0.999489
0.883161 0.997650 0.999198
1.000000 1.000000 1.000000
1.000000 1.000000 1.000000
1.000000 1.000000 1.000000
0.830470 0.996933 0.999528
0.830753 0.996938 0.999527
0.831223 0.996946 0.999525
0.833310 0.996980 0.999519
0.842673 0.997130 0.999489
0.883132 0.997647 0.999200
1.000000 1.000000 1.000000
1.000000 1.000000 1.000000
1.000000 1.000000 1.000000
0.830434 0.996936 0.999527
0.830717 0.996940 0.999526
0.831187 0.996948 0.999525
0.833273 0.996982 0.999518
0.842632 0.997130 0.999490
0.883083 0.997641 0.999205
1.000000 1.000000 1.000000
1.000000 1.000000 1.000000
1.000000 1.000000 1.000000
0.830277 0.996947 0.999523
0.830559 0.996951 0.999522
0.831028 0.996959 0.999521
0.833109 0.996990 0.999515
0.842447 0.997131 0.999493
0.882869 0.997617 0.999224
0.999987 1.000000 0.999996
1.000000 1.000000 1.000000
1.000000 1.000000 1.000000
0.829562 0.996991 0.999508
0.829841 0.996995 0.999508
0.830306 0.997000 0.999508
0.832366 0.997024 0.999508
0.841608 0.997130 0.999510
0.881919 0.997507 0.999316
0.999424 1.000000 0.999814
1.000000 1.000000 1.000000
1.000000 1.000000 1.000000
0.825921 0.997182 0.999544
0.826200 0.997182 0.999544
0.826664 0.997182 0.999545
0.828725 0.997181 0.999547
0.837980 0.997176 0.999556
0.877985 0.997573 0.999285
0.997174 1.000000 0.999090
1.000000 1.000000 1.000000
1.000000 1.000000 1.000000
0.817295 0.996428 0.999715
0.817569 0.996420 0.999715
0.818026 0.996407 0.999715
0.820042 0.996367 0.999712
0.828844 0.996566 0.999606
0.866484 0.997432 0.999164
0.982916 0.999579 0.998094
1.000000 1.000000 1.000000
1.000000 1.000000 1.000000
0.838402 0.996959 0.999990
0.838615 0.996954 0.999992
0.838971 0.996946 0.999996
0.840411 0.996958 0.999972
0.846747 0.997063 0.999811
0.874284 0.997522 0.999111
0.974842 0.999361 0.997590
1.000000 1.000000 1.000000
1.000000 1.000000 1.000000
1.000000 1.000000 1.000000
1.000000 1.000000 1.000000
1.000000 1.000000 1.000000
1.000000 1.000000 1.000000
1.000000 1.000000 1.000000
1.000000 1.000000 1.000000
1.000000 1.000000 1.000000
1.000000 1.000000 1.000000
1.000000 1.000000 1.000000
