output/ACEScct_display/ACEScct_to_ETERNA_33grid.cube
TITLE "ACEScct_to_ETERNA"
# Input: ACEScct (AP1 primaries, log encoding, D60)
# Output: BT.709 / Gamma 2.2 (display-referred)
# Use: Display/output transform in DaVinci Resolve ACES pipeline (replaces ODT)
# Source: FLog2C_to_ETERNA_65grid_V.1.00.cube
# Generated from Fujifilm GFX ETERNA 55 F-Log2C LUT
LUT_3D_SIZE 33
0.006510 0.006095 0.006119
0.006510 0.006095 0.006119
0.006510 0.006095 0.006119
0.011063 0.006114 0.006607
0.044915 0.008323 0.011161
0.075968 0.010120 0.015633
0.105689 0.009777 0.020015
0.143847 0.013179 0.024263
0.188129 0.018351 0.029185
0.254402 0.022141 0.038822
0.348028 0.038120 0.050724
0.479175 0.060128 0.068226
0.632778 0.094297 0.083054
0.781664 0.131017 0.103016
0.894695 0.169887 0.114135
0.936441 0.212919 0.120637
0.941297 0.256884 0.189458
0.944413 0.304379 0.248102
0.943151 0.339447 0.260412
0.941988 0.363151 0.247220
0.941001 0.386464 0.230749
0.938133 0.417973 0.203500
0.935968 0.451001 0.171797
0.930268 0.494216 0.113730
0.928897 0.539834 0.065538
0.926965 0.587908 0.063072
0.925824 0.639414 0.060509
0.925857 0.690820 0.057490
0.926217 0.740817 0.056467
0.927429 0.789703 0.055564
0.927268 0.856417 0.053929
0.929836 0.916371 0.054938
0.930795 0.971935 0.054211
0.006510 0.006095 0.006119
0.006510 0.006095 0.006119
0.006510 0.006095 0.006119
0.016187 0.006399 0.007316
0.049878 0.008723 0.011798
0.080076 0.010249 0.016299
0.108735 0.009620 0.020422
0.146465 0.013682 0.024520
0.190740 0.018285 0.029533
0.256940 0.022419 0.039138
0.350656 0.038471 0.050958
0.481405 0.060573 0.068555
0.619136 0.090325 0.082878
0.746333 0.120800 0.097102
0.869382 0.160959 0.111430
0.936094 0.204981 0.120410
0.940302 0.250491 0.178659
0.943894 0.302181 0.239690
0.942977 0.343344 0.257713
0.941558 0.366473 0.245620
0.940771 0.389039 0.228713
0.938035 0.419987 0.201659
0.935786 0.452699 0.170158
0.930070 0.495481 0.111701
0.928881 0.540733 0.065408
0.926952 0.588547 0.062994
0.925831 0.639868 0.060491
0.925858 0.691121 0.057466
0.926214 0.741023 0.056462
0.927426 0.789840 0.055568
0.927270 0.856505 0.053924
0.929837 0.916427 0.054931
0.930794 0.971970 0.054213
0.006510 0.006095 0.006119
0.006510 0.006095 0.006119
0.006510 0.006095 0.006119
0.021150 0.006675 0.008002
0.054722 0.009114 0.012421
0.084099 0.010376 0.016951
0.111727 0.009465 0.020822
0.148900 0.014225 0.024751
0.193320 0.018219 0.029876
0.259058 0.022539 0.039395
0.343391 0.036767 0.049615
0.455446 0.055399 0.065944
0.585859 0.080358 0.079394
0.717641 0.113957 0.092118
0.846558 0.153321 0.108797
0.935516 0.197862 0.119528
0.939395 0.244855 0.168664
0.943417 0.300112 0.231820
0.942797 0.347064 0.255071
0.941396 0.369261 0.243137
0.940545 0.391556 0.226723
0.937939 0.421971 0.199847
0.935609 0.454379 0.168533
0.929873 0.496738 0.109689
0.928866 0.541626 0.065277
0.926940 0.589184 0.062917
0.925837 0.640320 0.060473
0.925859 0.691422 0.057443
0.926212 0.741228 0.056456
0.927424 0.789976 0.055571
0.927271 0.856594 0.053919
0.929839 0.916483 0.054924
0.930793 0.972004 0.054216
0.005255 0.011049 0.005527
0.005106 0.012267 0.005407
0.004957 0.013479 0.005289
0.018474 0.012713 0.006371
0.048008 0.012009 0.009743
0.078773 0.010136 0.015331
0.103941 0.009298 0.020718
0.138339 0.013495 0.022803
0.181762 0.016941 0.029607
0.240178 0.022655 0.037256
0.317955 0.033065 0.046988
0.427192 0.050993 0.059312
0.556058 0.076434 0.075312
0.692744 0.107894 0.089327
0.825104 0.145132 0.106333
0.934762 0.191572 0.117770
0.938808 0.241732 0.155241
0.943415 0.300785 0.222898
0.942263 0.350446 0.250977
0.941241 0.371965 0.240729
0.940324 0.394019 0.224777
0.937809 0.423923 0.197977
0.935437 0.456041 0.166920
0.929678 0.497987 0.107695
0.928851 0.542515 0.065144
0.926927 0.589819 0.062839
0.925844 0.640771 0.060456
0.925860 0.691722 0.057419
0.926210 0.741433 0.056451
0.927421 0.790112 0.055575
0.927273 0.856683 0.053914
0.929840 0.916539 0.054918
0.930792 0.972039 0.054218
0.004682 0.031750 0.004063
0.004769 0.032733 0.004026
0.004855 0.033707 0.003989
0.006700 0.028950 0.002253
0.035054 0.028356 0.005293
0.068982 0.023507 0.011113
0.094709 0.019335 0.017158
0.129937 0.020574 0.019806
0.170209 0.020434 0.026636
0.224210 0.022422 0.035006
0.298397 0.031678 0.045820
0.404571 0.043991 0.059479
0.532708 0.070567 0.071700
0.670051 0.102489 0.087651
0.805771 0.139017 0.103999
0.923465 0.186978 0.115358
0.938266 0.238980 0.142816
0.943485 0.301869 0.214214
0.941746 0.353709 0.247069
0.941090 0.374590 0.238392
0.940107 0.396429 0.222873
0.937618 0.425844 0.195985
0.935269 0.457685 0.165321
0.929485 0.499228 0.105717
0.928836 0.543399 0.065009
0.926915 0.590452 0.062760
0.925850 0.641221 0.060438
0.925861 0.692023 0.057396
0.926208 0.741637 0.056446
0.927419 0.790248 0.055579
0.927275 0.856771 0.053908
0.929842 0.916595 0.054911
0.930791 0.972073 0.054220
0.005883 0.054241 0.004197
0.005931 0.055496 0.004229
0.005978 0.056741 0.004260
0.007053 0.050532 0.000440
0.026612 0.046647 0.002112
0.055726 0.042435 0.006115
0.086665 0.041499 0.010535
0.119685 0.038033 0.016320
0.160993 0.033236 0.022462
0.213163 0.033776 0.031508
0.283443 0.038859 0.041822
0.384852 0.043212 0.054592
0.512356 0.069475 0.068038
0.650220 0.099980 0.085651
0.788328 0.134715 0.101746
0.913110 0.184619 0.112625
0.937597 0.243239 0.131681
0.943500 0.303005 0.205808
0.941245 0.356861 0.243331
0.940945 0.377141 0.236121
0.939894 0.398790 0.221009
0.937430 0.427738 0.194023
0.935107 0.459313 0.163733
0.929400 0.500480 0.103803
0.928822 0.544277 0.064873
0.926896 0.591098 0.062724
0.925857 0.641670 0.060421
0.925862 0.692322 0.057372
0.926206 0.741842 0.056440
0.927417 0.790383 0.055582
0.927276 0.856860 0.053903
0.929844 0.916651 0.054904
0.930790 0.972108 0.054223
0.005937 0.082757 0.001311
0.005921 0.083902 0.001133
0.005804 0.084251 0.000646
0.005578 0.075804 0.000258
0.018184 0.070434 0.000396
0.045318 0.065794 0.001794
0.074416 0.061707 0.005435
0.109549 0.059659 0.010896
0.152873 0.059142 0.018089
0.203109 0.055287 0.025784
0.270082 0.057531 0.035214
0.366123 0.064276 0.047999
0.490314 0.079060 0.063216
0.631899 0.105602 0.081016
0.771253 0.141042 0.095288
0.901667 0.190404 0.107216
0.936811 0.248133 0.118674
0.942886 0.305657 0.193790
0.940845 0.360544 0.239062
0.940751 0.380441 0.233445
0.939514 0.402056 0.218011
0.937203 0.430031 0.191647
0.934914 0.461293 0.161796
0.929376 0.502021 0.101506
0.928804 0.545352 0.064703
0.926870 0.591898 0.062702
0.925865 0.642221 0.060399
0.925864 0.692690 0.057344
0.926203 0.742093 0.056433
0.927414 0.790550 0.055586
0.927278 0.856969 0.053896
0.929846 0.916720 0.054896
0.930789 0.972150 0.054225
0.005785 0.109868 0.000518
0.005809 0.110583 0.000498
0.005654 0.108219 0.000246
0.005512 0.102757 0.000066
0.008240 0.099500 0.000132
0.028496 0.095450 0.000149
0.061759 0.092094 0.000772
0.099613 0.088725 0.005373
0.141346 0.086119 0.010731
0.190633 0.083651 0.018709
0.255001 0.085069 0.028048
0.344167 0.090965 0.039485
0.466115 0.100205 0.056890
0.608383 0.121069 0.074728
0.749499 0.152361 0.089778
0.885094 0.198573 0.102233
0.935677 0.255076 0.106198
0.942045 0.309270 0.177454
0.940617 0.365570 0.233415
0.940382 0.386202 0.229837
0.938942 0.406807 0.213545
0.936877 0.433310 0.188251
0.934644 0.464142 0.158997
0.929341 0.504247 0.098192
0.928779 0.546910 0.064450
0.926832 0.593062 0.062668
0.925878 0.643023 0.060369
0.925867 0.693227 0.057304
0.926199 0.742460 0.056423
0.927410 0.790794 0.055593
0.927281 0.857128 0.053887
0.929848 0.916820 0.054884
0.930787 0.972212 0.054230
0.005159 0.145950 0.000058
0.005113 0.146682 0.000059
0.005761 0.140630 0.000379
0.006632 0.132148 0.000535
0.006771 0.128096 0.000093
0.013369 0.126122 0.000092
0.043897 0.121164 0.000066
0.086050 0.115007 0.000372
0.127361 0.113548 0.005511
0.177600 0.112135 0.011255
0.236943 0.111736 0.020282
0.321614 0.113234 0.033116
0.438999 0.122843 0.049069
0.578661 0.140689 0.066045
0.722775 0.168079 0.083120
0.863095 0.210064 0.096552
0.935113 0.265795 0.097518
0.939945 0.316405 0.143020
0.940201 0.372265 0.223018
0.939868 0.394153 0.224869
0.938144 0.413458 0.207288
0.936416 0.437957 0.183441
0.934276 0.468214 0.154973
0.929289 0.507449 0.093439
0.928744 0.549158 0.064072
0.926779 0.594749 0.062620
0.925900 0.644188 0.060317
0.925871 0.694009 0.057246
0.926194 0.742996 0.056409
0.927405 0.791150 0.055602
0.927285 0.857360 0.053873
0.929852 0.916967 0.054867
0.930784 0.972303 0.054236
0.007034 0.188949 0.000397
0.007085 0.186676 0.000489
0.006253 0.178726 0.000257
0.005613 0.171060 0.000019
0.005551 0.165284 0.000422
0.008955 0.160841 0.000536
0.023082 0.156964 0.000008
0.066116 0.154715 0.000159
0.112060 0.148542 0.000541
0.161656 0.145572 0.003276
0.220205 0.144932 0.012403
0.299126 0.146005 0.023835
0.409550 0.151961 0.038915
0.547037 0.166612 0.057699
0.692202 0.188901 0.074594
0.835089 0.226460 0.089795
0.930939 0.280566 0.093806
0.937867 0.327542 0.108358
0.939212 0.380560 0.198563
0.938835 0.405192 0.215506
0.937368 0.422440 0.199128
0.935702 0.444786 0.176604
0.933679 0.474287 0.145088
0.929210 0.512020 0.086678
0.928697 0.552386 0.063500
0.926702 0.597187 0.062551
0.925936 0.645873 0.060236
0.925879 0.695147 0.057165
0.926186 0.743776 0.056386
0.927397 0.791669 0.055615
0.927291 0.857698 0.053852
0.929859 0.917182 0.054842
0.930780 0.972435 0.054244
0.006804 0.243296 0.000785
0.006008 0.232026 0.000134
0.005851 0.222328 0.000019
0.006031 0.215213 0.000083
0.005733 0.209347 0.000193
0.005610 0.203500 0.000193
0.009599 0.199060 0.000232
0.041802 0.195503 0.000246
0.095057 0.189356 0.000143
0.143915 0.185328 0.000430
0.202776 0.182294 0.003716
0.277238 0.181846 0.014882
0.380548 0.186124 0.029529
0.513019 0.196782 0.047064
0.656726 0.216108 0.065058
0.802023 0.250350 0.080991
0.924897 0.299850 0.091503
0.937507 0.346281 0.087543
0.937844 0.391880 0.161171
0.937598 0.420030 0.202332
0.936953 0.434183 0.189073
0.934575 0.454873 0.166967
0.932791 0.482711 0.131240
0.929156 0.518407 0.077129
0.928625 0.557008 0.062670
0.926596 0.600693 0.062451
0.925987 0.648309 0.060123
0.925892 0.696798 0.057052
0.926176 0.744910 0.056353
0.927388 0.792425 0.055634
0.927299 0.858192 0.053822
0.929868 0.917494 0.054805
0.930775 0.972627 0.054257
0.007039 0.300624 0.000352
0.006514 0.289039 0.000098
0.006575 0.279292 0.000114
0.006515 0.271408 0.000077
0.006214 0.265002 0.000001
0.006726 0.258431 0.000009
0.008141 0.252689 0.000027
0.021921 0.247385 0.000062
0.069665 0.241143 0.000071
0.129043 0.235197 0.000430
0.185586 0.228560 0.000216
0.256598 0.227601 0.005483
0.352768 0.229027 0.018772
0.478911 0.235782 0.035900
0.620436 0.252015 0.053976
0.766637 0.282251 0.068947
0.903258 0.327875 0.083191
0.934002 0.377123 0.081134
0.933110 0.412224 0.109284
0.936488 0.439941 0.184937
0.934991 0.452364 0.174190
0.933317 0.469185 0.151033
0.931589 0.494162 0.112354
0.929044 0.527158 0.067439
0.928369 0.564064 0.062456
0.926450 0.605699 0.062310
0.926061 0.651810 0.059973
0.925916 0.699186 0.056899
0.926162 0.746558 0.056301
0.927376 0.793525 0.055660
0.927311 0.858909 0.053777
0.929881 0.917951 0.054752
0.930803 0.972888 0.054371
0.006127 0.371002 0.000004
0.006078 0.359499 0.000022
0.007374 0.349470 0.000119
0.007208 0.340304 0.000089
0.006879 0.332634 0.000207
0.006665 0.327325 0.000729
0.006401 0.321518 0.000788
0.010103 0.314393 0.000432
0.042729 0.307153 0.000645
0.106896 0.299135 0.000303
0.168469 0.291286 0.000551
0.238267 0.286103 0.000095
0.327604 0.284817 0.005659
0.447894 0.288690 0.022502
0.584715 0.301177 0.040530
0.728483 0.324953 0.056402
0.868794 0.366172 0.071196
0.932695 0.415542 0.077670
0.931052 0.440950 0.075234
0.933077 0.466189 0.140821
0.933332 0.475554 0.144610
0.931995 0.489404 0.123423
0.930816 0.509651 0.086376
0.928851 0.538893 0.066073
0.927987 0.573866 0.062505
0.926278 0.612816 0.062130
0.926072 0.656871 0.059700
0.925962 0.702626 0.056704
0.926143 0.748943 0.056221
0.927365 0.795122 0.055696
0.927326 0.859952 0.053711
0.929901 0.918616 0.054675
0.930866 0.973255 0.054596
0.007905 0.457256 0.000276
0.008011 0.447031 0.000253
0.007422 0.437670 0.000137
0.006779 0.429103 0.000018
0.006931 0.422933 0.000139
0.007076 0.417172 0.000256
0.007168 0.411444 0.000428
0.008369 0.403840 0.000553
0.017823 0.393853 0.000375
0.077616 0.383235 0.000285
0.147962 0.372785 0.000090
0.218480 0.364404 0.000045
0.306026 0.356550 0.000141
0.419097 0.357831 0.006511
0.553391 0.366158 0.024240
0.693911 0.384490 0.042157
0.831914 0.418877 0.057496
0.928151 0.463998 0.072086
0.929338 0.483411 0.070354
0.929643 0.499269 0.083758
0.929676 0.506925 0.092519
0.929108 0.514908 0.083287
0.929341 0.530693 0.070084
0.928353 0.555618 0.064404
0.927578 0.587100 0.062491
0.926267 0.622902 0.061714
0.926016 0.664082 0.059244
0.926049 0.707550 0.056473
0.926162 0.752372 0.056139
0.927360 0.797432 0.055745
0.927347 0.861461 0.053615
0.929931 0.919584 0.054564
0.930959 0.973790 0.054923
0.007296 0.553659 0.000267
0.007878 0.545150 0.000141
0.008055 0.538107 0.000123
0.008039 0.531932 0.000152
0.007977 0.526170 0.000201
0.007750 0.520946 0.000334
0.007485 0.514891 0.000491
0.008049 0.507308 0.000349
0.012724 0.497965 0.000080
0.040940 0.487636 0.000015
0.126066 0.475890 0.000323
0.200667 0.465039 0.000294
0.285820 0.454543 0.000119
0.394539 0.450689 0.000139
0.526250 0.451511 0.007289
0.663202 0.464009 0.024992
0.794315 0.486910 0.044487
0.908496 0.520696 0.063347
0.928603 0.539715 0.067288
0.928584 0.541649 0.065720
0.929236 0.543197 0.064638
0.928544 0.547136 0.065510
0.927815 0.559339 0.064861
0.927525 0.578518 0.063267
0.927352 0.604123 0.061146
0.926364 0.636638 0.060921
0.925977 0.674131 0.058608
0.926216 0.714535 0.056248
0.926264 0.757238 0.056075
0.927375 0.800762 0.055808
0.927445 0.863593 0.053818
0.929978 0.920990 0.054406
0.931094 0.974567 0.055399
0.009342 0.654665 0.000293
0.009838 0.649112 0.000320
0.009404 0.644549 0.000264
0.008863 0.640296 0.000198
0.008345 0.636231 0.000133
0.008199 0.632457 0.000203
0.008336 0.628131 0.000399
0.008524 0.622180 0.000668
0.008064 0.614422 0.000386
0.029411 0.604996 0.000178
0.095740 0.593870 0.000377
0.179697 0.581491 0.000275
0.268128 0.569073 0.000323
0.374140 0.558834 0.000013
0.502794 0.554646 0.000026
0.633284 0.558084 0.006252
0.761320 0.569688 0.028965
0.879260 0.589031 0.053122
0.926676 0.610547 0.061402
0.927485 0.597681 0.061890
0.927421 0.587415 0.062339
0.927271 0.587542 0.062143
0.926859 0.594931 0.062672
0.926976 0.607204 0.062488
0.926708 0.627054 0.060531
0.925978 0.654810 0.060095
0.926082 0.687648 0.057609
0.926592 0.724168 0.055840
0.926444 0.764075 0.055963
0.927447 0.805530 0.055881
0.927581 0.866675 0.054121
0.930049 0.923027 0.054182
0.931290 0.975694 0.056088
0.009912 0.753920 0.000101
0.009843 0.750828 0.000132
0.009693 0.747887 0.000188
0.009548 0.745047 0.000243
0.009405 0.742301 0.000297
0.009319 0.739747 0.000350
0.009312 0.736908 0.000415
0.009303 0.732946 0.000502
0.010745 0.727078 0.000520
0.016018 0.718106 0.000301
0.074422 0.708379 0.000185
0.160065 0.698212 0.000036
0.249729 0.685725 0.000010
0.354072 0.673338 0.000021
0.480731 0.663098 0.000407
0.607377 0.657839 0.000366
0.731523 0.657934 0.017120
0.847467 0.666044 0.043023
0.925835 0.679190 0.057493
0.925977 0.666108 0.058298
0.926140 0.643957 0.060058
0.926155 0.635735 0.061004
0.925888 0.636750 0.060700
0.925616 0.643883 0.059421
0.925951 0.657587 0.058972
0.925376 0.678887 0.059452
0.926035 0.705259 0.055857
0.926835 0.737372 0.054882
0.926769 0.773539 0.055689
0.927561 0.812295 0.055887
0.927767 0.871113 0.054574
0.930163 0.925967 0.053871
0.931573 0.977323 0.057085
0.009835 0.843190 0.000056
0.009806 0.841260 0.000060
0.009777 0.839378 0.000064
0.009748 0.837543 0.000068
0.009716 0.835756 0.000074
0.009657 0.834042 0.000095
0.009587 0.831985 0.000120
0.009487 0.829081 0.000156
0.009347 0.825036 0.000208
0.018461 0.819653 0.000169
0.044801 0.812406 0.000162
0.134455 0.802855 0.000367
0.226031 0.791874 0.000206
0.331720 0.778470 0.000097
0.453550 0.765947 0.000121
0.581511 0.755004 0.000141
0.702345 0.749629 0.006537
0.814205 0.748499 0.030168
0.910255 0.750426 0.051665
0.926947 0.742017 0.056156
0.926266 0.712437 0.057133
0.925820 0.690245 0.057051
0.925669 0.686224 0.058540
0.925470 0.687836 0.056864
0.924826 0.695717 0.058605
0.924858 0.708765 0.057660
0.926706 0.728863 0.056787
0.927022 0.755089 0.055267
0.927133 0.786444 0.055240
0.927543 0.821719 0.055817
0.928013 0.877461 0.055257
0.930347 0.930186 0.053447
0.931980 0.979666 0.058519
0.013554 0.920254 0.000571
0.013284 0.919224 0.000644
0.013151 0.918079 0.000639
0.013144 0.916829 0.000564
0.013138 0.915600 0.000490
0.013132 0.914391 0.000417
0.013125 0.912930 0.000327
0.013115 0.910847 0.000199
0.013104 0.907906 0.000016
0.016401 0.904754 0.000404
0.020461 0.900481 0.000950
0.097473 0.892311 0.000712
0.196820 0.882567 0.000451
0.298909 0.871802 0.000327
0.419201 0.860177 0.000930
0.546399 0.848703 0.000555
0.667746 0.837665 0.001360
0.779150 0.829521 0.021334
0.881309 0.824688 0.044679
0.927597 0.818563 0.055723
0.927129 0.785430 0.055130
0.926237 0.750998 0.055390
0.925657 0.740402 0.056015
0.926865 0.735892 0.055674
0.926051 0.737696 0.055701
0.925843 0.744764 0.056690
0.926534 0.758574 0.055888
0.927150 0.777924 0.055373
0.927202 0.803669 0.054777
0.927526 0.834591 0.056009
0.928357 0.886332 0.056141
0.930684 0.936096 0.053618
0.932561 0.983010 0.060566
0.019449 0.982304 0.000475
0.019580 0.981552 0.000475
0.019711 0.980809 0.000474
0.019841 0.980076 0.000474
0.019969 0.979351 0.000473
0.020096 0.978635 0.000472
0.020251 0.977765 0.000472
0.020475 0.976517 0.000470
0.022729 0.974937 0.000418
0.026515 0.972782 0.000328
0.031663 0.969802 0.000201
0.075539 0.964807 0.000365
0.158397 0.957593 0.000755
0.260543 0.949293 0.000112
0.375592 0.939201 0.000129
0.501867 0.928027 0.000096
0.627996 0.916123 0.000015
0.740970 0.907187 0.009097
0.843703 0.897776 0.034823
0.925260 0.887171 0.054047
0.927635 0.859349 0.052791
0.927697 0.819941 0.055014
0.927180 0.796711 0.055332
0.926968 0.789344 0.054602
0.926468 0.785451 0.055583
0.926526 0.787108 0.056918
0.926952 0.793774 0.054705
0.926483 0.807446 0.054082
0.927017 0.826351 0.054782
0.926875 0.851561 0.053952
0.929038 0.897751 0.056054
0.931077 0.944286 0.053662
0.933382 0.987739 0.063461
0.022818 0.999838 0.000199
0.022818 0.999838 0.000199
0.022818 0.999838 0.000199
0.022812 0.999839 0.000199
0.022795 0.999841 0.000199
0.022779 0.999843 0.000199
0.022760 0.999845 0.000199
0.022732 0.999848 0.000199
0.022694 0.999853 0.000199
0.022641 0.999859 0.000199
0.022570 0.999867 0.000199
0.061956 0.999907 0.000465
0.129107 0.999974 0.000925
0.217652 0.999576 0.000512
0.326201 0.997125 0.000480
0.448504 0.990099 0.000655
0.575952 0.981373 0.000404
0.691340 0.971585 0.002061
0.796078 0.960442 0.021719
0.890106 0.946524 0.045310
0.929960 0.926427 0.055500
0.928903 0.890565 0.055884
0.927175 0.855142 0.055438
0.926734 0.844225 0.053806
0.927152 0.837058 0.054038
0.927413 0.833426 0.055237
0.927165 0.834558 0.054594
0.927677 0.841561 0.053760
0.926963 0.854211 0.053403
0.927767 0.872741 0.054142
0.929735 0.912912 0.055342
0.931298 0.955188 0.053441
0.933678 0.992492 0.066800
0.026972 0.999853 0.000336
0.027379 0.999854 0.000350
0.027782 0.999855 0.000364
0.028182 0.999857 0.000377
0.028579 0.999858 0.000391
0.028972 0.999860 0.000404
0.029451 0.999861 0.000420
0.030143 0.999864 0.000444
0.031135 0.999867 0.000478
0.032547 0.999872 0.000528
0.051836 0.999878 0.000465
0.087551 0.999887 0.000310
0.137020 0.999898 0.000096
0.202557 0.999899 0.000020
0.287948 0.999899 0.000045
0.389896 0.999904 0.000137
0.506844 0.999436 0.000110
0.626173 0.999649 0.000313
0.735932 0.998452 0.007233
0.836232 0.994793 0.031604
0.918998 0.981363 0.052396
0.931598 0.954824 0.056591
0.930649 0.917002 0.055650
0.928326 0.898989 0.054081
0.928628 0.889106 0.053868
0.928099 0.882616 0.054856
0.928379 0.878995 0.054856
0.928846 0.879820 0.053966
0.928478 0.886344 0.054535
0.929547 0.897807 0.056153
0.930163 0.932323 0.053255
0.930890 0.968789 0.054001
0.933180 0.997042 0.070632
0.022818 0.999838 0.000199
0.022818 0.999838 0.000199
0.024208 0.999839 0.000199
0.028169 0.999844 0.000197
0.032113 0.999848 0.000196
0.036041 0.999852 0.000195
0.040852 0.999857 0.000194
0.047840 0.999865 0.000192
0.057959 0.999876 0.000190
0.072551 0.999891 0.000186
0.093469 0.999914 0.000181
0.123205 0.999946 0.000176
0.164983 0.999991 0.000169
0.211705 0.999997 0.000349
0.274273 1.000000 0.000591
0.351995 0.999755 0.000398
0.447728 0.999658 0.000233
0.557659 0.999557 0.000497
0.668170 0.999440 0.001207
0.771539 0.999852 0.019049
0.866581 0.999807 0.054819
0.930187 0.996635 0.073053
0.932295 0.977859 0.060270
0.931165 0.950088 0.056213
0.930845 0.939735 0.055652
0.931310 0.931336 0.054214
0.930320 0.924241 0.055612
0.930653 0.920906 0.055643
0.930133 0.922463 0.054326
0.930519 0.929348 0.053772
0.931246 0.956708 0.054571
0.932904 0.984990 0.061778
0.933276 0.999492 0.075887
0.117041 0.999778 0.000312
0.119552 0.999779 0.000313
0.122057 0.999779 0.000314
0.124555 0.999779 0.000316
0.127046 0.999780 0.000317
0.129531 0.999780 0.000318
0.132580 0.999780 0.000319
0.137019 0.999781 0.000321
0.143469 0.999782 0.000324
0.152817 0.999783 0.000329
0.166311 0.999785 0.000336
0.184650 0.999773 0.000336
0.205545 0.999684 0.000285
0.234990 0.999557 0.000211
0.275883 0.999378 0.000103
0.330758 0.999609 0.000225
0.403526 0.999847 0.000327
0.496518 0.999588 0.000093
0.598558 0.999667 0.000354
0.700788 0.999798 0.002826
0.799907 0.999406 0.027213
0.888610 0.999404 0.064717
0.932791 0.999654 0.081553
0.933393 0.995720 0.069584
0.931988 0.987290 0.060199
0.932140 0.978029 0.058845
0.931227 0.970930 0.054094
0.931928 0.965436 0.056338
0.932327 0.961611 0.055718
0.931389 0.963964 0.054428
0.932542 0.982906 0.060503
0.933095 0.997816 0.071284
0.933503 0.999366 0.081183
0.212009 0.999725 0.000097
0.213206 0.999728 0.000096
0.214402 0.999730 0.000095
0.215595 0.999733 0.000094
0.216786 0.999736 0.000093
0.217975 0.999739 0.000092
0.219435 0.999742 0.000091
0.221563 0.999747 0.000089
0.224660 0.999755 0.000087
0.229160 0.999765 0.000084
0.235678 0.999780 0.000079
0.245084 0.999802 0.000071
0.258580 0.999833 0.000061
0.277795 0.999877 0.000047
0.305205 0.999907 0.000062
0.344363 0.999852 0.000199
0.397523 0.999781 0.000367
0.465726 0.999749 0.000123
0.548972 0.999766 0.000290
0.639870 0.999839 0.000257
0.733063 0.999870 0.008905
0.826930 0.999547 0.039048
0.908978 0.999415 0.072440
0.933155 0.999707 0.082716
0.934402 0.999801 0.081864
0.933006 0.999818 0.078863
0.932869 0.999580 0.073772
0.933279 0.998100 0.072472
0.932556 0.997033 0.069498
0.933495 0.994163 0.068207
0.933056 0.999575 0.074111
0.933662 0.999324 0.080982
0.932505 0.999629 0.082445
0.321548 0.999423 0.000161
0.322228 0.999420 0.000157
0.322906 0.999417 0.000152
0.323584 0.999415 0.000148
0.324261 0.999412 0.000144
0.324937 0.999410 0.000139
0.325768 0.999406 0.000134
0.326980 0.999402 0.000127
0.328746 0.999395 0.000115
0.331318 0.999385 0.000099
0.335053 0.999371 0.000075
0.340464 0.999350 0.000041
0.348379 0.999333 0.000003
0.360383 0.999398 0.000027
0.377479 0.999492 0.000060
0.401565 0.999626 0.000107
0.434780 0.999784 0.000160
0.478292 0.999754 0.000132
0.534003 0.999687 0.000134
0.600942 0.999661 0.000189
0.676036 0.999761 0.000263
0.762981 0.999693 0.012473
0.851079 0.999428 0.049253
0.921985 0.999806 0.076948
0.932505 0.999629 0.082445
0.932505 0.999629 0.082445
0.932505 0.999629 0.082445
0.932741 0.999657 0.082543
0.934350 0.999846 0.083089
0.933333 0.999411 0.081398
0.932535 0.999621 0.082407
0.932505 0.999629 0.082445
0.932505 0.999629 0.082445
0.443357 0.999555 0.002902
0.443810 0.999555 0.002883
0.444262 0.999556 0.002865
0.444714 0.999557 0.002846
0.445165 0.999557 0.002828
0.445616 0.999558 0.002809
0.446171 0.999559 0.002786
0.446980 0.999560 0.002752
0.448161 0.999561 0.002703
0.449881 0.999564 0.002631
0.452385 0.999567 0.002524
0.456023 0.999572 0.002366
0.461292 0.999580 0.002132
0.468896 0.999591 0.001782
0.479805 0.999607 0.001255
0.495334 0.999631 0.000451
0.515564 0.999701 0.000223
0.543108 0.999801 0.000216
0.579921 0.999827 0.000231
