output/ACEScct_display/ACEScct_to_ACROS_33grid.cube
TITLE "ACEScct_to_ACROS"
# Input: ACEScct (AP1 primaries, log encoding, D60)
# Output: BT.709 / Gamma 2.2 (display-referred)
# Use: Display/output transform in DaVinci Resolve ACES pipeline (replaces ODT)
# Source: FLog2C_to_ACROS_65grid_V.1.00.cube
# Generated from Fujifilm GFX ETERNA 55 F-Log2C LUT
LUT_3D_SIZE 9
0.000105 0.000105 0.000105
0.004779 0.004779 0.004779
0.037494 0.037494 0.037494
0.213042 0.213042 0.213042
0.484905 0.484905 0.484905
0.600656 0.600656 0.600656
0.685167 0.685167 0.685167
0.791536 0.791536 0.791536
0.916444 0.916444 0.916444
0.007751 0.007751 0.007751
0.010914 0.010914 0.010914
0.032542 0.032542 0.032542
0.169655 0.169655 0.169655
0.461525 0.461525 0.461525
0.607159 0.607159 0.607159
0.686931 0.686931 0.686931
0.791971 0.791971 0.791971
0.916487 0.916487 0.916487
0.050450 0.050450 0.050450
0.041822 0.041822 0.041822
0.054149 0.054149 0.054149
0.158721 0.158721 0.158721
0.462987 0.462987 0.462987
0.616746 0.616746 0.616746
0.689812 0.689812 0.689812
0.792693 0.792693 0.792693
0.916558 0.916558 0.916558
0.214181 0.214181 0.214181
0.185932 0.185932 0.185932
0.180924 0.180924 0.180924
0.236552 0.236552 0.236552
0.478762 0.478762 0.478762
0.651836 0.651836 0.651836
0.701826 0.701826 0.701826
0.795854 0.795854 0.795854
0.916836 0.916836 0.916836
0.472956 0.472956 0.472956
0.473994 0.473994 0.473994
0.477339 0.477339 0.477339
0.502748 0.502748 0.502748
0.604425 0.604425 0.604425
0.730091 0.730091 0.730091
0.742824 0.742824 0.742824
0.808842 0.808842 0.808842
0.917986 0.917986 0.917986
0.733724 0.733724 0.733724
0.736127 0.736127 0.736127
0.740063 0.740063 0.740063
0.756053 0.756053 0.756053
0.800644 0.800644 0.800644
0.855116 0.855116 0.855116
0.835850 0.835850 0.835850
0.849762 0.849762 0.849762
0.921655 0.921655 0.921655
0.794061 0.794061 0.794061
0.794539 0.794539 0.794539
0.795327 0.795327 0.795327
0.798719 0.798719 0.798719
0.813923 0.813923 0.813923
0.863076 0.863076 0.863076
0.900738 0.900738 0.900738
0.903451 0.903451 0.903451
0.919443 0.919443 0.919443
0.903276 0.903276 0.903276
0.903375 0.903375 0.903375
0.903540 0.903540 0.903540
0.904268 0.904268 0.904268
0.907483 0.907483 0.907483
0.920028 0.920028 0.920028
0.944931 0.944931 0.944931
0.932311 0.932311 0.932311
0.943552 0.943552 0.943552
0.978545 0.978545 0.978545
0.978540 0.978540 0.978540
0.978532 0.978532 0.978532
0.978498 0.978498 0.978498
0.978342 0.978342 0.978342
0.977887 0.977887 0.977887
0.975901 0.975901 0.975901
0.971643 0.971643 0.971643
0.974033 0.974033 0.974033
0.001319 0.001319 0.001319
0.005970 0.005970 0.005970
0.036271 0.036271 0.036271
0.209612 0.209612 0.209612
0.475219 0.475219 0.475219
0.604260 0.604260 0.604260
0.688489 0.688489 0.688489
0.794533 0.794533 0.794533
0.917387 0.917387 0.917387
0.011960 0.011960 0.011960
0.013776 0.013776 0.013776
0.033311 0.033311 0.033311
0.161020 0.161020 0.161020
0.457382 0.457382 0.457382
0.610996 0.610996 0.610996
0.690391 0.690391 0.690391
0.794963 0.794963 0.794963
0.917430 0.917430 0.917430
0.057728 0.057728 0.057728
0.047569 0.047569 0.047569
0.059397 0.059397 0.059397
0.157040 0.157040 0.157040
0.458316 0.458316 0.458316
0.620634 0.620634 0.620634
0.693490 0.693490 0.693490
0.795673 0.795673 0.795673
0.917501 0.917501 0.917501
0.228307 0.228307 0.228307
0.200768 0.200768 0.200768
0.192810 0.192810 0.192810
0.242280 0.242280 0.242280
0.476077 0.476077 0.476077
0.655897 0.655897 0.655897
0.705831 0.705831 0.705831
0.798768 0.798768 0.798768
0.917783 0.917783 0.917783
0.494072 0.494072 0.494072
0.493469 0.493469 0.493469
0.494736 0.494736 0.494736
0.514357 0.514357 0.514357
0.609096 0.609096 0.609096
0.737671 0.737671 0.737671
0.749322 0.749322 0.749322
0.811629 0.811629 0.811629
0.918974 0.918974 0.918974
0.741727 0.741727 0.741727
0.743931 0.743931 0.743931
0.747450 0.747450 0.747450
0.762662 0.762662 0.762662
0.805608 0.805608 0.805608
0.862409 0.862409 0.862409
0.841147 0.841147 0.841147
0.852581 0.852581 0.852581
0.922404 0.922404 0.922404
0.797702 0.797702 0.797702
0.798155 0.798155 0.798155
0.798902 0.798902 0.798902
0.802116 0.802116 0.802116
0.816911 0.816911 0.816911
0.865757 0.865757 0.865757
0.903753 0.903753 0.903753
0.905464 0.905464 0.905464
0.920338 0.920338 0.920338
0.903657 0.903657 0.903657
0.903756 0.903756 0.903756
0.903921 0.903921 0.903921
0.904648 0.904648 0.904648
0.907862 0.907862 0.907862
0.920441 0.920441 0.920441
0.945660 0.945660 0.945660
0.933015 0.933015 0.933015
0.944039 0.944039 0.944039
0.978653 0.978653 0.978653
0.978648 0.978648 0.978648
0.978640 0.978640 0.978640
0.978606 0.978606 0.978606
0.978450 0.978450 0.978450
0.977995 0.977995 0.977995
0.976008 0.976008 0.976008
0.971783 0.971783 0.971783
0.974128 0.974128 0.974128
0.006418 0.006418 0.006418
0.010633 0.010633 0.010633
0.037452 0.037452 0.037452
0.186958 0.186958 0.186958
0.456727 0.456727 0.456727
0.609690 0.609690 0.609690
0.696040 0.696040 0.696040
0.799349 0.799349 0.799349
0.918879 0.918879 0.918879
0.023689 0.023689 0.023689
0.022143 0.022143 0.022143
0.040167 0.040167 0.040167
0.154874 0.154874 0.154874
0.450531 0.450531 0.450531
0.616398 0.616398 0.616398
0.697972 0.697972 0.697972
0.799798 0.799798 0.799798
0.918923 0.918923 0.918923
0.076714 0.076714 0.076714
0.060715 0.060715 0.060715
0.069848 0.069848 0.069848
0.161702 0.161702 0.161702
0.452052 0.452052 0.452052
0.626934 0.626934 0.626934
0.701096 0.701096 0.701096
0.800540 0.800540 0.800540
0.918996 0.918996 0.918996
0.260690 0.260690 0.260690
0.230185 0.230185 0.230185
0.218698 0.218698 0.218698
0.262119 0.262119 0.262119
0.480504 0.480504 0.480504
0.664773 0.664773 0.664773
0.714047 0.714047 0.714047
0.803775 0.803775 0.803775
0.919270 0.919270 0.919270
0.527053 0.527053 0.527053
0.526400 0.526400 0.526400
0.526809 0.526809 0.526809
0.542025 0.542025 0.542025
0.625627 0.625627 0.625627
0.747947 0.747947 0.747947
0.757961 0.757961 0.757961
0.816784 0.816784 0.816784
0.920357 0.920357 0.920357
0.757375 0.757375 0.757375
0.759356 0.759356 0.759356
0.762527 0.762527 0.762527
0.776547 0.776547 0.776547
0.818045 0.818045 0.818045
0.873906 0.873906 0.873906
0.848069 0.848069 0.848069
0.856226 0.856226 0.856226
0.923600 0.923600 0.923600
0.803900 0.803900 0.803900
0.804332 0.804332 0.804332
0.805044 0.805044 0.805044
0.808109 0.808109 0.808109
0.822403 0.822403 0.822403
0.870714 0.870714 0.870714
0.908236 0.908236 0.908236
0.908315 0.908315 0.908315
0.921776 0.921776 0.921776
0.904271 0.904271 0.904271
0.904370 0.904370 0.904370
0.904535 0.904535 0.904535
0.905262 0.905262 0.905262
0.908474 0.908474 0.908474
0.921109 0.921109 0.921109
0.946837 0.946837 0.946837
0.934155 0.934155 0.934155
0.944824 0.944824 0.944824
0.978831 0.978831 0.978831
0.978827 0.978827 0.978827
0.978819 0.978819 0.978819
0.978784 0.978784 0.978784
0.978628 0.978628 0.978628
0.978174 0.978174 0.978174
0.976186 0.976186 0.976186
0.972014 0.972014 0.972014
0.974284 0.974284 0.974284
0.037001 0.037001 0.037001
0.033416 0.033416 0.033416
0.051160 0.051160 0.051160
0.163714 0.163714 0.163714
0.449443 0.449443 0.449443
0.630714 0.630714 0.630714
0.714409 0.714409 0.714409
0.812017 0.812017 0.812017
0.923939 0.923939 0.923939
0.076942 0.076942 0.076942
0.061311 0.061311 0.061311
0.072712 0.072712 0.072712
0.172853 0.172853 0.172853
0.451360 0.451360 0.451360
0.637863 0.637863 0.637863
0.716407 0.716407 0.716407
0.812425 0.812425 0.812425
0.923984 0.923984 0.923984
0.135056 0.135056 0.135056
0.107382 0.107382 0.107382
0.112650 0.112650 0.112650
0.191778 0.191778 0.191778
0.458670 0.458670 0.458670
0.648510 0.648510 0.648510
0.719647 0.719647 0.719647
0.813102 0.813102 0.813102
0.924060 0.924060 0.924060
0.327793 0.327793 0.327793
0.299631 0.299631 0.299631
0.288322 0.288322 0.288322
0.321645 0.321645 0.321645
0.506832 0.506832 0.506832
0.685672 0.685672 0.685672
0.732908 0.732908 0.732908
0.816063 0.816063 0.816063
0.924311 0.924311 0.924311
0.584381 0.584381 0.584381
0.584620 0.584620 0.584620
0.585773 0.585773 0.585773
0.599864 0.599864 0.599864
0.667667 0.667667 0.667667
0.769006 0.769006 0.769006
0.776471 0.776471 0.776471
0.829210 0.829210 0.829210
0.925336 0.925336 0.925336
0.785428 0.785428 0.785428
0.787570 0.787570 0.787570
0.790987 0.790987 0.790987
0.804346 0.804346 0.804346
0.844417 0.844417 0.844417
0.899877 0.899877 0.899877
0.865828 0.865828 0.865828
0.868320 0.868320 0.868320
0.928828 0.928828 0.928828
0.822430 0.822430 0.822430
0.822905 0.822905 0.822905
0.823687 0.823687 0.823687
0.827053 0.827053 0.827053
0.840174 0.840174 0.840174
0.886568 0.886568 0.886568
0.922567 0.922567 0.922567
0.919318 0.919318 0.919318
0.927405 0.927405 0.927405
0.906740 0.906740 0.906740
0.906844 0.906844 0.906844
0.907018 0.907018 0.907018
0.907785 0.907785 0.907785
0.911176 0.911176 0.911176
0.924150 0.924150 0.924150
0.950707 0.950707 0.950707
0.938542 0.938542 0.938542
0.947484 0.947484 0.947484
0.979608 0.979608 0.979608
0.979604 0.979604 0.979604
0.979596 0.979596 0.979596
0.979561 0.979561 0.979561
0.979405 0.979405 0.979405
0.978951 0.978951 0.978951
0.976958 0.976958 0.976958
0.972930 0.972930 0.972930
0.974965 0.974965 0.974965
0.190681 0.190681 0.190681
0.191231 0.191231 0.191231
0.198882 0.198882 0.198882
0.267222 0.267222 0.267222
0.482341 0.482341 0.482341
0.669272 0.669272 0.669272
0.740314 0.740314 0.740314
0.832693 0.832693 0.832693
0.936847 0.936847 0.936847
0.228351 0.228351 0.228351
0.224615 0.224615 0.224615
0.229673 0.229673 0.229673
0.290020 0.290020 0.290020
0.492018 0.492018 0.492018
0.674702 0.674702 0.674702
0.742184 0.742184 0.742184
0.833116 0.833116 0.833116
0.936890 0.936890 0.936890
0.280113 0.280113 0.280113
0.274820 0.274820 0.274820
0.277726 0.277726 0.277726
0.327273 0.327273 0.327273
0.508050 0.508050 0.508050
0.683139 0.683139 0.683139
0.745223 0.745223 0.745223
0.833816 0.833816 0.833816
0.936961 0.936961 0.936961
0.419501 0.419501 0.419501
0.415177 0.415177 0.415177
0.416538 0.416538 0.416538
0.448117 0.448117 0.448117
0.568103 0.568103 0.568103
0.713599 0.713599 0.713599
0.757705 0.757705 0.757705
0.836880 0.836880 0.836880
0.937277 0.937277 0.937277
0.644439 0.644439 0.644439
0.646290 0.646290 0.646290
0.650268 0.650268 0.650268
0.665147 0.665147 0.665147
0.721326 0.721326 0.721326
0.795679 0.795679 0.795679
0.800099 0.800099 0.800099
0.849776 0.849776 0.849776
0.938692 0.938692 0.938692
0.809837 0.809837 0.809837
0.811449 0.811449 0.811449
0.814038 0.814038 0.814038
0.825039 0.825039 0.825039
0.861737 0.861737 0.861737
0.920665 0.920665 0.920665
0.886590 0.886590 0.886590
0.887959 0.887959 0.887959
0.943314 0.943314 0.943314
0.846138 0.846138 0.846138
0.846557 0.846557 0.846557
0.847248 0.847248 0.847248
0.850226 0.850226 0.850226
0.863372 0.863372 0.863372
0.907059 0.907059 0.907059
0.948335 0.948335 0.948335
0.941293 0.941293 0.941293
0.942189 0.942189 0.942189
0.913416 0.913416 0.913416
0.913517 0.913517 0.913517
0.913684 0.913684 0.913684
0.914423 0.914423 0.914423
0.917691 0.917691 0.917691
0.931397 0.931397 0.931397
0.962346 0.962346 0.962346
0.952171 0.952171 0.952171
0.957065 0.957065 0.957065
0.982812 0.982812 0.982812
0.982808 0.982808 0.982808
0.982800 0.982800 0.982800
0.982765 0.982765 0.982765
0.982608 0.982608 0.982608
0.982156 0.982156 0.982156
0.980144 0.980144 0.980144
0.976056 0.976056 0.976056
0.977808 0.977808 0.977808
0.527972 0.527972 0.527972
0.532223 0.532223 0.532223
0.539296 0.539296 0.539296
0.564862 0.564862 0.564862
0.640644 0.640644 0.640644
0.732980 0.732980 0.732980
0.774803 0.774803 0.774803
0.851523 0.851523 0.851523
0.955046 0.955046 0.955046
0.535113 0.535113 0.535113
0.539289 0.539289 0.539289
0.546305 0.546305 0.546305
0.571611 0.571611 0.571611
0.645629 0.645629 0.645629
0.735937 0.735937 0.735937
0.776162 0.776162 0.776162
0.851903 0.851903 0.851903
0.955098 0.955098 0.955098
0.546296 0.546296 0.546296
0.550476 0.550476 0.550476
0.557376 0.557376 0.557376
0.582334 0.582334 0.582334
0.653741 0.653741 0.653741
0.740687 0.740687 0.740687
0.778386 0.778386 0.778386
0.852532 0.852532 0.852532
0.955186 0.955186 0.955186
0.586866 0.586866 0.586866
0.590867 0.590867 0.590867
0.596867 0.596867 0.596867
0.619889 0.619889 0.619889
0.684644 0.684644 0.684644
0.760938 0.760938 0.760938
0.787769 0.787769 0.787769
0.855282 0.855282 0.855282
0.955572 0.955572 0.955572
0.684327 0.684327 0.684327
0.687083 0.687083 0.687083
0.691397 0.691397 0.691397
0.708957 0.708957 0.708957
0.759797 0.759797 0.759797
0.826554 0.826554 0.826554
0.822251 0.822251 0.822251
0.866842 0.866842 0.866842
0.957306 0.957306 0.957306
0.807214 0.807214 0.807214
0.808370 0.808370 0.808370
0.810236 0.810236 0.810236
0.818793 0.818793 0.818793
0.850793 0.850793 0.850793
0.913280 0.913280 0.913280
0.900258 0.900258 0.900258
0.904300 0.904300 0.904300
0.963606 0.963606 0.963606
0.864303 0.864303 0.864303
0.864702 0.864702 0.864702
0.865359 0.865359 0.865359
0.868173 0.868173 0.868173
0.879821 0.879821 0.879821
0.920205 0.920205 0.920205
0.976443 0.976443 0.976443
0.965808 0.965808 0.965808
0.966920 0.966920 0.966920
0.920572 0.920572 0.920572
0.920681 0.920681 0.920681
0.920863 0.920863 0.920863
0.921668 0.921668 0.921668
0.925225 0.925225 0.925225
0.939718 0.939718 0.939718
0.977832 0.977832 0.977832
0.975518 0.975518 0.975518
0.977084 0.977084 0.977084
0.991533 0.991533 0.991533
0.991530 0.991530 0.991530
0.991524 0.991524 0.991524
0.991497 0.991497 0.991497
0.991378 0.991378 0.991378
0.990983 0.990983 0.990983
0.989604 0.989604 0.989604
0.985584 0.985584 0.985584
0.986300 0.986300 0.986300
0.684831 0.684831 0.684831
0.686120 0.686120 0.686120
0.688220 0.688220 0.688220
0.697310 0.697310 0.697310
0.730376 0.730376 0.730376
0.803817 0.803817 0.803817
0.824807 0.824807 0.824807
0.867082 0.867082 0.867082
0.965431 0.965431 0.965431
0.685813 0.685813 0.685813
0.687095 0.687095 0.687095
0.689182 0.689182 0.689182
0.698215 0.698215 0.698215
0.731178 0.731178 0.731178
0.804540 0.804540 0.804540
0.825440 0.825440 0.825440
0.867366 0.867366 0.867366
0.965498 0.965498 0.965498
0.687429 0.687429 0.687429
0.688698 0.688698 0.688698
0.690766 0.690766 0.690766
0.699703 0.699703 0.699703
0.732500 0.732500 0.732500
0.805733 0.805733 0.805733
0.826485 0.826485 0.826485
0.867839 0.867839 0.867839
0.965610 0.965610 0.965610
0.694353 0.694353 0.694353
0.695569 0.695569 0.695569
0.697576 0.697576 0.697576
0.706064 0.706064 0.706064
0.738199 0.738199 0.738199
0.810324 0.810324 0.810324
0.831015 0.831015 0.831015
0.869914 0.869914 0.869914
0.966108 0.966108 0.966108
0.720337 0.720337 0.720337
0.721321 0.721321 0.721321
0.722923 0.722923 0.722923
0.730163 0.730163 0.730163
0.759254 0.759254 0.759254
0.827594 0.827594 0.827594
0.849961 0.849961 0.849961
0.879097 0.879097 0.879097
0.968338 0.968338 0.968338
0.800681 0.800681 0.800681
0.800995 0.800995 0.800995
0.801511 0.801511 0.801511
0.803813 0.803813 0.803813
0.817669 0.817669 0.817669
0.872163 0.872163 0.872163
0.906008 0.906008 0.906008
0.911961 0.911961 0.911961
0.976477 0.976477 0.976477
0.872308 0.872308 0.872308
0.872636 0.872636 0.872636
0.873178 0.873178 0.873178
0.875537 0.875537 0.875537
0.886055 0.886055 0.886055
0.921458 0.921458 0.921458
0.989124 0.989124 0.989124
0.978690 0.978690 0.978690
0.991500 0.991500 0.991500
0.916571 0.916571 0.916571
0.916681 0.916681 0.916681
0.916863 0.916863 0.916863
0.917672 0.917672 0.917672
0.921251 0.921251 0.921251
0.935628 0.935628 0.935628
0.979665 0.979665 0.979665
0.997840 0.997840 0.997840
0.997835 0.997835 0.997835
0.999740 0.999740 0.999740
0.999747 0.999747 0.999747
0.999759 0.999759 0.999759
0.999811 0.999811 0.999811
1.000000 1.000000 1.000000
1.000000 1.000000 1.000000
1.000000 1.000000 1.000000
0.999369 0.999369 0.999369
0.999628 0.999628 0.999628
0.885972 0.885972 0.885972
0.886150 0.886150 0.886150
0.886446 0.886446 0.886446
0.887601 0.887601 0.887601
0.892485 0.892485 0.892485
0.910246 0.910246 0.910246
0.926448 0.926448 0.926448
0.906289 0.906289 0.906289
0.978808 0.978808 0.978808
0.886122 0.886122 0.886122
0.886300 0.886300 0.886300
0.886597 0.886597 0.886597
0.887749 0.887749 0.887749
0.892632 0.892632 0.892632
0.910417 0.910417 0.910417
0.926659 0.926659 0.926659
0.906478 0.906478 0.906478
0.978871 0.978871 0.978871
0.886371 0.886371 0.886371
0.886550 0.886550 0.886550
0.886847 0.886847 0.886847
0.887994 0.887994 0.887994
0.892878 0.892878 0.892878
0.910701 0.910701 0.910701
0.927010 0.927010 0.927010
0.906794 0.906794 0.906794
0.978976 0.978976 0.978976
0.887477 0.887477 0.887477
0.887659 0.887659 0.887659
0.887937 0.887937 0.887937
0.889081 0.889081 0.889081
0.893965 0.893965 0.893965
0.911961 0.911961 0.911961
0.928560 0.928560 0.928560
0.908191 0.908191 0.908191
0.979442 0.979442 0.979442
0.892157 0.892157 0.892157
0.892314 0.892314 0.892314
0.892574 0.892574 0.892574
0.893716 0.893716 0.893716
0.898649 0.898649 0.898649
0.916946 0.916946 0.916946
0.935385 0.935385 0.935385
0.914020 0.914020 0.914020
0.981523 0.981523 0.981523
0.903788 0.903788 0.903788
0.904014 0.904014 0.904014
0.904389 0.904389 0.904389
0.906039 0.906039 0.906039
0.912098 0.912098 0.912098
0.932200 0.932200 0.932200
0.961443 0.961443 0.961443
0.936915 0.936915 0.936915
0.988984 0.988984 0.988984
0.905890 0.905890 0.905890
0.906069 0.906069 0.906069
0.906365 0.906365 0.906365
0.907670 0.907670 0.907670
0.913271 0.913271 0.913271
0.934604 0.934604 0.934604
0.989376 0.989376 0.989376
0.991960 0.991960 0.991960
1.000000 1.000000 1.000000
0.925821 0.925821 0.925821
0.925905 0.925905 0.925905
0.926044 0.926044 0.926044
0.926661 0.926661 0.926661
0.929392 0.929392 0.929392
0.940854 0.940854 0.940854
0.978001 0.978001 0.978001
1.000000 1.000000 1.000000
1.000000 1.000000 1.000000
0.998832 0.998832 0.998832
0.998837 0.998837 0.998837
0.998844 0.998844 0.998844
0.998876 0.998876 0.998876
0.999024 0.999024 0.999024
0.999675 0.999675 0.999675
1.000000 1.000000 1.000000
1.000000 1.000000 1.000000
1.000000 1.000000 1.000000
0.971955 0.971955 0.971955
0.972010 0.972010 0.972010
0.972100 0.972100 0.972100
0.972500 0.972500 0.972500
0.974296 0.974296 0.974296
0.981790 0.981790 0.981790
1.000000 1.000000 1.000000
1.000000 1.000000 1.000000
1.000000 1.000000 1.000000
0.971951 0.971951 0.971951
0.972006 0.972006 0.972006
0.972096 0.972096 0.972096
0.972496 0.972496 0.972496
0.974291 0.974291 0.974291
0.981784 0.981784 0.981784
1.000000 1.000000 1.000000
1.000000 1.000000 1.000000
1.000000 1.000000 1.000000
0.971945 0.971945 0.971945
0.971999 0.971999 0.971999
0.972089 0.972089 0.972089
0.972489 0.972489 0.972489
0.974282 0.974282 0.974282
0.981774 0.981774 0.981774
1.000000 1.000000 1.000000
1.000000 1.000000 1.000000
1.000000 1.000000 1.000000
0.971915 0.971915 0.971915
0.971969 0.971969 0.971969
0.972059 0.972059 0.972059
0.972457 0.972457 0.972457
0.974245 0.974245 0.974245
0.981730 0.981730 0.981730
1.000000 1.000000 1.000000
1.000000 1.000000 1.000000
1.000000 1.000000 1.000000
0.971778 0.971778 0.971778
0.971831 0.971831 0.971831
0.971920 0.971920 0.971920
0.972313 0.972313 0.972313
0.974077 0.974077 0.974077
0.981541 0.981541 0.981541
1.000000 1.000000 1.000000
1.000000 1.000000 1.000000
1.000000 1.000000 1.000000
0.971084 0.971084 0.971084
0.971139 0.971139 0.971139
0.971229 0.971229 0.971229
0.971629 0.971629 0.971629
0.973426 0.973426 0.973426
0.980919 0.980919 0.980919
1.000000 1.000000 1.000000
1.000000 1.000000 1.000000
1.000000 1.000000 1.000000
0.969024 0.969024 0.969024
0.969077 0.969077 0.969077
0.969166 0.969166 0.969166
0.969558 0.969558 0.969558
0.971313 0.971313 0.971313
0.978802 0.978802 0.978802
0.997544 0.997544 0.997544
1.000000 1.000000 1.000000
1.000000 1.000000 1.000000
0.973467 0.973467 0.973467
0.973507 0.973507 0.973507
0.973573 0.973573 0.973573
0.973846 0.973846 0.973846
0.975054 0.975054 0.975054
0.980303 0.980303 0.980303
0.996056 0.996056 0.996056
1.000000 1.000000 1.000000
1.000000 1.000000 1.000000
1.000000 1.000000 1.000000
1.000000 1.000000 1.000000
1.000000 1.000000 1.000000
1.000000 1.000000 1.000000
1.000000 1.000000 1.000000
1.000000 1.000000 1.000000
1.000000 1.000000 1.000000
1.000000 1.000000 1.000000
1.000000 1.000000 1.000000
