output/ACEScct_display/ACEScct_to_ACROS_33grid.cube
TITLE "ACEScct_to_ACROS"
# Input: ACEScct (AP1 primaries, log encoding, D60)
# Output: BT.709 / Gamma 2.2 (display-referred)
# Use: Display/output transform in DaVinci Resolve ACES pipeline (replaces ODT)
# Source: FLog2C_to_ACROS_65grid_V.1.00.cube
# Generated from Fujifilm GFX ETERNA 55 F-Log2C LUT
LUT_3D_SIZE 5
0.000105 0.000105 0.000105
0.037494 0.037494 0.037494
0.484905 0.484905 0.484905
0.685167 0.685167 0.685167
0.916444 0.916444 0.916444
0.050450 0.050450 0.050450
0.054149 0.054149 0.054149
0.462987 0.462987 0.462987
0.689812 0.689812 0.689812
0.916558 0.916558 0.916558
0.472956 0.472956 0.472956
0.477339 0.477339 0.477339
0.604425 0.604425 0.604425
0.742824 0.742824 0.742824
0.917986 0.917986 0.917986
0.794061 0.794061 0.794061
0.795327 0.795327 0.795327
0.813923 0.813923 0.813923
0.900738 0.900738 0.900738
0.919443 0.919443 0.919443
0.978545 0.978545 0.978545
0.978532 0.978532 0.978532
0.978342 0.978342 0.978342
0.975901 0.975901 0.975901
0.974033 0.974033 0.974033
0.006418 0.006418 0.006418
0.037452 0.037452 0.037452
0.456727 0.456727 0.456727
0.696040 0.696040 0.696040
0.918879 0.918879 0.918879
0.076714 0.076714 0.076714
0.069848 0.069848 0.069848
0.452052 0.452052 0.452052
0.701096 0.701096 0.701096
0.918996 0.918996 0.918996
0.527053 0.527053 0.527053
0.526809 0.526809 0.526809
0.625627 0.625627 0.625627
0.757961 0.757961 0.757961
0.920357 0.920357 0.920357
0.803900 0.803900 0.803900
0.805044 0.805044 0.805044
0.822403 0.822403 0.822403
0.908236 0.908236 0.908236
0.921776 0.921776 0.921776
0.978831 0.978831 0.978831
0.978819 0.978819 0.978819
0.978628 0.978628 0.978628
0.976186 0.976186 0.976186
0.974284 0.974284 0.974284
0.190681 0.190681 0.190681
0.198882 0.198882 0.198882
0.482341 0.482341 0.482341
0.740314 0.740314 0.740314
0.936847 0.936847 0.936847
0.280113 0.280113 0.280113
0.277726 0.277726 0.277726
0.508050 0.508050 0.508050
0.745223 0.745223 0.745223
0.936961 0.936961 0.936961
0.644439 0.644439 0.644439
0.650268 0.650268 0.650268
0.721326 0.721326 0.721326
0.800099 0.800099 0.800099
0.938692 0.938692 0.938692
0.846138 0.846138 0.846138
0.847248 0.847248 0.847248
0.863372 0.863372 0.863372
0.948335 0.948335 0.948335
0.942189 0.942189 0.942189
0.982812 0.982812 0.982812
0.982800 0.982800 0.982800
0.982608 0.982608 0.982608
0.980144 0.980144 0.980144
0.977808 0.977808 0.977808
0.684831 0.684831 0.684831
0.688220 0.688220 0.688220
0.730376 0.730376 0.730376
0.824807 0.824807 0.824807
0.965431 0.965431 0.965431
0.687429 0.687429 0.687429
0.690766 0.690766 0.690766
0.732500 0.732500 0.732500
0.826485 0.826485 0.826485
0.965610 0.965610 0.965610
0.720337 0.720337 0.720337
0.722923 0.722923 0.722923
0.759254 0.759254 0.759254
0.849961 0.849961 0.849961
0.968338 0.968338 0.968338
0.872308 0.872308 0.872308
0.873178 0.873178 0.873178
0.886055 0.886055 0.886055
0.989124 0.989124 0.989124
0.991500 0.991500 0.991500
0.999740 0.999740 0.999740
0.999759 0.999759 0.999759
1.000000 1.000000 1.000000
1.000000 1.000000 1.000000
0.999628 0.999628 0.999628
0.971955 0.971955 0.971955
0.972100 0.972100 0.972100
0.974296 0.974296 0.974296
1.000000 1.000000 1.000000
1.000000 1.000000 1.000000
0.971945 0.971945 0.971945
0.972089 0.972089 0.972089
0.974282 0.974282 0.974282
1.000000 1.000000 1.000000
1.000000 1.000000 1.000000
0.971778 0.971778 0.971778
0.971920 0.971920 0.971920
0.974077 0.974077 0.974077
1.000000 1.000000 1.000000
1.000000 1.000000 1.000000
0.969024 0.969024 0.969024
0.969166 0.969166 0.969166
0.971313 0.971313 0.971313
0.997544 0.997544 0.997544
1.000000 1.000000 1.000000
1.000000 1.000000 1.000000
1.000000 1.000000 1.000000
1.000000 1.000000 1.000000
1.000000 1.000000 1.000000
1.000000 1.000000 1.000000
