output/ACEScct_display/ACEScct_to_PROVIA_33grid.cube
TITLE "ACEScct_to_PROVIA"
# Input: ACEScct (AP1 primaries, log encoding, D60)
# Output: BT.709 / Gamma 2.2 (display-referred)
# Use: Display/output transform in DaVinci Resolve ACES pipeline (replaces ODT)
# Source: FLog2C_to_PROVIA_65grid_V.1.00.cube
# Generated from Fujifilm GFX ETERNA 55 F-Log2C LUT
LUT_3D_SIZE 5
0.000459 0.000290 0.000061
0.184454 0.008350 0.017398
0.999838 0.148769 0.453378
0.999680 0.519622 0.223589
0.999156 0.960334 0.008667
0.002199 0.103921 0.000185
0.082905 0.073062 0.000002
0.999846 0.166436 0.354101
0.999771 0.531374 0.208570
0.999154 0.960478 0.008726
0.000066 0.836273 0.000358
0.000010 0.804943 0.000158
0.805773 0.684507 0.000329
0.999597 0.668829 0.012861
0.998954 0.964223 0.010094
0.000000 1.000000 0.000285
0.000000 1.000000 0.000285
0.000000 1.000000 0.000285
0.984022 0.984763 0.015762
0.984532 0.985899 0.016687
0.983770 0.999602 0.704274
0.983769 0.999600 0.704136
0.983743 0.999566 0.702012
0.983088 0.999572 0.663498
0.982984 0.999462 0.626112
0.005704 0.000247 0.088836
0.191100 0.000803 0.072572
0.999684 0.115470 0.443468
0.999642 0.532228 0.273876
0.999005 0.967331 0.013247
0.000649 0.127536 0.129196
0.082116 0.083995 0.080731
0.999925 0.172740 0.337596
0.999694 0.544062 0.265596
0.999011 0.967468 0.013304
0.000018 0.871983 0.000542
0.000194 0.842138 0.000377
0.763646 0.709189 0.000105
0.999539 0.672799 0.159355
0.998944 0.969775 0.013760
0.000000 1.000000 0.000285
0.000000 1.000000 0.000285
0.000000 1.000000 0.000285
0.984903 0.984853 0.016119
0.984546 0.985892 0.016687
0.983775 0.999642 0.708311
0.983771 0.999641 0.708173
0.983718 0.999616 0.706048
0.983218 0.999544 0.668227
0.982900 0.999485 0.630607
0.070597 0.158366 0.903366
0.254529 0.124105 0.843163
0.999627 0.152529 0.813190
0.999265 0.579174 0.651827
0.999047 0.997607 0.205784
0.011348 0.291199 0.931226
0.184658 0.248880 0.874967
0.995155 0.225745 0.797283
0.999504 0.587542 0.650647
0.998961 0.997654 0.204422
0.000324 0.858657 0.867577
0.000281 0.842712 0.850189
0.719990 0.721703 0.720493
0.999895 0.685924 0.625071
0.997568 0.998022 0.183609
0.000009 0.999662 0.181362
0.000014 0.999662 0.181415
0.000028 0.999612 0.174443
0.983040 0.999771 0.112258
0.982404 0.999756 0.057488
0.984542 0.999793 0.763979
0.984532 0.999792 0.763850
0.984376 0.999765 0.761882
0.983915 0.999795 0.726398
0.982751 0.999905 0.688607
0.522068 0.677419 0.999784
0.541074 0.676604 0.999854
0.738522 0.672161 0.999644
0.999876 0.671546 0.999351
0.998648 0.940329 0.928418
0.514585 0.683277 0.999728
0.533906 0.682362 0.999760
0.733377 0.677413 0.999671
0.999861 0.675049 0.999302
0.998638 0.940646 0.928306
0.408029 0.759172 0.999814
0.430227 0.757591 0.999787
0.659469 0.745205 0.999683
0.999897 0.721723 0.999454
0.998482 0.945464 0.926606
0.002958 0.990302 1.000000
0.003086 0.990237 1.000000
0.003501 0.990023 1.000000
0.974667 0.985704 0.981723
0.990870 0.999701 0.880178
0.998100 1.000000 0.999590
0.998237 1.000000 0.999619
1.000000 1.000000 1.000000
1.000000 1.000000 1.000000
0.999441 0.999890 0.997132
0.813951 0.999928 0.990018
0.814938 0.999927 0.990025
0.829949 0.999914 0.990118
1.000000 1.000000 1.000000
1.000000 1.000000 1.000000
0.813868 0.999931 0.990023
0.814855 0.999930 0.990029
0.829868 0.999918 0.990115
1.000000 1.000000 1.000000
1.000000 1.000000 1.000000
0.812618 0.999983 0.990078
0.813607 0.999983 0.990077
0.828650 0.999983 0.990050
0.999201 0.999987 0.999722
1.000000 1.000000 1.000000
0.797940 0.999987 0.992044
0.799007 0.999988 0.992064
0.812803 0.999977 0.991896
0.982699 0.999944 0.995987
1.000000 1.000000 1.000000
1.000000 1.000000 1.000000
1.000000 1.000000 1.000000
1.000000 1.000000 1.000000
1.000000 1.000000 1.000000
1.000000 1.000000 1.000000
