output/ACEScct_display/ACEScct_to_CLASSIC-Neg._33grid.cube
TITLE "ACEScct_to_CLASSIC-Neg."
# Input: ACEScct (AP1 primaries, log encoding, D60)
# Output: BT.709 / Gamma 2.2 (display-referred)
# Use: Display/output transform in DaVinci Resolve ACES pipeline (replaces ODT)
# Source: FLog2C_to_CLASSIC-Neg._65grid_V.1.00.cube
# Generated from Fujifilm GFX ETERNA 55 F-Log2C LUT
LUT_3D_SIZE 33
0.000129 0.000120 0.000052
0.000129 0.000120 0.000052
0.000129 0.000120 0.000052
0.001672 0.000176 0.000000
0.014159 0.001034 0.000027
0.031777 0.002367 0.000416
0.055033 0.004196 0.000721
0.081926 0.006405 0.000573
0.120025 0.009538 0.000042
0.185700 0.013618 0.000014
0.301313 0.024634 0.000186
0.506057 0.041956 0.000470
0.738878 0.067623 0.000045
0.866178 0.096328 0.015563
0.922842 0.122409 0.068125
0.942484 0.151805 0.146473
0.946001 0.197808 0.198666
0.949239 0.253694 0.251832
0.951647 0.293720 0.274376
0.951952 0.318825 0.272348
0.952645 0.345964 0.268688
0.953638 0.380449 0.263203
0.953816 0.419525 0.254681
0.954776 0.469485 0.245216
0.956270 0.526757 0.231420
0.957310 0.590253 0.212151
0.958384 0.659686 0.212789
0.960824 0.726610 0.227261
0.963018 0.784899 0.243020
0.964735 0.835765 0.258280
0.967443 0.892898 0.279096
0.964640 0.938026 0.298334
0.957006 0.973173 0.310751
0.000129 0.000120 0.000052
0.000129 0.000120 0.000052
0.000129 0.000120 0.000052
0.003417 0.000336 0.000000
0.016212 0.001114 0.000037
0.034842 0.002671 0.000518
0.057521 0.004348 0.000710
0.084020 0.006641 0.000533
0.122251 0.009601 0.000042
0.188618 0.013861 0.000013
0.304772 0.024931 0.000173
0.509784 0.042321 0.000440
0.722434 0.065042 0.000150
0.843267 0.088220 0.005450
0.910774 0.115670 0.053100
0.941416 0.146112 0.131290
0.945342 0.190445 0.191156
0.948752 0.250402 0.245592
0.951887 0.297550 0.273614
0.952128 0.322583 0.272325
0.952824 0.348796 0.268221
0.953608 0.382803 0.262745
0.953877 0.421466 0.254361
0.954772 0.470996 0.244887
0.956280 0.527916 0.231116
0.957341 0.591088 0.211840
0.958397 0.660276 0.212807
0.960837 0.726970 0.227255
0.963021 0.785119 0.242988
0.964740 0.835889 0.258242
0.967442 0.892970 0.279056
0.964634 0.938063 0.298280
0.956997 0.973193 0.310715
0.000129 0.000120 0.000052
0.000129 0.000120 0.000052
0.000129 0.000120 0.000052
0.005107 0.000491 0.000000
0.018216 0.001192 0.000047
0.037843 0.002969 0.000618
0.059965 0.004497 0.000700
0.086147 0.006899 0.000481
0.124451 0.009663 0.000042
0.191035 0.014034 0.000007
0.294832 0.024225 0.000139
0.466240 0.039157 0.000238
0.677714 0.057906 0.000218
0.821963 0.083376 0.001902
0.899420 0.110975 0.041345
0.941213 0.141346 0.117373
0.944771 0.183915 0.184259
0.948298 0.247314 0.239744
0.952103 0.301213 0.272839
0.952046 0.325647 0.271508
0.952998 0.351566 0.267765
0.953578 0.385119 0.262295
0.953937 0.423387 0.254040
0.954768 0.472497 0.244562
0.956291 0.529070 0.230813
0.957373 0.591920 0.211528
0.958410 0.660865 0.212826
0.960851 0.727331 0.227249
0.963023 0.785339 0.242956
0.964745 0.836013 0.258204
0.967440 0.893042 0.279016
0.964628 0.938100 0.298226
0.956989 0.973212 0.310679
0.000057 0.001602 0.000074
0.000070 0.001974 0.000079
0.000084 0.002344 0.000084
0.003380 0.002120 0.000084
0.014633 0.001943 0.000009
0.034228 0.002241 0.000475
0.053971 0.003783 0.000376
0.080285 0.006298 0.000077
0.114736 0.009522 0.000335
0.170579 0.013246 0.000024
0.261389 0.021097 0.000058
0.420317 0.035028 0.000119
0.635223 0.054049 0.000045
0.801160 0.078126 0.000675
0.888892 0.105097 0.032199
0.941693 0.137342 0.104713
0.944882 0.180091 0.178342
0.948331 0.247232 0.233616
0.951960 0.304647 0.270891
0.951967 0.328616 0.270717
0.953168 0.354275 0.267319
0.953582 0.387382 0.261819
0.953997 0.425289 0.253718
0.954762 0.473989 0.244239
0.956302 0.530220 0.230509
0.957404 0.592749 0.211216
0.958423 0.661453 0.212845
0.960864 0.727690 0.227243
0.963026 0.785558 0.242924
0.964749 0.836137 0.258166
0.967439 0.893113 0.278976
0.964622 0.938137 0.298172
0.956980 0.973231 0.310643
0.000077 0.008774 0.001109
0.000066 0.009164 0.001213
0.000055 0.009550 0.001317
0.000168 0.007427 0.000111
0.007050 0.008078 0.000030
0.024151 0.006511 0.000344
0.044008 0.007220 0.000028
0.073577 0.008149 0.000191
0.104816 0.009798 0.000025
0.154251 0.013174 0.000114
0.237896 0.018745 0.000332
0.382493 0.030018 0.000002
0.598233 0.050496 0.000012
0.779153 0.073821 0.000121
0.879075 0.100570 0.024162
0.936382 0.134757 0.093275
0.944972 0.176686 0.172796
0.948440 0.247636 0.227714
0.951827 0.307966 0.269044
0.951890 0.331498 0.269951
0.953335 0.356927 0.266882
0.953642 0.389578 0.261293
0.954055 0.427172 0.253397
0.954756 0.475472 0.243920
0.956315 0.531365 0.230207
0.957435 0.593575 0.210904
0.958436 0.662039 0.212865
0.960877 0.728050 0.227237
0.963029 0.785778 0.242893
0.964754 0.836261 0.258128
0.967437 0.893185 0.278936
0.964617 0.938174 0.298118
0.956971 0.973251 0.310606
0.000000 0.018684 0.003931
0.000000 0.019262 0.004099
0.000000 0.019835 0.004266
0.000219 0.017266 0.002279
0.004283 0.015387 0.001337
0.015988 0.013340 0.000029
0.034271 0.013398 0.000174
0.062193 0.013647 0.000472
0.096761 0.014123 0.000000
0.142398 0.016242 0.000130
0.219477 0.020543 0.000434
0.350635 0.028825 0.000013
0.563308 0.048820 0.000010
0.757670 0.072471 0.000031
0.870000 0.097355 0.016961
0.931517 0.134085 0.083214
0.944414 0.180303 0.165777
0.948493 0.248090 0.222154
0.951701 0.311182 0.267291
0.951815 0.334298 0.269209
0.953498 0.359525 0.266455
0.953702 0.391742 0.260774
0.954112 0.429038 0.253075
0.954775 0.476969 0.243602
0.956328 0.532505 0.229904
0.957444 0.594427 0.210607
0.958449 0.662623 0.212884
0.960890 0.728408 0.227230
0.963031 0.785997 0.242861
0.964759 0.836385 0.258090
0.967436 0.893257 0.278896
0.964611 0.938211 0.298064
0.956962 0.973270 0.310570
0.000798 0.035556 0.007784
0.000844 0.036298 0.007940
0.000866 0.036480 0.007920
0.000038 0.030830 0.005294
0.002004 0.027201 0.002522
0.009380 0.024482 0.000673
0.025344 0.022585 0.000214
0.052125 0.023453 0.000151
0.086655 0.024476 0.000000
0.130603 0.024729 0.000156
0.201998 0.027859 0.000481
0.320960 0.036370 0.000135
0.524969 0.052525 0.000012
0.736270 0.077551 0.000105
0.859899 0.104326 0.012216
0.926270 0.141015 0.074033
0.943767 0.184418 0.157789
0.947940 0.249514 0.216172
0.951577 0.315081 0.265399
0.951810 0.337933 0.268422
0.953477 0.363046 0.265849
0.953773 0.394362 0.260146
0.954181 0.431309 0.252678
0.954818 0.478811 0.243209
0.956346 0.533902 0.229532
0.957444 0.595484 0.210250
0.958464 0.663340 0.212909
0.960906 0.728849 0.227223
0.963035 0.786266 0.242823
0.964765 0.836537 0.258044
0.967434 0.893345 0.278847
0.964604 0.938256 0.297998
0.956951 0.973294 0.310525
0.001268 0.057789 0.012401
0.001265 0.058416 0.012596
0.001046 0.055613 0.011772
0.000515 0.050034 0.008517
0.000374 0.047002 0.006990
0.003532 0.044355 0.005887
0.014907 0.042259 0.004037
0.040479 0.040102 0.001479
0.074544 0.039799 0.000016
0.117331 0.039610 0.000171
0.181348 0.042481 0.000117
0.289932 0.049383 0.000509
0.480679 0.065434 0.000239
0.705087 0.089430 0.000015
0.845139 0.116491 0.007103
0.919206 0.150121 0.062721
0.943778 0.191228 0.147689
0.947182 0.251446 0.208039
0.951438 0.320644 0.263082
0.952179 0.344339 0.267751
0.953384 0.368149 0.264964
0.953876 0.398110 0.259249
0.954280 0.434582 0.252097
0.954883 0.481467 0.242638
0.956373 0.535932 0.228989
0.957444 0.597022 0.209733
0.958487 0.664384 0.212947
0.960929 0.729492 0.227211
0.963040 0.786658 0.242767
0.964774 0.836760 0.257976
0.967431 0.893474 0.278776
0.964593 0.938323 0.297902
0.956935 0.973329 0.310460
0.001773 0.086736 0.019454
0.001796 0.087274 0.019545
0.001869 0.082049 0.015884
0.001327 0.074838 0.012407
0.001153 0.070848 0.011421
0.001518 0.069567 0.010545
0.005402 0.065257 0.008463
0.026663 0.061306 0.005058
0.059953 0.060251 0.001757
0.104116 0.061107 0.000607
0.158887 0.062065 0.000169
0.256861 0.067157 0.000065
0.429465 0.083190 0.000655
0.661246 0.106055 0.000051
0.823996 0.131124 0.001339
0.908853 0.163221 0.048342
0.943514 0.202304 0.133821
0.947574 0.255819 0.197080
0.951420 0.327447 0.258351
0.952693 0.353179 0.266824
0.953253 0.375294 0.263723
0.954021 0.403420 0.257978
0.954420 0.439268 0.251245
0.954979 0.485272 0.241806
0.956418 0.538872 0.228197
0.957443 0.599253 0.208985
0.958528 0.665898 0.213004
0.960961 0.730429 0.227195
0.963047 0.787230 0.242686
0.964786 0.837084 0.257877
0.967428 0.893662 0.278672
0.964578 0.938420 0.297761
0.956912 0.973380 0.310365
0.003554 0.121792 0.028058
0.003176 0.119566 0.025728
0.002584 0.112194 0.021425
0.002417 0.105885 0.018141
0.002567 0.101172 0.015788
0.002736 0.097290 0.015045
0.002971 0.093310 0.014593
0.010298 0.090546 0.013120
0.042444 0.088129 0.007694
0.085427 0.087448 0.002436
0.139585 0.088524 0.000296
0.224189 0.093853 0.000779
0.375568 0.104703 0.000188
0.607335 0.126061 0.000001
0.797892 0.150202 0.000005
0.894276 0.179707 0.032173
0.941332 0.218062 0.114279
0.947005 0.265610 0.184016
0.952085 0.333417 0.245812
0.953129 0.365289 0.264681
0.953161 0.385417 0.261879
0.954220 0.411296 0.256350
0.954546 0.446243 0.249867
0.955125 0.490675 0.240597
0.956493 0.543114 0.227042
0.957442 0.602478 0.207909
0.958596 0.668095 0.213090
0.961008 0.731791 0.227170
0.963058 0.788063 0.242570
0.964803 0.837558 0.257734
0.967422 0.893937 0.278521
0.964557 0.938561 0.297555
0.956878 0.973454 0.310226
0.004348 0.170782 0.037191
0.004641 0.159944 0.030803
0.003592 0.151055 0.026523
0.003143 0.144397 0.023905
0.003402 0.138621 0.022003
0.003337 0.133047 0.020906
0.003620 0.128762 0.020529
0.003966 0.125105 0.020339
0.017253 0.120547 0.016791
0.063246 0.119119 0.009527
0.117041 0.118154 0.002672
0.192417 0.121706 0.000001
0.324632 0.130225 0.000512
0.544177 0.149138 0.000235
0.759863 0.173626 0.000015
0.876649 0.202810 0.015158
0.937999 0.241304 0.087934
0.947119 0.283742 0.165926
0.950491 0.343415 0.230427
0.953476 0.381922 0.261642
0.953230 0.399616 0.259128
0.954486 0.423090 0.254432
0.954740 0.455924 0.247886
0.955377 0.498354 0.238875
0.956609 0.549213 0.225339
0.957440 0.607121 0.206369
0.958696 0.671275 0.213217
0.961073 0.733770 0.227132
0.963073 0.789272 0.242403
0.964828 0.838247 0.257525
0.967414 0.894337 0.278302
0.964525 0.938768 0.297256
0.956829 0.973562 0.310023
0.006861 0.226832 0.042165
0.006092 0.213805 0.036318
0.005468 0.203714 0.032960
0.005318 0.195974 0.031382
0.005814 0.189408 0.029931
0.005562 0.183197 0.028993
0.005245 0.177903 0.028361
0.004892 0.172541 0.027994
0.006229 0.166115 0.026777
0.036340 0.161059 0.022241
0.092327 0.158170 0.012803
0.161017 0.159824 0.004521
0.276547 0.165499 0.000198
0.474133 0.180788 0.000008
0.711260 0.204149 0.000014
0.852771 0.234702 0.004183
0.927553 0.272452 0.060809
0.946843 0.314778 0.147469
0.950575 0.361316 0.209561
0.953657 0.405253 0.258188
0.953190 0.419977 0.256382
0.954839 0.439609 0.251550
0.954980 0.469403 0.245013
0.955754 0.509394 0.236123
0.956471 0.558127 0.222396
0.957436 0.613759 0.204189
0.958842 0.675859 0.213410
0.961162 0.736633 0.227076
0.963097 0.791023 0.242166
0.964863 0.839250 0.257223
0.967402 0.894919 0.277986
0.964479 0.939069 0.296821
0.956754 0.973727 0.309674
0.009054 0.300874 0.049566
0.008883 0.288027 0.048408
0.008767 0.276911 0.046474
0.007941 0.267424 0.043743
0.007308 0.259401 0.041569
0.007300 0.253338 0.040784
0.007284 0.246629 0.039818
0.007148 0.238485 0.038693
0.006747 0.230367 0.038382
0.012652 0.220810 0.035399
0.061864 0.215914 0.026780
0.130824 0.213617 0.017064
0.232270 0.216676 0.004450
0.407110 0.226999 0.000061
0.648848 0.248880 0.000033
0.824200 0.276592 0.000291
0.911668 0.315777 0.035684
0.946929 0.358103 0.120916
0.950262 0.389760 0.184495
0.953653 0.433846 0.246574
0.954497 0.446527 0.251101
0.955246 0.462849 0.247060
0.954822 0.489895 0.240653
0.956102 0.525331 0.231208
0.956258 0.570583 0.218411
0.957460 0.623245 0.201573
0.959101 0.682391 0.213272
0.961280 0.740760 0.226991
0.963131 0.793549 0.241835
0.964911 0.840707 0.256788
0.967385 0.895764 0.277532
0.964412 0.939509 0.296189
0.956643 0.973972 0.309130
0.012437 0.398540 0.066146
0.011635 0.386580 0.063888
0.011266 0.375441 0.062340
0.010990 0.365212 0.060983
0.011040 0.357836 0.059014
0.011084 0.350934 0.057181
0.010479 0.344021 0.056149
0.009989 0.334816 0.054773
0.010663 0.322658 0.052505
0.009561 0.311046 0.050512
0.024596 0.299626 0.046823
0.095121 0.292924 0.036138
0.188732 0.289492 0.022527
0.340422 0.295352 0.004251
0.580443 0.314383 0.000040
0.786062 0.340976 0.000000
0.892962 0.375735 0.010863
0.945598 0.418288 0.087861
0.950106 0.439814 0.156790
0.954146 0.470693 0.223111
0.955351 0.483305 0.242023
0.955314 0.495239 0.240019
0.955514 0.516260 0.233089
0.956253 0.547290 0.224857
0.956342 0.587906 0.213047
0.957636 0.636888 0.199846
0.959475 0.691572 0.212792
0.961426 0.746673 0.226858
0.963197 0.797128 0.241232
0.964973 0.842816 0.256166
0.967361 0.896988 0.276885
0.964316 0.940148 0.295276
0.956481 0.974330 0.308341
0.015688 0.514689 0.086106
0.015295 0.503679 0.083760
0.015005 0.494935 0.082182
0.014765 0.487486 0.081000
0.014596 0.480501 0.079782
0.014665 0.473992 0.078239
0.014754 0.466434 0.076442
0.014385 0.456898 0.075010
0.013794 0.445181 0.073502
0.013439 0.432032 0.071493
0.013647 0.415978 0.068508
0.045725 0.403614 0.062064
0.142707 0.396127 0.046721
0.280016 0.395629 0.027991
0.507625 0.406946 0.003566
0.742426 0.430871 0.000486
0.871334 0.457330 0.000637
0.937176 0.491676 0.051703
0.952148 0.510710 0.126099
0.954209 0.523202 0.190925
0.956391 0.530828 0.229683
0.956041 0.536262 0.228947
0.956586 0.552577 0.223883
0.956075 0.577332 0.216366
0.957526 0.611562 0.205245
0.957897 0.655537 0.198947
0.959909 0.704314 0.212406
0.961588 0.755075 0.226647
0.963312 0.802182 0.240134
0.965049 0.845856 0.255284
0.967247 0.898622 0.275844
0.964180 0.941076 0.293962
0.956248 0.974850 0.307197
0.020111 0.637308 0.105853
0.020164 0.631420 0.105169
0.020012 0.625425 0.104028
0.019837 0.619658 0.102871
0.019668 0.614154 0.101765
0.019379 0.609448 0.100906
0.018928 0.604412 0.100073
0.018309 0.597475 0.098931
0.018451 0.587573 0.097421
0.018104 0.574988 0.095234
0.017053 0.560277 0.092646
0.016865 0.544142 0.090147
0.082901 0.531506 0.079488
0.212770 0.524324 0.059400
0.424903 0.527937 0.030292
0.687641 0.544357 0.001028
0.845357 0.562407 0.000289
0.922329 0.583989 0.024163
0.952219 0.603860 0.095326
0.954248 0.593905 0.150461
0.956232 0.589253 0.212090
0.957540 0.589559 0.213618
0.957738 0.598802 0.208856
0.957539 0.616663 0.203747
0.958048 0.643806 0.194854
0.958302 0.679432 0.199269
0.960379 0.721490 0.211824
0.961706 0.766259 0.225028
0.963477 0.809354 0.238522
0.965130 0.850213 0.254050
0.967081 0.900993 0.274355
0.963988 0.942421 0.292086
0.955911 0.975607 0.305545
0.023582 0.745110 0.125430
0.023444 0.741883 0.124475
0.023327 0.738725 0.123397
0.023214 0.735677 0.122353
0.023103 0.732733 0.121340
0.022973 0.729960 0.120655
0.022774 0.726808 0.120390
0.022495 0.722413 0.120023
0.022257 0.716303 0.119444
0.022317 0.707904 0.118488
0.021919 0.697864 0.116861
0.021812 0.684816 0.114187
0.029289 0.670396 0.110244
0.140635 0.661459 0.093608
0.330686 0.660302 0.065841
0.605821 0.667538 0.029127
0.811284 0.676030 0.003502
0.904997 0.686765 0.014142
0.953323 0.697235 0.061089
0.955034 0.682064 0.104283
0.957546 0.662851 0.168960
0.957387 0.654606 0.188272
0.957386 0.655339 0.187566
0.957679 0.664983 0.187530
0.958432 0.683864 0.189501
0.959154 0.709920 0.199370
0.961430 0.744093 0.210307
0.961909 0.781172 0.222733
0.963771 0.819322 0.236503
0.965200 0.856314 0.252019
0.966837 0.904420 0.272247
0.963723 0.944361 0.289433
0.955431 0.976705 0.303171
0.026051 0.823545 0.136843
0.026063 0.821854 0.136586
0.026074 0.820207 0.136335
0.026085 0.818602 0.136091
0.026094 0.817046 0.135856
0.026103 0.815593 0.135656
0.026111 0.813852 0.135414
0.026119 0.811395 0.135071
0.026125 0.807977 0.134588
0.025435 0.803572 0.133823
0.024739 0.797467 0.132768
0.024832 0.788765 0.131237
0.024794 0.779033 0.130003
0.056527 0.769385 0.123750
0.214303 0.767199 0.100596
0.483322 0.772520 0.064716
0.754224 0.780553 0.028112
0.880899 0.783591 0.010548
0.940696 0.785499 0.035498
0.956474 0.774712 0.077387
0.957721 0.747005 0.132156
0.958832 0.724386 0.175210
0.958970 0.719583 0.178277
0.959012 0.721270 0.182018
0.959586 0.730250 0.187700
0.959811 0.746772 0.197567
0.962276 0.771380 0.209328
0.962530 0.799905 0.220418
0.963871 0.831713 0.233511
0.965389 0.864538 0.248504
0.966476 0.909354 0.269299
0.963367 0.947145 0.285739
0.954752 0.978294 0.299789
0.028407 0.883383 0.146993
0.028442 0.882468 0.146670
0.028427 0.881572 0.146423
0.028366 0.880693 0.146247
0.028306 0.879830 0.146074
0.028247 0.878981 0.145905
0.028174 0.877957 0.145700
0.028068 0.876498 0.145410
0.027917 0.874441 0.145001
0.027538 0.872189 0.144887
0.027011 0.869138 0.144730
0.027036 0.863969 0.143890
0.026905 0.857207 0.142588
0.026972 0.849635 0.141537
0.066755 0.842341 0.134233
0.306569 0.847288 0.102219
0.628960 0.857317 0.059525
0.837538 0.861230 0.030497
0.920121 0.859598 0.018542
0.956554 0.853231 0.048341
0.958706 0.825906 0.101750
0.960027 0.794625 0.165614
0.960963 0.782832 0.175349
0.960799 0.779153 0.179633
0.960727 0.780655 0.185655
0.961088 0.788743 0.193404
0.961840 0.803403 0.204778
0.963218 0.823344 0.216405
0.964049 0.847964 0.229244
0.965881 0.875650 0.244180
0.965787 0.916262 0.265022
0.962206 0.950796 0.281047
0.953805 0.980584 0.295022
0.029756 0.926741 0.155232
0.029794 0.926270 0.155110
0.029832 0.925806 0.154989
0.029870 0.925347 0.154870
0.029907 0.924894 0.154752
0.029945 0.924447 0.154635
0.029990 0.923903 0.154493
0.030057 0.923122 0.154289
0.029918 0.922147 0.154281
0.029645 0.920821 0.154369
0.029269 0.918984 0.154498
0.028981 0.916153 0.153938
0.028778 0.912153 0.152701
0.029200 0.906916 0.151744
0.032367 0.900715 0.150664
0.129146 0.898850 0.135937
0.412685 0.908463 0.098036
0.749850 0.920733 0.053207
0.889402 0.920612 0.033612
0.947011 0.914540 0.027787
0.958227 0.892731 0.061815
0.960887 0.860990 0.131388
0.961226 0.840404 0.166421
0.961353 0.833861 0.172606
0.962255 0.830005 0.178018
0.962524 0.830652 0.186178
0.962811 0.838072 0.196890
0.964385 0.849809 0.209162
0.964535 0.868099 0.221541
0.965726 0.889418 0.235849
0.963866 0.924476 0.257279
0.960561 0.955875 0.274671
0.952515 0.983865 0.288409
0.030267 0.945420 0.158066
0.030267 0.945420 0.158066
0.030267 0.945420 0.158066
0.030246 0.945399 0.158045
0.030192 0.945345 0.157991
0.030138 0.945291 0.157937
0.030072 0.945225 0.157871
0.029977 0.945130 0.157776
0.029840 0.944993 0.157639
0.029645 0.944798 0.157444
0.029370 0.944523 0.157169
0.029291 0.944444 0.157090
0.029291 0.944444 0.157090
0.029500 0.943376 0.157491
0.029956 0.940955 0.156959
0.030232 0.936501 0.156323
0.160183 0.938740 0.139827
0.530556 0.954453 0.088288
0.814684 0.962848 0.051289
0.917275 0.958761 0.036289
0.950195 0.945307 0.035476
0.956232 0.920447 0.086100
0.961935 0.892182 0.150383
0.962493 0.884181 0.159874
0.962516 0.877098 0.165835
0.962520 0.874105 0.175397
0.962566 0.874992 0.185489
0.963866 0.880255 0.198470
0.965149 0.891170 0.212836
0.964750 0.905901 0.225686
0.962417 0.935172 0.246881
0.958169 0.962803 0.265455
0.950696 0.986678 0.279390
0.029874 0.945027 0.157673
0.029836 0.944989 0.157635
0.029798 0.944951 0.157597
0.029760 0.944913 0.157559
0.029723 0.944876 0.157522
0.029686 0.944839 0.157485
0.029640 0.944793 0.157439
0.029575 0.944728 0.157374
0.029479 0.944632 0.157278
0.029342 0.944495 0.157141
0.029291 0.944444 0.157090
0.029291 0.944444 0.157090
0.029292 0.944445 0.157091
0.029291 0.944444 0.157090
0.029291 0.944444 0.157090
0.029318 0.944424 0.157124
0.048651 0.944578 0.156060
0.253453 0.957032 0.128434
0.630899 0.976961 0.078714
0.858195 0.988386 0.048609
0.933089 0.983367 0.036915
0.945366 0.966171 0.041683
0.955392 0.939966 0.116009
0.958899 0.925856 0.141549
0.959887 0.918826 0.149651
0.960338 0.913137 0.157617
0.961912 0.910964 0.170063
0.962667 0.911889 0.182608
0.962063 0.916448 0.196556
0.961877 0.925434 0.211877
0.959807 0.948380 0.232312
0.954561 0.972178 0.250629
0.948662 0.988764 0.267019
0.029597 0.944750 0.157396
0.029578 0.944731 0.157377
0.029564 0.944717 0.157363
0.029557 0.944710 0.157356
0.029550 0.944703 0.157349
0.029543 0.944696 0.157342
0.029535 0.944688 0.157334
0.029522 0.944675 0.157321
0.029504 0.944657 0.157303
0.029478 0.944631 0.157277
0.029439 0.944592 0.157238
0.029382 0.944535 0.157181
0.029299 0.944452 0.157098
0.029291 0.944444 0.157090
0.029291 0.944444 0.157090
0.029291 0.944444 0.157090
0.029675 0.944154 0.157576
0.110402 0.948602 0.147331
0.392872 0.965572 0.110059
0.737724 0.985171 0.064332
0.886663 0.993564 0.045318
0.933657 0.993379 0.039180
0.942296 0.979890 0.061902
0.951471 0.961303 0.117160
0.953896 0.954509 0.126317
0.954698 0.948725 0.136918
0.956239 0.944257 0.148616
0.957857 0.942135 0.162157
0.957942 0.942429 0.176434
0.958912 0.946966 0.194001
0.954709 0.964512 0.213503
0.949485 0.982358 0.231573
0.946874 0.991571 0.250744
0.029603 0.944756 0.157402
0.029591 0.944744 0.157390
0.029579 0.944732 0.157378
0.029567 0.944720 0.157366
0.029555 0.944708 0.157354
0.029543 0.944696 0.157342
0.029529 0.944682 0.157328
0.029507 0.944660 0.157306
0.029476 0.944629 0.157275
0.029431 0.944584 0.157230
0.029365 0.944518 0.157164
0.029291 0.944444 0.157090
0.029291 0.944444 0.157090
0.029291 0.944444 0.157090
0.029291 0.944444 0.157090
0.029291 0.944444 0.157090
0.029913 0.944400 0.157059
0.045087 0.944905 0.155272
0.187893 0.952884 0.136545
0.510030 0.971855 0.093765
0.795179 0.988516 0.056358
0.905270 0.994563 0.042513
0.935040 0.995156 0.042848
0.939679 0.989606 0.078319
0.942441 0.983389 0.095421
0.944526 0.978736 0.106462
0.947498 0.973219 0.120309
0.949230 0.969571 0.135328
0.950396 0.967640 0.151467
0.951115 0.969050 0.167858
0.947812 0.980573 0.186641
0.945071 0.989535 0.208595
0.945254 0.993777 0.232387
0.029407 0.944560 0.157206
0.029407 0.944560 0.157206
0.029407 0.944560 0.157206
0.029408 0.944561 0.157207
0.029408 0.944561 0.157207
0.029408 0.944561 0.157207
0.029409 0.944562 0.157208
0.029409 0.944562 0.157208
0.029410 0.944563 0.157209
0.029411 0.944564 0.157210
0.029412 0.944565 0.157211
0.029414 0.944567 0.157213
0.029418 0.944571 0.157217
0.029422 0.944575 0.157221
0.029417 0.944570 0.157216
0.029366 0.944519 0.157165
0.029291 0.944444 0.157090
0.029291 0.944444 0.157090
0.089438 0.947203 0.149801
0.289861 0.959644 0.123563
0.608809 0.977644 0.081410
0.837870 0.991342 0.051770
0.918334 0.994498 0.048095
0.935781 0.995412 0.059645
0.937699 0.994115 0.074759
0.938400 0.992616 0.081796
0.938747 0.991023 0.091219
0.939979 0.989924 0.104331
0.941998 0.988296 0.119583
0.943164 0.987725 0.136682
0.943026 0.990883 0.158562
0.942638 0.994140 0.183423
0.944549 0.994210 0.222997
0.030837 0.945124 0.167518
0.030836 0.945126 0.167387
0.030835 0.945127 0.167256
0.030834 0.945129 0.167125
0.030833 0.945130 0.166994
0.030832 0.945132 0.166863
0.030831 0.945134 0.166702
0.030830 0.945137 0.166467
0.030827 0.945141 0.166124
0.030824 0.945147 0.165623
0.030818 0.945156 0.164892
0.030811 0.945168 0.163829
0.030785 0.945180 0.162486
0.030652 0.945154 0.161800
0.030462 0.945120 0.160810
0.030194 0.945076 0.159389
0.029916 0.945001 0.157636
0.030166 0.944713 0.157263
0.068481 0.946885 0.152187
0.189275 0.953802 0.137075
0.408650 0.966058 0.108670
0.704611 0.983544 0.068623
0.865409 0.992609 0.048716
0.927984 0.995346 0.061949
0.937071 0.995431 0.081859
0.937459 0.995459 0.082627
0.937023 0.995188 0.084214
0.937384 0.995437 0.088248
0.937358 0.995093 0.095653
0.939088 0.994826 0.113380
0.939596 0.995119 0.140070
0.942425 0.994554 0.175412
0.943896 0.994575 0.216971
0.038555 0.943549 0.355710
0.038579 0.943543 0.355555
0.038602 0.943537 0.355401
0.038626 0.943531 0.355247
0.038649 0.943525 0.355093
0.038673 0.943519 0.354940
0.038702 0.943511 0.354751
0.038744 0.943500 0.354475
0.038805 0.943484 0.354072
0.038895 0.943461 0.353486
0.039026 0.943427 0.352632
0.039216 0.943378 0.351392
0.039492 0.943308 0.349596
0.039892 0.943208 0.347005
0.040468 0.943066 0.343288
0.041293 0.942869 0.337997
0.070385 0.944863 0.327728
0.119766 0.948353 0.312582
