output/ACEScct_display/ACEScct_to_Velvia_33grid.cube
TITLE "ACEScct_to_Velvia"
# Input: ACEScct (AP1 primaries, log encoding, D60)
# Output: BT.709 / Gamma 2.2 (display-referred)
# Use: Display/output transform in DaVinci Resolve ACES pipeline (replaces ODT)
# Source: FLog2C_to_Velvia_65grid_V.1.00.cube
# Generated from Fujifilm GFX ETERNA 55 F-Log2C LUT
LUT_3D_SIZE 9
0.000000 0.000000 0.000000
0.001790 0.000046 0.000010
0.134682 0.000282 0.001961
0.838255 0.000053 0.068935
0.999396 0.169088 0.487472
0.999288 0.369760 0.409571
0.999362 0.548093 0.150644
0.999098 0.766601 0.000041
0.998586 0.963248 0.000000
0.000573 0.000652 0.000562
0.001356 0.001217 0.000171
0.100821 0.001126 0.000335
0.691234 0.000100 0.027284
0.999723 0.138823 0.475155
0.999767 0.383299 0.393702
0.999413 0.552127 0.142659
0.999095 0.767215 0.000038
0.998582 0.963256 0.000000
0.000066 0.053593 0.000361
0.000156 0.037106 0.000779
0.033488 0.026004 0.000039
0.564009 0.012668 0.000018
0.999800 0.190186 0.356508
0.999274 0.403895 0.368454
0.999533 0.558685 0.129666
0.999090 0.768232 0.000033
0.998575 0.963268 0.000000
0.000032 0.450935 0.000016
0.000058 0.380370 0.000165
0.000017 0.335726 0.000396
0.339007 0.288140 0.000094
0.999404 0.368997 0.000018
0.999462 0.476441 0.270451
0.999752 0.587302 0.070893
0.999065 0.772696 0.000008
0.998603 0.963449 0.000007
0.000013 0.886252 0.000089
0.000048 0.873919 0.000213
0.000008 0.858062 0.000210
0.000190 0.816201 0.000472
0.819816 0.677381 0.000000
0.999503 0.670066 0.000003
0.999249 0.685867 0.000074
0.998967 0.791758 0.000129
0.998906 0.964613 0.000057
0.000000 1.000000 0.000285
0.000000 1.000000 0.000285
0.000000 1.000000 0.000285
0.000000 1.000000 0.000285
0.010844 1.000000 0.000304
0.998961 0.930166 0.000029
0.999544 0.836971 0.000099
0.999338 0.859694 0.000190
0.999694 0.967659 0.000162
0.000000 1.000000 0.000285
0.000000 1.000000 0.000285
0.000000 1.000000 0.000285
0.000000 1.000000 0.000285
0.000000 1.000000 0.000285
0.476519 0.999814 0.000604
0.998658 0.968593 0.000223
0.999286 0.967201 0.000061
0.998626 0.968609 0.000223
0.153689 0.999718 0.046262
0.156681 0.999712 0.045813
0.161652 0.999701 0.045066
0.183633 0.999655 0.041761
0.280667 0.999454 0.027079
0.528423 0.999597 0.009151
0.982549 0.999469 0.017622
0.998787 0.970654 0.000464
0.998804 0.998326 0.020282
0.999634 0.999853 0.568797
0.999634 0.999853 0.568717
0.999635 0.999852 0.568582
0.999639 0.999849 0.567985
0.999655 0.999837 0.565279
0.999679 0.999799 0.554501
0.999389 0.999792 0.511361
0.998922 0.999365 0.416599
0.999374 0.999351 0.463250
0.000000 0.000000 0.000055
0.003542 0.000575 0.000554
0.131704 0.000475 0.000732
0.826421 0.000002 0.067030
0.999794 0.154376 0.486209
0.999467 0.377488 0.398842
0.999356 0.554310 0.141017
0.999030 0.771729 0.000158
0.998495 0.963820 0.000000
0.000521 0.002934 0.001875
0.001339 0.001749 0.001009
0.087390 0.001767 0.001427
0.663615 0.000208 0.022782
0.999651 0.140869 0.455579
0.999434 0.390524 0.384245
0.999283 0.558418 0.134192
0.999041 0.772485 0.000165
0.998490 0.963812 0.000000
0.000312 0.062828 0.000445
0.000558 0.041766 0.000374
0.032117 0.031394 0.000274
0.544434 0.020802 0.000013
0.999741 0.193987 0.325251
0.999746 0.411289 0.360368
0.999159 0.565053 0.123366
0.999062 0.773748 0.000178
0.998482 0.963797 0.000000
0.000196 0.471272 0.000253
0.000049 0.407756 0.000341
0.000035 0.357350 0.000196
0.329748 0.300911 0.000328
0.999302 0.374699 0.000000
0.999640 0.484078 0.258129
0.999469 0.591434 0.084140
0.999164 0.779421 0.000241
0.998513 0.963919 0.000007
0.000000 0.901781 0.000001
0.000005 0.888959 0.000047
0.000045 0.871987 0.000155
0.000042 0.830705 0.000182
0.790127 0.687130 0.000132
0.999426 0.678110 0.000543
0.999346 0.685441 0.000237
0.998920 0.800236 0.000051
0.998838 0.964970 0.000058
0.000000 1.000000 0.000285
0.000000 1.000000 0.000285
0.000000 1.000000 0.000285
0.000000 1.000000 0.000285
0.008969 0.999987 0.000272
0.999148 0.933091 0.000293
0.999132 0.844477 0.000082
0.999426 0.865605 0.000368
0.999501 0.967563 0.000132
0.000000 1.000000 0.000285
0.000000 1.000000 0.000285
0.000000 1.000000 0.000285
0.000000 1.000000 0.000285
0.000000 1.000000 0.000285
0.464396 0.999797 0.000517
0.998658 0.968592 0.000223
0.999310 0.967225 0.000066
0.998626 0.968609 0.000223
0.155412 0.999728 0.063903
0.158375 0.999722 0.063419
0.163297 0.999714 0.062616
0.185061 0.999676 0.059059
0.281139 0.999511 0.043277
0.527501 0.999661 0.014485
0.981774 0.999474 0.019386
0.998898 0.972251 0.000678
0.998781 0.998684 0.021514
0.999633 0.999843 0.571143
0.999634 0.999842 0.571062
0.999635 0.999842 0.570928
0.999638 0.999839 0.570332
0.999655 0.999825 0.567631
0.999675 0.999794 0.556868
0.999409 0.999809 0.513653
0.998921 0.999349 0.418828
0.999406 0.999358 0.465341
0.000064 0.000025 0.032653
0.006543 0.000072 0.023689
0.144806 0.000329 0.020872
0.756646 0.000256 0.060881
0.999868 0.127240 0.483011
0.999695 0.388106 0.396205
0.999762 0.555427 0.216208
0.999013 0.777259 0.000189
0.998455 0.967098 0.001193
0.000016 0.001113 0.060543
0.000492 0.000983 0.038508
0.092230 0.001010 0.033461
0.627591 0.000078 0.066755
0.999369 0.141076 0.438620
0.999989 0.401594 0.385669
0.999689 0.559198 0.212038
0.999000 0.778391 0.000224
0.998450 0.967092 0.001196
0.000234 0.077002 0.079772
0.000166 0.049252 0.046725
0.035340 0.035227 0.032378
0.536332 0.018549 0.037332
0.999747 0.186464 0.337974
0.999422 0.421510 0.372876
0.999579 0.565309 0.205351
0.998978 0.780264 0.000263
0.998443 0.967083 0.001201
0.000368 0.494210 0.000596
0.000003 0.442236 0.000286
0.000093 0.391650 0.000338
0.324686 0.321523 0.000303
0.998874 0.363025 0.037136
0.999383 0.489937 0.325318
0.999531 0.591516 0.178416
0.998878 0.788434 0.000143
0.998472 0.967192 0.001216
0.000000 0.916373 0.000391
0.000001 0.903656 0.000328
0.000059 0.888194 0.000278
0.000270 0.846749 0.000691
0.770344 0.698130 0.000200
0.999617 0.676212 0.080427
0.998797 0.681889 0.060640
0.999195 0.811206 0.000370
0.998741 0.967850 0.001186
0.000000 1.000000 0.000285
0.000000 1.000000 0.000285
0.000000 1.000000 0.000285
0.000000 1.000000 0.000285
0.006337 0.999967 0.000314
0.999068 0.934077 0.000309
0.999203 0.861672 0.000143
0.999427 0.875015 0.000157
0.999193 0.967411 0.000086
0.000000 1.000000 0.000285
0.000000 1.000000 0.000285
0.000000 1.000000 0.000285
0.000000 1.000000 0.000285
0.000000 1.000000 0.000285
0.447481 0.999372 0.000108
0.998877 0.968481 0.000223
0.999015 0.967687 0.000113
0.998626 0.968609 0.000223
0.158193 0.999743 0.092351
0.161108 0.999740 0.091812
0.165951 0.999734 0.090917
0.187366 0.999710 0.086953
0.281902 0.999603 0.069403
0.526014 0.999763 0.023083
0.980525 0.999481 0.022234
0.999078 0.974839 0.001026
0.998750 0.999241 0.023508
0.999633 0.999826 0.575020
0.999633 0.999825 0.574940
0.999634 0.999824 0.574806
0.999638 0.999821 0.574211
0.999654 0.999806 0.571518
0.999669 0.999786 0.560780
0.999442 0.999839 0.517444
0.998921 0.999324 0.422514
0.999457 0.999369 0.468800
0.001518 0.000366 0.373103
0.022975 0.000093 0.290348
0.162298 0.000028 0.268274
0.659375 0.000000 0.360315
0.999651 0.073062 0.652466
0.999935 0.412049 0.540385
0.999409 0.558120 0.398184
0.999516 0.768815 0.128937
0.999310 0.987000 0.011132
0.000420 0.001885 0.464493
0.004807 0.000030 0.368423
0.111841 0.000079 0.332606
0.601650 0.000111 0.373676
0.999922 0.100395 0.612421
0.999798 0.423172 0.535619
0.999542 0.561606 0.396056
0.999519 0.769919 0.127485
0.999312 0.986985 0.011122
0.000328 0.100082 0.544766
0.000199 0.063345 0.444041
0.053256 0.046590 0.392141
0.542623 0.012496 0.388820
0.999939 0.153539 0.550603
0.999582 0.440238 0.528779
0.999761 0.567259 0.392618
0.999524 0.771745 0.125087
0.999315 0.986959 0.011106
0.000173 0.495406 0.505751
0.000259 0.457738 0.461525
0.000133 0.420256 0.422359
0.334180 0.335747 0.335095
0.996703 0.347375 0.390509
0.999978 0.500933 0.504302
0.999790 0.590553 0.375703
0.999548 0.779698 0.114684
0.999329 0.986581 0.010847
0.000140 0.914505 0.202599
0.000028 0.901410 0.189864
0.000011 0.883514 0.172077
0.000133 0.835915 0.131325
0.724417 0.718993 0.104891
0.999563 0.669591 0.361145
0.999344 0.675327 0.300251
0.999123 0.814360 0.063057
0.999383 0.984435 0.009353
0.000000 1.000000 0.000285
0.000000 1.000000 0.000285
0.000000 1.000000 0.000285
0.000000 1.000000 0.000285
0.000000 1.000000 0.000285
0.998051 0.971542 0.001385
0.999090 0.905543 0.013820
0.998901 0.911294 0.000002
0.999275 0.975707 0.003364
0.000000 1.000000 0.000285
0.000000 1.000000 0.000285
0.000000 1.000000 0.000285
0.000000 1.000000 0.000285
0.000000 1.000000 0.000285
0.393017 0.999729 0.000593
0.999010 0.968378 0.000218
0.998923 0.967342 0.000054
0.998626 0.968609 0.000223
0.172637 0.999674 0.205922
0.175336 0.999678 0.205348
0.179819 0.999684 0.204394
0.199642 0.999711 0.200179
0.287145 0.999833 0.181609
0.519923 0.999476 0.116466
0.975619 0.999894 0.031515
0.999524 0.988572 0.007413
0.999046 0.999677 0.030627
0.999630 0.999750 0.591883
0.999631 0.999750 0.591804
0.999632 0.999749 0.591671
0.999635 0.999744 0.591084
0.999652 0.999723 0.588425
0.999641 0.999750 0.577794
0.999587 0.999967 0.533929
0.999010 0.999273 0.438810
0.999683 0.999418 0.483891
0.045310 0.047243 0.953350
0.130581 0.022692 0.983752
0.273027 0.007177 0.994798
0.620809 0.000182 0.970662
0.999754 0.083996 0.912237
0.999419 0.455955 0.715178
0.999711 0.574308 0.632430
0.999544 0.753460 0.441679
0.998765 0.999979 0.046902
0.016263 0.108572 0.999656
0.091214 0.077776 0.999879
0.238844 0.045065 0.998055
0.595124 0.020081 0.967301
0.999975 0.120054 0.897839
0.999376 0.464963 0.715614
0.999743 0.577249 0.631067
0.999537 0.754436 0.440893
0.998766 0.999975 0.046837
0.000421 0.211067 0.999876
0.034099 0.183338 0.999416
0.173785 0.150318 0.997608
0.556543 0.097394 0.954239
0.999836 0.174652 0.875494
0.999338 0.478918 0.716251
0.999793 0.582024 0.628857
0.999526 0.756050 0.439592
0.998770 0.999966 0.046805
0.000408 0.502572 0.997163
0.000666 0.488074 0.993592
0.002992 0.464571 0.981177
0.401647 0.388491 0.889814
0.972406 0.355663 0.808629
0.999520 0.528984 0.714303
0.999908 0.601229 0.619411
0.999527 0.763150 0.433334
0.998787 0.999928 0.046651
0.000384 0.863860 0.886241
0.000192 0.859292 0.877432
0.000731 0.851467 0.861612
0.000620 0.820589 0.813377
0.701556 0.702208 0.701647
0.999864 0.663575 0.680407
0.999690 0.671708 0.586066
0.999806 0.793278 0.404034
0.998863 0.999761 0.045736
0.000088 0.999820 0.464530
0.000125 0.999835 0.462214
0.000185 0.999857 0.458561
0.000336 0.999861 0.447247
0.000062 0.999764 0.416619
0.978375 0.987332 0.359706
0.999209 0.873937 0.426319
0.999573 0.906572 0.278761
0.999158 0.999302 0.038283
0.000021 0.999836 0.022195
0.000023 0.999829 0.021705
0.000026 0.999818 0.020894
0.000040 0.999769 0.017372
0.000000 0.999846 0.009320
0.293978 0.999863 0.004367
0.998606 0.999431 0.034295
0.999311 0.999342 0.028221
0.999176 0.998769 0.017494
0.214385 0.999816 0.476983
0.216924 0.999814 0.476703
0.221142 0.999812 0.476239
0.239801 0.999799 0.474189
0.322339 0.999746 0.465162
0.514231 0.999552 0.416042
0.952409 0.999588 0.283261
0.998900 0.999718 0.042543
0.998563 0.999309 0.105124
0.999442 0.999995 0.664094
0.999440 0.999995 0.664019
0.999437 0.999995 0.663894
0.999424 0.999995 0.663339
0.999365 0.999995 0.660827
0.999326 0.999982 0.649340
0.999613 0.999744 0.602936
0.999823 0.999548 0.508059
0.999582 0.999870 0.546888
0.410554 0.399756 0.999728
0.440899 0.392925 0.999468
0.482206 0.386083 0.999659
0.620679 0.362732 0.999976
0.976513 0.339066 0.999238
0.999830 0.475821 0.999321
0.999681 0.588564 0.869949
0.999546 0.745229 0.759979
0.999529 0.999808 0.496447
0.396112 0.417447 0.999672
0.426955 0.411083 0.999551
0.469019 0.404101 0.999708
0.610392 0.380665 0.999911
0.971125 0.354452 0.999419
0.999778 0.480564 0.999183
0.999697 0.590970 0.870050
0.999553 0.746022 0.759584
0.999532 0.999808 0.496162
0.372750 0.445815 0.999701
0.404245 0.440163 0.999774
0.448552 0.432412 0.999747
0.594463 0.409102 0.999778
0.960376 0.378135 0.999611
0.999696 0.488176 0.998965
0.999723 0.594904 0.870215
0.999566 0.747335 0.758932
0.999538 0.999809 0.495689
0.267452 0.543608 0.999678
0.304058 0.538264 0.999787
0.357585 0.530570 0.999809
0.523940 0.505397 0.999204
0.902429 0.462184 0.999483
0.999862 0.521073 0.999820
0.999806 0.611499 0.870686
0.999619 0.753075 0.756083
0.999561 0.999810 0.493590
0.001827 0.771231 0.999760
0.005536 0.770341 0.999761
0.010920 0.769055 0.999762
0.196500 0.736951 0.999988
0.688091 0.671673 0.999906
0.999953 0.631498 0.999502
0.999914 0.675030 0.864822
0.999724 0.777773 0.743902
0.999670 0.999817 0.484215
0.000236 0.964939 0.999973
0.000195 0.964508 0.999979
0.000129 0.963812 0.999990
0.000066 0.962573 1.000000
0.020339 0.967327 0.999197
0.910847 0.913884 0.913054
0.999930 0.841272 0.820775
0.999628 0.868937 0.682831
0.999894 0.999647 0.444225
0.000215 0.999825 0.750397
0.000212 0.999823 0.748910
0.000205 0.999819 0.746456
0.000199 0.999744 0.736256
0.000185 0.999661 0.700297
0.239023 0.999772 0.632387
0.999486 0.999791 0.534983
0.999638 0.999692 0.446719
0.999647 0.999905 0.327171
0.137574 0.999564 0.902037
0.139759 0.999560 0.901640
0.143389 0.999555 0.900980
0.159439 0.999529 0.898063
0.229860 0.999433 0.885357
0.470954 0.999685 0.843825
0.903472 0.999744 0.749393
0.999403 0.999550 0.503762
0.998854 0.999816 0.535113
0.998598 0.999391 0.867763
0.998596 0.999389 0.867705
0.998593 0.999387 0.867609
0.998581 0.999374 0.867181
0.998527 0.999316 0.865244
0.998727 0.999348 0.856268
0.999175 0.999624 0.820141
0.999067 1.000000 0.730615
0.999063 1.000000 0.752773
0.538086 0.597303 0.999661
0.544558 0.596898 0.999735
0.555104 0.596241 0.999855
0.596075 0.593991 0.999779
0.739832 0.589341 0.999783
0.999821 0.572671 0.999644
0.999902 0.611777 0.999502
0.999637 0.724365 0.999494
0.999460 0.959139 0.943048
0.535382 0.600000 0.999680
0.541883 0.599584 0.999748
0.552478 0.598911 0.999859
0.593562 0.596614 0.999759
0.737558 0.591701 0.999786
0.999827 0.574980 0.999645
0.999902 0.613024 0.999525
0.999637 0.725039 0.999498
0.999455 0.959272 0.942960
0.530974 0.604430 0.999707
0.537523 0.603998 0.999767
0.548196 0.603298 0.999864
0.589458 0.600925 0.999726
0.733820 0.595589 0.999789
0.999838 0.578786 0.999645
0.999902 0.615082 0.999563
0.999639 0.726156 0.999503
0.999447 0.959494 0.942815
0.512688 0.623308 0.999780
0.519433 0.622809 0.999803
0.530075 0.622059 0.999802
0.572338 0.619333 0.999574
0.717856 0.612321 0.999779
0.999766 0.594346 0.999678
0.999900 0.623999 0.999728
0.999643 0.731067 0.999528
0.999411 0.960479 0.942168
0.424569 0.697944 0.999506
0.432258 0.697057 0.999504
0.444823 0.695607 0.999501
0.494980 0.690212 0.999647
0.651940 0.677154 0.999883
0.992151 0.654361 0.999924
0.999741 0.663420 0.999520
0.999675 0.752615 0.999696
0.999249 0.964890 0.939271
0.020853 0.914819 0.999958
0.025617 0.916033 0.999952
0.033407 0.918015 0.999941
0.073652 0.923834 0.999881
0.384868 0.883826 0.999978
0.824741 0.832872 0.999762
0.999525 0.795276 0.999620
0.999626 0.832945 0.998320
0.999740 0.980502 0.925871
0.000573 0.986422 1.000000
0.000573 0.986422 1.000000
0.000573 0.986422 1.000000
0.000573 0.986422 1.000000
0.000573 0.986423 0.999999
0.171688 0.999678 0.999805
0.982144 0.992818 0.991171
0.999786 0.981717 0.939683
0.999329 0.999921 0.863303
0.077240 0.999896 0.999938
0.079420 0.999895 0.999938
0.083044 0.999895 0.999939
0.099078 0.999892 0.999945
0.170078 0.999880 0.999967
0.409612 0.999915 0.999661
0.845894 0.999565 0.999777
0.998285 0.999677 0.981547
0.999359 0.999941 0.984940
0.998999 1.000000 0.999740
0.999026 1.000000 0.999747
0.999071 1.000000 0.999759
0.999273 1.000000 0.999811
1.000000 1.000000 1.000000
1.000000 1.000000 1.000000
1.000000 1.000000 1.000000
1.000000 1.000000 0.998882
1.000000 1.000000 0.999340
0.401114 0.982781 0.999576
0.405736 0.982505 0.999571
0.413401 0.982050 0.999562
0.437244 0.979448 0.999635
0.536093 0.968490 0.999969
0.795663 0.919255 0.999690
0.999264 0.836097 0.999325
0.999420 0.783869 0.999275
0.999848 0.963403 0.999737
0.399706 0.983181 0.999583
0.404360 0.982913 0.999578
0.412079 0.982472 0.999569
0.435812 0.979886 0.999643
0.535067 0.969050 0.999971
0.794899 0.919832 0.999690
0.999273 0.836639 0.999332
0.999420 0.784367 0.999269
0.999849 0.963545 0.999735
0.397392 0.983851 0.999593
0.402099 0.983596 0.999588
0.409907 0.983177 0.999580
0.433444 0.980617 0.999656
0.533372 0.969982 0.999974
0.793633 0.920790 0.999692
0.999288 0.837539 0.999344
0.999420 0.785195 0.999260
0.999852 0.963779 0.999733
0.387541 0.986882 0.999641
0.392484 0.986687 0.999637
0.399124 0.986239 0.999643
0.423146 0.983875 0.999710
0.526030 0.974128 0.999986
0.788075 0.925015 0.999697
0.999357 0.841515 0.999394
0.999420 0.788861 0.999217
0.999864 0.964822 0.999722
0.337935 0.998984 0.999857
0.341654 0.998756 0.999860
0.347822 0.998378 0.999865
0.374960 0.996733 0.999887
0.488409 0.989071 0.999908
0.760955 0.942722 0.999710
0.999669 0.859014 0.999618
0.999443 0.804386 0.999317
0.999903 0.969450 0.999674
0.086579 0.996307 0.999684
0.088994 0.996519 0.999683
0.092984 0.996871 0.999681
0.110328 0.998426 0.999674
0.251855 0.999918 0.999718
0.637518 0.994063 0.999639
0.999903 0.925009 0.999851
0.999529 0.864044 0.999793
0.998677 0.983364 0.999551
0.011093 0.992336 0.999852
0.011365 0.992481 0.999857
0.011816 0.992721 0.999866
0.013796 0.993776 0.999904
0.060218 0.996928 0.999878
0.395611 0.999513 0.999863
0.930701 0.999748 0.999226
0.998461 0.988577 0.999208
1.000000 1.000000 1.000000
0.261201 0.999608 0.999777
0.262822 0.999607 0.999775
0.265515 0.999604 0.999772
0.276845 0.999598 0.999762
0.317098 0.999648 0.999775
0.471872 0.999862 0.999799
0.831513 0.999745 0.999720
1.000000 1.000000 1.000000
1.000000 1.000000 1.000000
0.997195 0.999867 0.997797
0.997206 0.999868 0.997805
0.997223 0.999869 0.997819
0.997301 0.999872 0.997880
0.997655 0.999889 0.998158
0.999220 0.999963 0.999387
1.000000 1.000000 1.000000
1.000000 1.000000 1.000000
1.000000 1.000000 1.000000
0.771561 0.999878 0.999810
0.772109 0.999878 0.999810
0.773020 0.999879 0.999811
0.777065 0.999881 0.999815
0.795224 0.999888 0.999832
0.867438 0.999785 0.999671
1.000000 1.000000 1.000000
1.000000 1.000000 1.000000
1.000000 1.000000 1.000000
0.771520 0.999880 0.999810
0.772068 0.999880 0.999811
0.772979 0.999881 0.999811
0.777024 0.999882 0.999815
0.795185 0.999890 0.999833
0.867396 0.999785 0.999672
1.000000 1.000000 1.000000
1.000000 1.000000 1.000000
1.000000 1.000000 1.000000
0.771451 0.999883 0.999810
0.771999 0.999883 0.999811
0.772910 0.999884 0.999812
0.776956 0.999885 0.999816
0.795121 0.999892 0.999835
0.867326 0.999784 0.999674
1.000000 1.000000 1.000000
1.000000 1.000000 1.000000
1.000000 1.000000 1.000000
0.771147 0.999897 0.999811
0.771695 0.999897 0.999812
0.772608 0.999897 0.999813
0.776656 0.999898 0.999818
0.794835 0.999902 0.999841
0.867018 0.999781 0.999680
0.999990 1.000000 0.999992
1.000000 1.000000 1.000000
1.000000 1.000000 1.000000
0.769814 0.999956 0.999819
0.770364 0.999956 0.999820
0.771279 0.999955 0.999822
0.775342 0.999954 0.999831
0.793584 0.999946 0.999872
0.865664 0.999762 0.999708
0.999554 0.999979 0.999650
1.000000 1.000000 1.000000
1.000000 1.000000 1.000000
0.764177 0.999922 0.999891
0.764731 0.999921 0.999892
0.765654 0.999921 0.999894
0.769751 0.999918 0.999902
0.788148 0.999903 0.999935
0.859003 0.999687 0.999718
0.997813 0.999897 0.998283
1.000000 1.000000 1.000000
1.000000 1.000000 1.000000
0.748385 0.999784 0.999445
0.748898 0.999785 0.999446
0.749750 0.999788 0.999446
0.753508 0.999794 0.999448
0.769842 0.999712 0.999434
0.839772 0.999377 0.999382
0.989977 0.999670 0.999040
1.000000 1.000000 1.000000
1.000000 1.000000 1.000000
0.785681 0.999996 1.000000
0.786065 0.999997 1.000000
0.786706 0.999999 1.000000
0.789317 0.999986 1.000000
0.800828 0.999906 1.000000
0.850857 0.999557 1.000000
0.983523 0.999843 0.996935
1.000000 1.000000 1.000000
1.000000 1.000000 1.000000
1.000000 1.000000 1.000000
1.000000 1.000000 1.000000
1.000000 1.000000 1.000000
1.000000 1.000000 1.000000
1.000000 1.000000 1.000000
1.000000 1.000000 1.000000
1.000000 1.000000 1.000000
1.000000 1.000000 1.000000
1.000000 1.000000 1.000000
