output/ACEScct_display/ACEScct_to_REALA-ACE_33grid.cube
TITLE "ACEScct_to_REALA-ACE"
# Input: ACEScct (AP1 primaries, log encoding, D60)
# Output: BT.709 / Gamma 2.2 (display-referred)
# Use: Display/output transform in DaVinci Resolve ACES pipeline (replaces ODT)
# Source: FLog2C_to_REALA-ACE_65grid_V.1.00.cube
# Generated from Fujifilm GFX ETERNA 55 F-Log2C LUT
LUT_3D_SIZE 5
0.000200 0.000111 0.000001
0.132677 0.000049 0.003356
0.921815 0.240440 0.432119
0.981616 0.556341 0.224858
0.996875 0.980828 0.377122
0.000203 0.105605 0.000053
0.086368 0.068745 0.000222
0.919878 0.237076 0.343541
0.981947 0.566289 0.207359
0.996867 0.980907 0.377869
0.465094 0.798005 0.394410
0.419149 0.764606 0.349098
0.808776 0.684974 0.000001
0.981572 0.693763 0.002736
0.997029 0.981164 0.380960
0.663656 0.929187 0.593484
0.663656 0.929187 0.593484
0.677042 0.931242 0.593116
0.996985 0.986625 0.425529
0.996976 0.986641 0.425675
0.993982 0.995580 0.759531
0.993977 0.995579 0.759468
0.993906 0.995569 0.758504
0.994128 0.994884 0.736115
0.995072 0.994186 0.716322
0.000059 0.000081 0.067025
0.153443 0.000308 0.055670
0.916483 0.215065 0.420342
0.985621 0.569875 0.276628
0.996913 0.985752 0.418720
0.000182 0.128212 0.129002
0.096754 0.097909 0.094761
0.920146 0.236924 0.334494
0.986423 0.579741 0.266788
0.996905 0.985788 0.419081
0.536377 0.847587 0.463731
0.490007 0.815559 0.418105
0.779797 0.718757 0.002932
0.988379 0.701446 0.147690
0.997096 0.985159 0.413309
0.663656 0.929187 0.593484
0.663656 0.929187 0.593484
0.675744 0.931001 0.593162
0.996985 0.986625 0.425528
0.996977 0.986656 0.425761
0.994043 0.995698 0.761926
0.994040 0.995697 0.761864
0.993991 0.995690 0.760909
0.994053 0.994904 0.738707
0.995055 0.994296 0.718728
0.114838 0.110854 0.702337
0.159343 0.089574 0.677614
0.869126 0.362544 0.750355
0.996615 0.619915 0.681032
0.996160 0.988619 0.498628
0.120267 0.227066 0.755720
0.124701 0.185366 0.716927
0.877350 0.388450 0.750515
0.997128 0.627672 0.679402
0.996141 0.988617 0.498155
0.482610 0.826083 0.816141
0.462795 0.812987 0.801782
0.764768 0.765687 0.765377
0.998437 0.717837 0.653977
0.995869 0.988582 0.490882
0.659594 0.930072 0.632643
0.659921 0.930168 0.632622
0.678398 0.933490 0.631491
0.994969 0.988294 0.473411
0.996815 0.988522 0.449846
0.994470 0.996443 0.794450
0.994473 0.996443 0.794389
0.994512 0.996444 0.793461
0.994257 0.996162 0.772411
0.995110 0.995092 0.749202
0.441346 0.646636 0.889851
0.459805 0.648329 0.893517
0.674772 0.680946 0.933196
0.943466 0.741665 0.940059
0.998193 0.957384 0.946199
0.437171 0.651362 0.889280
0.455469 0.653082 0.892842
0.670782 0.684764 0.933462
0.944176 0.744195 0.940799
0.998209 0.957647 0.946130
0.391656 0.710964 0.883226
0.406569 0.711567 0.886500
0.614093 0.733357 0.930591
0.953875 0.778658 0.951586
0.998452 0.961639 0.945088
0.645778 0.926725 0.922763
0.645592 0.926676 0.922823
0.651056 0.929800 0.924970
0.983789 0.991448 0.987673
0.995602 0.997375 0.890658
0.996552 0.998071 0.997558
0.996660 0.998069 0.997593
0.998047 0.998047 0.998047
0.998047 0.998047 0.998047
0.998122 0.998176 0.995551
0.886413 0.987373 0.980022
0.886835 0.987452 0.980107
0.893247 0.988659 0.981411
0.998047 0.998047 0.998047
0.998047 0.998047 0.998047
0.886379 0.987364 0.980014
0.886801 0.987443 0.980100
0.893213 0.988652 0.981402
0.998047 0.998047 0.998047
0.998047 0.998047 0.998047
0.885872 0.987231 0.979900
0.886294 0.987312 0.979984
0.892702 0.988551 0.981260
0.997471 0.998060 0.997861
0.998047 0.998047 0.998047
0.878084 0.986268 0.979518
0.878484 0.986355 0.979606
0.884598 0.987397 0.980804
0.984142 0.997424 0.994623
0.998047 0.998047 0.998047
0.998047 0.998047 0.998047
0.998047 0.998047 0.998047
0.998047 0.998047 0.998047
0.998047 0.998047 0.998047
0.998047 0.998047 0.998047
