output/ACEScct_display/ACEScct_to_ACROS_33grid.cube
TITLE "ACEScct_to_ACROS"
# Input: ACEScct (AP1 primaries, log encoding, D60)
# Output: BT.709 / Gamma 2.2 (display-referred)
# Use: Display/output transform in DaVinci Resolve ACES pipeline (replaces ODT)
# Source: FLog2C_to_ACROS_65grid_V.1.00.cube
# Generated from Fujifilm GFX ETERNA 55 F-Log2C LUT
LUT_3D_SIZE 33
0.000105 0.000105 0.000105
0.000105 0.000105 0.000105
0.000105 0.000105 0.000105
0.000588 0.000588 0.000588
0.004779 0.004779 0.004779
0.009411 0.009411 0.009411
0.014920 0.014920 0.014920
0.024336 0.024336 0.024336
0.037494 0.037494 0.037494
0.060562 0.060562 0.060562
0.099597 0.099597 0.099597
0.148541 0.148541 0.148541
0.213042 0.213042 0.213042
0.286356 0.286356 0.286356
0.356318 0.356318 0.356318
0.429284 0.429284 0.429284
0.484905 0.484905 0.484905
0.536122 0.536122 0.536122
0.568254 0.568254 0.568254
0.583910 0.583910 0.583910
0.600656 0.600656 0.600656
0.619224 0.619224 0.619224
0.638972 0.638972 0.638972
0.661523 0.661523 0.661523
0.685167 0.685167 0.685167
0.708914 0.708914 0.708914
0.734913 0.734913 0.734913
0.762690 0.762690 0.762690
0.791536 0.791536 0.791536
0.820394 0.820394 0.820394
0.858016 0.858016 0.858016
0.890717 0.890717 0.890717
0.916444 0.916444 0.916444
0.000105 0.000105 0.000105
0.000105 0.000105 0.000105
0.000105 0.000105 0.000105
0.001193 0.001193 0.001193
0.005438 0.005438 0.005438
0.010102 0.010102 0.010102
0.015534 0.015534 0.015534
0.025116 0.025116 0.025116
0.038202 0.038202 0.038202
0.061573 0.061573 0.061573
0.100567 0.100567 0.100567
0.149350 0.149350 0.149350
0.206575 0.206575 0.206575
0.267562 0.267562 0.267562
0.338766 0.338766 0.338766
0.416282 0.416282 0.416282
0.477089 0.477089 0.477089
0.533359 0.533359 0.533359
0.570998 0.570998 0.570998
0.586199 0.586199 0.586199
0.602337 0.602337 0.602337
0.620433 0.620433 0.620433
0.639931 0.639931 0.639931
0.662165 0.662165 0.662165
0.685610 0.685610 0.685610
0.709229 0.709229 0.709229
0.735142 0.735142 0.735142
0.762856 0.762856 0.762856
0.791645 0.791645 0.791645
0.820468 0.820468 0.820468
0.858057 0.858057 0.858057
0.890738 0.890738 0.890738
0.916455 0.916455 0.916455
0.000105 0.000105 0.000105
0.000105 0.000105 0.000105
0.000105 0.000105 0.000105
0.001779 0.001779 0.001779
0.006083 0.006083 0.006083
0.010778 0.010778 0.010778
0.016137 0.016137 0.016137
0.025890 0.025890 0.025890
0.038902 0.038902 0.038902
0.062379 0.062379 0.062379
0.097452 0.097452 0.097452
0.139315 0.139315 0.139315
0.190568 0.190568 0.190568
0.253612 0.253612 0.253612
0.324135 0.324135 0.324135
0.404288 0.404288 0.404288
0.470109 0.470109 0.470109
0.530773 0.530773 0.530773
0.573597 0.573597 0.573597
0.588276 0.588276 0.588276
0.603980 0.603980 0.603980
0.621624 0.621624 0.621624
0.640880 0.640880 0.640880
0.662802 0.662802 0.662802
0.686053 0.686053 0.686053
0.709543 0.709543 0.709543
0.735371 0.735371 0.735371
0.763021 0.763021 0.763021
0.791754 0.791754 0.791754
0.820542 0.820542 0.820542
0.858098 0.858098 0.858098
0.890759 0.890759 0.890759
0.916465 0.916465 0.916465
0.001535 0.001535 0.001535
0.001899 0.001899 0.001899
0.002262 0.002262 0.002262
0.003256 0.003256 0.003256
0.006618 0.006618 0.006618
0.009572 0.009572 0.009572
0.014317 0.014317 0.014317
0.023481 0.023481 0.023481
0.035045 0.035045 0.035045
0.055565 0.055565 0.055565
0.087627 0.087627 0.087627
0.128953 0.128953 0.128953
0.179717 0.179717 0.179717
0.241551 0.241551 0.241551
0.311039 0.311039 0.311039
0.393234 0.393234 0.393234
0.465610 0.465610 0.465610
0.530128 0.530128 0.530128
0.575444 0.575444 0.575444
0.590288 0.590288 0.590288
0.605587 0.605587 0.605587
0.622793 0.622793 0.622793
0.641818 0.641818 0.641818
0.663434 0.663434 0.663434
0.686493 0.686493 0.686493
0.709855 0.709855 0.709855
0.735600 0.735600 0.735600
0.763186 0.763186 0.763186
0.791863 0.791863 0.791863
0.820616 0.820616 0.820616
0.858140 0.858140 0.858140
0.890779 0.890779 0.890779
0.916476 0.916476 0.916476
0.007751 0.007751 0.007751
0.008047 0.008047 0.008047
0.008340 0.008340 0.008340
0.006958 0.006958 0.006958
0.010914 0.010914 0.010914
0.012381 0.012381 0.012381
0.016034 0.016034 0.016034
0.023643 0.023643 0.023643
0.032542 0.032542 0.032542
0.050048 0.050048 0.050048
0.080183 0.080183 0.080183
0.119649 0.119649 0.119649
0.169655 0.169655 0.169655
0.230750 0.230750 0.230750
0.299963 0.299963 0.299963
0.384134 0.384134 0.384134
0.461525 0.461525 0.461525
0.529826 0.529826 0.529826
0.577232 0.577232 0.577232
0.592242 0.592242 0.592242
0.607159 0.607159 0.607159
0.623940 0.623940 0.623940
0.642748 0.642748 0.642748
0.664060 0.664060 0.664060
0.686931 0.686931 0.686931
0.710167 0.710167 0.710167
0.735827 0.735827 0.735827
0.763351 0.763351 0.763351
0.791971 0.791971 0.791971
0.820691 0.820691 0.820691
0.858181 0.858181 0.858181
0.890800 0.890800 0.890800
0.916487 0.916487 0.916487
0.013605 0.013605 0.013605
0.013909 0.013909 0.013909
0.014210 0.014210 0.014210
0.012703 0.012703 0.012703
0.014441 0.014441 0.014441
0.016053 0.016053 0.016053
0.020222 0.020222 0.020222
0.026206 0.026206 0.026206
0.033688 0.033688 0.033688
0.048999 0.048999 0.048999
0.076361 0.076361 0.076361
0.112864 0.112864 0.112864
0.162161 0.162161 0.162161
0.222217 0.222217 0.222217
0.290534 0.290534 0.290534
0.376874 0.376874 0.376874
0.461774 0.461774 0.461774
0.529565 0.529565 0.529565
0.578967 0.578967 0.578967
0.594140 0.594140 0.594140
0.608699 0.608699 0.608699
0.625071 0.625071 0.625071
0.643668 0.643668 0.643668
0.664693 0.664693 0.664693
0.687369 0.687369 0.687369
0.710468 0.710468 0.710468
0.736054 0.736054 0.736054
0.763516 0.763516 0.763516
0.792080 0.792080 0.792080
0.820765 0.820765 0.820765
0.858222 0.858222 0.858222
0.890820 0.890820 0.890820
0.916497 0.916497 0.916497
0.021672 0.021672 0.021672
0.022016 0.022016 0.022016
0.022070 0.022070 0.022070
0.019229 0.019229 0.019229
0.019530 0.019530 0.019530
0.021764 0.021764 0.021764
0.024374 0.024374 0.024374
0.030116 0.030116 0.030116
0.038209 0.038209 0.038209
0.051043 0.051043 0.051043
0.075979 0.075979 0.075979
0.112089 0.112089 0.112089
0.158033 0.158033 0.158033
0.217280 0.217280 0.217280
0.285956 0.285956 0.285956
0.373705 0.373705 0.373705
0.462085 0.462085 0.462085
0.529549 0.529549 0.529549
0.581120 0.581120 0.581120
0.596459 0.596459 0.596459
0.610530 0.610530 0.610530
0.626441 0.626441 0.626441
0.644787 0.644787 0.644787
0.665474 0.665474 0.665474
0.687904 0.687904 0.687904
0.710832 0.710832 0.710832
0.736333 0.736333 0.736333
0.763718 0.763718 0.763718
0.792214 0.792214 0.792214
0.820856 0.820856 0.820856
0.858273 0.858273 0.858273
0.890846 0.890846 0.890846
0.916511 0.916511 0.916511
0.033557 0.033557 0.033557
0.033876 0.033876 0.033876
0.032465 0.032465 0.032465
0.029258 0.029258 0.029258
0.029150 0.029150 0.029150
0.030654 0.030654 0.030654
0.032955 0.032955 0.032955
0.037190 0.037190 0.037190
0.044353 0.044353 0.044353
0.055525 0.055525 0.055525
0.078270 0.078270 0.078270
0.113377 0.113377 0.113377
0.157890 0.157890 0.157890
0.214507 0.214507 0.214507
0.282506 0.282506 0.282506
0.370594 0.370594 0.370594
0.462357 0.462357 0.462357
0.529528 0.529528 0.529528
0.584276 0.584276 0.584276
0.599952 0.599952 0.599952
0.613119 0.613119 0.613119
0.628399 0.628399 0.628399
0.646399 0.646399 0.646399
0.666604 0.666604 0.666604
0.688683 0.688683 0.688683
0.711362 0.711362 0.711362
0.736739 0.736739 0.736739
0.764013 0.764013 0.764013
0.792408 0.792408 0.792408
0.820989 0.820989 0.820989
0.858347 0.858347 0.858347
0.890883 0.890883 0.890883
0.916530 0.916530 0.916530
0.050450 0.050450 0.050450
0.050807 0.050807 0.050807
0.047777 0.047777 0.047777
0.043068 0.043068 0.043068
0.041822 0.041822 0.041822
0.043543 0.043543 0.043543
0.044331 0.044331 0.044331
0.047480 0.047480 0.047480
0.054149 0.054149 0.054149
0.064278 0.064278 0.064278
0.084288 0.084288 0.084288
0.115821 0.115821 0.115821
0.158721 0.158721 0.158721
0.212344 0.212344 0.212344
0.279693 0.279693 0.279693
0.368149 0.368149 0.368149
0.462987 0.462987 0.462987
0.529826 0.529826 0.529826
0.587849 0.587849 0.587849
0.604774 0.604774 0.604774
0.616746 0.616746 0.616746
0.631175 0.631175 0.631175
0.648704 0.648704 0.648704
0.668229 0.668229 0.668229
0.689812 0.689812 0.689812
0.712132 0.712132 0.712132
0.737333 0.737333 0.737333
0.764443 0.764443 0.764443
0.792693 0.792693 0.792693
0.821182 0.821182 0.821182
0.858454 0.858454 0.858454
0.890937 0.890937 0.890937
0.916558 0.916558 0.916558
0.075441 0.075441 0.075441
0.073208 0.073208 0.073208
0.066730 0.066730 0.066730
0.062825 0.062825 0.062825
0.059962 0.059962 0.059962
0.058753 0.058753 0.058753
0.059900 0.059900 0.059900
0.063157 0.063157 0.063157
0.067829 0.067829 0.067829
0.076868 0.076868 0.076868
0.093849 0.093849 0.093849
0.122742 0.122742 0.122742
0.162537 0.162537 0.162537
0.214240 0.214240 0.214240
0.280628 0.280628 0.280628
0.367254 0.367254 0.367254
0.463941 0.463941 0.463941
0.531852 0.531852 0.531852
0.589726 0.589726 0.589726
0.611604 0.611604 0.611604
0.621923 0.621923 0.621923
0.635123 0.635123 0.635123
0.651734 0.651734 0.651734
0.670553 0.670553 0.670553
0.691442 0.691442 0.691442
0.713247 0.713247 0.713247
0.738199 0.738199 0.738199
0.765068 0.765068 0.765068
0.793107 0.793107 0.793107
0.821465 0.821465 0.821465
0.858612 0.858612 0.858612
0.891015 0.891015 0.891015
0.916599 0.916599 0.916599
0.116189 0.116189 0.116189
0.106544 0.106544 0.106544
0.098578 0.098578 0.098578
0.092347 0.092347 0.092347
0.088061 0.088061 0.088061
0.085217 0.085217 0.085217
0.084989 0.084989 0.084989
0.086464 0.086464 0.086464
0.089704 0.089704 0.089704
0.096409 0.096409 0.096409
0.110174 0.110174 0.110174
0.135824 0.135824 0.135824
0.173046 0.173046 0.173046
0.222372 0.222372 0.222372
0.286986 0.286986 0.286986
0.369833 0.369833 0.369833
0.465734 0.465734 0.465734
0.536694 0.536694 0.536694
0.592225 0.592225 0.592225
0.620578 0.620578 0.620578
0.629263 0.629263 0.629263
0.640694 0.640694 0.640694
0.655963 0.655963 0.655963
0.673848 0.673848 0.673848
0.693787 0.693787 0.693787
0.714854 0.714854 0.714854
0.739451 0.739451 0.739451
0.765974 0.765974 0.765974
0.793710 0.793710 0.793710
0.821875 0.821875 0.821875
0.858841 0.858841 0.858841
0.891131 0.891131 0.891131
0.916660 0.916660 0.916660
0.162961 0.162961 0.162961
0.152566 0.152566 0.152566
0.144183 0.144183 0.144183
0.137598 0.137598 0.137598
0.132102 0.132102 0.132102
0.128389 0.128389 0.128389
0.126277 0.126277 0.126277
0.126291 0.126291 0.126291
0.127726 0.127726 0.127726
0.130688 0.130688 0.130688
0.141558 0.141558 0.141558
0.164309 0.164309 0.164309
0.197297 0.197297 0.197297
0.241284 0.241284 0.241284
0.301275 0.301275 0.301275
0.379583 0.379583 0.379583
0.469935 0.469935 0.469935
0.545164 0.545164 0.545164
0.596818 0.596818 0.596818
0.631638 0.631638 0.631638
0.638901 0.638901 0.638901
0.648353 0.648353 0.648353
0.661853 0.661853 0.661853
0.678375 0.678375 0.678375
0.697140 0.697140 0.697140
0.717158 0.717158 0.717158
0.741254 0.741254 0.741254
0.767286 0.767286 0.767286
0.794586 0.794586 0.794586
0.822471 0.822471 0.822471
0.859174 0.859174 0.859174
0.891298 0.891298 0.891298
0.916735 0.916735 0.916735
0.214181 0.214181 0.214181
0.206184 0.206184 0.206184
0.197971 0.197971 0.197971
0.191147 0.191147 0.191147
0.185932 0.185932 0.185932
0.183384 0.183384 0.183384
0.181524 0.181524 0.181524
0.180583 0.180583 0.180583
0.180924 0.180924 0.180924
0.181933 0.181933 0.181933
0.189754 0.189754 0.189754
0.208009 0.208009 0.208009
0.236552 0.236552 0.236552
0.274916 0.274916 0.274916
0.325942 0.325942 0.325942
0.394933 0.394933 0.394933
0.478762 0.478762 0.478762
0.555062 0.555062 0.555062
0.604633 0.604633 0.604633
0.643987 0.643987 0.643987
0.651836 0.651836 0.651836
0.658779 0.658779 0.658779
0.670296 0.670296 0.670296
0.684550 0.684550 0.684550
0.701826 0.701826 0.701826
0.720484 0.720484 0.720484
0.743871 0.743871 0.743871
0.769175 0.769175 0.769175
0.795854 0.795854 0.795854
0.823334 0.823334 0.823334
0.859658 0.859658 0.859658
0.891543 0.891543 0.891543
0.916836 0.916836 0.916836
0.269328 0.269328 0.269328
0.262417 0.262417 0.262417
0.256145 0.256145 0.256145
0.250440 0.250440 0.250440
0.247803 0.247803 0.247803
0.245327 0.245327 0.245327
0.244443 0.244443 0.244443
0.243325 0.243325 0.243325
0.241394 0.241394 0.241394
0.242547 0.242547 0.242547
0.249719 0.249719 0.249719
0.263894 0.263894 0.263894
0.287487 0.287487 0.287487
0.319570 0.319570 0.319570
0.363370 0.363370 0.363370
0.422086 0.422086 0.422086
0.493284 0.493284 0.493284
0.568511 0.568511 0.568511
0.617067 0.617067 0.617067
0.657091 0.657091 0.657091
0.667263 0.667263 0.667263
0.672651 0.672651 0.672651
0.680784 0.680784 0.680784
0.693033 0.693033 0.693033
0.708237 0.708237 0.708237
0.725412 0.725412 0.725412
0.747614 0.747614 0.747614
0.771876 0.771876 0.771876
0.797659 0.797659 0.797659
0.824577 0.824577 0.824577
0.860357 0.860357 0.860357
0.891898 0.891898 0.891898
0.916985 0.916985 0.916985
0.329300 0.329300 0.329300
0.323861 0.323861 0.323861
0.320504 0.320504 0.320504
0.318178 0.318178 0.318178
0.316107 0.316107 0.316107
0.314617 0.314617 0.314617
0.312887 0.312887 0.312887
0.311317 0.311317 0.311317
0.310316 0.310316 0.310316
0.312164 0.312164 0.312164
0.317847 0.317847 0.317847
0.329917 0.329917 0.329917
0.348156 0.348156 0.348156
0.374586 0.374586 0.374586
0.410986 0.410986 0.410986
0.460039 0.460039 0.460039
0.518847 0.518847 0.518847
0.585734 0.585734 0.585734
0.636062 0.636062 0.636062
0.671049 0.671049 0.671049
0.686487 0.686487 0.686487
0.689045 0.689045 0.689045
0.694687 0.694687 0.694687
0.704082 0.704082 0.704082
0.716615 0.716615 0.716615
0.732444 0.732444 0.732444
0.752848 0.752848 0.752848
0.775707 0.775707 0.775707
0.800202 0.800202 0.800202
0.826356 0.826356 0.826356
0.861337 0.861337 0.861337
0.892414 0.892414 0.892414
0.917202 0.917202 0.917202
0.396110 0.396110 0.396110
0.393964 0.393964 0.393964
0.392704 0.392704 0.392704
0.391616 0.391616 0.391616
0.390579 0.390579 0.390579
0.390129 0.390129 0.390129
0.390075 0.390075 0.390075
0.390004 0.390004 0.390004
0.390578 0.390578 0.390578
0.392816 0.392816 0.392816
0.398366 0.398366 0.398366
0.407465 0.407465 0.407465
0.422013 0.422013 0.422013
0.441659 0.441659 0.441659
0.469591 0.469591 0.469591
0.509316 0.509316 0.509316
0.557621 0.557621 0.557621
0.611968 0.611968 0.611968
0.661071 0.661071 0.661071
0.689713 0.689713 0.689713
0.708555 0.708555 0.708555
0.708348 0.708348 0.708348
0.712501 0.712501 0.712501
0.718288 0.718288 0.718288
0.727917 0.727917 0.727917
0.741921 0.741921 0.741921
0.759918 0.759918 0.759918
0.780781 0.780781 0.780781
0.803805 0.803805 0.803805
0.828879 0.828879 0.828879
0.862748 0.862748 0.862748
0.893161 0.893161 0.893161
0.917520 0.917520 0.917520
0.472956 0.472956 0.472956
0.473170 0.473170 0.473170
0.473452 0.473452 0.473452
0.473726 0.473726 0.473726
0.473994 0.473994 0.473994
0.474352 0.474352 0.474352
0.474959 0.474959 0.474959
0.475811 0.475811 0.475811
0.477339 0.477339 0.477339
0.480290 0.480290 0.480290
0.484735 0.484735 0.484735
0.491990 0.491990 0.491990
0.502748 0.502748 0.502748
0.516614 0.516614 0.516614
0.538228 0.538228 0.538228
0.567618 0.567618 0.567618
0.604425 0.604425 0.604425
0.648884 0.648884 0.648884
0.690595 0.690595 0.690595
0.713126 0.713126 0.713126
0.730091 0.730091 0.730091
0.731733 0.731733 0.731733
0.732257 0.732257 0.732257
0.735843 0.735843 0.735843
0.742824 0.742824 0.742824
0.754155 0.754155 0.754155
0.769181 0.769181 0.769181
0.787682 0.787682 0.787682
0.808842 0.808842 0.808842
0.832308 0.832308 0.832308
0.864765 0.864765 0.864765
0.894236 0.894236 0.894236
0.917986 0.917986 0.917986
0.556502 0.556502 0.556502
0.557125 0.557125 0.557125
0.557733 0.557733 0.557733
0.558326 0.558326 0.558326
0.558910 0.558910 0.558910
0.559511 0.559511 0.559511
0.560234 0.560234 0.560234
0.561257 0.561257 0.561257
0.562688 0.562688 0.562688
0.564835 0.564835 0.564835
0.568016 0.568016 0.568016
0.573321 0.573321 0.573321
0.580771 0.580771 0.580771
0.591942 0.591942 0.591942
0.607075 0.607075 0.607075
0.628951 0.628951 0.628951
0.656953 0.656953 0.656953
0.690323 0.690323 0.690323
0.725052 0.725052 0.725052
0.745504 0.745504 0.745504
0.756282 0.756282 0.756282
0.758617 0.758617 0.758617
0.756713 0.756713 0.756713
0.757460 0.757460 0.757460
0.761561 0.761561 0.761561
0.769777 0.769777 0.769777
0.781884 0.781884 0.781884
0.797038 0.797038 0.797038
0.815690 0.815690 0.815690
0.836869 0.836869 0.836869
0.867623 0.867623 0.867623
0.895776 0.895776 0.895776
0.918667 0.918667 0.918667
0.634540 0.634540 0.634540
0.634941 0.634941 0.634941
0.635424 0.635424 0.635424
0.635983 0.635983 0.635983
0.636534 0.636534 0.636534
0.637076 0.637076 0.637076
0.637733 0.637733 0.637733
0.638673 0.638673 0.638673
0.640005 0.640005 0.640005
0.642020 0.642020 0.642020
0.644776 0.644776 0.644776
0.648887 0.648887 0.648887
0.654911 0.654911 0.654911
0.663648 0.663648 0.663648
0.675024 0.675024 0.675024
0.691149 0.691149 0.691149
0.710830 0.710830 0.710830
0.736062 0.736062 0.736062
0.763950 0.763950 0.763950
0.783779 0.783779 0.783779
0.787281 0.787281 0.787281
0.788304 0.788304 0.788304
0.784419 0.784419 0.784419
0.782864 0.782864 0.782864
0.784444 0.784444 0.784444
0.788802 0.788802 0.788802
0.797555 0.797555 0.797555
0.809467 0.809467 0.809467
0.825083 0.825083 0.825083
0.843310 0.843310 0.843310
0.871668 0.871668 0.871668
0.897960 0.897960 0.897960
0.919665 0.919665 0.919665
0.698130 0.698130 0.698130
0.698661 0.698661 0.698661
0.699187 0.699187 0.699187
0.699706 0.699706 0.699706
0.700219 0.700219 0.700219
0.700726 0.700726 0.700726
0.701343 0.701343 0.701343
0.702230 0.702230 0.702230
0.703558 0.703558 0.703558
0.705455 0.705455 0.705455
0.708103 0.708103 0.708103
0.711943 0.711943 0.711943
0.717240 0.717240 0.717240
0.724302 0.724302 0.724302
0.734416 0.734416 0.734416
0.746711 0.746711 0.746711
0.762702 0.762702 0.762702
0.782267 0.782267 0.782267
0.804474 0.804474 0.804474
0.821865 0.821865 0.821865
0.821502 0.821502 0.821502
0.819332 0.819332 0.819332
0.814468 0.814468 0.814468
0.811107 0.811107 0.811107
0.809650 0.809650 0.809650
0.810989 0.810989 0.810989
0.816156 0.816156 0.816156
0.824187 0.824187 0.824187
0.836396 0.836396 0.836396
0.851038 0.851038 0.851038
0.877238 0.877238 0.877238
0.901024 0.901024 0.901024
0.921128 0.921128 0.921128
0.733724 0.733724 0.733724
0.734323 0.734323 0.734323
0.734918 0.734918 0.734918
0.735518 0.735518 0.735518
0.736127 0.736127 0.736127
0.736732 0.736732 0.736732
0.737470 0.737470 0.737470
0.738535 0.738535 0.738535
0.740063 0.740063 0.740063
0.742241 0.742241 0.742241
0.745310 0.745310 0.745310
0.749816 0.749816 0.749816
0.756053 0.756053 0.756053
0.764284 0.764284 0.764284
0.774192 0.774192 0.774192
0.786255 0.786255 0.786255
0.800644 0.800644 0.800644
0.816992 0.816992 0.816992
0.834693 0.834693 0.834693
0.851213 0.851213 0.851213
0.855116 0.855116 0.855116
0.849919 0.849919 0.849919
0.843509 0.843509 0.843509
0.838933 0.838933 0.838933
0.835850 0.835850 0.835850
0.834993 0.834993 0.834993
0.836844 0.836844 0.836844
0.841985 0.841985 0.841985
0.849762 0.849762 0.849762
0.861143 0.861143 0.861143
0.884015 0.884015 0.884015
0.905005 0.905005 0.905005
0.921655 0.921655 0.921655
0.752306 0.752306 0.752306
0.752728 0.752728 0.752728
0.753149 0.753149 0.753149
0.753566 0.753566 0.753566
0.753982 0.753982 0.753982
0.754395 0.754395 0.754395
0.754900 0.754900 0.754900
0.755632 0.755632 0.755632
0.756689 0.756689 0.756689
0.758206 0.758206 0.758206
0.760425 0.760425 0.760425
0.763580 0.763580 0.763580
0.767973 0.767973 0.767973
0.774069 0.774069 0.774069
0.782323 0.782323 0.782323
0.793586 0.793586 0.793586
0.808126 0.808126 0.808126
0.825392 0.825392 0.825392
0.846204 0.846204 0.846204
0.866896 0.866896 0.866896
0.880557 0.880557 0.880557
0.877481 0.877481 0.877481
0.870351 0.870351 0.870351
0.864951 0.864951 0.864951
0.861129 0.861129 0.861129
0.858661 0.858661 0.858661
0.858109 0.858109 0.858109
0.860123 0.860123 0.860123
0.864981 0.864981 0.864981
0.873432 0.873432 0.873432
0.891848 0.891848 0.891848
0.909407 0.909407 0.909407
0.921158 0.921158 0.921158
0.768844 0.768844 0.768844
0.769127 0.769127 0.769127
0.769411 0.769411 0.769411
0.769697 0.769697 0.769697
0.769982 0.769982 0.769982
0.770266 0.770266 0.770266
0.770613 0.770613 0.770613
0.771119 0.771119 0.771119
0.771851 0.771851 0.771851
0.772908 0.772908 0.772908
0.774426 0.774426 0.774426
0.776589 0.776589 0.776589
0.779638 0.779638 0.779638
0.783970 0.783970 0.783970
0.789889 0.789889 0.789889
0.798267 0.798267 0.798267
0.809223 0.809223 0.809223
0.823288 0.823288 0.823288
0.840442 0.840442 0.840442
0.860695 0.860695 0.860695
0.880685 0.880685 0.880685
0.891407 0.891407 0.891407
0.891017 0.891017 0.891017
0.886386 0.886386 0.886386
0.882541 0.882541 0.882541
0.880117 0.880117 0.880117
0.878476 0.878476 0.878476
0.878398 0.878398 0.878398
0.880641 0.880641 0.880641
0.886154 0.886154 0.886154
0.900122 0.900122 0.900122
0.913903 0.913903 0.913903
0.920889 0.920889 0.920889
0.782091 0.782091 0.782091
0.782278 0.782278 0.782278
0.782464 0.782464 0.782464
0.782650 0.782650 0.782650
0.782835 0.782835 0.782835
0.783020 0.783020 0.783020
0.783246 0.783246 0.783246
0.783576 0.783576 0.783576
0.784055 0.784055 0.784055
0.784750 0.784750 0.784750
0.785753 0.785753 0.785753
0.787215 0.787215 0.787215
0.789418 0.789418 0.789418
0.792524 0.792524 0.792524
0.796839 0.796839 0.796839
0.802854 0.802854 0.802854
0.810855 0.810855 0.810855
0.821276 0.821276 0.821276
0.835451 0.835451 0.835451
0.852636 0.852636 0.852636
0.871919 0.871919 0.871919
0.889152 0.889152 0.889152
0.895495 0.895495 0.895495
0.898822 0.898822 0.898822
0.898259 0.898259 0.898259
0.896408 0.896408 0.896408
0.895138 0.895138 0.895138
0.894286 0.894286 0.894286
0.895091 0.895091 0.895091
0.897745 0.897745 0.897745
0.908040 0.908040 0.908040
0.915340 0.915340 0.915340
0.920082 0.920082 0.920082
0.794061 0.794061 0.794061
0.794181 0.794181 0.794181
0.794301 0.794301 0.794301
0.794420 0.794420 0.794420
0.794539 0.794539 0.794539
0.794658 0.794658 0.794658
0.794804 0.794804 0.794804
0.795017 0.795017 0.795017
0.795327 0.795327 0.795327
0.795777 0.795777 0.795777
0.796429 0.796429 0.796429
0.797369 0.797369 0.797369
0.798719 0.798719 0.798719
0.800639 0.800639 0.800639
0.803489 0.803489 0.803489
0.807908 0.807908 0.807908
0.813923 0.813923 0.813923
0.822009 0.822009 0.822009
0.832851 0.832851 0.832851
0.846615 0.846615 0.846615
0.863076 0.863076 0.863076
0.881401 0.881401 0.881401
0.895046 0.895046 0.895046
0.899251 0.899251 0.899251
0.900738 0.900738 0.900738
0.900822 0.900822 0.900822
0.901115 0.901115 0.901115
0.902250 0.902250 0.902250
0.903451 0.903451 0.903451
0.905703 0.905703 0.905703
0.909871 0.909871 0.909871
0.914892 0.914892 0.914892
0.919443 0.919443 0.919443
0.820610 0.820610 0.820610
0.820662 0.820662 0.820662
0.820715 0.820715 0.820715
0.820768 0.820768 0.820768
0.820820 0.820820 0.820820
0.820873 0.820873 0.820873
0.820938 0.820938 0.820938
0.821032 0.821032 0.821032
0.821169 0.821169 0.821169
0.821369 0.821369 0.821369
0.821659 0.821659 0.821659
0.822080 0.822080 0.822080
0.822706 0.822706 0.822706
0.823716 0.823716 0.823716
0.825156 0.825156 0.825156
0.827187 0.827187 0.827187
0.830020 0.830020 0.830020
0.833952 0.833952 0.833952
0.839305 0.839305 0.839305
0.846599 0.846599 0.846599
0.856739 0.856739 0.856739
0.872001 0.872001 0.872001
0.889386 0.889386 0.889386
0.899585 0.899585 0.899585
0.902058 0.902058 0.902058
0.902237 0.902237 0.902237
0.902249 0.902249 0.902249
0.902841 0.902841 0.902841
0.904192 0.904192 0.904192
0.905491 0.905491 0.905491
0.909378 0.909378 0.909378
0.913905 0.913905 0.913905
0.918969 0.918969 0.918969
0.852044 0.852044 0.852044
0.852089 0.852089 0.852089
0.852134 0.852134 0.852134
0.852179 0.852179 0.852179
0.852224 0.852224 0.852224
0.852268 0.852268 0.852268
0.852323 0.852323 0.852323
0.852404 0.852404 0.852404
0.852521 0.852521 0.852521
0.852691 0.852691 0.852691
0.852940 0.852940 0.852940
0.853301 0.853301 0.853301
0.853825 0.853825 0.853825
0.854581 0.854581 0.854581
0.855667 0.855667 0.855667
0.857216 0.857216 0.857216
0.859496 0.859496 0.859496
0.862695 0.862695 0.862695
0.867059 0.867059 0.867059
