output/ACEScct_display/ACEScct_to_Velvia_33grid.cube
TITLE "ACEScct_to_Velvia"
# Input: ACEScct (AP1 primaries, log encoding, D60)
# Output: BT.709 / Gamma 2.2 (display-referred)
# Use: Display/output transform in DaVinci Resolve ACES pipeline (replaces ODT)
# Source: FLog2C_to_Velvia_65grid_V.1.00.cube
# Generated from Fujifilm GFX ETERNA 55 F-Log2C LUT
LUT_3D_SIZE 33
0.000000 0.000000 0.000000
0.000000 0.000000 0.000000
0.000000 0.000000 0.000000
0.000024 0.000006 0.000000
0.001790 0.000046 0.000010
0.010041 0.000193 0.000012
0.028320 0.000300 0.000196
0.065757 0.001410 0.000058
0.134682 0.000282 0.001961
0.255190 0.000094 0.000287
0.424182 0.000094 0.000685
0.619404 0.000330 0.017485
0.838255 0.000053 0.068935
0.999722 0.004135 0.197551
0.999436 0.048282 0.336022
0.999724 0.090796 0.470200
0.999396 0.169088 0.487472
0.999341 0.248912 0.492411
0.999769 0.304399 0.477158
0.999232 0.337686 0.441883
0.999288 0.369760 0.409571
0.999623 0.408894 0.361987
0.999534 0.450235 0.309639
0.999241 0.496972 0.239949
0.999362 0.548093 0.150644
0.999344 0.605074 0.033904
0.999182 0.662554 0.000240
0.999141 0.718884 0.000000
0.999098 0.766601 0.000041
0.999233 0.813391 0.000000
0.999759 0.879309 0.000440
0.998867 0.930935 0.000019
0.998586 0.963248 0.000000
0.000000 0.000000 0.000000
0.000000 0.000000 0.000000
0.000000 0.000000 0.000000
0.000051 0.000013 0.000000
0.002420 0.000051 0.000014
0.011796 0.000231 0.000008
0.030729 0.000295 0.000235
0.069101 0.001385 0.000104
0.139335 0.000247 0.002115
0.260086 0.000106 0.000332
0.428348 0.000105 0.000752
0.622488 0.000316 0.017936
0.819152 0.000052 0.061553
0.986561 0.001307 0.160170
0.999494 0.037453 0.300640
0.999602 0.081802 0.447336
0.999402 0.157748 0.486911
0.999654 0.245928 0.485685
0.999770 0.310292 0.471457
0.999122 0.341939 0.437733
0.999411 0.373257 0.405474
0.999579 0.411392 0.358676
0.999526 0.452151 0.306928
0.999229 0.498336 0.237913
0.999373 0.549108 0.148634
0.999336 0.605844 0.032289
0.999176 0.663077 0.000236
0.999142 0.719116 0.000000
0.999097 0.766755 0.000040
0.999230 0.813508 0.000000
0.999761 0.879374 0.000442
0.998867 0.930962 0.000019
0.998585 0.963250 0.000000
0.000000 0.000000 0.000000
0.000000 0.000000 0.000000
0.000000 0.000000 0.000000
0.000077 0.000020 0.000000
0.003034 0.000055 0.000018
0.013515 0.000268 0.000005
0.033097 0.000291 0.000273
0.072525 0.001294 0.000184
0.143934 0.000213 0.002268
0.264140 0.000121 0.000384
0.416824 0.000072 0.000529
0.583879 0.000083 0.013048
0.769134 0.000015 0.047769
0.954856 0.000095 0.131519
0.999881 0.027254 0.271005
0.999493 0.074413 0.426330
0.999440 0.147773 0.486043
0.999946 0.243129 0.479407
0.999767 0.315890 0.465947
0.999131 0.346070 0.433633
0.999532 0.376677 0.401465
0.999535 0.413849 0.355415
0.999520 0.454046 0.304245
0.999217 0.499689 0.235893
0.999385 0.550119 0.146634
0.999329 0.606611 0.030678
0.999171 0.663598 0.000231
0.999143 0.719349 0.000000
0.999096 0.766908 0.000040
0.999228 0.813626 0.000000
0.999763 0.879439 0.000445
0.998867 0.930988 0.000019
0.998584 0.963252 0.000000
0.000017 0.000017 0.000017
0.000021 0.000021 0.000021
0.000025 0.000025 0.000025
0.000000 0.000000 0.000000
0.002000 0.000546 0.000513
0.010263 0.000655 0.000065
0.026730 0.000879 0.000089
0.061015 0.001430 0.000209
0.121314 0.000970 0.001650
0.227437 0.000001 0.000911
0.373055 0.000207 0.000379
0.544787 0.000045 0.006497
0.727474 0.000183 0.034810
0.923874 0.000074 0.112833
0.999887 0.019009 0.244677
0.999373 0.067827 0.407598
0.999588 0.143001 0.480571
0.999918 0.244750 0.470603
0.999656 0.320356 0.459088
0.999139 0.350073 0.429654
0.999650 0.380023 0.397543
0.999500 0.416251 0.352259
0.999517 0.455918 0.301591
0.999206 0.501032 0.233889
0.999399 0.551125 0.144642
0.999321 0.607375 0.029072
0.999165 0.664118 0.000227
0.999144 0.719582 0.000000
0.999096 0.767062 0.000039
0.999225 0.813743 0.000000
0.999766 0.879505 0.000448
0.998867 0.931015 0.000019
0.998583 0.963254 0.000000
0.000573 0.000652 0.000562
0.000628 0.000715 0.000615
0.000682 0.000777 0.000668
0.000739 0.000739 0.000739
0.001356 0.001217 0.000171
0.005810 0.000861 0.000187
0.018286 0.000476 0.000048
0.049500 0.001316 0.000587
0.100821 0.001126 0.000335
0.199031 0.000231 0.000644
0.338556 0.000106 0.001189
0.509967 0.000133 0.005060
0.691234 0.000100 0.027284
0.894125 0.000076 0.095868
0.999766 0.012146 0.222204
0.999666 0.064696 0.384600
0.999723 0.138823 0.475155
0.999840 0.247007 0.461780
0.999547 0.324663 0.452506
0.999147 0.353957 0.425789
0.999767 0.383299 0.393702
0.999482 0.418585 0.349246
0.999516 0.457770 0.298964
0.999196 0.502364 0.231902
0.999413 0.552127 0.142659
0.999313 0.608137 0.027470
0.999159 0.664636 0.000223
0.999144 0.719816 0.000000
0.999095 0.767215 0.000038
0.999223 0.813861 0.000000
0.999768 0.879570 0.000451
0.998866 0.931042 0.000019
0.998582 0.963256 0.000000
0.000455 0.003675 0.000347
0.000415 0.003882 0.000300
0.000375 0.004088 0.000253
0.000349 0.003934 0.001130
0.000790 0.003674 0.000833
0.003456 0.002167 0.000255
0.011662 0.002135 0.000349
0.036357 0.001641 0.000011
0.086651 0.001855 0.000001
0.175581 0.001005 0.000303
0.310470 0.000255 0.000549
0.478976 0.000005 0.002949
0.663115 0.000036 0.020064
0.865633 0.000003 0.077881
0.999486 0.006248 0.202574
0.999882 0.064102 0.360831
0.999746 0.147280 0.456387
0.999777 0.249261 0.453270
0.999440 0.328826 0.446180
0.999155 0.357730 0.422031
0.999881 0.386508 0.389939
0.999464 0.420885 0.346276
0.999518 0.459602 0.296363
0.999199 0.503705 0.229692
0.999428 0.553124 0.140684
0.999301 0.608894 0.026516
0.999153 0.665153 0.000219
0.999145 0.720050 0.000000
0.999094 0.767368 0.000037
0.999220 0.813978 0.000000
0.999771 0.879635 0.000453
0.998866 0.931069 0.000019
0.998581 0.963258 0.000000
0.000042 0.010139 0.000006
0.000034 0.010429 0.000005
0.000029 0.010432 0.000036
0.000032 0.006566 0.000529
0.000054 0.006495 0.000465
0.001077 0.005581 0.000300
0.006440 0.004273 0.000016
0.025059 0.005359 0.000000
0.068528 0.004985 0.000001
0.152618 0.003428 0.000141
0.281293 0.001164 0.000019
0.448986 0.000008 0.000283
0.635243 0.000026 0.009479
0.837724 0.000002 0.055884
0.991795 0.006083 0.167815
0.999895 0.073887 0.322133
0.999766 0.157012 0.435055
0.999842 0.253339 0.441660
0.999443 0.333872 0.438967
0.999195 0.362429 0.417172
0.999780 0.390448 0.385104
0.999443 0.423671 0.342681
0.999523 0.461828 0.293198
0.999210 0.505358 0.226814
0.999448 0.554346 0.138264
0.999285 0.609820 0.025672
0.999146 0.665788 0.000214
0.999146 0.720338 0.000000
0.999093 0.767556 0.000036
0.999217 0.814123 0.000000
0.999774 0.879715 0.000457
0.998866 0.931101 0.000019
0.998580 0.963260 0.000000
0.000314 0.023368 0.000478
0.000304 0.023865 0.000459
0.000236 0.022089 0.000294
0.000319 0.018132 0.000091
0.000132 0.016652 0.000036
0.000069 0.015477 0.000107
0.001688 0.014044 0.000096
0.015159 0.012513 0.000244
0.051282 0.011354 0.000220
0.126322 0.010846 0.000158
0.248471 0.008411 0.000054
0.415543 0.001541 0.000094
0.603243 0.000072 0.000124
0.804210 0.000018 0.025995
0.980965 0.012437 0.121427
0.999909 0.085871 0.269109
0.999744 0.170109 0.404498
0.999929 0.258874 0.425879
0.999666 0.341073 0.429443
0.999392 0.369910 0.408724
0.999570 0.396053 0.378165
0.999414 0.427656 0.337539
0.999537 0.465028 0.288643
0.999223 0.507748 0.222653
0.999480 0.556119 0.134752
0.999261 0.611168 0.024450
0.999135 0.666713 0.000206
0.999148 0.720761 0.000000
0.999092 0.767831 0.000035
0.999212 0.814334 0.000000
0.999778 0.879833 0.000461
0.998866 0.931149 0.000019
0.998578 0.963264 0.000000
0.000066 0.053593 0.000361
0.000066 0.054302 0.000375
0.000120 0.047509 0.000684
0.000280 0.040914 0.000364
0.000156 0.037106 0.000779
0.000524 0.035961 0.000157
0.000724 0.031188 0.000931
0.004126 0.027636 0.000327
0.033488 0.026004 0.000039
0.093522 0.026255 0.000125
0.209251 0.024623 0.000384
0.375112 0.018380 0.000210
0.564009 0.012668 0.000018
0.763441 0.012359 0.002936
0.959574 0.035495 0.060029
0.999456 0.101047 0.197953
0.999800 0.190186 0.356508
0.999513 0.270044 0.398936
0.999904 0.350543 0.414847
0.999659 0.380234 0.397080
0.999274 0.403895 0.368454
0.999374 0.433305 0.330256
0.999569 0.469596 0.282129
0.999233 0.511184 0.216671
0.999533 0.558685 0.129666
0.999228 0.613123 0.022689
0.999112 0.668039 0.000199
0.999150 0.721381 0.000000
0.999090 0.768232 0.000033
0.999205 0.814642 0.000000
0.999784 0.880004 0.000469
0.998866 0.931220 0.000018
0.998575 0.963268 0.000000
0.000078 0.109666 0.000251
0.000055 0.105335 0.000407
0.000040 0.092076 0.000276
0.000136 0.082766 0.000002
0.000817 0.074877 0.000056
0.001061 0.069205 0.000161
0.000316 0.065763 0.000240
0.001025 0.062355 0.000129
0.015558 0.058603 0.000046
0.066591 0.056560 0.000506
0.170768 0.054839 0.000014
0.331083 0.052191 0.000762
0.521244 0.046935 0.000017
0.716648 0.049279 0.000127
0.911368 0.074999 0.007169
0.999698 0.129521 0.107102
0.999704 0.217513 0.283821
0.999747 0.287410 0.363137
0.999953 0.361742 0.388940
0.999589 0.393320 0.380793
0.999206 0.414674 0.355242
0.999333 0.441372 0.319627
0.999564 0.475819 0.272341
0.999231 0.516094 0.208129
0.999621 0.562383 0.122332
0.999182 0.615948 0.020167
0.999075 0.669943 0.000189
0.999154 0.722293 0.000000
0.999087 0.768816 0.000029
0.999195 0.815091 0.000000
0.999793 0.880253 0.000479
0.998866 0.931322 0.000018
0.998571 0.963275 0.000000
0.000187 0.203876 0.000048
0.000127 0.183678 0.000285
0.000177 0.167021 0.000201
0.000058 0.153320 0.000123
0.000088 0.142199 0.000261
0.000024 0.132925 0.000057
0.000032 0.126237 0.000347
0.000009 0.119202 0.000503
0.001371 0.112479 0.000251
0.034579 0.108274 0.000213
0.123688 0.103538 0.000231
0.280762 0.098061 0.000091
0.473832 0.096927 0.000575
0.664813 0.105166 0.000104
0.850630 0.133008 0.000000
0.999209 0.181431 0.015651
0.999743 0.254269 0.174896
0.999961 0.319920 0.307258
0.999107 0.375715 0.352298
0.999397 0.410777 0.358712
0.999785 0.429176 0.337759
0.999302 0.452801 0.304074
0.999502 0.484587 0.258445
0.999232 0.523009 0.196092
0.999764 0.567708 0.111728
0.999121 0.620012 0.016588
0.999021 0.672690 0.000166
0.999159 0.723636 0.000000
0.999083 0.769667 0.000025
0.999180 0.815747 0.000000
0.999806 0.880617 0.000494
0.998866 0.931470 0.000017
0.998566 0.963284 0.000000
0.000320 0.319571 0.000172
0.000113 0.297665 0.000090
0.000013 0.278227 0.000139
0.000022 0.261760 0.000146
0.000035 0.249210 0.000132
0.000017 0.237975 0.000040
0.000068 0.227271 0.000262
0.000151 0.216126 0.000419
0.000150 0.204954 0.000011
0.001910 0.195193 0.000031
0.069438 0.185820 0.000083
0.216389 0.181502 0.000571
0.414810 0.175727 0.000182
0.607135 0.182194 0.000012
0.787501 0.208492 0.000014
0.977206 0.249499 0.000082
0.999563 0.304924 0.047499
0.999893 0.362117 0.228986
0.999384 0.401302 0.290665
0.999398 0.434969 0.328412
0.999231 0.449603 0.310833
0.999383 0.468788 0.281800
0.999327 0.497005 0.238491
0.999253 0.532828 0.178607
0.999785 0.575866 0.094705
0.999044 0.625819 0.011577
0.998947 0.676632 0.000114
0.999169 0.725622 0.000000
0.999076 0.770903 0.000018
0.999157 0.816702 0.000000
0.999826 0.881147 0.000517
0.998865 0.931686 0.000017
0.998576 0.963340 0.000002
0.000032 0.450935 0.000016
0.000038 0.431984 0.000040
0.000005 0.413727 0.000016
0.000007 0.395286 0.000011
0.000058 0.380370 0.000165
0.000204 0.372027 0.000700
0.000197 0.362379 0.000656
0.000040 0.349754 0.000075
0.000017 0.335726 0.000396
0.000017 0.322560 0.000064
0.008004 0.304757 0.000023
0.132041 0.298628 0.000245
0.339007 0.288140 0.000094
0.542752 0.286618 0.000041
0.725704 0.301575 0.000009
0.923057 0.330662 0.000009
0.999404 0.368997 0.000018
0.999864 0.414794 0.098667
0.999580 0.437629 0.210592
0.999289 0.465099 0.279236
0.999462 0.476441 0.270451
0.999649 0.490982 0.249393
0.999117 0.515194 0.208336
0.999290 0.546723 0.152072
0.999752 0.587302 0.070893
0.998966 0.633984 0.004769
0.998931 0.682115 0.000065
0.999184 0.728570 0.000000
0.999065 0.772696 0.000008
0.999124 0.818093 0.000000
0.999854 0.881918 0.000551
0.998864 0.931999 0.000016
0.998603 0.963449 0.000007
0.000174 0.568345 0.000186
0.000545 0.556513 0.000060
0.000308 0.544756 0.000169
0.000001 0.533837 0.000306
0.000060 0.525515 0.000323
0.000116 0.517753 0.000343
0.000065 0.510250 0.000318
0.000001 0.500083 0.000265
0.000006 0.485761 0.000148
0.000105 0.471797 0.000170
0.000183 0.457081 0.000354
0.037245 0.442457 0.000777
0.239981 0.420523 0.000234
0.467177 0.407650 0.000007
0.660309 0.407950 0.000014
0.848148 0.423930 0.000004
0.997501 0.446655 0.000001
0.999698 0.479550 0.007348
0.999740 0.489755 0.093254
0.999598 0.504423 0.198298
0.998618 0.508728 0.219746
0.999416 0.519472 0.202690
0.999586 0.538798 0.167826
0.999358 0.566004 0.114435
0.999592 0.603041 0.040464
0.999020 0.645403 0.000004
0.998981 0.689908 0.000045
0.999211 0.732973 0.000000
0.999054 0.775294 0.000008
0.999074 0.820112 0.000000
0.999894 0.883036 0.000602
0.998861 0.932451 0.000014
0.998642 0.963606 0.000013
0.000032 0.677944 0.000411
0.000069 0.669275 0.000133
0.000121 0.661771 0.000072
0.000179 0.655019 0.000110
0.000208 0.648762 0.000168
0.000136 0.643228 0.000314
0.000052 0.636814 0.000488
0.000047 0.629179 0.000333
0.000055 0.619867 0.000052
0.000002 0.608871 0.000134
0.000000 0.594679 0.000666
0.000072 0.581984 0.000986
0.102597 0.557894 0.000279
0.368583 0.533770 0.000033
0.586229 0.520641 0.000010
0.774571 0.521363 0.000067
0.983521 0.516235 0.000007
0.999170 0.540456 0.000108
0.998983 0.558813 0.000000
0.999082 0.555949 0.065726
0.999418 0.551859 0.142725
0.999248 0.556715 0.134603
0.999403 0.570647 0.105624
0.999340 0.592733 0.059655
0.999241 0.624170 0.009340
0.999288 0.661446 0.000032
0.999031 0.701189 0.000018
0.999260 0.739599 0.000000
0.999038 0.779017 0.000034
0.998997 0.823038 0.000000
0.999809 0.884522 0.000567
0.998856 0.933101 0.000012
0.998699 0.963832 0.000023
0.000011 0.784728 0.000399
0.000006 0.779131 0.000545
0.000150 0.773990 0.000684
0.000309 0.769118 0.000816
0.000459 0.764467 0.000941
0.000443 0.760681 0.000870
0.000287 0.756810 0.000622
0.000075 0.751467 0.000290
0.000243 0.742362 0.000271
0.000385 0.731534 0.000393
0.000223 0.719886 0.000496
0.000005 0.707508 0.000466
0.012804 0.690908 0.000322
0.217294 0.662167 0.000318
0.495211 0.634476 0.000021
0.700174 0.611042 0.000140
0.908110 0.593506 0.000077
0.998965 0.586630 0.000000
0.999086 0.623652 0.000008
0.999243 0.623001 0.000306
0.999499 0.604164 0.036798
0.999720 0.604371 0.037777
0.999363 0.613540 0.016999
0.999237 0.627347 0.003598
0.999339 0.651889 0.000005
0.999244 0.681932 0.000157
0.999081 0.714364 0.000000
0.999098 0.747403 0.000002
0.998997 0.784270 0.000077
0.998879 0.827260 0.000000
0.999679 0.886655 0.000509
0.998846 0.934025 0.000009
0.998783 0.964155 0.000037
0.000013 0.886252 0.000089
0.000021 0.882968 0.000109
0.000030 0.879847 0.000145
0.000039 0.876833 0.000180
0.000048 0.873919 0.000213
0.000049 0.871180 0.000231
0.000035 0.868076 0.000225
0.000017 0.863747 0.000213
0.000008 0.858062 0.000210
0.000040 0.851094 0.000257
0.000055 0.841878 0.000425
0.000015 0.831190 0.000154
0.000190 0.816201 0.000472
0.049654 0.794052 0.000039
0.358514 0.743308 0.000007
0.610554 0.705362 0.000089
0.819816 0.677381 0.000000
0.990925 0.656089 0.000080
0.998916 0.661137 0.000005
0.999230 0.667998 0.000029
0.999503 0.670066 0.000003
0.999221 0.663340 0.000000
0.998773 0.663727 0.000114
0.998680 0.671600 0.000037
0.999249 0.685867 0.000074
0.999204 0.705916 0.000296
0.999257 0.728702 0.000000
0.998684 0.757500 0.000002
0.998967 0.791758 0.000129
0.998737 0.833070 0.000034
0.999473 0.889689 0.000414
0.998826 0.935325 0.000005
0.998906 0.964613 0.000057
0.000060 0.977164 0.000291
0.000070 0.975661 0.000367
0.000079 0.974200 0.000440
0.000087 0.972782 0.000510
0.000093 0.971372 0.000563
0.000078 0.969776 0.000511
0.000060 0.967866 0.000449
0.000035 0.965178 0.000364
0.000001 0.961453 0.000251
0.000022 0.955030 0.000428
0.000038 0.946653 0.000576
0.000000 0.936771 0.000445
0.000000 0.924788 0.000418
0.000029 0.910870 0.000214
0.120000 0.871205 0.000114
0.477300 0.811624 0.000000
0.713601 0.773883 0.000234
0.937724 0.742332 0.000109
0.998915 0.728385 0.000000
0.999093 0.724927 0.000152
0.999246 0.711870 0.000211
0.999185 0.708687 0.000136
0.999023 0.706268 0.000005
0.999385 0.708326 0.000264
0.999370 0.715109 0.000000
0.999591 0.728081 0.000073
0.999183 0.747067 0.000003
0.998941 0.771932 0.000248
0.998857 0.802735 0.000073
0.998694 0.840385 0.000131
0.999143 0.893956 0.000250
0.998786 0.937121 0.000000
0.999086 0.965252 0.000087
0.000000 1.000000 0.000285
0.000000 1.000000 0.000285
0.000000 1.000000 0.000285
0.000000 1.000000 0.000285
0.000000 1.000000 0.000285
0.000000 1.000000 0.000285
0.000000 1.000000 0.000285
0.000000 1.000000 0.000285
0.000000 1.000000 0.000285
0.000000 1.000000 0.000285
0.000000 1.000000 0.000285
0.000000 0.999750 0.000306
0.000000 0.999231 0.000321
0.000000 0.998787 0.000328
0.000000 0.998579 0.000296
0.209003 0.951647 0.000030
0.570834 0.892619 0.000213
0.814122 0.852182 0.000189
0.991627 0.820705 0.000051
0.999200 0.811913 0.000092
0.999516 0.777473 0.000068
0.999262 0.751442 0.000012
0.999229 0.746063 0.000207
0.999488 0.742981 0.000125
0.999635 0.746082 0.000034
0.998901 0.755136 0.000044
0.999178 0.769828 0.000179
0.999378 0.790549 0.000188
0.998710 0.817670 0.000018
0.998760 0.849919 0.000155
0.998686 0.899926 0.000000
0.998992 0.941112 0.000000
0.999353 0.966121 0.000128
0.000000 1.000000 0.000285
0.000000 1.000000 0.000285
0.000000 1.000000 0.000285
0.000000 1.000000 0.000285
0.000000 1.000000 0.000285
0.000000 1.000000 0.000285
0.000000 1.000000 0.000285
0.000000 1.000000 0.000285
0.000000 1.000000 0.000285
0.000000 1.000000 0.000285
0.000000 1.000000 0.000285
0.000000 1.000000 0.000285
0.000000 1.000000 0.000285
0.000000 1.000000 0.000285
0.000000 1.000000 0.000285
0.026301 0.999976 0.000505
0.314794 0.992378 0.000011
0.660304 0.962300 0.000185
0.918713 0.920965 0.000000
0.999361 0.892820 0.000046
0.999179 0.860829 0.000014
0.998913 0.816279 0.000185
0.999281 0.794453 0.000105
0.999378 0.788190 0.000027
0.999417 0.786811 0.000001
0.999361 0.790290 0.000092
0.998871 0.799534 0.000146
0.998678 0.814794 0.000024
0.998524 0.837300 0.000010
0.998853 0.862884 0.000292
0.998534 0.907951 0.000000
0.999161 0.946011 0.000000
0.999746 0.967265 0.000187
0.000000 1.000000 0.000285
0.000000 1.000000 0.000285
0.000000 1.000000 0.000285
0.000000 1.000000 0.000285
0.000000 1.000000 0.000285
0.000000 1.000000 0.000285
0.000000 1.000000 0.000285
0.000000 1.000000 0.000285
0.000000 1.000000 0.000285
0.000000 1.000000 0.000285
0.000000 1.000000 0.000285
0.000000 1.000000 0.000285
0.000000 1.000000 0.000285
0.000000 1.000000 0.000285
0.000000 1.000000 0.000285
0.000000 1.000000 0.000285
0.010844 1.000000 0.000304
0.411933 0.999547 0.000228
0.739012 0.992552 0.000038
0.966047 0.957997 0.000086
0.998961 0.930166 0.000029
0.998622 0.896026 0.000009
0.999030 0.856073 0.000112
0.998814 0.843312 0.000014
0.999544 0.836971 0.000099
0.998550 0.833153 0.000051
0.998879 0.835655 0.000027
0.999065 0.845617 0.000064
0.999338 0.859694 0.000190
0.999070 0.880475 0.000164
0.998529 0.918654 0.000000
0.999067 0.951620 0.000000
0.999694 0.967659 0.000162
0.000000 1.000000 0.000285
0.000000 1.000000 0.000285
0.000000 1.000000 0.000285
0.000000 1.000000 0.000285
0.000000 1.000000 0.000285
0.000000 1.000000 0.000285
0.000000 1.000000 0.000285
0.000000 1.000000 0.000285
0.000000 1.000000 0.000285
0.000000 1.000000 0.000285
0.000000 1.000000 0.000285
0.000000 1.000000 0.000285
0.000000 1.000000 0.000285
0.000000 1.000000 0.000285
0.000000 1.000000 0.000285
0.000000 1.000000 0.000285
0.000000 1.000000 0.000285
0.068700 0.999896 0.000460
0.498381 0.999473 0.000034
0.802887 0.996168 0.000249
0.999196 0.968847 0.000352
0.999660 0.953101 0.000039
0.998777 0.922105 0.000000
0.999461 0.902385 0.000457
0.998870 0.892659 0.000000
0.999421 0.885311 0.000548
0.999579 0.881826 0.000458
0.999318 0.882265 0.000000
0.999117 0.889774 0.000354
0.998883 0.903005 0.000000
0.999144 0.933720 0.000000
0.998831 0.959703 0.000000
0.999122 0.967504 0.000094
0.000000 1.000000 0.000285
0.000000 1.000000 0.000285
0.000000 1.000000 0.000285
0.000000 1.000000 0.000285
0.000000 1.000000 0.000285
0.000000 1.000000 0.000285
0.000000 1.000000 0.000285
0.000000 1.000000 0.000285
0.000000 1.000000 0.000285
0.000000 1.000000 0.000285
0.000000 1.000000 0.000285
0.000000 1.000000 0.000285
0.000000 1.000000 0.000285
0.000000 1.000000 0.000285
0.000000 1.000000 0.000285
0.000000 1.000000 0.000285
0.000000 1.000000 0.000285
0.000000 1.000000 0.000285
0.207139 0.999882 0.000788
0.603871 0.999590 0.000096
0.873891 0.988819 0.000108
0.996388 0.969562 0.000000
0.999256 0.963278 0.000010
0.998430 0.948107 0.000046
0.999288 0.940332 0.000178
0.999403 0.933533 0.000282
0.999259 0.927728 0.000058
0.998930 0.925689 0.000422
0.998355 0.925919 0.000002
0.999038 0.931629 0.000000
0.999750 0.952212 0.000000
0.999257 0.965661 0.000068
0.998722 0.968200 0.000169
0.000000 1.000000 0.000285
0.000000 1.000000 0.000285
0.000000 1.000000 0.000285
0.000000 1.000000 0.000285
0.000000 1.000000 0.000285
0.000000 1.000000 0.000285
0.000000 1.000000 0.000285
0.000000 1.000000 0.000285
0.000000 1.000000 0.000285
0.000000 1.000000 0.000285
0.000000 1.000000 0.000285
0.000000 1.000000 0.000285
0.000000 1.000000 0.000285
0.000000 1.000000 0.000285
0.000000 1.000000 0.000285
0.000000 1.000000 0.000285
0.000000 1.000000 0.000285
0.000000 1.000000 0.000285
0.026842 0.999951 0.000420
0.340983 0.999633 0.000271
0.686485 0.999135 0.000047
0.933054 0.981759 0.000133
0.999106 0.969257 0.000114
0.999458 0.967537 0.000125
0.999219 0.967134 0.000046
0.999158 0.963318 0.000000
0.998958 0.960720 0.000006
0.999105 0.957520 0.000000
0.999506 0.955102 0.000158
0.999321 0.956734 0.000000
0.998936 0.964781 0.000000
0.999228 0.967143 0.000048
0.998626 0.968609 0.000223
0.000000 1.000000 0.000285
0.000000 1.000000 0.000285
0.000000 1.000000 0.000285
0.000000 1.000000 0.000285
0.000000 1.000000 0.000285
0.000000 1.000000 0.000285
0.000000 1.000000 0.000285
0.000000 1.000000 0.000285
0.000000 1.000000 0.000285
0.000000 1.000000 0.000285
0.000000 1.000000 0.000285
0.000000 1.000000 0.000285
0.000000 1.000000 0.000285
0.000000 1.000000 0.000285
0.000000 1.000000 0.000285
0.000000 1.000000 0.000285
0.000000 1.000000 0.000285
0.000000 1.000000 0.000285
0.000000 1.000000 0.000285
0.107850 0.999988 0.000325
0.476519 0.999814 0.000604
0.759481 0.998991 0.000308
0.971200 0.975939 0.000189
0.998815 0.968863 0.000180
0.998658 0.968593 0.000223
0.998777 0.968447 0.000210
0.999602 0.968111 0.000223
0.998818 0.968055 0.000154
0.999286 0.967201 0.000061
0.999403 0.967318 0.000088
0.999714 0.967968 0.000210
0.998626 0.968609 0.000223
0.998626 0.968609 0.000223
0.000000 1.000000 0.000285
0.000000 1.000000 0.000285
0.000000 1.000000 0.000285
0.000000 1.000000 0.000285
0.000000 1.000000 0.000285
0.000000 1.000000 0.000285
0.000000 1.000000 0.000285
0.000000 1.000000 0.000285
0.000000 1.000000 0.000285
0.000000 1.000000 0.000285
0.000000 1.000000 0.000285
0.000000 1.000000 0.000285
0.000000 1.000000 0.000285
0.000000 1.000000 0.000285
0.000000 1.000000 0.000285
0.000000 1.000000 0.000285
0.000000 1.000000 0.000285
0.000000 1.000000 0.000285
0.000000 1.000000 0.000285
0.020813 0.999821 0.000322
0.221147 0.999468 0.000235
0.576760 0.999305 0.000587
0.828508 0.992546 0.000021
0.993868 0.972557 0.000085
0.998626 0.968609 0.000223
0.998626 0.968609 0.000223
0.998626 0.968609 0.000223
0.998626 0.968609 0.000223
0.998626 0.968609 0.000223
0.998626 0.968609 0.000223
0.998626 0.968609 0.000223
0.998626 0.968609 0.000223
0.998626 0.968609 0.000223
0.000000 1.000000 0.000285
0.000000 1.000000 0.000285
0.000000 1.000000 0.000285
0.000000 1.000000 0.000285
0.000000 1.000000 0.000285
0.000000 1.000000 0.000285
0.000000 1.000000 0.000285
0.000000 1.000000 0.000285
0.000000 1.000000 0.000285
0.000000 1.000000 0.000285
0.000000 1.000000 0.000285
0.000000 1.000000 0.000285
0.000000 1.000000 0.000285
0.000000 1.000000 0.000285
0.000000 1.000000 0.000285
0.000000 1.000000 0.000285
0.000000 1.000000 0.000285
0.000000 1.000000 0.000285
0.010379 0.999954 0.000320
