output/ACEScct_display/ACEScct_to_CLASSIC-CHROME_33grid.cube
TITLE "ACEScct_to_CLASSIC-CHROME"
# Input: ACEScct (AP1 primaries, log encoding, D60)
# Output: BT.709 / Gamma 2.2 (display-referred)
# Use: Display/output transform in DaVinci Resolve ACES pipeline (replaces ODT)
# Source: FLog2C_to_CLASSIC-CHROME_65grid_V.1.00.cube
# Generated from Fujifilm GFX ETERNA 55 F-Log2C LUT
LUT_3D_SIZE 9
0.000178 0.000085 0.000052
0.008729 0.001214 0.000133
0.131283 0.004079 0.005008
0.721454 0.048776 0.090247
0.961029 0.283118 0.393029
0.957555 0.438219 0.424778
0.953401 0.593075 0.349711
0.952956 0.775481 0.277798
0.962642 0.952263 0.206052
0.000426 0.006215 0.000089
0.005408 0.005712 0.000075
0.106521 0.004204 0.003183
0.602789 0.029248 0.057516
0.961378 0.260084 0.375129
0.958049 0.449134 0.421695
0.953339 0.596555 0.347030
0.952975 0.776163 0.277166
0.962641 0.952371 0.205743
0.000663 0.065849 0.000540
0.000098 0.050891 0.000109
0.060442 0.040988 0.000062
0.483528 0.060137 0.020692
0.962017 0.285884 0.321752
0.958211 0.465657 0.415184
0.953222 0.602187 0.342633
0.953002 0.777290 0.276118
0.962639 0.952550 0.205226
0.000201 0.347023 0.000498
0.000086 0.295362 0.000035
0.003946 0.263208 0.000178
0.336744 0.242470 0.000175
0.917652 0.386594 0.138515
0.956261 0.528911 0.385118
0.953045 0.625603 0.324528
0.953073 0.782211 0.271533
0.962706 0.953317 0.204498
0.021457 0.754502 0.010337
0.020522 0.743730 0.009489
0.019740 0.729510 0.009477
0.194934 0.692221 0.016079
0.796668 0.678324 0.064852
0.951366 0.691610 0.235526
0.951633 0.703761 0.254846
0.952970 0.801821 0.253854
0.963224 0.956666 0.205658
0.047866 0.967222 0.033919
0.047866 0.967222 0.033919
0.047866 0.967222 0.033919
0.047866 0.967222 0.033919
0.620994 0.949311 0.116523
0.959368 0.918761 0.179277
0.954403 0.850579 0.157120
0.955341 0.863365 0.181296
0.964310 0.968588 0.206236
0.070884 0.967219 0.036779
0.076810 0.967154 0.037426
0.086570 0.967047 0.038490
0.128501 0.966585 0.043057
0.343995 0.962817 0.071012
0.795894 0.966830 0.162192
0.964568 0.973038 0.212368
0.963311 0.969829 0.208814
0.964568 0.973038 0.212368
0.688264 0.965592 0.488395
0.689012 0.965622 0.488239
0.690255 0.965672 0.487980
0.695751 0.965893 0.486837
0.720018 0.966862 0.481818
0.801091 0.969559 0.461001
0.962828 0.978960 0.416332
0.964644 0.974312 0.221479
0.969705 0.978155 0.382508
0.989568 0.992998 0.836844
0.989566 0.992996 0.836815
0.989564 0.992994 0.836767
0.989554 0.992982 0.836553
0.989511 0.992930 0.835584
0.989145 0.992709 0.831713
0.987786 0.992195 0.814308
0.985801 0.991334 0.770931
0.986906 0.991620 0.793780
0.000703 0.000099 0.006617
0.010627 0.000998 0.003564
0.129414 0.003278 0.005993
0.712592 0.047779 0.087606
0.962285 0.271415 0.387721
0.957865 0.444755 0.422603
0.953285 0.598427 0.346938
0.953079 0.777242 0.304143
0.962793 0.952195 0.210465
0.000059 0.008071 0.007460
0.005621 0.006625 0.004951
0.096193 0.006034 0.005348
0.578080 0.026496 0.053224
0.963558 0.258454 0.362605
0.957689 0.454737 0.418325
0.953162 0.602114 0.345090
0.953076 0.777955 0.303547
0.962790 0.952302 0.210110
0.000013 0.073184 0.011281
0.000198 0.056081 0.004597
0.057474 0.046084 0.002378
0.466751 0.063963 0.018167
0.961782 0.285856 0.307005
0.958196 0.471803 0.411101
0.952963 0.608092 0.342237
0.953070 0.779135 0.302567
0.962785 0.952478 0.209518
0.000147 0.365120 0.000250
0.000941 0.316477 0.000937
0.003986 0.279481 0.000265
0.328250 0.252461 0.000183
0.907191 0.388668 0.135639
0.955935 0.535928 0.380841
0.952150 0.631357 0.333579
0.953051 0.784308 0.298365
0.962843 0.953242 0.208569
0.022664 0.766774 0.012389
0.021785 0.757517 0.009677
0.021281 0.743185 0.009259
0.163700 0.704679 0.015192
0.781709 0.684260 0.062286
0.952146 0.700827 0.295509
0.951904 0.708180 0.306205
0.953771 0.803324 0.280402
0.963328 0.956612 0.208738
0.047866 0.967222 0.033919
0.047866 0.967222 0.033919
0.047866 0.967222 0.033919
0.047866 0.967222 0.033919
0.597789 0.950790 0.113744
0.959200 0.920574 0.179314
0.954461 0.851885 0.184330
0.955896 0.863816 0.203080
0.963891 0.968541 0.206066
0.069807 0.966909 0.037028
0.075542 0.966833 0.037604
0.084987 0.966708 0.038551
0.125559 0.966169 0.042615
0.338192 0.962862 0.070390
0.791601 0.966680 0.160911
0.964568 0.973038 0.212368
0.963309 0.969835 0.208821
0.964568 0.973038 0.212368
0.688285 0.965714 0.500215
0.689032 0.965742 0.500059
0.690272 0.965789 0.499801
0.695758 0.965997 0.498660
0.719983 0.966913 0.493651
0.800962 0.969902 0.472741
0.963091 0.979231 0.428806
0.964896 0.974532 0.228174
0.969759 0.978328 0.390136
0.989661 0.993025 0.837726
0.989660 0.993023 0.837697
0.989658 0.993020 0.837649
0.989648 0.993008 0.837437
0.989605 0.992954 0.836479
0.989226 0.992737 0.832623
0.987829 0.992233 0.815257
0.985878 0.991379 0.772036
0.986944 0.991617 0.794798
0.000227 0.000378 0.042754
0.011564 0.000888 0.037440
0.132602 0.001194 0.030031
0.657085 0.034542 0.079649
0.963006 0.251203 0.375618
0.957427 0.453603 0.424216
0.952940 0.606710 0.392471
0.953576 0.779128 0.342965
0.963608 0.952520 0.225403
0.000000 0.011912 0.064758
0.003732 0.008893 0.048449
0.092972 0.007440 0.042795
0.542610 0.025328 0.077310
0.962721 0.256684 0.354352
0.957261 0.464925 0.423035
0.952873 0.610331 0.392113
0.953573 0.779815 0.342491
0.963612 0.952629 0.225083
0.000107 0.090635 0.095107
0.000097 0.066604 0.065770
0.053330 0.054439 0.052557
0.452745 0.067912 0.070301
0.961070 0.280009 0.312310
0.957664 0.483082 0.424313
0.952766 0.616185 0.391550
0.953570 0.780951 0.341710
0.963617 0.952810 0.224550
0.000247 0.399982 0.106256
0.000000 0.350543 0.076631
0.001562 0.310721 0.060120
0.321375 0.274793 0.055418
0.894820 0.389379 0.210830
0.954772 0.549073 0.426378
0.952428 0.639417 0.388042
0.953556 0.785892 0.338357
0.963667 0.953584 0.223552
0.023390 0.780050 0.014012
0.023636 0.770425 0.013547
0.023071 0.757499 0.011447
0.135172 0.719780 0.014894
0.769154 0.693304 0.077413
0.951588 0.709936 0.376451
0.952124 0.714691 0.368053
0.954527 0.804631 0.318301
0.963862 0.956939 0.221637
0.047866 0.967222 0.033919
0.047866 0.967222 0.033919
0.047866 0.967222 0.033919
0.047866 0.967222 0.033919
0.567300 0.950889 0.108410
0.959373 0.922633 0.180937
0.955852 0.854299 0.246183
0.956039 0.864881 0.238394
0.963224 0.968467 0.205797
0.066460 0.966935 0.036122
0.072042 0.966873 0.036712
0.081235 0.966772 0.037684
0.120729 0.966338 0.041858
0.325354 0.963149 0.068222
0.784951 0.965813 0.160011
0.964568 0.973038 0.212368
0.963306 0.969845 0.208833
0.964568 0.973038 0.212368
0.688320 0.965909 0.519279
0.689065 0.965935 0.519124
0.690302 0.965977 0.518867
0.695773 0.966166 0.517730
0.719928 0.966995 0.512737
0.800754 0.970454 0.491681
0.963517 0.979667 0.448945
0.965304 0.974889 0.239016
0.969878 0.978617 0.402542
0.989816 0.993069 0.839182
0.989815 0.993067 0.839154
0.989813 0.993064 0.839107
0.989803 0.993051 0.838899
0.989760 0.992994 0.837958
0.989361 0.992782 0.834127
0.987900 0.992296 0.816826
0.986005 0.991452 0.773863
0.987006 0.991613 0.796482
0.000315 0.002482 0.260586
0.011392 0.000367 0.207441
0.118108 0.000670 0.186530
0.557913 0.012293 0.225521
0.964085 0.225564 0.471643
0.957526 0.492389 0.537746
0.953558 0.626111 0.513142
0.955578 0.785417 0.452738
0.965530 0.953673 0.303496
0.001279 0.046202 0.322858
0.002394 0.027461 0.257811
0.085322 0.021544 0.225889
0.500467 0.038311 0.236671
0.961923 0.240135 0.454818
0.957280 0.502266 0.540575
0.953662 0.629391 0.513500
0.955614 0.786081 0.452392
0.965534 0.953778 0.303169
0.001495 0.136596 0.383031
0.001889 0.101813 0.313817
0.048309 0.086432 0.273382
0.442397 0.090198 0.259987
0.952245 0.271806 0.437563
0.956295 0.518638 0.544838
0.953834 0.634712 0.514085
0.955674 0.787180 0.451823
0.965540 0.953952 0.302626
0.007193 0.447032 0.457611
0.005282 0.407223 0.413606
0.001559 0.371480 0.373269
0.320232 0.320886 0.320248
0.876456 0.399646 0.405879
0.953929 0.579479 0.556511
0.953800 0.656156 0.514066
0.955938 0.791965 0.449369
0.965479 0.954659 0.300202
0.039538 0.796402 0.421316
0.037784 0.788285 0.408024
0.035867 0.776252 0.389714
0.093330 0.742591 0.348018
0.752791 0.711488 0.375508
0.954278 0.726329 0.547290
0.954361 0.726240 0.510267
0.955777 0.810462 0.437482
0.965109 0.957728 0.289192
0.048464 0.967145 0.041585
0.048447 0.967126 0.041211
0.048421 0.967095 0.040611
0.048124 0.967157 0.037640
0.484693 0.949556 0.098660
0.960968 0.926512 0.321728
0.960014 0.859791 0.438105
0.959018 0.869090 0.371573
0.964291 0.968646 0.246451
0.064702 0.967260 0.035215
0.069662 0.967253 0.035662
0.077832 0.967241 0.036399
0.112947 0.967188 0.039567
0.299243 0.963587 0.063621
0.763236 0.965371 0.154233
0.964568 0.973038 0.212368
0.963292 0.969889 0.208898
0.964568 0.973038 0.212368
0.688498 0.966359 0.588164
0.689221 0.966385 0.588012
0.690423 0.966428 0.587760
0.695738 0.966618 0.586647
0.719200 0.967462 0.581746
0.798674 0.972045 0.563235
0.963066 0.980894 0.518089
0.967431 0.976571 0.296969
0.972428 0.980230 0.450815
0.990490 0.993261 0.845518
0.990489 0.993259 0.845492
0.990487 0.993256 0.845449
0.990477 0.993239 0.845258
0.990433 0.993167 0.844391
0.989945 0.992977 0.840669
0.988208 0.992569 0.823648
0.986466 0.991648 0.781886
0.987277 0.991596 0.803826
0.004009 0.138465 0.734868
0.008839 0.127412 0.710366
0.103948 0.115692 0.681653
0.485363 0.115682 0.634352
0.927991 0.259069 0.667245
0.954392 0.555658 0.681046
0.954397 0.664868 0.679945
0.959974 0.796018 0.646747
0.973371 0.957094 0.534118
0.004326 0.192228 0.751171
0.004413 0.176058 0.729531
0.083103 0.161516 0.700826
0.462257 0.153366 0.648399
0.916265 0.280633 0.668489
0.954498 0.565131 0.685050
0.954546 0.667573 0.680573
0.960065 0.796585 0.646725
0.973369 0.957186 0.533846
0.005121 0.275484 0.769882
0.004487 0.255747 0.750551
0.050099 0.235713 0.724384
0.429254 0.214214 0.666917
0.899622 0.316068 0.673671
0.954676 0.579851 0.691175
0.954787 0.671968 0.681593
0.960216 0.797524 0.646688
0.973362 0.957335 0.533372
0.018196 0.509116 0.795591
0.016088 0.491949 0.782089
0.015664 0.468868 0.763564
0.321701 0.426041 0.716056
0.845955 0.449052 0.692097
0.954884 0.630902 0.710602
0.955596 0.689494 0.685832
0.960646 0.801634 0.646191
0.973334 0.957994 0.531271
0.053100 0.807978 0.810965
0.052636 0.802659 0.804626
0.049847 0.795552 0.796494
0.074035 0.769067 0.766670
0.739144 0.740305 0.739556
0.959054 0.749458 0.747576
0.958272 0.747309 0.698541
0.961226 0.818863 0.642440
0.973219 0.960930 0.521931
0.080914 0.956309 0.680259
0.080838 0.955718 0.679162
0.080685 0.954796 0.677364
0.078029 0.952230 0.668990
0.374271 0.935960 0.662682
0.955631 0.928664 0.708396
0.966947 0.866143 0.694475
0.966003 0.875125 0.617622
0.972728 0.971762 0.481856
0.093075 0.963623 0.405779
0.098470 0.963483 0.406204
0.107359 0.963252 0.406902
0.145606 0.962258 0.409879
0.320827 0.959685 0.419648
0.727979 0.967107 0.443677
0.973599 0.980524 0.474382
0.970795 0.974664 0.423656
0.969547 0.977750 0.359285
0.683140 0.968750 0.739724
0.683958 0.968780 0.739765
0.685318 0.968830 0.739833
0.691335 0.969050 0.740137
0.717943 0.970024 0.741502
0.794178 0.974499 0.731864
0.961643 0.985821 0.698422
0.975514 0.981907 0.521720
0.977051 0.984466 0.599903
0.990750 0.993739 0.869564
0.990751 0.993739 0.869541
0.990752 0.993739 0.869503
0.990759 0.993739 0.869334
0.990790 0.993739 0.868570
0.990928 0.993825 0.864783
0.990820 0.993419 0.849468
0.987712 0.991783 0.814478
0.988411 0.992541 0.829235
0.049606 0.516744 0.969521
0.073733 0.512781 0.970312
0.148442 0.509119 0.968837
0.424889 0.499991 0.960558
0.832219 0.509366 0.926152
0.954495 0.618037 0.841487
0.956876 0.703492 0.806033
0.964106 0.813768 0.811282
0.980403 0.957101 0.792874
0.046349 0.530725 0.969116
0.066220 0.527149 0.969932
0.137734 0.523119 0.967873
0.413624 0.513903 0.961113
0.827602 0.521502 0.926931
0.954508 0.622917 0.843515
0.956933 0.705575 0.806706
0.964168 0.814224 0.811389
0.980425 0.957204 0.792810
0.039175 0.552684 0.968663
0.057137 0.549751 0.968903
0.119631 0.544922 0.966077
0.396383 0.535990 0.962028
0.820245 0.540375 0.928156
0.954526 0.630753 0.846764
0.957025 0.708982 0.807808
0.964272 0.814979 0.811566
0.980461 0.957374 0.792703
0.035129 0.626580 0.963692
0.037945 0.624055 0.963613
0.065114 0.620508 0.963172
0.321094 0.611480 0.962047
0.790508 0.609137 0.931683
0.955636 0.662637 0.861039
0.957494 0.723288 0.812457
0.964722 0.818283 0.812341
0.980621 0.958130 0.792230
0.053937 0.774536 0.956482
0.053145 0.773326 0.957188
0.051907 0.771453 0.958286
0.086807 0.763980 0.955904
0.677557 0.757498 0.936730
0.962813 0.760761 0.900065
0.961212 0.773911 0.829285
0.966189 0.832233 0.815011
0.981339 0.961510 0.790128
0.084105 0.916836 0.918054
0.083959 0.916295 0.917438
0.083727 0.915422 0.916440
0.082301 0.913011 0.913255
0.255050 0.902824 0.898871
0.904260 0.905510 0.904577
0.972918 0.872326 0.861373
0.971589 0.878849 0.820101
0.983378 0.974908 0.779407
0.089701 0.959223 0.808982
0.089671 0.959234 0.808472
0.089620 0.959253 0.807631
0.091033 0.959227 0.803924
0.158344 0.958592 0.792054
0.675168 0.969167 0.806622
0.987504 0.991933 0.824041
0.983609 0.978026 0.781830
0.983636 0.988473 0.725716
0.569580 0.965211 0.887265
0.570914 0.965256 0.887276
0.573132 0.965329 0.887294
0.582941 0.965653 0.887372
0.625333 0.967127 0.887693
0.748001 0.974468 0.888422
0.942799 0.990448 0.887896
0.988064 0.992357 0.811267
0.987603 0.991890 0.824289
0.992952 0.996745 0.932784
0.992948 0.996741 0.932761
0.992941 0.996735 0.932724
0.992910 0.996709 0.932557
0.992769 0.996592 0.931803
0.992855 0.996507 0.929000
0.992886 0.996276 0.917825
0.992016 0.994719 0.889459
0.992946 0.995297 0.896595
0.373952 0.691388 0.959887
0.384287 0.691769 0.959880
0.401135 0.692389 0.959868
0.468700 0.694458 0.958111
0.665420 0.707492 0.956352
0.928416 0.734057 0.963422
0.962966 0.755328 0.933478
0.968427 0.821775 0.914535
0.985967 0.949139 0.941143
0.371618 0.693152 0.959827
0.382016 0.693515 0.959813
0.398968 0.694107 0.959788
0.466686 0.696131 0.958082
0.664057 0.709009 0.956362
0.927532 0.735582 0.963434
0.963051 0.756332 0.933642
0.968465 0.822176 0.914622
0.985979 0.949222 0.941162
0.367855 0.696045 0.959724
0.378356 0.696381 0.959697
0.395477 0.696926 0.959651
0.463417 0.698885 0.958042
0.661845 0.711504 0.956386
0.926078 0.738096 0.963456
0.963191 0.757990 0.933914
0.968528 0.822840 0.914765
0.985999 0.949360 0.941192
0.352853 0.708309 0.959209
0.363778 0.708525 0.959129
0.381071 0.708905 0.958951
0.450061 0.710679 0.957983
0.652831 0.722193 0.956576
0.919532 0.748310 0.963717
0.963798 0.765175 0.935090
0.968802 0.825760 0.915395
0.986087 0.949972 0.941329
0.284938 0.754361 0.957636
0.296033 0.754264 0.957506
0.314148 0.754105 0.957295
0.387046 0.754250 0.956526
0.607128 0.761393 0.956222
0.894162 0.784939 0.964271
0.965323 0.792158 0.941241
0.970209 0.838034 0.918052
0.986485 0.952712 0.941943
0.098260 0.867405 0.953531
0.104595 0.866707 0.953542
0.114950 0.865565 0.953562
0.161869 0.860970 0.953575
0.424727 0.853140 0.952268
0.819590 0.866057 0.966240
0.974124 0.867040 0.958859
0.975296 0.880368 0.929585
0.988160 0.964759 0.941984
0.099927 0.957127 0.934477
0.099927 0.957117 0.934529
0.099927 0.957100 0.934615
0.099927 0.957028 0.934986
0.100121 0.956962 0.935319
0.520982 0.963674 0.947963
0.976979 0.983855 0.980830
0.989192 0.967168 0.948250
0.993865 0.995958 0.931762
0.463253 0.961153 0.944235
0.464527 0.961198 0.944301
0.466644 0.961272 0.944412
0.476011 0.961601 0.944900
0.517498 0.963058 0.947062
0.664209 0.970423 0.956398
0.906280 0.989577 0.983090
0.995985 0.998538 0.981087
0.997150 0.999638 0.983266
0.998586 0.999785 0.999491
0.998624 0.999791 0.999505
0.998688 0.999801 0.999528
0.998973 0.999844 0.999631
1.000000 1.000000 1.000000
1.000000 1.000000 1.000000
1.000000 1.000000 1.000000
0.999369 0.999912 0.996574
0.999628 0.999948 0.997978
0.566719 0.916385 0.955832
0.569819 0.916340 0.955975
0.574956 0.916265 0.956211
0.592908 0.915969 0.957094
0.668171 0.914793 0.960854
0.831966 0.909833 0.971385
0.978308 0.891754 0.978345
0.975281 0.866145 0.976474
0.989887 0.960916 0.990495
0.565991 0.916599 0.955786
0.569098 0.916553 0.955930
0.574249 0.916478 0.956167
0.592159 0.916187 0.957053
0.667666 0.915030 0.960843
0.831739 0.910091 0.971388
0.978343 0.892035 0.978383
0.975325 0.866392 0.976508
0.989907 0.961002 0.990505
0.564789 0.916954 0.955711
0.567910 0.916908 0.955855
0.573082 0.916831 0.956094
0.590921 0.916550 0.956986
0.666832 0.915424 0.960826
0.831363 0.910521 0.971394
0.978402 0.892503 0.978448
0.975398 0.866803 0.976565
0.989941 0.961145 0.990523
0.559597 0.918518 0.955384
0.562776 0.918469 0.955533
0.567399 0.918402 0.955761
0.585559 0.918155 0.956701
0.663242 0.917171 0.960758
0.829719 0.912415 0.971418
0.978661 0.894569 0.978730
0.975723 0.868621 0.976816
0.990091 0.961778 0.990600
0.535160 0.925506 0.953827
0.537884 0.925489 0.953982
0.542399 0.925460 0.954239
0.562217 0.925333 0.955365
0.644533 0.924744 0.960081
0.821160 0.920329 0.971658
0.979809 0.903671 0.979963
0.976509 0.876106 0.977877
0.990749 0.964627 0.990955
0.397951 0.951458 0.943316
0.402013 0.951471 0.943429
0.408750 0.951491 0.943616
0.438351 0.951584 0.944434
0.539333 0.951193 0.950532
0.779526 0.949158 0.969273
0.985369 0.938232 0.986291
0.980654 0.905085 0.981711
0.991931 0.976600 0.992947
0.313547 0.957205 0.939630
0.316199 0.957238 0.939699
0.320600 0.957292 0.939812
0.339988 0.957531 0.940312
0.416849 0.959571 0.943231
0.654364 0.969608 0.956442
0.947134 0.993844 0.988147
0.994329 0.983272 0.995277
1.000000 1.000000 1.000000
0.571945 0.964817 0.950915
0.572927 0.964847 0.950971
0.574559 0.964896 0.951065
0.581468 0.965140 0.951483
0.606733 0.966651 0.953386
0.704827 0.972530 0.960962
0.900421 0.989112 0.982580
1.000000 1.000000 1.000000
1.000000 1.000000 1.000000
0.995752 0.999484 0.998225
0.995768 0.999486 0.998232
0.995795 0.999489 0.998243
0.995913 0.999504 0.998292
0.996448 0.999569 0.998516
0.998818 0.999856 0.999506
1.000000 1.000000 1.000000
1.000000 1.000000 1.000000
1.000000 1.000000 1.000000
0.874384 0.985938 0.977826
0.874621 0.985964 0.977859
0.875015 0.986007 0.977914
0.876765 0.986199 0.978158
0.884623 0.987060 0.979253
0.916505 0.990520 0.984278
1.000000 1.000000 1.000000
1.000000 1.000000 1.000000
1.000000 1.000000 1.000000
0.874366 0.985938 0.977822
0.874603 0.985964 0.977855
0.874997 0.986007 0.977910
0.876748 0.986199 0.978154
0.884607 0.987059 0.979250
0.916488 0.990519 0.984279
1.000000 1.000000 1.000000
1.000000 1.000000 1.000000
1.000000 1.000000 1.000000
0.874337 0.985938 0.977815
0.874574 0.985964 0.977848
0.874968 0.986007 0.977903
0.876719 0.986199 0.978147
0.884580 0.987059 0.979244
0.916459 0.990516 0.984279
1.000000 1.000000 1.000000
1.000000 1.000000 1.000000
1.000000 1.000000 1.000000
0.874207 0.985938 0.977785
0.874445 0.985963 0.977818
0.874839 0.986007 0.977873
0.876592 0.986198 0.978118
0.884461 0.987055 0.979217
0.916330 0.990506 0.984283
0.999990 0.999999 0.999996
1.000000 1.000000 1.000000
1.000000 1.000000 1.000000
0.873641 0.985935 0.977651
0.873880 0.985961 0.977685
0.874276 0.986003 0.977741
0.876037 0.986192 0.977988
0.883942 0.987039 0.979101
0.915756 0.990461 0.984307
0.999554 0.999947 0.999814
1.000000 1.000000 1.000000
1.000000 1.000000 1.000000
0.870316 0.985833 0.977443
0.870561 0.985856 0.977478
0.870969 0.985893 0.977537
0.872781 0.986060 0.977798
0.880920 0.986809 0.978971
0.912660 0.990110 0.984003
0.997813 0.999740 0.999090
1.000000 1.000000 1.000000
1.000000 1.000000 1.000000
0.863594 0.985345 0.976573
0.863842 0.985368 0.976605
0.864254 0.985408 0.976658
0.866037 0.985585 0.976904
0.873073 0.986406 0.978191
0.903228 0.989908 0.983659
0.987248 0.997963 0.995847
1.000000 1.000000 1.000000
1.000000 1.000000 1.000000
0.880778 0.985968 0.979947
0.880960 0.985981 0.979973
0.881262 0.986003 0.980018
0.882415 0.986134 0.980172
0.887397 0.986763 0.980821
0.909045 0.989499 0.983639
0.980247 0.997149 0.993720
1.000000 1.000000 1.000000
1.000000 1.000000 1.000000
1.000000 1.000000 1.000000
1.000000 1.000000 1.000000
1.000000 1.000000 1.000000
1.000000 1.000000 1.000000
1.000000 1.000000 1.000000
1.000000 1.000000 1.000000
1.000000 1.000000 1.000000
1.000000 1.000000 1.000000
1.000000 1.000000 1.000000
