output/ACEScct_display/ACEScct_to_ASTIA_33grid.cube
TITLE "ACEScct_to_ASTIA"
# Input: ACEScct (AP1 primaries, log encoding, D60)
# Output: BT.709 / Gamma 2.2 (display-referred)
# Use: Display/output transform in DaVinci Resolve ACES pipeline (replaces ODT)
# Source: FLog2C_to_ASTIA_65grid_V.1.00.cube
# Generated from Fujifilm GFX ETERNA 55 F-Log2C LUT
LUT_3D_SIZE 5
0.000334 0.000257 0.000073
0.158677 0.003625 0.005802
0.999980 0.000411 0.516869
0.999489 0.472428 0.257246
0.988082 0.987033 0.013296
0.000017 0.098343 0.000004
0.079519 0.063595 0.000323
0.999836 0.012614 0.406316
0.999117 0.487536 0.241590
0.988039 0.987271 0.013510
0.000000 0.844956 0.000222
0.000209 0.817345 0.000230
0.793915 0.696269 0.000211
0.999360 0.653458 0.039747
0.987125 0.990509 0.016021
0.082792 0.999631 0.000756
0.102908 0.999634 0.000645
0.364928 0.999494 0.000554
0.983447 0.999735 0.021694
0.983737 0.999969 0.022583
0.992139 0.999914 0.690341
0.992134 0.999916 0.690220
0.992072 0.999954 0.688363
0.992375 0.999697 0.653884
0.992160 0.999560 0.621810
0.000121 0.000000 0.082738
0.157603 0.000721 0.050091
0.999629 0.000074 0.499887
0.999547 0.487520 0.307355
0.988896 0.992796 0.018740
0.000208 0.118706 0.125010
0.071614 0.072278 0.069583
0.999790 0.033316 0.374077
0.999648 0.501590 0.298956
0.988866 0.993031 0.018938
0.000071 0.875563 0.000317
0.000149 0.848729 0.000861
0.762165 0.726082 0.000016
0.999722 0.654688 0.189715
0.987889 0.995322 0.020749
0.076617 0.999430 0.000572
0.096143 0.999472 0.000585
0.348668 0.999553 0.000125
0.983450 0.999737 0.021696
0.983743 0.999940 0.023134
0.991984 0.999914 0.694114
0.991980 0.999916 0.693993
0.991918 0.999953 0.692135
0.992516 0.999741 0.657910
0.992393 0.999631 0.625797
0.000567 0.126280 0.981098
0.113852 0.089108 0.911762
0.994507 0.039431 0.828069
0.999666 0.546273 0.656850
0.991913 0.999256 0.252188
0.000600 0.279488 0.994669
0.049364 0.229671 0.950675
0.952129 0.139075 0.808981
0.999700 0.556195 0.654451
0.991879 0.999289 0.251059
0.000457 0.830711 0.928821
0.000572 0.816258 0.909737
0.716133 0.717075 0.716416
0.999352 0.660830 0.629614
0.991367 0.999331 0.233901
0.098728 0.999834 0.272320
0.117253 0.999835 0.269654
0.333793 0.999599 0.233131
0.987966 0.999706 0.164389
0.986911 0.999430 0.081272
0.992442 0.999680 0.743311
0.992440 0.999677 0.743183
0.992422 0.999636 0.741208
0.991449 0.999881 0.710868
0.993453 0.999731 0.675735
0.350349 0.665258 0.999775
0.377753 0.664598 0.999674
0.637661 0.660898 0.999310
0.999494 0.638680 0.999340
0.996631 0.930872 0.917101
0.343946 0.670732 0.999782
0.371711 0.670141 0.999697
0.633503 0.665786 0.999325
0.999457 0.642357 0.999286
0.996604 0.931284 0.917027
0.258469 0.738627 0.999863
0.287820 0.737375 0.999748
0.573226 0.726872 0.999750
0.999705 0.690430 0.999623
0.996195 0.937533 0.915912
0.000389 0.972493 0.999708
0.000297 0.972401 0.999663
0.019869 0.997464 0.999794
0.974426 0.984204 0.980947
0.995439 0.999180 0.862307
0.998112 0.999930 0.999712
0.998249 0.999935 0.999733
1.000000 1.000000 1.000000
1.000000 1.000000 1.000000
0.999441 0.999954 0.996801
0.830491 0.996932 0.999529
0.831244 0.996944 0.999526
0.842698 0.997129 0.999489
1.000000 1.000000 1.000000
1.000000 1.000000 1.000000
0.830434 0.996936 0.999527
0.831187 0.996948 0.999525
0.842632 0.997130 0.999490
1.000000 1.000000 1.000000
1.000000 1.000000 1.000000
0.829562 0.996991 0.999508
0.830306 0.997000 0.999508
0.841608 0.997130 0.999510
0.999424 1.000000 0.999814
1.000000 1.000000 1.000000
0.817295 0.996428 0.999715
0.818026 0.996407 0.999715
0.828844 0.996566 0.999606
0.982916 0.999579 0.998094
1.000000 1.000000 1.000000
1.000000 1.000000 1.000000
1.000000 1.000000 1.000000
1.000000 1.000000 1.000000
1.000000 1.000000 1.000000
1.000000 1.000000 1.000000
