output/ACEScct_display/ACEScct_to_PRO-Neg.Std_33grid.cube
TITLE "ACEScct_to_PRO-Neg.Std"
# Input: ACEScct (AP1 primaries, log encoding, D60)
# Output: BT.709 / Gamma 2.2 (display-referred)
# Use: Display/output transform in DaVinci Resolve ACES pipeline (replaces ODT)
# Source: FLog2C_to_PRO-Neg.Std_65grid_V.1.00.cube
# Generated from Fujifilm GFX ETERNA 55 F-Log2C LUT
LUT_3D_SIZE 9
0.000438 0.000379 0.000085
0.021523 0.005243 0.004301
0.130122 0.019019 0.037078
0.625180 0.051236 0.175088
0.953660 0.154746 0.450985
0.969229 0.329004 0.434328
0.973232 0.509837 0.269925
0.972337 0.758922 0.076041
0.961942 0.999681 0.000402
0.003144 0.019318 0.001467
0.020762 0.019960 0.000615
0.111543 0.020104 0.027250
0.500441 0.047855 0.136837
0.949868 0.131051 0.438078
0.969808 0.341362 0.424473
0.973343 0.514166 0.265307
0.972268 0.759970 0.074968
0.961926 0.999726 0.000339
0.014428 0.099689 0.000475
0.011205 0.082858 0.000060
0.085067 0.078572 0.001599
0.408599 0.094390 0.074120
0.951473 0.173730 0.368552
0.970778 0.360705 0.407016
0.973538 0.521220 0.257801
0.972154 0.761702 0.073193
0.961900 0.999801 0.000235
0.022118 0.366329 0.000478
0.022382 0.318308 0.000002
0.031370 0.286738 0.000578
0.315122 0.277776 0.000030
0.889395 0.338944 0.123424
0.972691 0.433284 0.346898
0.973957 0.550667 0.222213
0.971622 0.769231 0.065446
0.961718 0.999937 0.000060
0.006469 0.791610 0.000227
0.008014 0.777800 0.000131
0.008712 0.760059 0.000720
0.195549 0.720908 0.001052
0.750702 0.687918 0.000055
0.970779 0.643326 0.072556
0.971860 0.659652 0.089528
0.970678 0.800921 0.030485
0.960651 0.999943 0.000199
0.000000 1.000000 0.000285
0.000000 1.000000 0.000285
0.000000 1.000000 0.000285
0.000000 1.000000 0.000285
0.515053 0.999958 0.000005
0.956021 0.940231 0.000204
0.962575 0.871654 0.000034
0.963994 0.894578 0.000048
0.956305 0.999798 0.002253
0.020666 0.999666 0.000165
0.026524 0.999685 0.000201
0.036171 0.999716 0.000259
0.077627 0.999849 0.000508
0.265716 0.999813 0.000462
0.714927 0.999584 0.000347
0.950560 0.999783 0.000463
0.952807 0.998332 0.000000
0.950825 0.999567 0.003259
0.614714 0.999838 0.321073
0.615484 0.999837 0.320794
0.616763 0.999834 0.320332
0.622419 0.999822 0.318286
0.647389 0.999769 0.309290
0.739749 0.999970 0.274674
0.943667 0.999591 0.210967
0.956685 0.999501 0.038231
0.963398 0.999558 0.174660
0.985395 0.999932 0.739124
0.985394 0.999933 0.739083
0.985391 0.999934 0.739014
0.985382 0.999939 0.738708
0.985340 0.999963 0.737323
0.984902 0.999881 0.731006
0.982982 0.999633 0.704964
0.979560 0.999502 0.641860
0.981583 0.999262 0.673650
0.000621 0.000977 0.018870
0.026991 0.003535 0.019559
0.128546 0.017663 0.036481
0.614580 0.052171 0.172561
0.952595 0.142894 0.448585
0.969782 0.336359 0.427522
0.973333 0.517242 0.263431
0.973449 0.758717 0.108158
0.962505 0.999755 0.000490
0.005505 0.025403 0.023780
0.021493 0.023721 0.021634
0.105469 0.025307 0.031467
0.477246 0.046855 0.129798
0.950025 0.133604 0.424953
0.969942 0.348435 0.418455
0.973433 0.521607 0.259628
0.973408 0.759779 0.107144
0.962489 0.999797 0.000404
0.017666 0.107835 0.029247
0.014727 0.088763 0.015923
0.085000 0.083625 0.017933
0.395823 0.100226 0.068956
0.949150 0.180356 0.350921
0.970908 0.368472 0.402565
0.973575 0.528685 0.253606
0.973342 0.761538 0.105474
0.962462 0.999865 0.000261
0.021425 0.384542 0.000598
0.023328 0.337924 0.000628
0.032046 0.303385 0.000511
0.311585 0.286428 0.000145
0.878148 0.344487 0.121453
0.971666 0.441898 0.339560
0.973653 0.557265 0.231131
0.973079 0.769230 0.098309
0.962258 0.999982 0.000036
0.005008 0.810237 0.000078
0.006014 0.796578 0.000056
0.005619 0.779635 0.000379
0.170923 0.734602 0.000374
0.733215 0.698410 0.000289
0.973929 0.651456 0.143548
0.973795 0.660915 0.151355
0.971323 0.800188 0.065712
0.961058 0.999970 0.000230
0.000000 1.000000 0.000285
0.000000 1.000000 0.000285
0.000000 1.000000 0.000285
0.000000 1.000000 0.000285
0.492574 0.999632 0.000508
0.954292 0.943279 0.000109
0.964670 0.877504 0.000119
0.964807 0.897192 0.000001
0.956743 0.999739 0.005253
0.021270 0.999928 0.000114
0.027013 0.999930 0.000122
0.036472 0.999933 0.000135
0.077117 0.999945 0.000188
0.262691 0.999765 0.000085
0.709227 0.999721 0.000316
0.950546 0.999773 0.000464
0.952806 0.998337 0.000000
0.950935 0.999526 0.004149
0.614915 0.999797 0.333479
0.615683 0.999796 0.333202
0.616960 0.999795 0.332743
0.622607 0.999788 0.330714
0.647537 0.999761 0.321785
0.739627 0.999960 0.287697
0.943694 0.999627 0.224007
0.957210 0.999491 0.040684
0.963656 0.999590 0.183071
0.985525 0.999931 0.740391
0.985523 0.999932 0.740349
0.985521 0.999933 0.740281
0.985512 0.999938 0.739975
0.985470 0.999963 0.738589
0.985008 0.999886 0.732301
0.983035 0.999658 0.706463
0.979637 0.999477 0.643399
0.981684 0.999257 0.675064
0.005339 0.001234 0.070493
0.032998 0.003835 0.068588
0.134803 0.013236 0.079382
0.554088 0.046884 0.162819
0.950096 0.123287 0.440698
0.970825 0.346448 0.427553
0.975733 0.522893 0.315513
0.975655 0.758230 0.154368
0.963022 0.999764 0.003111
0.012110 0.036458 0.091116
0.024028 0.031588 0.079137
0.110297 0.030727 0.087592
0.451259 0.048624 0.156022
0.949409 0.137085 0.414444
0.972488 0.359216 0.422054
0.975987 0.527258 0.312862
0.975641 0.759266 0.153455
0.963001 0.999808 0.002930
0.025641 0.128602 0.124162
0.021324 0.101929 0.094452
0.091323 0.092526 0.090066
0.394279 0.103742 0.134942
0.946121 0.185220 0.360710
0.972197 0.380016 0.414563
0.976391 0.534318 0.308613
0.975617 0.760979 0.151948
0.962966 0.999882 0.002625
0.023214 0.416296 0.095117
0.025645 0.369422 0.073383
0.034642 0.331004 0.061530
0.317171 0.303143 0.071344
0.867624 0.345860 0.212323
0.975463 0.452983 0.386696
0.977354 0.562702 0.292185
0.975492 0.768464 0.145441
0.962733 0.999992 0.002303
0.005231 0.823932 0.000503
0.007307 0.812482 0.000510
0.008204 0.795252 0.000350
0.153894 0.754061 0.000100
0.725692 0.704007 0.000263
0.977837 0.657004 0.237145
0.977979 0.663104 0.223723
0.973034 0.799216 0.113055
0.961515 0.999931 0.003633
0.000000 1.000000 0.000285
0.000000 1.000000 0.000285
0.000000 1.000000 0.000285
0.000000 1.000000 0.000285
0.465804 0.999832 0.000603
0.954451 0.948059 0.000000
0.967132 0.878217 0.014215
0.966098 0.895210 0.006252
0.957442 0.999646 0.010035
0.019442 0.999723 0.000157
0.025208 0.999738 0.000185
0.034705 0.999763 0.000231
0.075531 0.999872 0.000434
0.256063 0.999762 0.000264
0.702087 0.999347 0.000176
0.950538 0.999767 0.000465
0.952796 0.998546 0.000000
0.951151 0.999460 0.005685
0.615241 0.999731 0.353487
0.616008 0.999732 0.353214
0.617281 0.999732 0.352761
0.622913 0.999735 0.350757
0.647777 0.999749 0.341940
0.739430 0.999943 0.308706
0.943738 0.999686 0.245058
0.958060 0.999474 0.044661
0.964079 0.999642 0.196742
0.985739 0.999929 0.742484
0.985738 0.999930 0.742443
0.985736 0.999931 0.742374
0.985727 0.999937 0.742068
0.985685 0.999962 0.740681
0.985182 0.999895 0.734442
0.983123 0.999700 0.708939
0.979764 0.999438 0.645944
0.981850 0.999250 0.677405
0.027938 0.023457 0.265398
0.055283 0.015462 0.227782
0.143910 0.013226 0.228798
0.475594 0.023250 0.314928
0.955466 0.110653 0.561746
0.981062 0.383911 0.549041
0.982633 0.537936 0.456307
0.979862 0.756519 0.288610
0.965438 0.999349 0.058858
0.033155 0.086674 0.323683
0.042181 0.066027 0.268746
0.132813 0.060584 0.262242
0.440904 0.069039 0.315517
0.951048 0.143250 0.536206
0.980833 0.395926 0.548435
0.982678 0.541857 0.454921
0.979818 0.757501 0.287823
0.965431 0.999420 0.058529
0.039430 0.179400 0.382554
0.036639 0.143965 0.316465
0.114665 0.130131 0.297099
0.410376 0.126120 0.325216
0.939175 0.192351 0.506313
0.981365 0.413990 0.547513
0.982755 0.548214 0.452674
0.979746 0.759124 0.286524
0.965419 0.999539 0.057982
0.035732 0.455038 0.431889
0.034116 0.418744 0.395496
0.040018 0.384897 0.360820
0.338437 0.339090 0.338338
0.859272 0.355205 0.427493
0.983529 0.479504 0.535450
0.983427 0.574658 0.440562
0.979443 0.766203 0.280922
0.965262 0.999638 0.056709
0.018677 0.826225 0.327229
0.019570 0.816447 0.315640
0.020021 0.802063 0.299580
0.139787 0.763525 0.266778
0.719429 0.708163 0.276262
0.986267 0.665030 0.443293
0.985113 0.667115 0.394871
0.977989 0.795283 0.255803
0.964437 0.999498 0.051789
0.000000 0.999954 0.001925
0.000000 0.999954 0.001621
0.000000 0.999954 0.001133
0.000000 0.999998 0.000296
0.414943 0.999626 0.000106
0.961541 0.974137 0.080558
0.975531 0.867025 0.232256
0.972031 0.887172 0.149761
0.961362 0.999297 0.029121
0.030245 0.999906 0.000287
0.035779 0.999904 0.000292
0.044897 0.999901 0.000301
0.084128 0.999886 0.000337
0.246331 0.999782 0.000787
0.678897 0.999549 0.000190
0.952309 0.999635 0.008054
0.955211 0.999610 0.000134
0.955611 0.999387 0.022997
0.616301 0.999657 0.429516
0.617051 0.999657 0.429268
0.618296 0.999658 0.428854
0.623803 0.999661 0.427028
0.648111 0.999673 0.419000
0.738594 0.999860 0.386754
0.945323 0.999453 0.325079
0.960822 0.999676 0.087116
0.965924 0.999813 0.249350
0.986673 0.999921 0.751588
0.986672 0.999922 0.751547
0.986670 0.999924 0.751478
0.986661 0.999930 0.751171
0.986618 0.999958 0.749783
0.985938 0.999932 0.743754
0.983507 0.999885 0.719713
0.980408 0.999314 0.657112
0.982575 0.999217 0.687617
0.062371 0.197124 0.756848
0.128695 0.184893 0.744662
0.217345 0.169752 0.729691
0.485723 0.152291 0.714769
0.925350 0.193638 0.786027
0.992165 0.447010 0.720009
0.992994 0.573527 0.663537
0.987569 0.754070 0.537451
0.970845 0.993046 0.327957
0.056463 0.246461 0.782227
0.113098 0.229442 0.766707
0.206198 0.212293 0.745780
0.473583 0.189647 0.724223
0.914619 0.220197 0.781527
0.992882 0.457561 0.720596
0.993307 0.576735 0.663287
0.987551 0.754930 0.537066
0.970839 0.993108 0.327688
0.049137 0.313005 0.797477
0.088687 0.294893 0.778738
0.183518 0.277133 0.761367
0.455868 0.245957 0.736679
0.899147 0.261619 0.776954
0.993965 0.473935 0.721503
0.993811 0.581947 0.662879
0.987521 0.756353 0.536430
0.970835 0.993176 0.327240
0.046745 0.514382 0.814387
0.046367 0.497635 0.797522
0.096753 0.476148 0.782727
0.385237 0.433485 0.758996
0.848483 0.402084 0.761988
0.996409 0.530676 0.727213
0.995062 0.603368 0.660216
0.987362 0.762449 0.533380
0.970816 0.993479 0.325258
0.029177 0.826241 0.779012
0.028527 0.820778 0.773309
0.029835 0.810754 0.763462
0.164948 0.779921 0.739147
0.721506 0.722510 0.721677
0.994914 0.679408 0.720716
0.992025 0.680926 0.645003
0.986463 0.787401 0.519145
0.970712 0.994882 0.316452
0.006443 0.999714 0.571994
0.006319 0.999714 0.570718
0.006138 0.999714 0.568611
0.006588 0.999705 0.557848
0.362130 0.995484 0.548919
0.946497 0.940042 0.561222
0.987179 0.848523 0.566853
0.982787 0.869956 0.453224
0.969630 0.999709 0.277810
0.092676 0.999932 0.293895
0.098542 0.999924 0.293828
0.108216 0.999909 0.293716
0.149944 0.999847 0.293213
0.297436 0.999683 0.290108
0.655575 0.999943 0.269442
0.966924 0.999761 0.274067
0.967325 0.999538 0.212996
0.964185 0.999796 0.152516
0.619720 0.999669 0.620742
0.620500 0.999662 0.620666
0.621794 0.999650 0.620540
0.627521 0.999597 0.619982
0.652843 0.999364 0.617548
0.737144 0.999812 0.595863
0.942643 0.999652 0.541419
0.969317 0.999761 0.332699
0.970698 0.999643 0.420800
0.988221 0.999529 0.788170
0.988220 0.999530 0.788129
0.988218 0.999532 0.788059
0.988207 0.999538 0.787751
0.988161 0.999569 0.786353
0.987951 0.999619 0.780612
0.987143 0.999884 0.757471
0.983361 0.999283 0.702982
0.983825 0.999635 0.725569
0.279866 0.545370 0.999957
0.312982 0.540322 0.999927
0.361968 0.535478 0.999979
0.528441 0.514294 0.999942
0.861167 0.474266 0.999390
0.999849 0.512473 0.954584
0.999743 0.614963 0.851740
0.996017 0.762517 0.791548
0.983008 0.963973 0.682197
0.271818 0.556933 0.999964
0.304549 0.552538 0.999947
0.353308 0.547546 0.999888
0.520630 0.526705 0.999808
0.856706 0.485533 0.999449
0.999824 0.517580 0.955893
0.999771 0.617516 0.851524
0.995996 0.763130 0.791425
0.983002 0.964104 0.682057
0.259013 0.575313 0.999975
0.291118 0.571974 0.999928
0.339754 0.566353 0.999684
0.508666 0.546308 0.999587
0.849320 0.503598 0.999530
0.999779 0.525787 0.957981
0.999817 0.621691 0.851172
0.995961 0.764145 0.791222
0.982992 0.964324 0.681824
0.205341 0.641312 0.999647
0.237017 0.638768 0.999743
0.285839 0.633994 0.999835
0.457785 0.616080 1.000000
0.816426 0.572874 0.999881
0.999915 0.564031 0.965204
0.999936 0.639365 0.849837
0.995810 0.768584 0.790338
0.982948 0.965297 0.680791
0.055610 0.788518 0.999968
0.077520 0.787258 0.999910
0.111620 0.785302 0.999824
0.283190 0.776515 0.999916
0.690917 0.744180 0.999834
0.999842 0.686073 0.978183
0.998905 0.705510 0.847877
0.995404 0.787097 0.786111
0.982752 0.969644 0.676183
0.016900 0.961707 0.906690
0.016862 0.961112 0.905935
0.016800 0.960152 0.904715
0.021594 0.955410 0.898820
0.348363 0.942113 0.903593
0.896782 0.897926 0.896442
0.994300 0.839463 0.840016
0.992529 0.852798 0.763831
0.982136 0.987559 0.654944
0.023134 0.999580 0.737991
0.023942 0.999574 0.737291
0.025271 0.999565 0.736137
0.049533 0.999625 0.732211
0.208168 0.999775 0.722311
0.620659 0.999860 0.717640
0.984387 0.999200 0.719434
0.982071 0.993590 0.657470
0.977204 0.999746 0.578220
0.549674 0.999476 0.854444
0.550676 0.999471 0.854362
0.552341 0.999462 0.854226
0.559703 0.999421 0.853624
0.591905 0.999280 0.850998
0.704626 0.999859 0.842031
0.924461 0.999731 0.822833
0.983189 0.999471 0.700254
0.983985 0.999276 0.718739
0.992423 0.999510 0.892408
0.992423 0.999510 0.892379
0.992423 0.999509 0.892332
0.992422 0.999505 0.892123
0.992419 0.999489 0.891177
0.992400 0.999530 0.886527
0.990987 0.999915 0.867034
0.989416 0.999185 0.821881
0.989844 0.999157 0.833457
0.491859 0.694361 0.999830
0.498319 0.694266 0.999862
0.508846 0.694112 0.999915
0.552851 0.694113 0.999877
0.698083 0.693587 0.999761
0.967829 0.680403 0.999470
0.999684 0.679799 0.999163
0.999717 0.766452 0.964709
0.992744 0.937353 0.930056
0.490123 0.696306 0.999815
0.496608 0.696206 0.999847
0.507176 0.696045 0.999899
0.551209 0.696023 0.999855
0.696752 0.695386 0.999765
0.966764 0.682389 0.999438
0.999675 0.681056 0.999161
0.999721 0.766965 0.964635
0.992738 0.937465 0.930024
0.487306 0.699504 0.999791
0.493831 0.699397 0.999823
0.504465 0.699224 0.999874
0.548526 0.699162 0.999818
0.694577 0.698344 0.999772
0.965019 0.685660 0.999387
0.999659 0.683131 0.999158
0.999728 0.767815 0.964512
0.992728 0.937652 0.929969
0.475794 0.713168 0.999688
0.482482 0.713031 0.999718
0.493256 0.712871 0.999738
0.537317 0.712580 0.999661
0.685496 0.710974 0.999804
0.956099 0.698805 0.999426
0.999590 0.692120 0.999142
0.999759 0.771550 0.963972
0.992685 0.938480 0.929728
0.427237 0.763556 0.999461
0.433977 0.763223 0.999457
0.444980 0.762679 0.999449
0.490135 0.760633 0.999446
0.642405 0.756091 0.999692
0.919998 0.747604 0.999828
0.999612 0.727556 0.999332
0.999774 0.787506 0.962094
0.992492 0.942188 0.928650
0.249004 0.897870 0.991888
0.256618 0.897126 0.992620
0.269113 0.895908 0.993822
0.321640 0.890748 0.998390
0.494612 0.875084 0.999951
0.820221 0.856808 0.999446
0.998988 0.826341 0.999128
0.996853 0.844959 0.953815
0.993398 0.957708 0.923059
0.043775 0.999592 0.925850
0.045482 0.999594 0.926017
0.048303 0.999596 0.926293
0.060533 0.999606 0.927490
0.185116 0.999440 0.936408
0.534995 0.999746 0.958258
0.975323 0.983185 0.979853
0.992918 0.961061 0.932663
0.992007 0.999488 0.889089
0.493695 0.999927 0.955919
0.494602 0.999923 0.955985
0.496111 0.999915 0.956095
0.502787 0.999883 0.956581
0.532353 0.999740 0.958736
0.645739 0.999680 0.965122
0.892171 0.998498 0.983107
0.995747 0.999854 0.971437
0.996935 0.999761 0.973429
0.998287 0.999843 0.999491
0.998334 0.999847 0.999505
0.998411 0.999854 0.999528
0.998756 0.999886 0.999631
1.000000 1.000000 1.000000
1.000000 1.000000 1.000000
1.000000 1.000000 1.000000
0.999053 0.999922 0.994581
0.999441 0.999954 0.996801
0.579953 0.945155 0.991321
0.582181 0.944892 0.991547
0.585873 0.944457 0.991921
0.600573 0.942568 0.992911
0.662748 0.934621 0.997122
0.823804 0.909846 0.999470
0.998904 0.860341 0.999690
0.999683 0.828247 0.999936
0.996449 0.951225 0.999558
0.579345 0.945501 0.991145
0.581577 0.945238 0.991373
0.585276 0.944802 0.991750
0.599968 0.942917 0.992751
0.662246 0.934987 0.997075
0.823517 0.910193 0.999462
0.998874 0.860694 0.999691
0.999681 0.828571 0.999935
0.996457 0.951340 0.999558
0.578341 0.946074 0.990854
0.580579 0.945811 0.991084
0.584289 0.945374 0.991466
0.598967 0.943497 0.992488
0.661415 0.935595 0.996998
0.823042 0.910768 0.999449
0.998826 0.861281 0.999692
0.999676 0.829110 0.999934
0.996470 0.951532 0.999557
0.573969 0.948601 0.989587
0.576237 0.948335 0.989830
0.579780 0.947906 0.990159
0.594599 0.946059 0.991360
0.657794 0.938282 0.996691
0.820964 0.913304 0.999387
0.998609 0.863872 0.999696
0.999657 0.831497 0.999929
0.996527 0.952384 0.999553
0.554317 0.959722 0.983951
0.556445 0.959485 0.984212
0.559971 0.959092 0.984644
0.575436 0.957374 0.986537
0.640136 0.950124 0.994080
0.810383 0.924423 0.999100
0.997649 0.875273 0.999721
0.999274 0.840936 0.999894
0.996775 0.956205 0.999538
0.454211 0.995042 0.957411
0.456858 0.994994 0.957636
0.461246 0.994916 0.958010
0.480519 0.994580 0.959647
0.552000 0.990909 0.966502
0.759011 0.967296 0.988773
0.995512 0.921159 0.999570
0.997439 0.878714 0.999912
0.996909 0.971503 0.999547
0.395819 0.999656 0.950215
0.397536 0.999659 0.950314
0.400387 0.999664 0.950478
0.412944 0.999687 0.951200
0.463890 0.999726 0.953727
0.638038 0.999726 0.964620
0.938276 0.998556 0.989326
0.995527 0.978151 0.999194
1.000000 1.000000 1.000000
0.570350 0.999792 0.960422
0.571039 0.999793 0.960469
0.572183 0.999795 0.960548
0.577183 0.999800 0.960877
0.598226 0.999800 0.962022
0.682319 0.999683 0.966358
0.884724 0.998458 0.983177
1.000000 1.000000 1.000000
1.000000 1.000000 1.000000
0.994918 0.999909 0.998225
0.994937 0.999909 0.998232
0.994969 0.999910 0.998243
0.995110 0.999913 0.998292
0.995750 0.999924 0.998516
0.998586 0.999975 0.999506
1.000000 1.000000 1.000000
1.000000 1.000000 1.000000
1.000000 1.000000 1.000000
0.855933 0.997970 0.979180
0.856197 0.997973 0.979213
0.856636 0.997978 0.979267
0.858586 0.998001 0.979508
0.867336 0.998107 0.980583
0.903154 0.998409 0.985188
1.000000 1.000000 1.000000
1.000000 1.000000 1.000000
1.000000 1.000000 1.000000
0.855913 0.997969 0.979182
0.856177 0.997972 0.979215
0.856617 0.997977 0.979269
0.858566 0.998000 0.979509
0.867315 0.998107 0.980582
0.903130 0.998410 0.985183
1.000000 1.000000 1.000000
1.000000 1.000000 1.000000
1.000000 1.000000 1.000000
0.855881 0.997966 0.979185
0.856145 0.997969 0.979218
0.856584 0.997975 0.979272
0.858533 0.997998 0.979511
0.867282 0.998107 0.980579
0.903090 0.998411 0.985175
1.000000 1.000000 1.000000
1.000000 1.000000 1.000000
1.000000 1.000000 1.000000
0.855736 0.997955 0.979199
0.856000 0.997959 0.979231
0.856439 0.997964 0.979284
0.858387 0.997990 0.979519
0.867132 0.998106 0.980570
0.902913 0.998415 0.985140
0.999982 1.000000 0.999994
1.000000 1.000000 1.000000
1.000000 1.000000 1.000000
0.855091 0.997912 0.979246
0.855355 0.997916 0.979275
0.855793 0.997924 0.979324
0.857738 0.997957 0.979542
0.866467 0.998108 0.980513
0.902127 0.998426 0.984994
0.999201 0.999987 0.999722
1.000000 1.000000 1.000000
1.000000 1.000000 1.000000
0.852018 0.997875 0.978927
0.852280 0.997879 0.978951
0.852715 0.997885 0.978991
0.854648 0.997915 0.979171
0.863325 0.998050 0.979974
0.898487 0.998217 0.984450
0.996081 0.999934 0.998634
1.000000 1.000000 1.000000
1.000000 1.000000 1.000000
0.844828 0.998117 0.978396
0.845094 0.998117 0.978426
0.845536 0.998115 0.978475
0.847452 0.998114 0.978681
0.855057 0.998213 0.979386
0.887619 0.998633 0.982412
0.984856 0.999181 0.995847
1.000000 1.000000 1.000000
1.000000 1.000000 1.000000
0.863493 0.998074 0.980213
0.863692 0.998075 0.980229
0.864022 0.998075 0.980257
0.865328 0.998075 0.980451
0.871035 0.998069 0.981406
0.895838 0.998043 0.985560
0.976313 0.999153 0.993720
1.000000 1.000000 1.000000
1.000000 1.000000 1.000000
1.000000 1.000000 1.000000
1.000000 1.000000 1.000000
1.000000 1.000000 1.000000
1.000000 1.000000 1.000000
1.000000 1.000000 1.000000
1.000000 1.000000 1.000000
1.000000 1.000000 1.000000
1.000000 1.000000 1.000000
1.000000 1.000000 1.000000
