output/ACEScct_display/ACEScct_to_Velvia_33grid.cube
TITLE "ACEScct_to_Velvia"
# Input: ACEScct (AP1 primaries, log encoding, D60)
# Output: BT.709 / Gamma 2.2 (display-referred)
# Use: Display/output transform in DaVinci Resolve ACES pipeline (replaces ODT)
# Source: FLog2C_to_Velvia_65grid_V.1.00.cube
# Generated from Fujifilm GFX ETERNA 55 F-Log2C LUT
LUT_3D_SIZE 5
0.000000 0.000000 0.000000
0.134682 0.000282 0.001961
0.999396 0.169088 0.487472
0.999362 0.548093 0.150644
0.998586 0.963248 0.000000
0.000066 0.053593 0.000361
0.033488 0.026004 0.000039
0.999800 0.190186 0.356508
0.999533 0.558685 0.129666
0.998575 0.963268 0.000000
0.000013 0.886252 0.000089
0.000008 0.858062 0.000210
0.819816 0.677381 0.000000
0.999249 0.685867 0.000074
0.998906 0.964613 0.000057
0.000000 1.000000 0.000285
0.000000 1.000000 0.000285
0.000000 1.000000 0.000285
0.998658 0.968593 0.000223
0.998626 0.968609 0.000223
0.999634 0.999853 0.568797
0.999635 0.999852 0.568582
0.999655 0.999837 0.565279
0.999389 0.999792 0.511361
0.999374 0.999351 0.463250
0.000064 0.000025 0.032653
0.144806 0.000329 0.020872
0.999868 0.127240 0.483011
0.999762 0.555427 0.216208
0.998455 0.967098 0.001193
0.000234 0.077002 0.079772
0.035340 0.035227 0.032378
0.999747 0.186464 0.337974
0.999579 0.565309 0.205351
0.998443 0.967083 0.001201
0.000000 0.916373 0.000391
0.000059 0.888194 0.000278
0.770344 0.698130 0.000200
0.998797 0.681889 0.060640
0.998741 0.967850 0.001186
0.000000 1.000000 0.000285
0.000000 1.000000 0.000285
0.000000 1.000000 0.000285
0.998877 0.968481 0.000223
0.998626 0.968609 0.000223
0.999633 0.999826 0.575020
0.999634 0.999824 0.574806
0.999654 0.999806 0.571518
0.999442 0.999839 0.517444
0.999457 0.999369 0.468800
0.045310 0.047243 0.953350
0.273027 0.007177 0.994798
0.999754 0.083996 0.912237
0.999711 0.574308 0.632430
0.998765 0.999979 0.046902
0.000421 0.211067 0.999876
0.173785 0.150318 0.997608
0.999836 0.174652 0.875494
0.999793 0.582024 0.628857
0.998770 0.999966 0.046805
0.000384 0.863860 0.886241
0.000731 0.851467 0.861612
0.701556 0.702208 0.701647
0.999690 0.671708 0.586066
0.998863 0.999761 0.045736
0.000021 0.999836 0.022195
0.000026 0.999818 0.020894
0.000000 0.999846 0.009320
0.998606 0.999431 0.034295
0.999176 0.998769 0.017494
0.999442 0.999995 0.664094
0.999437 0.999995 0.663894
0.999365 0.999995 0.660827
0.999613 0.999744 0.602936
0.999582 0.999870 0.546888
0.538086 0.597303 0.999661
0.555104 0.596241 0.999855
0.739832 0.589341 0.999783
0.999902 0.611777 0.999502
0.999460 0.959139 0.943048
0.530974 0.604430 0.999707
0.548196 0.603298 0.999864
0.733820 0.595589 0.999789
0.999902 0.615082 0.999563
0.999447 0.959494 0.942815
0.424569 0.697944 0.999506
0.444823 0.695607 0.999501
0.651940 0.677154 0.999883
0.999741 0.663420 0.999520
0.999249 0.964890 0.939271
0.000573 0.986422 1.000000
0.000573 0.986422 1.000000
0.000573 0.986423 0.999999
0.982144 0.992818 0.991171
0.999329 0.999921 0.863303
0.998999 1.000000 0.999740
0.999071 1.000000 0.999759
1.000000 1.000000 1.000000
1.000000 1.000000 1.000000
1.000000 1.000000 0.999340
0.771561 0.999878 0.999810
0.773020 0.999879 0.999811
0.795224 0.999888 0.999832
1.000000 1.000000 1.000000
1.000000 1.000000 1.000000
0.771451 0.999883 0.999810
0.772910 0.999884 0.999812
0.795121 0.999892 0.999835
1.000000 1.000000 1.000000
1.000000 1.000000 1.000000
0.769814 0.999956 0.999819
0.771279 0.999955 0.999822
0.793584 0.999946 0.999872
0.999554 0.999979 0.999650
1.000000 1.000000 1.000000
0.748385 0.999784 0.999445
0.749750 0.999788 0.999446
0.769842 0.999712 0.999434
0.989977 0.999670 0.999040
1.000000 1.000000 1.000000
1.000000 1.000000 1.000000
1.000000 1.000000 1.000000
1.000000 1.000000 1.000000
1.000000 1.000000 1.000000
1.000000 1.000000 1.000000
