output/ACEScct_display/ACEScct_to_REALA-ACE_33grid.cube
TITLE "ACEScct_to_REALA-ACE"
# Input: ACEScct (AP1 primaries, log encoding, D60)
# Output: BT.709 / Gamma 2.2 (display-referred)
# Use: Display/output transform in DaVinci Resolve ACES pipeline (replaces ODT)
# Source: FLog2C_to_REALA-ACE_65grid_V.1.00.cube
# Generated from Fujifilm GFX ETERNA 55 F-Log2C LUT
LUT_3D_SIZE 33
0.000200 0.000111 0.000001
0.000200 0.000111 0.000001
0.000200 0.000111 0.000001
0.001876 0.000305 0.000079
0.013170 0.000971 0.000250
0.026766 0.000112 0.000234
0.045641 0.000102 0.002227
0.075764 0.000003 0.000129
0.132677 0.000049 0.003356
0.255568 0.000376 0.006880
0.408783 0.000101 0.020325
0.554056 0.000107 0.037788
0.702517 0.000078 0.072408
0.835878 0.063861 0.175574
0.901678 0.165843 0.293413
0.912907 0.195922 0.405091
0.921815 0.240440 0.432119
0.933941 0.300437 0.460007
0.943166 0.338988 0.463436
0.949062 0.363266 0.444755
0.955134 0.389255 0.422906
0.962734 0.422517 0.392079
0.969295 0.460280 0.353200
0.978275 0.506878 0.301012
0.981616 0.556341 0.224858
0.983934 0.608830 0.119092
0.983002 0.668723 0.043964
0.983171 0.730383 0.006696
0.985321 0.791390 0.000234
0.986854 0.845325 0.000137
0.987732 0.899120 0.000197
0.993840 0.946037 0.115539
0.996875 0.980828 0.377122
0.000200 0.000111 0.000001
0.000200 0.000111 0.000001
0.000200 0.000111 0.000001
0.003765 0.000652 0.000170
0.014549 0.000691 0.000175
0.029328 0.000136 0.000301
0.047608 0.000083 0.002576
0.078482 0.000005 0.000152
0.136564 0.000049 0.003558
0.260519 0.000340 0.007092
0.412141 0.000094 0.020569
0.556278 0.000111 0.038279
0.689472 0.000067 0.066986
0.806901 0.024933 0.142122
0.893098 0.151294 0.264198
0.911380 0.189604 0.385346
0.920248 0.233117 0.427932
0.932824 0.295690 0.454402
0.943963 0.343059 0.459843
0.949936 0.366750 0.442505
0.955798 0.392032 0.420175
0.963190 0.424649 0.389866
0.969715 0.462199 0.351243
0.978507 0.508199 0.299478
0.981648 0.557294 0.223189
0.983935 0.609482 0.117565
0.982999 0.669231 0.043267
0.983215 0.730782 0.006698
0.985326 0.791647 0.000231
0.986868 0.845420 0.000140
0.987733 0.899174 0.000195
0.993851 0.946067 0.115728
0.996875 0.980835 0.377192
0.000200 0.000111 0.000001
0.000200 0.000111 0.000001
0.000200 0.000111 0.000001
0.005595 0.000987 0.000257
0.015896 0.000417 0.000103
0.031838 0.000160 0.000366
0.049540 0.000064 0.002919
0.081280 0.000009 0.000339
0.140406 0.000049 0.003757
0.264578 0.000311 0.007163
0.402333 0.000129 0.018569
0.531273 0.000004 0.035717
0.656172 0.000076 0.054867
0.781874 0.011111 0.117565
0.885499 0.140805 0.243373
0.909901 0.184444 0.366520
0.918900 0.226692 0.424044
0.931781 0.291253 0.449175
0.944728 0.346923 0.456393
0.950614 0.369684 0.439473
0.956446 0.394748 0.417505
0.963640 0.426748 0.387687
0.970128 0.464096 0.349306
0.978737 0.509507 0.297962
0.981680 0.558243 0.221526
0.983936 0.610132 0.116043
0.982997 0.669737 0.042572
0.983260 0.731181 0.006699
0.985332 0.791903 0.000229
0.986881 0.845516 0.000143
0.987734 0.899228 0.000194
0.993862 0.946096 0.115917
0.996874 0.980842 0.377262
0.000001 0.002138 0.000128
0.000001 0.002635 0.000159
0.000001 0.003131 0.000190
0.003587 0.003464 0.000227
0.013968 0.002045 0.000361
0.028646 0.000236 0.000150
0.046198 0.000008 0.001981
0.073400 0.000136 0.000809
0.123034 0.000029 0.004462
0.228163 0.000260 0.008130
0.367121 0.000083 0.016988
0.501413 0.000081 0.028145
0.628232 0.000016 0.049340
0.759213 0.004110 0.101083
0.869467 0.116579 0.218844
0.908496 0.180335 0.350381
0.918546 0.222991 0.419645
0.932051 0.290764 0.442827
0.945575 0.349871 0.452516
0.951272 0.372531 0.436531
0.957081 0.397405 0.414893
0.964063 0.428829 0.385533
0.970535 0.465971 0.347387
0.978967 0.510801 0.296463
0.981712 0.559187 0.219869
0.983936 0.610779 0.114528
0.982995 0.670242 0.041876
0.983304 0.731579 0.006698
0.985338 0.792160 0.000227
0.986895 0.845612 0.000145
0.987736 0.899282 0.000192
0.993872 0.946126 0.116106
0.996873 0.980850 0.377332
0.000000 0.010810 0.000182
0.000000 0.011234 0.000157
0.000000 0.011654 0.000133
0.000093 0.009431 0.000011
0.011428 0.009928 0.000107
0.024139 0.007263 0.000012
0.041246 0.004590 0.000081
0.067083 0.001897 0.000037
0.106518 0.000652 0.000248
0.197378 0.000284 0.004321
0.336243 0.000177 0.016261
0.476078 0.000034 0.026829
0.605747 0.000037 0.046061
0.739313 0.000490 0.089106
0.854625 0.093882 0.197554
0.907017 0.177949 0.331661
0.918221 0.219672 0.415382
0.932514 0.290930 0.436565
0.946391 0.352716 0.448806
0.951912 0.375296 0.433676
0.957702 0.400005 0.412336
0.964446 0.430904 0.383397
0.970936 0.467824 0.345486
0.979195 0.512083 0.294980
0.981743 0.560128 0.218217
0.983936 0.611423 0.113019
0.982994 0.670745 0.041181
0.983348 0.731977 0.006694
0.985343 0.792416 0.000224
0.986908 0.845708 0.000148
0.987737 0.899336 0.000191
0.993883 0.946156 0.116294
0.996872 0.980857 0.377402
0.000034 0.019422 0.000026
0.000037 0.019876 0.000028
0.000040 0.020326 0.000029
0.000904 0.017682 0.000037
0.005663 0.016257 0.000234
0.018395 0.014842 0.000043
0.033181 0.014284 0.000198
0.060484 0.010842 0.000002
0.100933 0.005498 0.000042
0.185697 0.002905 0.001768
0.316129 0.000270 0.011218
0.453560 0.000230 0.022842
0.586937 0.000029 0.039870
0.721825 0.000049 0.077864
0.841788 0.074229 0.179439
0.905996 0.176596 0.313826
0.918281 0.221744 0.404401
0.932928 0.291171 0.430367
0.947179 0.355468 0.445251
0.952536 0.377983 0.430900
0.958310 0.402552 0.409832
0.964824 0.432949 0.381294
0.971331 0.469657 0.343603
0.979360 0.513397 0.293197
0.981774 0.561064 0.216571
0.983889 0.612144 0.111548
0.982993 0.671248 0.040487
0.983391 0.732373 0.006689
0.985349 0.792671 0.000222
0.986921 0.845804 0.000151
0.987739 0.899390 0.000189
0.993893 0.946186 0.116483
0.996872 0.980865 0.377472
0.000019 0.032307 0.000008
0.000017 0.032869 0.000007
0.000049 0.032927 0.000005
0.000516 0.029582 0.000101
0.004471 0.027779 0.000154
0.015058 0.024536 0.000160
0.029156 0.022332 0.000299
0.053917 0.022334 0.000085
0.096807 0.021184 0.000177
0.177751 0.014273 0.000212
0.299488 0.007403 0.003926
0.432152 0.000126 0.009740
0.568062 0.000071 0.029843
0.703003 0.000042 0.061265
0.828385 0.062366 0.156087
0.906351 0.178923 0.290855
0.918357 0.224098 0.391859
0.933159 0.292489 0.420118
0.947932 0.358962 0.440452
0.953360 0.381522 0.427622
0.958997 0.406043 0.406271
0.965282 0.435424 0.378749
0.971809 0.471886 0.341308
0.979514 0.515036 0.290776
0.981812 0.562211 0.214552
0.983808 0.613069 0.109760
0.982992 0.671864 0.039633
0.983444 0.732860 0.006680
0.985355 0.792986 0.000218
0.986938 0.845922 0.000154
0.987740 0.899456 0.000188
0.993906 0.946223 0.116715
0.996871 0.980874 0.377558
0.000148 0.055494 0.000709
0.000143 0.056524 0.000686
0.000197 0.053672 0.000520
0.000620 0.046995 0.000277
0.000362 0.043913 0.000239
0.006047 0.041769 0.000107
0.021298 0.040257 0.000005
0.047545 0.038835 0.000223
0.089077 0.038866 0.000039
0.168519 0.037537 0.000171
0.283678 0.029620 0.000198
0.411413 0.016608 0.000001
0.547089 0.007122 0.014339
0.682641 0.000058 0.043413
0.811785 0.051950 0.122908
0.906994 0.184084 0.261198
0.918654 0.228588 0.370712
0.933480 0.294280 0.406193
0.948683 0.364214 0.432822
0.954864 0.387946 0.423174
0.959959 0.411109 0.401064
0.965937 0.438965 0.375112
0.972492 0.475087 0.338001
0.979738 0.517413 0.287273
0.981868 0.563877 0.211617
0.983686 0.614412 0.107158
0.982993 0.672761 0.038387
0.983520 0.733570 0.006662
0.985365 0.793444 0.000214
0.986961 0.846096 0.000159
0.987743 0.899553 0.000185
0.993925 0.946277 0.117053
0.996869 0.980887 0.377684
0.000203 0.105605 0.000053
0.000209 0.106587 0.000049
0.000023 0.095472 0.000011
0.000062 0.082413 0.000142
0.000597 0.073437 0.000816
0.000351 0.072056 0.000095
0.013497 0.068978 0.000630
0.040196 0.066770 0.000030
0.086368 0.068745 0.000222
0.160251 0.068849 0.000440
0.264289 0.064056 0.000250
0.386540 0.053557 0.000031
0.518650 0.037246 0.001196
0.657006 0.026178 0.019191
0.790588 0.052814 0.079961
0.899270 0.182358 0.218398
0.919878 0.237076 0.343541
0.934676 0.299147 0.388110
0.949856 0.371053 0.421396
0.956936 0.396807 0.417043
0.961305 0.418201 0.393764
0.966868 0.443981 0.369965
0.973458 0.479655 0.333262
0.980066 0.520849 0.282223
0.981947 0.566289 0.207359
0.983505 0.616358 0.103379
0.982987 0.674084 0.036628
0.983630 0.734602 0.006625
0.985379 0.794113 0.000207
0.986995 0.846350 0.000167
0.987746 0.899694 0.000181
0.993953 0.946355 0.117547
0.996867 0.980907 0.377869
0.000215 0.171834 0.000456
0.000157 0.167463 0.000501
0.000010 0.152777 0.000518
0.000030 0.139861 0.000289
0.000236 0.129757 0.000222
0.000357 0.123492 0.000293
0.003206 0.120167 0.000218
0.024305 0.116442 0.000045
0.071912 0.113435 0.000147
0.143298 0.112594 0.000171
0.240468 0.105875 0.000012
0.358165 0.097980 0.000079
0.488311 0.082502 0.000302
0.627601 0.071506 0.002254
0.765745 0.084387 0.045066
0.883639 0.177554 0.161747
0.923161 0.252286 0.303806
0.936180 0.308151 0.363366
0.951938 0.378809 0.401985
0.959346 0.408857 0.404734
0.963322 0.427912 0.384605
0.968389 0.451696 0.362093
0.974652 0.486156 0.325370
0.980543 0.525793 0.274988
0.982061 0.569767 0.201201
0.983232 0.619166 0.097903
0.982972 0.676028 0.034142
0.983786 0.736101 0.006547
0.985400 0.795086 0.000197
0.987044 0.846723 0.000177
0.987751 0.899900 0.000175
0.993993 0.946469 0.118268
0.996864 0.980935 0.378139
0.000012 0.249752 0.000073
0.000236 0.234211 0.000566
0.000306 0.222253 0.000306
0.000087 0.211599 0.000047
0.000021 0.203274 0.000065
0.000019 0.195081 0.000007
0.000005 0.186583 0.000091
0.003477 0.179857 0.000031
0.040731 0.173512 0.000917
0.111668 0.170041 0.000000
0.211386 0.166025 0.000136
0.323000 0.151317 0.000706
0.453016 0.141436 0.000048
0.593841 0.129899 0.000000
0.735208 0.140445 0.004604
0.862643 0.187929 0.095634
0.928210 0.274166 0.241327
0.940082 0.326397 0.328471
0.955063 0.389694 0.376025
0.962675 0.425011 0.387962
0.966372 0.440898 0.374085
0.970950 0.463809 0.349788
0.976318 0.495263 0.314199
0.981144 0.532868 0.264506
0.982222 0.574766 0.192190
0.982815 0.623197 0.089999
0.982951 0.678846 0.030559
0.984004 0.738270 0.006385
0.985429 0.796500 0.000181
0.987114 0.847271 0.000192
0.987758 0.900201 0.000166
0.994051 0.946636 0.119318
0.996860 0.980977 0.378535
0.025384 0.318382 0.011093
0.015036 0.305709 0.004551
0.005889 0.295243 0.001210
0.000910 0.285907 0.000446
0.000495 0.277573 0.000807
0.000158 0.270497 0.000422
0.000002 0.264193 0.000137
0.000504 0.256821 0.000280
0.014112 0.246754 0.000452
0.069082 0.240385 0.000024
0.163031 0.230817 0.000437
0.280784 0.222416 0.000347
0.406733 0.205772 0.000319
0.551721 0.197130 0.000015
0.704429 0.197487 0.000014
0.834790 0.229704 0.032916
0.931468 0.306433 0.169089
0.947356 0.357570 0.282522
0.958956 0.409038 0.334313
0.967597 0.447154 0.368385
0.970014 0.460267 0.353750
0.974182 0.480287 0.332224
0.978423 0.507799 0.298157
0.981727 0.542612 0.249177
0.982471 0.582128 0.176194
0.982171 0.628938 0.078652
0.982923 0.682914 0.025430
0.984303 0.741396 0.006046
0.985469 0.798551 0.000157
0.987211 0.848079 0.000214
0.987768 0.900639 0.000152
0.994135 0.946879 0.120845
0.996864 0.981011 0.378874
0.091245 0.399009 0.058966
0.082202 0.385969 0.051563
0.075279 0.375753 0.045125
0.067834 0.366346 0.038887
0.061402 0.358324 0.033675
0.056835 0.352360 0.030223
0.050118 0.345347 0.025566
0.040056 0.336007 0.018906
0.031795 0.325193 0.011452
0.045869 0.315074 0.004012
0.110766 0.303496 0.001491
0.224900 0.296210 0.000599
0.359348 0.288244 0.000085
0.503552 0.276037 0.000283
0.657727 0.270785 0.000021
0.803682 0.281863 0.005930
0.932190 0.348776 0.098454
0.955906 0.402863 0.216423
0.964686 0.439094 0.275410
0.972525 0.476558 0.329530
0.974797 0.486424 0.323913
0.977791 0.502248 0.306845
0.980046 0.524931 0.272992
0.982051 0.555727 0.226616
0.982930 0.592369 0.153951
0.981290 0.637149 0.063287
0.982888 0.689041 0.021008
0.984700 0.745872 0.005340
0.985525 0.801514 0.000120
0.987345 0.849274 0.000245
0.987781 0.901275 0.000131
0.994257 0.947231 0.123063
0.996877 0.981041 0.379199
0.154890 0.488900 0.112093
0.148240 0.479224 0.106509
0.141335 0.469490 0.100900
0.134899 0.460443 0.095695
0.130770 0.454094 0.091900
0.126921 0.448178 0.088359
0.122328 0.441763 0.084318
0.116011 0.432990 0.078971
0.107398 0.420978 0.072278
0.101404 0.408925 0.064523
0.118437 0.396844 0.048617
0.179889 0.384146 0.017923
0.305098 0.373688 0.000150
0.455447 0.365642 0.000308
0.608638 0.353728 0.000007
0.762577 0.354802 0.000026
0.909488 0.396849 0.040362
0.960439 0.458790 0.119469
0.969165 0.484299 0.195872
0.978175 0.513497 0.267773
0.979908 0.520858 0.282595
0.980551 0.530285 0.269223
0.982012 0.547805 0.241143
0.982747 0.574020 0.194267
0.983400 0.606983 0.124066
0.980740 0.649350 0.045809
0.982799 0.697944 0.016569
0.985198 0.752226 0.003873
0.985574 0.805222 0.000087
0.987523 0.851049 0.000288
0.987798 0.902195 0.000098
0.994431 0.947741 0.126273
0.996897 0.981079 0.379623
0.219110 0.581367 0.166785
0.213777 0.574036 0.161924
0.209569 0.567842 0.158141
0.206000 0.562355 0.154960
0.202515 0.557051 0.151919
0.198749 0.551511 0.148885
0.194380 0.545085 0.145371
0.188453 0.537201 0.140481
0.181485 0.527761 0.134679
0.175238 0.517546 0.129284
0.168912 0.502510 0.118503
0.187514 0.486935 0.101440
0.264934 0.473198 0.052504
0.392614 0.462241 0.001475
0.560717 0.453923 0.000266
0.720304 0.450560 0.000079
0.877210 0.474115 0.003194
0.967540 0.525404 0.064335
0.971766 0.543215 0.084370
0.978411 0.560552 0.162288
0.981854 0.560488 0.218091
0.982146 0.564735 0.211016
0.983462 0.578239 0.187076
0.983620 0.598883 0.144314
0.983207 0.629119 0.085461
0.980639 0.666652 0.024327
0.982571 0.710265 0.008185
0.985758 0.761131 0.000852
0.985643 0.809835 0.000075
0.987745 0.853703 0.000348
0.987837 0.903249 0.000080
0.994678 0.948477 0.130899
0.996925 0.981123 0.380136
0.309148 0.683365 0.247134
0.300882 0.677246 0.239471
0.296093 0.672562 0.234911
0.291946 0.668251 0.230936
0.287970 0.664128 0.227124
0.284243 0.660226 0.223732
0.279931 0.655684 0.219968
0.273970 0.649433 0.214757
0.265967 0.640724 0.207511
0.255561 0.629198 0.198106
0.244838 0.616016 0.187985
0.242605 0.601786 0.176100
0.276877 0.586608 0.152992
0.362284 0.575137 0.102186
0.506417 0.565760 0.011996
0.680130 0.566538 0.000552
0.844502 0.577401 0.000050
0.968188 0.605565 0.012528
0.977750 0.628628 0.009419
0.978672 0.623253 0.027082
0.983770 0.610415 0.122938
0.983933 0.608474 0.121782
0.983100 0.616890 0.103663
0.982827 0.632441 0.075572
0.982016 0.657060 0.028371
0.981246 0.689286 0.009019
0.982729 0.727834 0.000505
0.985986 0.773190 0.000087
0.985849 0.816684 0.000054
0.987993 0.857707 0.000429
0.987889 0.904785 0.000058
0.995023 0.949532 0.137522
0.996967 0.981162 0.380662
0.465094 0.798005 0.394410
0.460255 0.794385 0.389486
0.455567 0.790796 0.384646
0.451038 0.787328 0.379969
0.446656 0.783972 0.375444
0.442289 0.780753 0.371069
0.436873 0.776986 0.365884
0.429310 0.771727 0.358639
0.419149 0.764606 0.349098
0.406053 0.755295 0.337317
0.392166 0.745242 0.324613
0.375452 0.732454 0.308018
0.367989 0.717725 0.282718
0.402345 0.703954 0.238629
0.495423 0.697415 0.160516
0.640210 0.691695 0.021792
0.808776 0.684974 0.000001
0.955716 0.685304 0.000032
0.980567 0.700594 0.000014
0.981374 0.701449 0.000000
0.980985 0.679621 0.000901
0.980892 0.667116 0.011997
0.980782 0.667459 0.018170
0.980417 0.677037 0.010199
0.981572 0.693763 0.002736
0.982047 0.718718 0.000003
0.983998 0.751534 0.000277
0.986202 0.789727 0.000231
0.986359 0.826668 0.000016
0.988147 0.862920 0.000505
0.987955 0.907021 0.000033
0.995493 0.951031 0.146914
0.997029 0.981164 0.380960
0.608083 0.894621 0.536473
0.605244 0.892804 0.533764
0.602478 0.891034 0.531125
0.599781 0.889308 0.528551
0.597192 0.887641 0.526056
0.594971 0.886130 0.523726
0.592311 0.884322 0.520934
0.588559 0.881773 0.516997
0.583346 0.878235 0.511526
0.574875 0.873042 0.503083
0.563467 0.865898 0.491693
0.548505 0.855855 0.476566
0.533006 0.843687 0.457255
0.532231 0.829307 0.426074
0.562946 0.813158 0.367379
0.643699 0.803141 0.247811
0.770408 0.788749 0.044133
0.915281 0.778388 0.000010
0.985151 0.774975 0.000098
0.983939 0.767377 0.000050
0.984364 0.754002 0.000387
0.982947 0.737155 0.000017
0.982047 0.731496 0.000125
0.981436 0.731399 0.000001
0.982559 0.741209 0.000019
0.984032 0.757141 0.000059
0.985254 0.781258 0.000087
0.985689 0.806775 0.000170
0.986918 0.836772 0.000201
0.988223 0.868067 0.000534
0.988030 0.910270 0.000009
0.996113 0.953135 0.160052
0.997119 0.981056 0.380417
0.663656 0.929187 0.593484
0.663656 0.929187 0.593484
0.663600 0.929149 0.593425
0.663495 0.929078 0.593315
0.663394 0.929009 0.593209
0.663296 0.928943 0.593106
0.663180 0.928865 0.592985
0.663021 0.928756 0.592818
0.662806 0.928610 0.592593
0.662381 0.928345 0.592152
0.661862 0.928024 0.591611
0.661307 0.927687 0.591022
0.660496 0.927095 0.589990
0.648906 0.917381 0.571952
0.646848 0.900010 0.530401
0.691072 0.888200 0.470044
0.767450 0.881037 0.338975
0.868757 0.865964 0.058298
0.977854 0.853762 0.002475
0.987175 0.843373 0.000260
0.986186 0.813475 0.000087
0.985537 0.792085 0.000072
0.985436 0.786947 0.000047
0.984625 0.784592 0.000105
0.986013 0.786218 0.000228
0.986033 0.794580 0.000000
0.986382 0.808221 0.000007
0.986211 0.826073 0.000254
0.987612 0.849910 0.000452
0.988549 0.875061 0.000578
0.988163 0.914975 0.000042
0.996679 0.956285 0.180714
0.997254 0.980669 0.377618
0.663656 0.929187 0.593484
0.663656 0.929187 0.593484
0.663656 0.929187 0.593484
0.663656 0.929187 0.593484
0.663656 0.929187 0.593484
0.663656 0.929187 0.593484
0.663656 0.929187 0.593484
0.663656 0.929187 0.593484
0.663656 0.929187 0.593484
0.663656 0.929187 0.593484
0.663656 0.929187 0.593484
0.663656 0.929187 0.593484
0.663656 0.929187 0.593484
0.663656 0.929187 0.593484
0.677355 0.931293 0.593656
0.723604 0.936693 0.585650
0.791358 0.940498 0.552800
0.865683 0.939324 0.450070
0.952379 0.932006 0.152160
0.988230 0.910167 0.000086
0.987960 0.879149 0.000040
0.987865 0.842592 0.000246
0.986433 0.826409 0.000267
0.985760 0.822060 0.000064
0.986361 0.822540 0.000123
0.986910 0.825159 0.000199
0.986613 0.833704 0.000038
0.988263 0.846532 0.000758
0.987885 0.864649 0.000295
0.987899 0.884188 0.000248
0.988655 0.921016 0.002941
0.997511 0.960325 0.208127
0.997453 0.979640 0.369482
0.663656 0.929187 0.593484
0.663656 0.929187 0.593484
0.663656 0.929187 0.593484
0.663656 0.929187 0.593484
0.663656 0.929187 0.593484
0.663656 0.929187 0.593484
0.663656 0.929187 0.593484
0.663656 0.929187 0.593484
0.663656 0.929187 0.593484
0.663656 0.929187 0.593484
0.663656 0.929187 0.593484
0.663656 0.929187 0.593484
0.663656 0.929187 0.593484
0.663656 0.929187 0.593484
0.668680 0.929721 0.593639
0.695924 0.933749 0.592712
0.758811 0.944293 0.588990
0.842153 0.959614 0.574978
0.923834 0.972329 0.521048
0.988691 0.967630 0.294236
0.991900 0.940733 0.084582
0.988028 0.905348 0.000337
0.988345 0.871287 0.000157
0.988496 0.860977 0.000407
0.987833 0.858370 0.000096
0.988136 0.856510 0.000141
0.988038 0.859939 0.000251
0.988127 0.867519 0.000220
0.987726 0.879717 0.000226
0.987806 0.895515 0.000079
0.989918 0.929790 0.021333
0.998352 0.965434 0.246102
0.997413 0.980839 0.378627
0.663656 0.929187 0.593484
0.663656 0.929187 0.593484
0.663656 0.929187 0.593484
0.663656 0.929187 0.593484
0.663656 0.929187 0.593484
0.663656 0.929187 0.593484
0.663656 0.929187 0.593484
0.663656 0.929187 0.593484
0.663656 0.929187 0.593484
0.663656 0.929187 0.593484
0.663656 0.929187 0.593484
0.663656 0.929187 0.593484
0.663656 0.929187 0.593484
0.663982 0.929226 0.593620
0.665638 0.929406 0.593796
0.677644 0.930728 0.593354
0.721305 0.938426 0.591623
0.790993 0.950427 0.585265
0.872239 0.965048 0.566076
0.949353 0.979294 0.516686
0.997038 0.984075 0.403827
0.997062 0.964481 0.242305
0.990465 0.927271 0.032150
0.988341 0.907807 0.000001
0.987896 0.899219 0.000072
0.987772 0.894169 0.000729
0.987913 0.891351 0.000247
0.988311 0.893323 0.000202
0.988108 0.899461 0.000187
0.988641 0.912438 0.000002
0.993162 0.940406 0.073977
0.997368 0.972017 0.301066
0.997012 0.983831 0.403104
0.663656 0.929187 0.593484
0.663656 0.929187 0.593484
0.663656 0.929187 0.593484
0.663656 0.929187 0.593484
0.663656 0.929187 0.593484
0.663656 0.929187 0.593484
0.663656 0.929187 0.593484
0.663656 0.929187 0.593484
0.663656 0.929187 0.593484
0.663656 0.929187 0.593484
0.663656 0.929187 0.593484
0.663656 0.929187 0.593484
0.663656 0.929187 0.593484
0.663656 0.929187 0.593484
0.663656 0.929187 0.593484
0.672123 0.930666 0.593701
0.696107 0.934465 0.593106
0.745951 0.942606 0.589510
0.817198 0.955418 0.580859
0.895059 0.969141 0.556017
0.967534 0.982039 0.488182
0.996475 0.985685 0.420256
0.997791 0.976290 0.336810
0.996676 0.957709 0.192226
0.994291 0.948608 0.128856
0.993414 0.940505 0.072582
0.991131 0.932975 0.047878
0.988712 0.929878 0.027363
0.988330 0.929860 0.012545
0.992140 0.936755 0.050563
0.997113 0.962729 0.225230
0.997399 0.977078 0.346760
0.996859 0.985436 0.416480
0.663656 0.929187 0.593484
0.663656 0.929187 0.593484
0.663656 0.929187 0.593484
0.663656 0.929187 0.593484
0.663656 0.929187 0.593484
0.663656 0.929187 0.593484
0.663656 0.929187 0.593484
0.663656 0.929187 0.593484
0.663656 0.929187 0.593484
0.663656 0.929187 0.593484
0.663656 0.929187 0.593484
0.663677 0.929190 0.593478
0.663809 0.929209 0.593442
0.663991 0.929236 0.593393
0.664235 0.929273 0.593326
0.669537 0.930122 0.593143
0.681553 0.932078 0.592710
0.712960 0.937191 0.591412
0.768557 0.946556 0.587647
0.839915 0.959461 0.575791
0.915685 0.973359 0.545431
0.981897 0.984425 0.465242
0.996976 0.986641 0.425675
0.997544 0.982212 0.387577
0.996996 0.977933 0.350527
0.997534 0.974084 0.320395
0.997413 0.971411 0.295632
0.997851 0.968604 0.272309
0.997498 0.966856 0.260422
0.997246 0.967420 0.263381
0.997476 0.976225 0.338853
0.996946 0.983470 0.400821
0.996976 0.986641 0.425675
0.663656 0.929187 0.593484
0.663656 0.929187 0.593484
0.663656 0.929187 0.593484
0.663656 0.929187 0.593484
0.663656 0.929187 0.593484
0.663656 0.929187 0.593484
0.663656 0.929187 0.593484
0.663656 0.929187 0.593484
0.663656 0.929187 0.593484
0.663656 0.929187 0.593484
0.663656 0.929187 0.593484
0.663656 0.929187 0.593484
0.663656 0.929187 0.593484
0.663656 0.929187 0.593484
0.664746 0.929355 0.593456
0.669680 0.930115 0.593325
0.677042 0.931242 0.593116
0.699422 0.934507 0.592339
0.737737 0.940985 0.590259
0.794558 0.950674 0.584396
0.861961 0.963288 0.568962
0.935245 0.976048 0.531585
0.989312 0.986219 0.449059
0.996976 0.986641 0.425675
0.996985 0.986625 0.425529
0.997029 0.986223 0.422015
0.996840 0.985236 0.414953
0.997361 0.983186 0.397030
0.997319 0.981877 0.384908
0.997268 0.981061 0.381122
0.996816 0.984993 0.413098
0.996976 0.986641 0.425675
0.996976 0.986641 0.425675
0.666052 0.929345 0.592987
0.666083 0.929347 0.592980
0.666114 0.929349 0.592974
0.666145 0.929351 0.592967
0.666176 0.929353 0.592961
0.666207 0.929355 0.592954
0.666245 0.929357 0.592946
0.666300 0.929361 0.592935
0.666381 0.929366 0.592918
0.666498 0.929373 0.592894
0.666668 0.929383 0.592858
0.666915 0.929398 0.592807
0.667533 0.929474 0.592744
0.670036 0.929919 0.592731
0.673595 0.930553 0.592712
0.678598 0.931447 0.592685
0.686415 0.932799 0.592606
0.703679 0.935448 0.592189
0.729277 0.939627 0.590835
0.767334 0.946299 0.587473
0.818640 0.955684 0.580438
0.882373 0.967408 0.563157
0.952051 0.980046 0.511463
0.994269 0.986677 0.436076
0.996976 0.986641 0.425675
0.996976 0.986641 0.425675
0.996976 0.986641 0.425675
0.996976 0.986641 0.425675
0.996976 0.986641 0.425675
0.996976 0.986641 0.425675
0.996976 0.986641 0.425675
0.996976 0.986641 0.425675
0.996976 0.986641 0.425675
0.692479 0.933401 0.593056
0.692640 0.933428 0.593053
0.692801 0.933455 0.593049
0.692962 0.933483 0.593046
0.693123 0.933510 0.593043
0.693284 0.933537 0.593039
0.693481 0.933570 0.593035
0.693769 0.933618 0.593029
0.694190 0.933689 0.593020
0.694803 0.933793 0.593008
0.695694 0.933943 0.592989
0.696990 0.934161 0.592962
0.698866 0.934477 0.592922
0.701573 0.934933 0.592865
0.705456 0.935587 0.592783
0.710983 0.936518 0.592664
0.720878 0.938183 0.592066
0.735293 0.940600 0.591089
