output/AP0_display/AP0_to_REALA-ACE_33grid.cube
TITLE "AP0_to_REALA-ACE"
# Input: Linear ACES2065-1 / AP0 (D60)
# Output: BT.709 / Gamma 2.2 (display-referred)
# Use: Display/output transform in ACES pipeline (replaces ODT)
# Source: FLog2C_to_REALA-ACE_65grid_V.1.00.cube
# Generated from Fujifilm GFX ETERNA 55 F-Log2C LUT
LUT_3D_SIZE 9
0.000200 0.000111 0.000001
0.873972 0.122908 0.223533
0.922656 0.241858 0.432412
0.940754 0.326062 0.473533
0.940825 0.327148 0.473700
0.940825 0.327148 0.473700
0.940825 0.327148 0.473700
0.940825 0.327148 0.473700
0.940825 0.327148 0.473700
0.191079 0.540841 0.142545
0.442214 0.326883 0.000067
0.764082 0.304183 0.000436
0.925394 0.354961 0.077188
0.953544 0.395089 0.187900
0.957046 0.406366 0.249347
0.960698 0.417523 0.291706
0.963872 0.431682 0.327292
0.965875 0.440836 0.356307
0.477258 0.806928 0.405969
0.278878 0.521167 0.092233
0.632270 0.492997 0.000009
0.836256 0.497196 0.000037
0.953751 0.525370 0.046079
0.970984 0.545082 0.060429
0.973453 0.548757 0.095808
0.976184 0.546586 0.136888
0.977876 0.547491 0.175450
0.652812 0.922703 0.582426
0.301037 0.667622 0.229020
0.534467 0.629804 0.044027
0.766813 0.627965 0.000231
0.904848 0.629914 0.000347
0.978543 0.642433 0.004038
0.979127 0.653050 0.002754
0.978896 0.646275 0.006265
0.979876 0.638034 0.020263
0.663656 0.929187 0.593484
0.447621 0.785237 0.376886
0.509296 0.738376 0.229368
0.704028 0.717766 0.021760
0.854468 0.708022 0.000076
0.951819 0.704963 0.000000
0.982057 0.714205 0.000036
0.981442 0.722790 0.000104
0.981166 0.720165 0.000183
0.663656 0.929187 0.593484
0.568880 0.869818 0.496378
0.536766 0.809491 0.378769
0.666935 0.787454 0.165277
0.808730 0.770367 0.008370
0.915523 0.761908 0.000000
0.975770 0.759226 0.000023
0.983517 0.761572 0.000052
0.984464 0.766596 0.000019
0.663656 0.929187 0.593484
0.644119 0.916967 0.573245
0.580119 0.863465 0.478092
0.662271 0.837049 0.333305
0.775066 0.822877 0.114538
0.878245 0.810227 0.000124
0.954063 0.801388 0.000082
0.984223 0.798100 0.000056
0.985364 0.797623 0.000077
0.663656 0.929187 0.593484
0.663656 0.929187 0.593484
0.629957 0.905423 0.552717
0.666946 0.873092 0.444121
0.760204 0.862755 0.277298
0.845052 0.848388 0.050148
0.926387 0.837573 0.000124
0.977674 0.831669 0.000111
0.986521 0.828712 0.000173
0.663656 0.929187 0.593484
0.663656 0.929187 0.593484
0.663656 0.929187 0.593484
0.675633 0.901039 0.517343
0.754442 0.890048 0.403078
0.827460 0.881434 0.192807
0.898638 0.869099 0.041240
0.959450 0.861302 0.010164
0.987747 0.856943 0.000341
0.000342 0.000251 0.384325
0.764059 0.000588 0.310704
0.910807 0.202822 0.530728
0.932641 0.292687 0.538263
0.943368 0.339450 0.541457
0.943733 0.339358 0.531660
0.943182 0.337537 0.524535
0.942841 0.335637 0.515989
0.942437 0.333667 0.510392
0.068099 0.569883 0.560033
0.349882 0.352474 0.350415
0.711607 0.306711 0.349506
0.897523 0.324171 0.410912
0.951050 0.373219 0.491596
0.955531 0.399188 0.550242
0.961257 0.424159 0.562884
0.965879 0.447919 0.575632
0.969745 0.466125 0.584047
0.504426 0.847037 0.701225
0.181529 0.596098 0.343309
0.587667 0.544141 0.309317
0.813417 0.528691 0.338553
0.942433 0.532777 0.386744
0.987407 0.544859 0.439832
0.988498 0.550950 0.485452
0.989291 0.554880 0.511932
0.989921 0.560719 0.529425
0.634355 0.926391 0.755831
0.390861 0.757120 0.451825
0.484860 0.694784 0.301103
0.730123 0.670567 0.281718
0.877164 0.660209 0.313165
0.976081 0.656298 0.352777
0.997150 0.658001 0.397300
0.998221 0.658217 0.435720
0.998275 0.654411 0.465381
0.651995 0.934846 0.741234
0.527323 0.848890 0.536809
0.499801 0.788012 0.415691
0.659750 0.770654 0.273826
0.817563 0.754858 0.254994
0.921268 0.743643 0.287357
0.986366 0.739220 0.325882
0.998099 0.737008 0.366433
0.998565 0.733864 0.402024
0.652975 0.933590 0.717901
0.622084 0.908404 0.605457
0.551324 0.852520 0.501379
0.644692 0.832980 0.389104
0.765659 0.823604 0.241585
0.875458 0.812186 0.230709
0.954786 0.803744 0.265356
0.995564 0.798417 0.302182
0.997920 0.794032 0.338944
0.655166 0.932762 0.693788
0.659779 0.930300 0.627685
0.615213 0.900363 0.565524
0.654891 0.875976 0.485063
0.750228 0.870907 0.369622
0.836086 0.862944 0.239636
0.918145 0.853625 0.218084
0.977634 0.847272 0.245778
0.997589 0.841874 0.281697
0.656307 0.931782 0.674569
0.660624 0.930027 0.617780
0.658295 0.927351 0.600909
0.671374 0.909741 0.552534
0.749704 0.903751 0.478020
0.821778 0.900896 0.359220
0.890745 0.895259 0.252722
0.952514 0.888727 0.215239
0.992413 0.880360 0.227312
0.657285 0.931461 0.658822
0.662033 0.929609 0.609235
0.663382 0.929319 0.599517
0.681645 0.929795 0.591465
0.751550 0.928535 0.548788
0.820047 0.928342 0.481920
0.877801 0.927088 0.377449
0.929870 0.921530 0.258485
0.977130 0.913402 0.201479
0.000077 0.000098 0.559259
0.693334 0.000688 0.448337
0.890617 0.238615 0.604939
0.909334 0.286993 0.609988
0.938609 0.348385 0.609511
0.945416 0.359420 0.603287
0.946011 0.358783 0.597167
0.945155 0.355290 0.588624
0.945185 0.353744 0.582993
0.020780 0.554196 0.760951
0.242143 0.330718 0.542592
0.692629 0.312212 0.553020
0.878636 0.329835 0.584742
0.938981 0.382099 0.634065
0.934921 0.414318 0.674687
0.946285 0.436020 0.671282
0.957544 0.461881 0.671693
0.966220 0.483774 0.673876
0.467685 0.816159 0.806470
0.083127 0.583317 0.558256
0.562209 0.563668 0.562442
0.797154 0.537687 0.560886
0.929386 0.532755 0.583800
0.982887 0.540157 0.611933
0.984915 0.547001 0.641491
0.986275 0.556496 0.656298
0.988277 0.567540 0.661614
0.581977 0.892351 0.832206
0.385481 0.766934 0.645138
0.441039 0.713095 0.559905
0.708598 0.683374 0.538856
0.862981 0.665359 0.547029
0.961711 0.655344 0.565257
0.998275 0.652449 0.586357
0.998351 0.653505 0.609685
0.998408 0.653110 0.626926
0.637310 0.926906 0.837261
0.527773 0.862560 0.706618
0.467043 0.799617 0.608078
0.629359 0.779153 0.532438
0.798204 0.757996 0.517275
0.905725 0.744754 0.526953
0.980573 0.736005 0.544296
0.998974 0.732650 0.564103
0.998773 0.730243 0.585192
0.650622 0.935916 0.826697
0.611390 0.913148 0.746853
0.530954 0.859407 0.653246
0.608108 0.835699 0.582713
0.739895 0.825611 0.507199
0.858046 0.811171 0.501139
0.940339 0.800595 0.511388
0.994497 0.792931 0.527815
0.998651 0.788279 0.546848
0.650736 0.936540 0.809819
0.645916 0.932505 0.756252
0.600931 0.903607 0.691678
0.617412 0.875474 0.627737
0.715469 0.868905 0.562641
0.815403 0.861556 0.494391
0.901054 0.851599 0.484052
0.965390 0.842744 0.495437
0.998469 0.834371 0.511185
0.650910 0.936838 0.793011
0.652517 0.934896 0.747280
0.641241 0.926786 0.709532
0.638437 0.907835 0.665371
0.712043 0.898958 0.614248
0.792036 0.896280 0.540265
0.867629 0.889802 0.486226
0.932681 0.880848 0.470685
0.985876 0.871224 0.475341
0.651602 0.936771 0.778325
0.652861 0.934540 0.736635
0.653688 0.932944 0.706218
0.656385 0.928032 0.685704
0.711760 0.921247 0.648340
0.781681 0.918496 0.597843
0.845077 0.915558 0.532134
0.901803 0.909512 0.474687
0.956649 0.901310 0.445181
0.027630 0.000284 0.644565
0.615575 0.058350 0.542442
0.878250 0.266508 0.649443
0.882147 0.300945 0.669072
0.913802 0.344584 0.648202
0.930840 0.364695 0.638355
0.933849 0.365618 0.633031
0.936433 0.363943 0.627531
0.938320 0.363378 0.622207
0.196962 0.569080 0.837593
0.131513 0.319190 0.672713
0.660855 0.328243 0.673143
0.837813 0.363304 0.678400
0.913360 0.412833 0.710002
0.908205 0.434379 0.736214
0.920500 0.451786 0.730302
0.933530 0.471891 0.725184
0.945341 0.489793 0.719941
0.427238 0.787438 0.854701
0.058150 0.585185 0.688910
0.501048 0.552346 0.686377
0.780997 0.543154 0.696389
0.912586 0.536733 0.701467
0.967792 0.546425 0.716608
0.969472 0.555487 0.733245
0.971546 0.565601 0.741582
0.977704 0.576359 0.736543
0.540263 0.861389 0.862928
0.381947 0.762971 0.741200
0.369336 0.690122 0.672169
0.683482 0.685844 0.683955
0.846933 0.664226 0.680871
0.946908 0.654160 0.688449
0.996715 0.650212 0.699830
0.996342 0.651191 0.713069
0.996869 0.652848 0.723126
0.601881 0.902725 0.870450
0.527022 0.858468 0.790517
0.431106 0.786273 0.701025
0.593679 0.781512 0.675466
0.777377 0.758555 0.661444
0.890865 0.743315 0.662581
0.972554 0.734675 0.671360
0.998430 0.728122 0.681579
0.998619 0.726335 0.693660
0.639612 0.927004 0.870632
0.592083 0.900148 0.809717
0.523574 0.857822 0.741841
0.577009 0.837075 0.698070
0.715072 0.826563 0.656503
0.839797 0.810629 0.644295
0.927168 0.797466 0.648061
0.991251 0.789881 0.654841
0.999266 0.782683 0.664922
0.651117 0.935130 0.862783
0.627942 0.921729 0.816933
0.585903 0.898376 0.765279
0.591419 0.875912 0.724040
0.687195 0.868255 0.680305
0.794247 0.859750 0.639419
0.883462 0.847678 0.626925
0.953842 0.835739 0.631112
0.994401 0.826269 0.636011
0.651120 0.935330 0.849533
0.649215 0.934823 0.817573
0.620838 0.919002 0.773072
0.613871 0.905787 0.743570
0.679832 0.895070 0.705776
0.764730 0.891231 0.659319
0.845067 0.884043 0.623093
0.914775 0.872289 0.609034
0.971869 0.861818 0.609935
0.650932 0.935762 0.834837
0.651006 0.936110 0.809758
0.643482 0.931796 0.774905
0.635800 0.924938 0.754955
0.676635 0.913945 0.723157
0.748505 0.910920 0.686399
0.816532 0.907468 0.642619
0.880115 0.900773 0.603946
0.938410 0.891357 0.589822
0.088221 0.003225 0.670515
0.528186 0.087160 0.602179
0.857586 0.281841 0.682192
0.864448 0.318332 0.719503
0.893233 0.339983 0.682834
0.914742 0.370056 0.669241
0.920678 0.370285 0.659105
0.922836 0.369237 0.654058
0.926052 0.367276 0.647334
0.208593 0.571118 0.843775
0.077343 0.329198 0.749376
0.621971 0.346251 0.741153
0.807132 0.383771 0.738993
0.895266 0.429547 0.757279
0.894320 0.446754 0.776959
0.902636 0.460573 0.773908
0.916432 0.477417 0.760777
0.928316 0.491361 0.751401
0.397056 0.770181 0.862928
0.103991 0.603433 0.780713
0.439589 0.543601 0.769532
0.755802 0.549389 0.782460
0.882093 0.549846 0.775342
0.941150 0.560684 0.777517
0.945287 0.567811 0.787767
0.948129 0.575214 0.791322
0.957252 0.583549 0.781516
0.503871 0.836007 0.876313
0.390041 0.765838 0.804776
0.302313 0.673139 0.740084
0.639773 0.675371 0.765020
0.831275 0.666020 0.772325
0.930648 0.655083 0.770288
0.983256 0.652829 0.774091
0.984573 0.654374 0.785518
0.984532 0.656608 0.786107
0.570790 0.880577 0.889355
0.514007 0.845945 0.833078
0.409746 0.776978 0.757184
0.543957 0.763395 0.750258
0.756435 0.758642 0.757897
0.876568 0.742697 0.753324
0.958924 0.732616 0.755749
0.997836 0.727217 0.760267
0.997828 0.722513 0.768688
0.615871 0.910559 0.892112
0.572141 0.885466 0.845568
0.512590 0.848888 0.788075
0.542749 0.826055 0.759843
0.690432 0.826253 0.748832
0.822743 0.809022 0.739197
0.912832 0.795783 0.737115
0.978841 0.785381 0.738609
0.997653 0.776642 0.742589
0.642524 0.927182 0.890172
0.612786 0.910859 0.853191
0.566449 0.884704 0.802439
0.562355 0.865625 0.773437
0.660268 0.865197 0.755494
0.769893 0.856555 0.728850
0.866285 0.843217 0.719733
0.936380 0.830672 0.716684
0.985637 0.819671 0.717138
0.650871 0.933049 0.882314
0.640602 0.928071 0.856534
0.600847 0.906206 0.809363
0.591042 0.896656 0.786732
0.649811 0.888607 0.763823
0.736365 0.886098 0.734493
0.823025 0.877802 0.709438
0.895491 0.865842 0.698543
0.954789 0.855147 0.696630
0.651044 0.933461 0.870622
0.651039 0.934740 0.854068
0.628406 0.922870 0.812981
0.616695 0.915557 0.793688
0.647560 0.907442 0.771531
0.720050 0.904852 0.747647
0.791748 0.901245 0.714840
0.859010 0.893211 0.690016
0.918981 0.883437 0.679270
0.104468 0.009005 0.677936
0.432302 0.092256 0.642806
0.828133 0.284762 0.705204
0.853905 0.338516 0.761971
0.876343 0.339924 0.714933
0.900307 0.368967 0.693665
0.909547 0.376121 0.683850
0.913163 0.374959 0.677062
0.915658 0.373029 0.670553
0.209104 0.571021 0.843686
0.128672 0.361229 0.801975
0.585465 0.353975 0.783937
0.785110 0.397227 0.780020
0.875961 0.439205 0.794044
0.883886 0.455081 0.806045
0.890458 0.467448 0.803733
0.904158 0.481760 0.789718
0.917059 0.495120 0.778224
0.369475 0.755204 0.860562
0.217569 0.633235 0.840178
0.379576 0.538489 0.820866
0.724170 0.553482 0.832041
0.855824 0.559675 0.819721
0.921160 0.571131 0.817756
0.931210 0.576803 0.823414
0.931071 0.582757 0.826710
0.941486 0.588589 0.814116
0.478643 0.818665 0.871480
0.401109 0.772962 0.851801
0.263954 0.668782 0.790999
0.597786 0.666365 0.822476
0.810189 0.667457 0.836093
0.910668 0.659640 0.825976
0.962005 0.660868 0.823436
0.967097 0.661717 0.829189
0.967329 0.662285 0.828954
0.544540 0.862696 0.891131
0.499041 0.833786 0.861450
0.400673 0.771457 0.795504
0.492265 0.746290 0.797147
0.728481 0.754635 0.820371
0.863036 0.743347 0.818781
0.945932 0.732356 0.816173
0.988078 0.726127 0.817455
0.991339 0.721160 0.819965
0.591071 0.891785 0.904163
0.558270 0.873596 0.871278
0.499594 0.836987 0.816182
0.507028 0.810895 0.794987
0.656144 0.815846 0.807144
0.806073 0.807847 0.806858
0.898968 0.793089 0.800520
0.967172 0.782301 0.797888
0.994326 0.771876 0.797666
0.627681 0.916254 0.907756
0.600298 0.900706 0.879945
0.551099 0.872173 0.827538
0.537111 0.853617 0.803570
0.628667 0.854629 0.801299
0.746170 0.852708 0.792178
0.848334 0.838141 0.783206
0.922115 0.825261 0.779116
0.976375 0.814804 0.777031
0.647430 0.929610 0.905002
0.634303 0.921809 0.886915
0.585462 0.894460 0.833878
0.573818 0.886162 0.813775
0.621131 0.878929 0.800859
0.708890 0.881054 0.787628
0.801669 0.872346 0.770939
0.878995 0.860071 0.761111
0.940140 0.848923 0.757345
0.651556 0.932409 0.896802
0.650746 0.933470 0.887933
0.613590 0.912127 0.838111
0.598234 0.903673 0.818494
0.621590 0.898172 0.804001
0.692858 0.898482 0.790389
0.768560 0.895367 0.768600
0.840528 0.887047 0.750987
0.902939 0.877163 0.741084
0.108222 0.011025 0.680061
0.328944 0.078792 0.668481
0.791453 0.279479 0.724436
0.846876 0.353447 0.792391
0.862968 0.344645 0.746532
0.886639 0.366484 0.717062
0.900371 0.378762 0.703807
0.903872 0.378412 0.695928
0.906339 0.377777 0.691472
0.206038 0.564994 0.842744
0.163746 0.398772 0.824785
0.547171 0.355389 0.809842
0.766742 0.404211 0.810124
0.861934 0.445366 0.818092
0.877251 0.460757 0.828140
0.882228 0.471466 0.827048
0.894368 0.484219 0.812045
0.906227 0.496526 0.799001
0.340972 0.738469 0.860402
0.251883 0.664910 0.855452
0.348581 0.539292 0.843863
0.694414 0.552923 0.860507
0.835358 0.566730 0.850430
0.905635 0.577165 0.846696
0.920771 0.582651 0.849586
0.920737 0.587186 0.851381
0.929335 0.592050 0.839589
0.459668 0.807058 0.867334
0.412900 0.778620 0.863117
0.249063 0.670161 0.827309
0.557231 0.657772 0.861933
0.786636 0.667010 0.875698
0.889318 0.666163 0.863474
0.942169 0.668131 0.858412
0.951910 0.666959 0.858947
0.952091 0.665908 0.856395
0.524366 0.849302 0.884077
0.491670 0.827998 0.874914
0.395092 0.768490 0.826733
0.457145 0.738233 0.834519
0.698703 0.747287 0.864429
0.848395 0.743670 0.866810
0.929104 0.733864 0.860860
0.972290 0.728701 0.855366
0.977976 0.722901 0.854336
0.573369 0.880836 0.900170
0.550607 0.866576 0.891588
0.484272 0.825239 0.837693
0.472962 0.794667 0.817923
0.614755 0.801287 0.843107
0.783731 0.802120 0.852364
0.884670 0.790173 0.850267
0.951928 0.778301 0.843842
0.986181 0.768712 0.840500
0.610110 0.903980 0.911842
0.596080 0.896054 0.904667
0.534114 0.858916 0.846216
0.514648 0.841022 0.823084
0.591887 0.839499 0.827796
0.718082 0.843410 0.835936
0.830783 0.833629 0.832528
0.907556 0.821000 0.826507
0.965597 0.810396 0.822322
0.637478 0.921605 0.917528
0.635170 0.920139 0.916211
0.571520 0.883811 0.852352
0.555155 0.873498 0.831371
0.592255 0.866445 0.823472
0.681226 0.871492 0.825953
0.781019 0.867191 0.818117
0.863633 0.855221 0.809940
0.926996 0.844053 0.805046
0.648600 0.929208 0.913928
0.648547 0.929176 0.914015
0.600349 0.902698 0.856506
0.580060 0.890456 0.834391
0.600137 0.888475 0.825201
0.668155 0.889876 0.821217
0.745634 0.890138 0.810489
0.823056 0.882382 0.798271
0.888924 0.871923 0.790348
0.114580 0.014596 0.683001
0.223525 0.054173 0.692532
0.753985 0.272216 0.740177
0.843257 0.365469 0.813615
0.852932 0.353027 0.777045
0.874119 0.363566 0.739779
0.891209 0.379558 0.721306
0.896518 0.381477 0.712540
0.899059 0.380476 0.707170
0.201680 0.551990 0.841040
0.173870 0.444171 0.829259
0.507559 0.352319 0.824920
0.746527 0.407733 0.832937
0.850301 0.449312 0.838433
0.871518 0.465574 0.845288
0.875810 0.475495 0.845466
0.886557 0.486494 0.830997
0.897826 0.497191 0.816233
0.317016 0.722966 0.859645
0.273774 0.687811 0.857599
0.318566 0.541494 0.855925
0.660469 0.549103 0.877892
0.817194 0.569045 0.873136
0.893748 0.581298 0.868154
0.912907 0.586988 0.869327
0.913149 0.590206 0.870814
0.920234 0.594218 0.859205
0.444233 0.797209 0.865534
0.424517 0.785595 0.863270
0.266621 0.678200 0.849939
0.525658 0.654423 0.886311
0.762365 0.665659 0.899813
0.872969 0.671319 0.889819
0.927278 0.672349 0.882759
0.942297 0.671130 0.881036
0.942115 0.668037 0.877767
0.505728 0.837051 0.878662
0.496751 0.830371 0.876225
0.388577 0.765275 0.851553
0.429040 0.732339 0.858323
0.668585 0.739901 0.897365
0.829972 0.742589 0.902110
0.911278 0.735313 0.891787
0.957240 0.730073 0.882339
0.966504 0.724658 0.879168
0.556587 0.870190 0.894399
0.556473 0.870118 0.894359
0.470476 0.814648 0.855369
0.444457 0.783557 0.834752
0.574502 0.786674 0.869959
0.757423 0.793831 0.886802
0.868252 0.786419 0.886628
0.936695 0.775890 0.878777
0.974450 0.767525 0.872724
0.593452 0.893429 0.906415
0.593306 0.893346 0.906372
0.520642 0.848455 0.861689
0.495381 0.830682 0.837222
0.558517 0.823613 0.845478
0.689811 0.831608 0.866307
0.811465 0.828029 0.868740
0.893743 0.816504 0.864145
0.952576 0.805736 0.859218
0.624525 0.913360 0.916136
0.624394 0.913279 0.916101
0.557616 0.873512 0.866701
0.538844 0.862337 0.844727
0.565806 0.853951 0.839232
0.653777 0.858825 0.850259
0.758398 0.860735 0.853230
0.847588 0.850523 0.849014
0.913741 0.839097 0.844329
0.642644 0.925110 0.919484
0.642582 0.925062 0.919485
0.587662 0.893137 0.870567
0.565255 0.879778 0.847970
0.581272 0.879852 0.841340
0.643110 0.879392 0.841939
0.722147 0.883315 0.842249
0.805404 0.877888 0.836547
0.874799 0.867456 0.830245
0.120991 0.018461 0.686712
0.125350 0.018073 0.685570
0.716563 0.267014 0.758049
0.842189 0.369988 0.821199
0.845849 0.363509 0.805268
0.863822 0.362729 0.761917
0.882244 0.379015 0.738769
0.889661 0.383593 0.728432
0.892264 0.382728 0.721983
0.197838 0.536740 0.839835
0.191124 0.512576 0.837003
0.463505 0.345750 0.827698
0.727696 0.406427 0.845189
0.841165 0.450693 0.851602
0.868301 0.467574 0.855063
0.871434 0.476421 0.856332
0.880634 0.488346 0.846644
0.891369 0.497503 0.831123
0.297958 0.708330 0.858570
0.297858 0.708254 0.858567
0.279502 0.545541 0.853911
0.629908 0.544792 0.888724
0.800360 0.568913 0.888871
0.881649 0.583435 0.885522
0.907468 0.590236 0.884713
0.907645 0.592067 0.885488
0.913353 0.594735 0.875268
0.428511 0.787912 0.863423
0.428426 0.787865 0.863414
0.271231 0.684177 0.856552
0.502406 0.653793 0.896477
0.738385 0.662928 0.917675
0.855433 0.673385 0.909686
0.915208 0.675097 0.901299
0.935015 0.673617 0.897475
0.934326 0.669173 0.895028
0.490719 0.827381 0.874444
0.490612 0.827298 0.874412
0.384275 0.762906 0.861272
0.398836 0.725561 0.873196
0.638425 0.731691 0.915573
0.807762 0.738716 0.926072
0.893750 0.735484 0.913788
0.942457 0.731315 0.902142
0.957199 0.726044 0.897561
0.540840 0.859846 0.888834
0.540676 0.859733 0.888775
0.459649 0.807017 0.866880
0.422136 0.776103 0.850993
0.544648 0.774112 0.886376
0.731529 0.785395 0.912775
0.850861 0.782443 0.913544
0.920704 0.774234 0.904809
0.960975 0.767238 0.896670
0.578390 0.884369 0.901800
0.578292 0.884304 0.901769
0.507188 0.838169 0.872555
0.480536 0.820664 0.850941
0.527473 0.809100 0.858110
0.660979 0.820013 0.888886
0.790694 0.820962 0.897742
0.878687 0.812163 0.894449
0.938764 0.802492 0.888434
0.609978 0.904303 0.912084
0.609859 0.904229 0.912048
0.546846 0.864946 0.879050
0.522446 0.850028 0.856735
0.540144 0.841529 0.850606
0.625279 0.845867 0.867775
0.732928 0.851928 0.879757
0.830849 0.845292 0.880086
0.901150 0.834940 0.876682
0.634368 0.919607 0.918677
0.634266 0.919552 0.918650
0.579006 0.886377 0.884567
0.552290 0.870350 0.860382
0.563467 0.870805 0.853465
0.617623 0.867816 0.856712
0.696050 0.874091 0.865799
0.787182 0.872106 0.867090
0.861076 0.863267 0.862981
