output/AP0_display/AP0_to_ETERNA-BB_33grid.cube
TITLE "AP0_to_ETERNA-BB"
# Input: Linear ACES2065-1 / AP0 (D60)
# Output: BT.709 / Gamma 2.2 (display-referred)
# Use: Display/output transform in ACES pipeline (replaces ODT)
# Source: FLog2C_to_ETERNA-BB_65grid_V.1.00.cube
# Generated from Fujifilm GFX ETERNA 55 F-Log2C LUT
LUT_3D_SIZE 5
0.000282 0.000191 0.000111
0.697939 0.273187 0.294920
0.753503 0.376840 0.375047
0.753503 0.376840 0.375047
0.753503 0.376840 0.375047
0.205464 0.680256 0.224483
0.552438 0.485858 0.243824
0.797150 0.593417 0.351829
0.866197 0.641979 0.388443
0.871288 0.632471 0.418128
0.248542 0.801530 0.269267
0.535782 0.697400 0.315079
0.803512 0.753908 0.384686
0.888105 0.780023 0.407783
0.913369 0.786234 0.414451
0.259872 0.829741 0.280004
0.481236 0.782600 0.316329
0.778090 0.831472 0.384294
0.877291 0.847087 0.404960
0.919227 0.853965 0.413910
0.259872 0.829741 0.280004
0.414859 0.814062 0.308552
0.741757 0.869735 0.378516
0.861330 0.884056 0.399866
0.909658 0.889415 0.409536
0.061318 0.021627 0.252867
0.657054 0.175877 0.338860
0.778639 0.400562 0.472809
0.788449 0.421760 0.477756
0.783884 0.415399 0.465610
0.303326 0.771901 0.721047
0.585257 0.585834 0.584452
0.826336 0.624664 0.634217
0.903345 0.654295 0.659132
0.921306 0.669962 0.670735
0.291514 0.846581 0.741250
0.529909 0.774181 0.656100
0.806943 0.793659 0.683990
0.905070 0.798984 0.688286
0.948406 0.801940 0.693705
0.294169 0.874188 0.742463
0.453930 0.833433 0.667417
0.761758 0.862275 0.701523
0.880129 0.867278 0.704093
0.931437 0.866974 0.698608
0.293487 0.882248 0.733485
0.386911 0.854091 0.659900
0.707881 0.891975 0.696901
0.852724 0.900580 0.710320
0.910303 0.900153 0.705255
0.097364 0.031039 0.407794
0.619049 0.115653 0.388065
0.745257 0.318887 0.481634
0.786875 0.407099 0.517134
0.786909 0.412089 0.509705
0.342364 0.769961 0.766781
0.567157 0.606261 0.687686
0.817673 0.630929 0.737961
0.895399 0.652266 0.754723
0.920784 0.668788 0.758077
0.326471 0.845859 0.784581
0.500285 0.784811 0.749891
0.796973 0.798401 0.796907
0.902902 0.799044 0.802600
0.948987 0.799335 0.802314
0.299675 0.867939 0.780223
0.423194 0.836550 0.753751
0.743089 0.864699 0.807565
0.874660 0.868326 0.818086
0.930546 0.864291 0.812119
0.296689 0.884061 0.780745
0.371039 0.855975 0.747056
0.680533 0.890708 0.801119
0.840660 0.900392 0.821110
0.906844 0.899771 0.817572
0.119402 0.034702 0.494790
0.570306 0.052143 0.414200
0.724280 0.257653 0.504253
0.782910 0.386114 0.543282
0.784529 0.393345 0.536005
0.361275 0.759357 0.782299
0.532121 0.613029 0.724988
0.806821 0.628134 0.781627
0.890793 0.645147 0.799026
0.922792 0.660382 0.804612
0.350661 0.841753 0.804603
0.462205 0.785747 0.777729
0.779510 0.798754 0.837160
0.890736 0.799296 0.850091
0.936232 0.796482 0.851074
0.334214 0.868587 0.805747
0.393618 0.832051 0.776757
0.718368 0.861308 0.841759
0.863350 0.865059 0.862980
0.923469 0.860422 0.862881
0.311831 0.882651 0.801759
0.353354 0.853403 0.773766
0.649908 0.884221 0.831386
0.825620 0.896341 0.862286
0.899440 0.895959 0.865819
0.137983 0.035964 0.540857
0.532612 0.056063 0.459097
0.710126 0.212154 0.534094
0.770559 0.352647 0.555224
0.781337 0.378583 0.554849
0.374058 0.745367 0.784078
0.488300 0.615527 0.739925
0.793140 0.623702 0.804918
0.885048 0.638247 0.823961
0.922402 0.651937 0.829897
0.365179 0.835990 0.809620
0.419169 0.779759 0.783591
0.758592 0.796127 0.855551
0.881794 0.795209 0.873146
0.929929 0.791512 0.875024
0.353288 0.866161 0.815542
0.369983 0.828526 0.787592
0.688428 0.854109 0.855131
0.850365 0.860514 0.884520
0.912593 0.857232 0.887856
0.340321 0.883042 0.817798
0.336207 0.849713 0.785063
0.619709 0.877344 0.845394
0.809326 0.892414 0.881470
0.890904 0.892518 0.891233
