output/AP0_display/AP0_to_ASTIA_33grid.cube
TITLE "AP0_to_ASTIA"
# Input: Linear ACES2065-1 / AP0 (D60)
# Output: BT.709 / Gamma 2.2 (display-referred)
# Use: Display/output transform in ACES pipeline (replaces ODT)
# Source: FLog2C_to_ASTIA_65grid_V.1.00.cube
# Generated from Fujifilm GFX ETERNA 55 F-Log2C LUT
LUT_3D_SIZE 33
0.000334 0.000257 0.000073
0.346478 0.003694 0.007769
0.644470 0.000076 0.042963
0.832765 0.000001 0.121019
0.959874 0.000240 0.240765
0.999716 0.000227 0.354250
0.999928 0.000001 0.453031
0.999802 0.000000 0.502805
0.999685 0.002538 0.517151
0.999983 0.011147 0.524403
0.999784 0.048757 0.531726
0.999654 0.076208 0.536249
0.999492 0.097384 0.539838
0.999471 0.099370 0.540142
0.999462 0.099704 0.540080
0.999461 0.099723 0.540077
0.999461 0.099723 0.540077
0.999461 0.099723 0.540077
0.999461 0.099723 0.540077
0.999461 0.099723 0.540077
0.999461 0.099723 0.540077
0.999461 0.099723 0.540077
0.999461 0.099723 0.540077
0.999461 0.099723 0.540077
0.999461 0.099723 0.540077
0.999461 0.099723 0.540077
0.999461 0.099723 0.540077
0.999461 0.099723 0.540077
0.999461 0.099723 0.540077
0.999461 0.099723 0.540077
0.999461 0.099723 0.540077
0.999461 0.099723 0.540077
0.999461 0.099723 0.540077
0.000039 0.159804 0.000046
0.131063 0.090876 0.000340
0.366868 0.074875 0.000225
0.554545 0.060877 0.000295
0.694072 0.046444 0.007012
0.797852 0.032541 0.055484
0.880149 0.021626 0.121239
0.948547 0.011566 0.193274
0.993919 0.003136 0.267122
0.999636 0.000053 0.334875
0.999652 0.000108 0.401663
0.999755 0.000109 0.448664
0.999786 0.000029 0.481656
0.999470 0.000014 0.493492
0.999113 0.000013 0.501549
0.999139 0.013575 0.508930
0.999220 0.027405 0.515499
0.999451 0.045403 0.521071
0.999729 0.065280 0.526178
0.999971 0.084040 0.531068
0.999708 0.089813 0.534166
0.999424 0.095477 0.537426
0.999139 0.100993 0.540642
0.999226 0.100793 0.540324
0.999320 0.100390 0.540090
0.999412 0.099966 0.540035
0.999461 0.099723 0.540077
0.999461 0.099723 0.540077
0.999461 0.099723 0.540077
0.999461 0.099723 0.540077
0.999461 0.099723 0.540077
0.999461 0.099723 0.540077
0.999461 0.099723 0.540077
0.000267 0.345215 0.000022
0.054921 0.206736 0.000040
0.264910 0.178189 0.000293
0.446494 0.163137 0.000000
0.589972 0.153440 0.000036
0.693547 0.144857 0.000168
0.775048 0.138330 0.002289
0.842791 0.130905 0.020757
0.901717 0.122765 0.063053
0.954389 0.115795 0.115995
0.985396 0.106678 0.176573
0.999715 0.097518 0.234653
0.999946 0.088339 0.290886
0.999919 0.080044 0.340817
0.999810 0.072351 0.386861
0.999861 0.075926 0.405354
0.999956 0.080508 0.419139
0.999969 0.087756 0.429811
0.999912 0.096590 0.438585
0.999848 0.104776 0.447292
0.999838 0.117902 0.454107
0.999879 0.130571 0.460408
0.999872 0.142772 0.466333
0.999870 0.153271 0.471829
0.999875 0.163374 0.476976
0.999884 0.173200 0.481825
0.999875 0.178491 0.485310
0.999859 0.177428 0.487061
0.999873 0.176513 0.488777
0.999917 0.175736 0.490461
0.999970 0.174590 0.491959
0.999956 0.172398 0.493163
0.999906 0.170267 0.494328
0.000015 0.493989 0.000472
0.002781 0.329434 0.000501
0.191594 0.282499 0.000237
0.377252 0.264540 0.000288
0.517220 0.250841 0.000182
0.625287 0.243567 0.000491
0.708822 0.239739 0.000198
0.776604 0.232863 0.000064
0.834408 0.228781 0.000813
0.885006 0.222868 0.003475
0.931035 0.217433 0.031545
0.966695 0.210736 0.070481
0.994029 0.203055 0.120401
0.999679 0.195283 0.172184
0.999461 0.188028 0.221460
0.999639 0.181114 0.267070
0.999847 0.174471 0.310218
0.999863 0.172521 0.336241
0.999776 0.174188 0.348893
0.999723 0.175796 0.360813
0.999701 0.180811 0.370360
0.999637 0.185620 0.379555
0.999588 0.190558 0.388217
0.999663 0.200372 0.395640
0.999746 0.209922 0.402943
0.999823 0.218568 0.410253
0.999820 0.225862 0.417333
0.999660 0.231872 0.423652
0.999467 0.237752 0.429504
0.999244 0.243510 0.434923
0.999039 0.247105 0.439121
0.999068 0.245640 0.441212
0.999111 0.244261 0.443256
0.000006 0.608810 0.000241
0.000134 0.436210 0.000398
0.127790 0.378420 0.000100
0.318125 0.352837 0.000196
0.459980 0.339658 0.000001
0.575848 0.331111 0.000322
0.658827 0.325414 0.000084
0.728370 0.320713 0.000258
0.786215 0.318054 0.000038
0.835747 0.313692 0.000259
0.880521 0.309589 0.000251
0.922196 0.305392 0.004620
0.961356 0.300995 0.013973
0.981801 0.294696 0.045442
0.995978 0.288355 0.082044
0.999395 0.282296 0.127330
0.999669 0.276790 0.172042
0.999663 0.271500 0.209291
0.999438 0.266072 0.241214
0.999229 0.260762 0.272208
0.999279 0.260334 0.287268
0.999320 0.260452 0.299799
0.999333 0.260529 0.311218
0.999350 0.263485 0.320841
0.999347 0.266743 0.329942
0.999321 0.269730 0.338752
0.999316 0.273350 0.347356
0.999401 0.278722 0.355747
0.999493 0.283939 0.363760
0.999589 0.289013 0.371423
0.999670 0.293388 0.378516
0.999672 0.295706 0.384418
0.999661 0.297996 0.390124
0.000217 0.693100 0.000308
0.000102 0.525866 0.000002
0.073515 0.459766 0.000139
0.264286 0.429613 0.000276
0.415495 0.411996 0.000202
0.531490 0.402498 0.000918
0.621397 0.396808 0.000002
0.689520 0.391710 0.000027
0.748185 0.387276 0.000044
0.798874 0.384649 0.000009
0.842201 0.382130 0.000032
0.882020 0.379531 0.000003
0.920426 0.375256 0.000020
0.955677 0.369707 0.000262
0.988234 0.364267 0.000831
0.997142 0.358733 0.028467
0.998175 0.353392 0.063523
0.998943 0.348426 0.100848
0.999175 0.343863 0.141054
0.999474 0.339736 0.178599
0.999629 0.335679 0.201251
0.999739 0.331887 0.220626
0.999873 0.328577 0.238609
0.999869 0.327500 0.251672
0.999791 0.327029 0.262610
0.999676 0.326651 0.272480
0.999552 0.327208 0.281834
0.999498 0.329932 0.291886
0.999476 0.332375 0.301600
0.999482 0.334557 0.310996
0.999543 0.336783 0.320416
0.999534 0.339363 0.328425
0.999522 0.341723 0.335985
0.000234 0.755843 0.000761
0.000000 0.605833 0.000137
0.030617 0.531325 0.000543
0.212687 0.495070 0.000170
0.371212 0.474676 0.000004
0.492462 0.464283 0.000486
0.585038 0.456595 0.000078
0.658941 0.452194 0.000330
0.717480 0.447859 0.000006
0.768400 0.443694 0.000076
0.812039 0.440100 0.000033
0.851162 0.436904 0.000015
0.887230 0.433338 0.000048
0.921536 0.429340 0.000045
0.954007 0.425187 0.000013
0.974811 0.420669 0.001613
0.990241 0.416146 0.004656
0.999049 0.411284 0.022743
0.999409 0.405816 0.059711
0.999766 0.400546 0.095036
0.999671 0.396322 0.124599
0.999520 0.392476 0.151627
0.999392 0.388795 0.177499
0.999453 0.385588 0.194321
0.999599 0.382722 0.207563
0.999774 0.380083 0.220018
0.999913 0.378293 0.231571
0.999833 0.378790 0.241723
0.999728 0.379254 0.251073
0.999621 0.379620 0.260225
0.999560 0.380050 0.269623
0.999528 0.381515 0.278949
0.999489 0.383064 0.287723
0.000122 0.807278 0.000198
0.000020 0.671452 0.000562
0.006703 0.594027 0.000450
0.164840 0.555243 0.000135
0.332552 0.532495 0.000040
0.456516 0.519721 0.000030
0.554754 0.510006 0.000221
0.629770 0.504599 0.000012
0.690108 0.499055 0.000037
0.741071 0.495691 0.000159
0.784873 0.491854 0.000123
0.824694 0.488196 0.000084
0.861629 0.484247 0.000104
0.895046 0.480129 0.000071
0.925989 0.475937 0.000018
0.953911 0.471781 0.000000
0.979677 0.467729 0.000000
0.995730 0.463483 0.004328
0.997303 0.458781 0.016570
0.998821 0.454281 0.029390
0.999163 0.449864 0.058113
0.999191 0.445569 0.091163
0.999294 0.441428 0.123116
0.999415 0.437068 0.142773
0.999517 0.432770 0.156969
0.999611 0.428681 0.170580
0.999667 0.425231 0.183444
0.999547 0.423959 0.194796
0.999380 0.422797 0.205577
0.999229 0.421825 0.216177
0.999115 0.421082 0.226290
0.999193 0.421778 0.235774
0.999251 0.422483 0.245003
0.000042 0.849440 0.000332
0.000041 0.726638 0.000160
0.000017 0.649116 0.000255
0.120268 0.608878 0.000187
0.293843 0.584942 0.000087
0.422714 0.569877 0.000067
0.525316 0.558071 0.000314
0.603487 0.551309 0.000045
0.666456 0.544483 0.000153
0.717675 0.540305 0.000057
0.761754 0.536939 0.000119
0.801442 0.534106 0.000180
0.838011 0.530955 0.000061
0.871039 0.526787 0.000016
0.901042 0.522277 0.000008
0.930319 0.517684 0.000004
0.958729 0.513156 0.000002
0.979744 0.509005 0.000000
0.988334 0.505062 0.000004
0.996747 0.501077 0.000007
0.999307 0.496773 0.015430
0.999381 0.492549 0.037714
0.999462 0.488563 0.060285
0.999533 0.483715 0.082011
0.999578 0.478613 0.102634
0.999603 0.473814 0.122613
0.999591 0.469515 0.141065
0.999455 0.466804 0.153055
0.999328 0.464304 0.164674
0.999245 0.462009 0.176066
0.999214 0.459907 0.187274
0.999295 0.459352 0.198095
0.999352 0.458723 0.208534
0.000008 0.883301 0.000094
0.000005 0.772897 0.000475
0.000135 0.693765 0.000476
0.077205 0.655279 0.000672
0.253380 0.629528 0.000297
0.390067 0.613849 0.000306
0.496573 0.601547 0.000352
0.579054 0.593724 0.000023
0.642682 0.586373 0.000026
0.695110 0.581340 0.000007
0.740428 0.577845 0.000041
0.780600 0.574648 0.000144
0.816402 0.571203 0.000222
0.849342 0.567283 0.000187
0.879560 0.563394 0.000099
0.908465 0.559216 0.000053
0.936283 0.554405 0.000025
0.960069 0.549774 0.000000
0.977093 0.545865 0.000018
0.993564 0.542029 0.000011
0.999187 0.537670 0.002579
0.999295 0.533259 0.006641
0.999378 0.529115 0.010850
0.999488 0.524752 0.027264
0.999626 0.520366 0.051291
0.999764 0.516238 0.075314
0.999875 0.512327 0.098363
0.999698 0.508416 0.111515
0.999497 0.504586 0.124511
0.999346 0.500969 0.136968
0.999246 0.497572 0.148912
0.999412 0.496339 0.159675
0.999563 0.495142 0.170065
0.000000 0.914857 0.000527
0.000000 0.814089 0.000929
0.000051 0.733153 0.000551
0.035617 0.694646 0.000544
0.213434 0.668792 0.000381
0.357487 0.651510 0.000523
0.467698 0.638432 0.000271
0.554955 0.630154 0.000018
0.621108 0.622901 0.000000
0.675358 0.617303 0.000010
0.721977 0.612777 0.000078
0.762816 0.608698 0.000140
0.798553 0.604188 0.000139
0.831042 0.600111 0.000107
0.860694 0.596894 0.000059
0.888968 0.593762 0.000032
0.916019 0.590098 0.000015
0.940874 0.586189 0.000005
0.963025 0.582063 0.000015
0.984118 0.578082 0.000007
0.993480 0.573937 0.000143
0.995846 0.569836 0.000408
0.998224 0.565967 0.000707
0.999281 0.561867 0.009007
0.999316 0.557644 0.023766
0.999331 0.553617 0.039037
0.999329 0.549742 0.054709
0.999384 0.545356 0.069322
0.999444 0.541105 0.083578
0.999507 0.537020 0.097273
0.999571 0.533090 0.110443
0.999566 0.531069 0.121886
0.999538 0.529215 0.132952
0.000001 0.943378 0.000912
0.000007 0.850821 0.000813
0.000080 0.768916 0.000566
0.008392 0.729154 0.000356
0.173905 0.703550 0.000435
0.325448 0.685016 0.000599
0.440059 0.671140 0.000185
0.531109 0.662255 0.000059
0.600738 0.655362 0.000008
0.656775 0.648913 0.000035
0.704557 0.643153 0.000099
0.746142 0.638056 0.000095
0.782089 0.632450 0.000027
0.814486 0.627861 0.000006
0.843812 0.624811 0.000013
0.871629 0.622295 0.000008
0.898060 0.619743 0.000001
0.923068 0.616796 0.000000
0.947929 0.613131 0.000000
0.971468 0.609623 0.000000
0.984657 0.606011 0.000092
0.990582 0.602378 0.000203
0.996456 0.598907 0.000257
0.999216 0.595050 0.002686
0.999163 0.590872 0.007902
0.999076 0.586847 0.013853
0.998965 0.582963 0.020539
0.999212 0.578506 0.034072
0.999423 0.574179 0.047358
0.999600 0.569972 0.060415
0.999745 0.565879 0.073257
0.999599 0.563145 0.085562
0.999421 0.560656 0.097495
0.000006 0.967888 0.000360
0.000012 0.881566 0.000760
0.000226 0.800961 0.000478
0.002323 0.759670 0.000347
0.133445 0.733652 0.000332
0.292378 0.715067 0.000356
0.413199 0.700601 0.000319
0.506751 0.690985 0.000255
0.580939 0.683984 0.000076
0.638038 0.676198 0.000056
0.686527 0.668625 0.000034
0.729194 0.662012 0.000028
0.765808 0.655671 0.000008
0.798912 0.650185 0.000021
0.828537 0.645928 0.000045
0.856290 0.642658 0.000021
0.882605 0.640325 0.000000
0.907259 0.638308 0.000000
0.931561 0.636990 0.000000
0.954759 0.635630 0.000000
0.971583 0.633367 0.000070
0.982967 0.630339 0.000160
0.993969 0.627349 0.000198
0.999568 0.623819 0.000897
0.999612 0.619797 0.002548
0.999643 0.615923 0.004448
0.999677 0.612185 0.006670
0.999663 0.607992 0.012784
0.999631 0.603937 0.019921
0.999586 0.600035 0.027871
0.999528 0.596277 0.036577
0.999400 0.593001 0.049366
0.999298 0.589902 0.062182
0.000007 0.984847 0.000098
0.000031 0.910851 0.000686
0.000230 0.829502 0.000661
0.000037 0.787593 0.000443
0.095523 0.761166 0.000187
0.258185 0.742157 0.000228
0.385512 0.727485 0.000288
0.483104 0.717157 0.000265
0.560333 0.708749 0.000133
0.620022 0.699527 0.000080
0.669908 0.690918 0.000000
0.713529 0.683767 0.000000
0.750594 0.677063 0.000000
0.784290 0.671051 0.000038
0.814429 0.665977 0.000120
0.842230 0.661953 0.000112
0.868042 0.659323 0.000050
0.892252 0.657191 0.000005
0.916324 0.656663 0.000004
0.939321 0.656085 0.000002
0.958763 0.654700 0.000040
0.974605 0.652462 0.000095
0.989768 0.650208 0.000115
0.998251 0.647556 0.000092
0.998762 0.644458 0.000071
0.999291 0.641423 0.000078
0.999826 0.638433 0.000097
0.999785 0.634567 0.002330
0.999681 0.630770 0.005739
0.999576 0.627124 0.010085
0.999467 0.623620 0.015299
0.999354 0.620024 0.025120
0.999293 0.616516 0.035522
0.000002 0.994953 0.000221
0.000026 0.938998 0.000450
0.000177 0.855015 0.000778
0.000015 0.813213 0.000481
0.061579 0.786485 0.000138
0.223055 0.766952 0.000117
0.357015 0.752054 0.000102
0.459686 0.741037 0.000103
0.539350 0.730184 0.000138
0.602551 0.719451 0.000097
0.654547 0.710479 0.000000
0.698970 0.703647 0.000000
0.736295 0.696898 0.000000
0.770414 0.690696 0.000061
0.801316 0.685192 0.000254
0.829315 0.680518 0.000312
0.854389 0.676911 0.000152
0.878100 0.673734 0.000018
0.902113 0.672746 0.000015
0.924930 0.671867 0.000007
0.946115 0.670882 0.000011
0.965554 0.669650 0.000026
0.984053 0.668403 0.000030
0.995368 0.667050 0.000056
0.996689 0.665493 0.000134
0.998017 0.663857 0.000205
0.999418 0.662056 0.000257
0.999582 0.658601 0.000987
0.999549 0.655033 0.002146
0.999516 0.651585 0.003628
0.999483 0.648251 0.005408
0.999386 0.644509 0.009915
0.999325 0.640769 0.015399
0.000000 1.000000 0.000285
0.000000 0.965351 0.000465
0.000149 0.878487 0.000783
0.000000 0.836593 0.000446
0.034147 0.809502 0.000157
0.188021 0.789678 0.000039
0.328547 0.774516 0.000031
0.435174 0.762552 0.000043
0.518638 0.750131 0.000173
0.585263 0.738350 0.000156
0.639347 0.728788 0.000042
0.684468 0.721612 0.000018
0.722357 0.714848 0.000009
0.756857 0.708576 0.000053
0.788187 0.702681 0.000251
0.816448 0.697607 0.000339
0.841371 0.693544 0.000174
0.864936 0.689767 0.000023
0.888798 0.688036 0.000033
0.911387 0.686528 0.000031
0.933227 0.685378 0.000020
0.954536 0.684539 0.000009
0.974757 0.683713 0.000002
0.988596 0.683030 0.000035
0.992035 0.682536 0.000128
0.995436 0.681901 0.000197
0.998904 0.681002 0.000246
0.999506 0.678494 0.000223
0.999489 0.675718 0.000202
0.999471 0.672985 0.000197
0.999452 0.670293 0.000207
0.999344 0.666712 0.001776
0.999252 0.662962 0.004299
0.000000 1.000000 0.000285
0.000000 0.986338 0.000357
0.000158 0.900097 0.000805
0.000000 0.857996 0.000527
0.014509 0.830295 0.000147
0.153018 0.810355 0.000080
0.299597 0.795083 0.000080
0.409761 0.782040 0.000055
0.497658 0.768752 0.000200
0.567898 0.756413 0.000224
0.624195 0.746058 0.000116
0.669999 0.737829 0.000060
0.708617 0.731033 0.000030
0.743497 0.724861 0.000021
0.774956 0.718624 0.000115
0.803603 0.713307 0.000182
0.828839 0.709318 0.000104
0.852590 0.705500 0.000015
0.876207 0.702671 0.000047
0.898545 0.700165 0.000063
0.920233 0.698297 0.000051
0.941741 0.697252 0.000022
0.962140 0.696276 0.000005
0.977856 0.695681 0.000014
0.984715 0.695863 0.000053
0.991478 0.695889 0.000083
0.998179 0.695733 0.000103
0.999600 0.694605 0.000161
0.999541 0.693155 0.000215
0.999478 0.691622 0.000251
0.999410 0.690013 0.000270
0.999254 0.686925 0.000930
0.999094 0.683388 0.002069
0.000000 1.000000 0.000285
0.000000 1.000000 0.000285
0.000124 0.920619 0.000724
0.000003 0.878192 0.000698
0.001314 0.849770 0.000129
0.118725 0.829867 0.000149
0.270545 0.814399 0.000123
0.385291 0.800483 0.000068
0.477044 0.786257 0.000175
0.550726 0.773407 0.000233
0.609443 0.762361 0.000155
0.656084 0.753143 0.000096
0.695458 0.746261 0.000064
0.730760 0.740258 0.000023
0.762492 0.733749 0.000032
0.791520 0.728188 0.000065
0.817042 0.724170 0.000055
0.840998 0.720267 0.000017
0.864424 0.716549 0.000056
0.886576 0.713190 0.000080
0.908085 0.710619 0.000069
0.929704 0.709308 0.000028
0.950200 0.708112 0.000006
0.967383 0.707503 0.000000
0.977512 0.708222 0.000000
0.987428 0.708813 0.000001
0.997146 0.709285 0.000003
0.999615 0.709274 0.000103
0.999525 0.708955 0.000199
0.999437 0.708463 0.000253
0.999349 0.707809 0.000267
0.999173 0.705340 0.000183
0.998972 0.702133 0.000091
0.000000 1.000000 0.000285
0.000000 1.000000 0.000285
0.000047 0.940324 0.000552
0.000015 0.896396 0.000630
0.000617 0.867606 0.000428
0.082620 0.847975 0.000137
0.236958 0.832337 0.000236
0.359744 0.817399 0.000164
0.455182 0.801966 0.000156
0.531776 0.788686 0.000203
0.593363 0.777405 0.000081
0.641723 0.767943 0.000059
0.682396 0.760832 0.000148
0.718649 0.754793 0.000220
0.750651 0.748533 0.000148
0.780038 0.742969 0.000114
0.805981 0.738478 0.000133
0.830360 0.734177 0.000115
0.854057 0.730221 0.000099
0.876502 0.726584 0.000090
0.898022 0.723463 0.000075
0.919214 0.721233 0.000038
0.939336 0.719142 0.000012
0.957280 0.717912 0.000000
0.970379 0.718470 0.000006
0.983062 0.718909 0.000016
0.995361 0.719239 0.000030
0.999034 0.719557 0.000085
0.999015 0.719822 0.000132
0.999053 0.720000 0.000150
0.999142 0.720097 0.000142
0.999149 0.718780 0.000100
0.999107 0.716631 0.000068
0.000000 1.000000 0.000285
0.000000 1.000000 0.000285
0.000009 0.959149 0.000378
0.000001 0.913783 0.000457
0.000263 0.884650 0.000786
0.048334 0.864972 0.000107
0.204177 0.849376 0.000300
0.334714 0.833563 0.000260
0.433930 0.816989 0.000165
0.513408 0.803277 0.000224
0.577892 0.791741 0.000025
0.627881 0.782021 0.000022
0.669850 0.774667 0.000213
0.707029 0.768576 0.000413
0.739286 0.762523 0.000258
0.769019 0.756988 0.000143
0.795385 0.752066 0.000186
0.820187 0.747406 0.000184
0.844161 0.743185 0.000133
0.866892 0.739253 0.000103
0.888493 0.735633 0.000089
0.909297 0.732522 0.000053
0.929048 0.729685 0.000022
0.947444 0.727850 0.000001
0.963332 0.728252 0.000013
0.978614 0.728546 0.000033
0.993337 0.728741 0.000061
0.998395 0.729351 0.000085
0.998474 0.730216 0.000090
0.998658 0.731075 0.000079
0.998941 0.731926 0.000054
0.999141 0.731656 0.000044
0.999253 0.730454 0.000063
0.000000 1.000000 0.000285
0.000000 1.000000 0.000285
0.000000 0.975238 0.000237
0.000001 0.930067 0.000360
0.000137 0.900935 0.000962
0.023271 0.880893 0.000175
0.171656 0.865178 0.000348
0.308685 0.848786 0.000335
0.412099 0.831329 0.000200
0.494606 0.817320 0.000279
0.562119 0.805524 0.000025
0.614043 0.795567 0.000006
0.657364 0.788034 0.000207
0.695531 0.781692 0.000464
0.728256 0.775603 0.000283
0.758497 0.769971 0.000132
0.785290 0.764812 0.000196
0.810503 0.759952 0.000217
0.834557 0.755560 0.000153
0.857338 0.751444 0.000108
0.878942 0.747547 0.000090
0.899590 0.743960 0.000057
0.919146 0.740856 0.000026
0.937742 0.738510 0.000001
0.955292 0.738392 0.000017
0.972120 0.738224 0.000041
0.988285 0.738008 0.000074
0.995098 0.738564 0.000087
0.996128 0.739670 0.000078
0.997260 0.740798 0.000063
0.998486 0.741947 0.000042
0.999183 0.742340 0.000048
0.999359 0.741920 0.000083
0.000000 1.000000 0.000285
0.000000 1.000000 0.000285
0.000000 0.986230 0.000185
0.000007 0.945572 0.000376
0.000099 0.916511 0.000866
0.013209 0.896025 0.000355
0.139282 0.879567 0.000428
0.280806 0.863005 0.000364
0.389117 0.844898 0.000239
0.474820 0.830787 0.000326
0.545445 0.818799 0.000097
0.599849 0.808709 0.000026
0.644762 0.800927 0.000121
0.683876 0.794242 0.000289
0.717434 0.787796 0.000181
0.748456 0.781834 0.000081
0.775670 0.776686 0.000172
0.801270 0.771828 0.000233
0.825153 0.767432 0.000174
0.847646 0.763319 0.000103
0.869047 0.759424 0.000057
0.889821 0.755991 0.000036
0.909509 0.752951 0.000017
0.928234 0.750354 0.000001
0.945924 0.749213 0.000012
0.962887 0.748146 0.000028
0.979183 0.747148 0.000050
0.987946 0.747166 0.000069
0.991128 0.747944 0.000081
0.994328 0.748713 0.000093
0.997544 0.749474 0.000105
0.999272 0.750014 0.000114
0.999381 0.750263 0.000117
0.000000 1.000000 0.000285
0.000000 1.000000 0.000285
0.000000 0.994913 0.000222
0.000006 0.960732 0.000352
0.000070 0.931484 0.000807
0.005094 0.910596 0.000444
0.107817 0.893301 0.000508
0.253412 0.876724 0.000377
0.366761 0.857809 0.000262
0.455518 0.843580 0.000370
0.529155 0.831466 0.000181
0.585907 0.821382 0.000046
0.632553 0.813257 0.000048
0.672490 0.806281 0.000120
0.706920 0.799505 0.000079
0.738673 0.793212 0.000034
0.766345 0.788051 0.000154
0.792322 0.783189 0.000260
0.816118 0.778782 0.000207
0.838354 0.774666 0.000106
0.859545 0.770761 0.000025
0.880446 0.767435 0.000016
0.900265 0.764384 0.000008
0.919099 0.761598 0.000000
0.936926 0.759519 0.000005
0.954022 0.757633 0.000013
0.970447 0.755924 0.000023
0.980920 0.755397 0.000045
0.986161 0.755841 0.000081
0.991340 0.756248 0.000122
0.996460 0.756621 0.000166
0.999348 0.757228 0.000184
0.999400 0.758190 0.000145
0.000000 1.000000 0.000285
0.000000 1.000000 0.000285
0.000000 1.000000 0.000285
0.000000 0.974525 0.000302
0.000052 0.945827 0.000758
0.000002 0.924485 0.000460
0.078047 0.906569 0.000526
0.225484 0.890103 0.000357
0.344177 0.870325 0.000246
0.436155 0.855831 0.000385
0.512737 0.843491 0.000250
0.571763 0.833343 0.000062
0.620289 0.824919 0.000000
0.661151 0.817702 0.000000
0.696491 0.810685 0.000005
0.728985 0.804138 0.000012
0.757161 0.798904 0.000141
0.783507 0.794031 0.000269
0.807370 0.789601 0.000227
0.829463 0.785470 0.000108
0.850490 0.781533 0.000001
0.871436 0.778207 0.000003
0.891274 0.775085 0.000003
0.910106 0.772150 0.000000
0.928090 0.769399 0.000006
0.945335 0.766917 0.000010
0.961903 0.764683 0.000012
0.973880 0.763609 0.000031
0.981124 0.763610 0.000079
0.988233 0.763566 0.000135
0.995216 0.763479 0.000199
0.999427 0.764011 0.000218
0.999437 0.765583 0.000151
0.000000 1.000000 0.000285
0.000000 1.000000 0.000285
0.000000 1.000000 0.000285
0.000000 0.983684 0.000288
0.000044 0.959411 0.000699
0.000018 0.937328 0.000479
0.052832 0.919771 0.000394
0.194762 0.903400 0.000262
0.319288 0.883061 0.000156
0.415504 0.867885 0.000303
0.495065 0.854835 0.000224
0.556225 0.844394 0.000062
0.606957 0.835619 0.000000
0.649196 0.828183 0.000000
0.685671 0.821127 0.000026
0.719144 0.814502 0.000066
0.747860 0.809153 0.000136
0.774592 0.804277 0.000196
0.798797 0.799820 0.000161
0.821011 0.795645 0.000079
0.842105 0.791661 0.000017
0.862754 0.788185 0.000022
0.882297 0.784907 0.000017
0.900829 0.781806 0.000001
0.919008 0.779000 0.000026
0.936458 0.776430 0.000044
0.953210 0.774072 0.000053
0.966541 0.772485 0.000056
0.975803 0.771731 0.000073
0.984877 0.770982 0.000102
0.993777 0.770237 0.000142
0.999520 0.770426 0.000146
0.999493 0.772106 0.000101
0.000000 1.000000 0.000285
0.000000 1.000000 0.000285
0.000000 1.000000 0.000285
0.000000 0.991375 0.000291
0.000030 0.972519 0.000673
0.000046 0.949692 0.000507
0.029640 0.932492 0.000317
0.164482 0.916230 0.000187
0.294772 0.895429 0.000084
0.395275 0.879592 0.000198
0.477265 0.865920 0.000199
0.541042 0.855061 0.000062
0.593956 0.845907 0.000000
0.637473 0.838265 0.000000
0.675096 0.831136 0.000049
0.709557 0.824411 0.000125
0.738882 0.818974 0.000144
0.766013 0.814126 0.000133
0.790555 0.809663 0.000095
0.812856 0.805428 0.000056
0.834071 0.801436 0.000047
0.854426 0.797804 0.000051
0.873676 0.794367 0.000037
0.891914 0.791099 0.000004
0.910232 0.788210 0.000041
0.927875 0.785537 0.000069
0.944805 0.783044 0.000080
0.959290 0.781011 0.000071
0.970507 0.779543 0.000059
0.981485 0.778127 0.000063
0.992239 0.776815 0.000081
0.999604 0.776615 0.000081
0.999545 0.778379 0.000056
0.000000 1.000000 0.000285
0.000000 1.000000 0.000285
0.000000 1.000000 0.000285
0.000000 0.997669 0.000291
0.000010 0.985204 0.000659
0.000086 0.961602 0.000538
0.008421 0.944771 0.000297
0.134590 0.928619 0.000128
0.270586 0.907463 0.000035
0.375507 0.890996 0.000085
0.459768 0.876721 0.000177
0.526171 0.865382 0.000065
0.581268 0.855814 0.000000
0.625970 0.847980 0.000000
0.664739 0.840750 0.000072
0.700198 0.833905 0.000188
0.730200 0.828395 0.000163
0.757741 0.823604 0.000081
0.782625 0.819158 0.000029
0.804973 0.814847 0.000041
