output/AP0_display/AP0_to_CLASSIC-Neg._33grid.cube
TITLE "AP0_to_CLASSIC-Neg."
# Input: Linear ACES2065-1 / AP0 (D60)
# Output: BT.709 / Gamma 2.2 (display-referred)
# Use: Display/output transform in ACES pipeline (replaces ODT)
# Source: FLog2C_to_CLASSIC-Neg._65grid_V.1.00.cube
# Generated from Fujifilm GFX ETERNA 55 F-Log2C LUT
LUT_3D_SIZE 9
0.000129 0.000120 0.000052
0.891544 0.106708 0.033533
0.946428 0.198785 0.199688
0.950947 0.280520 0.276020
0.951060 0.281893 0.277250
0.951060 0.281893 0.277250
0.951060 0.281893 0.277250
0.951060 0.281893 0.277250
0.951060 0.281893 0.277250
0.014465 0.468260 0.087718
0.323982 0.258442 0.002480
0.787826 0.295442 0.000019
0.905050 0.324995 0.028586
0.944545 0.350731 0.098500
0.947938 0.360363 0.149136
0.949758 0.369629 0.184259
0.951179 0.384164 0.217141
0.953083 0.396200 0.244474
0.024459 0.753124 0.125879
0.139080 0.454732 0.057999
0.626750 0.461567 0.000535
0.845041 0.484303 0.003543
0.913546 0.500947 0.046857
0.947316 0.516290 0.095750
0.951595 0.519254 0.137255
0.952736 0.512338 0.163548
0.953534 0.510232 0.188881
0.026966 0.855132 0.142227
0.020949 0.619931 0.103413
0.452243 0.598933 0.038879
0.778523 0.610775 0.002466
0.881214 0.618743 0.026020
0.927090 0.626703 0.066320
0.950062 0.632370 0.108776
0.954631 0.629896 0.141915
0.955920 0.620937 0.165792
0.029269 0.906070 0.151513
0.023161 0.731801 0.122200
0.289077 0.695870 0.078499
0.688264 0.701994 0.023259
0.845021 0.706012 0.011472
0.905847 0.709496 0.044087
0.938118 0.710954 0.081972
0.953940 0.711484 0.118733
0.957496 0.705512 0.147105
0.029427 0.936212 0.156655
0.025723 0.800691 0.133530
0.153270 0.758739 0.108270
0.571148 0.764292 0.050713
0.800108 0.768297 0.019324
0.882007 0.768305 0.022695
0.921235 0.767990 0.056534
0.945703 0.767612 0.093350
0.957252 0.765384 0.125901
0.028968 0.946082 0.158066
0.027065 0.847641 0.140847
0.049364 0.801591 0.129984
0.432433 0.804147 0.077360
0.738164 0.810768 0.035781
0.856640 0.811374 0.020136
0.904416 0.809619 0.034254
0.933848 0.808319 0.066675
0.951823 0.806985 0.101116
0.028899 0.946117 0.158066
0.028304 0.880791 0.146892
0.026339 0.837349 0.138665
0.295012 0.831057 0.101997
0.652424 0.840816 0.052044
0.821724 0.843257 0.029849
0.885043 0.841753 0.025180
0.920350 0.840282 0.043628
0.942474 0.838497 0.077528
0.029136 0.945996 0.158066
0.028857 0.906557 0.152116
0.027656 0.865043 0.143378
0.171474 0.851991 0.122245
0.545145 0.862189 0.070926
0.775359 0.867990 0.040298
0.862246 0.867149 0.027576
0.905042 0.865885 0.029307
0.931637 0.863284 0.054418
0.060935 0.020403 0.201880
0.817962 0.072278 0.096754
0.946318 0.146126 0.245970
0.951440 0.247484 0.312238
0.953946 0.296534 0.339339
0.952960 0.295525 0.329359
0.953145 0.292288 0.320970
0.952808 0.290154 0.314187
0.952312 0.288897 0.308828
0.044213 0.622053 0.739108
0.316953 0.336208 0.332672
0.768222 0.340984 0.273328
0.895771 0.354822 0.298418
0.946112 0.369077 0.341524
0.958264 0.382125 0.387347
0.959664 0.400819 0.411639
0.961083 0.422239 0.429218
0.962014 0.440875 0.444416
0.053540 0.815072 0.857575
0.139625 0.583528 0.489100
0.609397 0.548005 0.376917
0.836525 0.543966 0.353508
0.911450 0.544688 0.368438
0.947899 0.549347 0.394891
0.963669 0.551146 0.423298
0.964878 0.552992 0.446385
0.965777 0.555628 0.460853
0.057187 0.882503 0.894866
0.040595 0.724724 0.582052
0.426382 0.683407 0.458140
0.763377 0.677014 0.404964
0.876760 0.671229 0.398774
0.926637 0.667778 0.410816
0.953643 0.665359 0.429142
0.966589 0.664379 0.450072
0.968659 0.660954 0.469778
0.057464 0.914464 0.899794
0.044493 0.802636 0.628927
0.260548 0.760747 0.516927
0.655847 0.757620 0.445287
0.836313 0.753956 0.423011
0.903406 0.746899 0.422927
0.937875 0.743997 0.435133
0.959924 0.740837 0.451211
0.970674 0.737097 0.468663
0.058769 0.932656 0.894419
0.046875 0.851390 0.659997
0.124313 0.807588 0.557474
0.516475 0.805921 0.479083
0.777709 0.806599 0.439332
0.876781 0.802121 0.432903
0.921036 0.797213 0.440054
0.947205 0.793967 0.451882
0.964265 0.790249 0.465845
0.057906 0.941888 0.881850
0.048319 0.885044 0.679800
0.044057 0.840339 0.582694
0.364754 0.835937 0.508656
0.695877 0.841014 0.457544
0.840362 0.839406 0.441347
0.901474 0.834967 0.443295
0.933588 0.831383 0.450688
0.955512 0.827688 0.461094
0.056816 0.943175 0.858077
0.049649 0.908722 0.690317
0.045565 0.868775 0.591749
0.233122 0.858148 0.533193
0.588506 0.865178 0.474788
0.792857 0.866814 0.449039
0.877951 0.864272 0.444702
0.918211 0.859994 0.448392
0.944257 0.856702 0.456980
0.056189 0.942432 0.834526
0.049784 0.925502 0.694273
0.045803 0.890368 0.597530
0.121215 0.875033 0.550784
0.463085 0.881597 0.491431
0.727421 0.887743 0.456500
0.848660 0.887347 0.445330
0.900432 0.883377 0.446614
0.931450 0.879952 0.452834
0.107358 0.043793 0.362428
0.757268 0.054085 0.179920
0.944920 0.122706 0.304289
0.953137 0.213185 0.362603
0.956926 0.301551 0.402386
0.957485 0.319553 0.406343
0.957171 0.318769 0.398846
0.956775 0.315983 0.390533
0.956956 0.313777 0.384362
0.056201 0.656923 0.906862
0.312606 0.379841 0.536772
0.764578 0.363659 0.437161
0.895252 0.369089 0.440609
0.945269 0.378179 0.466966
0.962658 0.386954 0.499063
0.963452 0.406538 0.515768
0.964698 0.434840 0.523659
0.965958 0.459767 0.534296
0.059259 0.825745 0.987515
0.141791 0.632403 0.720328
0.607792 0.581597 0.573020
0.838900 0.569296 0.528458
0.912229 0.563096 0.526328
0.948602 0.562445 0.535795
0.968449 0.562856 0.550626
0.969676 0.565388 0.566487
0.970468 0.571219 0.573862
0.060194 0.881210 0.999242
0.051030 0.756933 0.813243
0.425330 0.710759 0.670035
0.764473 0.699693 0.594827
0.879133 0.689852 0.572821
0.927250 0.682470 0.570305
0.955786 0.677756 0.575938
0.971649 0.674867 0.586688
0.974199 0.672240 0.597404
0.061814 0.910584 0.999964
0.053265 0.824932 0.856299
0.260678 0.780005 0.734667
0.653831 0.774847 0.646081
0.837375 0.768342 0.608819
0.903740 0.760797 0.597446
0.940465 0.755213 0.597130
0.962345 0.750434 0.600290
0.975269 0.746599 0.608028
0.063347 0.927870 0.999915
0.055910 0.866998 0.883912
0.126209 0.821544 0.781043
0.511581 0.817880 0.689804
0.776277 0.817935 0.637103
0.876279 0.812481 0.617872
0.922500 0.806629 0.612142
0.949916 0.801908 0.613049
0.967855 0.797882 0.616470
0.063648 0.938454 0.999313
0.056993 0.894257 0.899008
0.060377 0.852229 0.808749
0.364543 0.846154 0.727290
0.691705 0.850230 0.664578
0.837956 0.847830 0.635346
0.902022 0.842973 0.625098
0.935189 0.838529 0.622017
0.957043 0.834336 0.622567
0.062978 0.942795 0.992722
0.058222 0.913424 0.906773
0.054204 0.876667 0.822236
0.234328 0.866210 0.757192
0.578925 0.871770 0.689726
0.786978 0.873822 0.651513
0.876931 0.870385 0.634998
0.919100 0.866361 0.627810
0.944573 0.861578 0.626165
0.061633 0.942602 0.978521
0.058961 0.926776 0.910702
0.054440 0.895248 0.829249
0.129831 0.880607 0.777857
0.452036 0.885865 0.712332
0.716305 0.891582 0.665799
0.844317 0.891404 0.642262
0.899961 0.887938 0.632484
0.931258 0.883708 0.628368
0.145966 0.065277 0.496300
0.685020 0.044722 0.257709
0.938616 0.104924 0.348253
0.953366 0.178594 0.411313
0.956739 0.270657 0.428315
0.957699 0.312616 0.439525
0.958016 0.314800 0.433019
0.957446 0.316330 0.427289
0.957731 0.317552 0.422510
0.138795 0.679841 0.965592
0.301582 0.417198 0.681480
0.756597 0.381192 0.550331
0.893226 0.379209 0.535667
0.943655 0.385855 0.548931
0.964833 0.390866 0.569257
0.966040 0.404694 0.581732
0.966723 0.429731 0.577077
0.966930 0.453603 0.578819
0.060246 0.826409 0.999958
0.134440 0.667957 0.848002
0.600322 0.605938 0.694035
0.838266 0.586301 0.636288
0.913369 0.575990 0.622256
0.949367 0.571621 0.622374
0.971918 0.569799 0.628770
0.972802 0.570839 0.639568
0.972512 0.579352 0.640768
0.063605 0.878136 0.999902
0.055161 0.778537 0.921261
0.418328 0.728304 0.785064
0.758996 0.713922 0.704705
0.879222 0.701009 0.673917
0.928108 0.692221 0.664518
0.956993 0.686821 0.662920
0.974149 0.682701 0.665751
0.976224 0.679338 0.671870
0.063925 0.906102 0.999606
0.058039 0.840747 0.956863
0.258229 0.791868 0.844971
0.644384 0.785144 0.756808
0.835279 0.777344 0.712279
0.903823 0.769071 0.695962
0.940921 0.762148 0.689258
0.963479 0.756949 0.687593
0.978026 0.753035 0.689332
0.064129 0.923292 0.999487
0.059887 0.875978 0.974305
0.129220 0.831023 0.887799
0.503778 0.826355 0.799818
0.771760 0.825288 0.744901
0.874304 0.818473 0.719940
0.922594 0.812639 0.708085
0.950240 0.807651 0.703294
0.969196 0.801817 0.701991
0.065076 0.933363 0.999956
0.060612 0.899961 0.984422
0.057081 0.858363 0.913485
0.359010 0.852764 0.835691
0.681275 0.855920 0.771949
0.834613 0.852882 0.738792
0.901022 0.848028 0.723084
0.935681 0.842555 0.714842
0.956407 0.837591 0.710827
0.064418 0.939911 0.999839
0.061262 0.916803 0.989076
0.058092 0.880612 0.921744
0.232721 0.870652 0.863345
0.567370 0.875838 0.797198
0.780348 0.877343 0.755530
0.873664 0.874405 0.735622
0.918400 0.868677 0.723071
0.944200 0.864200 0.717143
0.064505 0.942577 0.999746
0.061533 0.929258 0.992229
0.058918 0.897256 0.926965
0.131437 0.882889 0.883302
0.441311 0.888442 0.820270
0.706338 0.894157 0.771160
0.837088 0.893700 0.745245
0.896613 0.889717 0.730191
0.929994 0.884925 0.721579
0.184965 0.084660 0.606018
0.603018 0.053691 0.341275
0.925017 0.086529 0.387889
0.954687 0.152094 0.459523
0.957084 0.239002 0.455058
0.958913 0.300333 0.467175
0.958969 0.309467 0.460655
0.959165 0.310865 0.455129
0.958861 0.312158 0.449173
0.203365 0.694331 0.994467
0.284522 0.455555 0.784329
0.745868 0.397416 0.634384
0.890072 0.388473 0.603841
0.943432 0.390644 0.607831
0.965756 0.395173 0.619904
0.967922 0.402104 0.632881
0.968648 0.426188 0.619853
0.969071 0.448853 0.614129
0.073114 0.827010 0.999999
0.124645 0.697324 0.926179
0.587018 0.624119 0.771107
0.832193 0.599566 0.707473
0.911489 0.586077 0.686052
0.948795 0.579128 0.681155
0.971708 0.576568 0.682172
0.974217 0.574545 0.687604
0.974844 0.579718 0.686014
0.063961 0.875215 0.999715
0.058181 0.798755 0.986577
0.405425 0.740903 0.855000
0.750765 0.724708 0.773559
0.876317 0.710346 0.738988
0.927346 0.700258 0.725481
0.956636 0.692337 0.718859
0.975272 0.687313 0.718394
0.979235 0.683485 0.720898
0.064835 0.901835 0.999865
0.061207 0.852375 0.999488
0.251064 0.801594 0.908655
0.633858 0.792910 0.822041
0.830395 0.784511 0.776252
0.902053 0.775083 0.756568
0.940033 0.767480 0.746627
0.962311 0.761893 0.740470
0.978826 0.756364 0.740039
0.065272 0.919237 0.999953
0.062311 0.884110 0.999947
0.123247 0.837472 0.947113
0.491821 0.832219 0.863300
0.763795 0.830571 0.806955
0.872355 0.824418 0.780423
0.921723 0.817532 0.767387
0.950405 0.810611 0.759321
0.968609 0.804891 0.754213
0.065097 0.929009 0.999926
0.062795 0.904965 0.999890
0.062956 0.862851 0.967753
0.348693 0.856227 0.895780
0.670374 0.859295 0.833974
0.831760 0.856939 0.799411
0.898158 0.851005 0.782165
0.934327 0.844849 0.771465
0.955999 0.839170 0.765220
0.064983 0.937147 0.999894
0.063088 0.920282 0.999811
0.059658 0.883199 0.975109
0.226380 0.872042 0.920379
0.554060 0.877368 0.857776
0.774193 0.879628 0.815785
0.868423 0.876023 0.793996
0.915898 0.870686 0.781422
0.942371 0.865044 0.773060
0.065285 0.942413 0.999803
0.064304 0.930735 0.999954
0.060130 0.898748 0.979265
0.124822 0.883333 0.939233
0.428656 0.889191 0.880090
0.697336 0.894861 0.831212
0.830549 0.894345 0.803662
0.893331 0.890026 0.788988
0.927150 0.885466 0.778341
0.224971 0.102676 0.684963
0.509142 0.065947 0.428941
0.909834 0.070045 0.422039
0.956411 0.130567 0.499404
0.957320 0.211403 0.484270
0.959065 0.281952 0.488458
0.959598 0.302815 0.484872
0.958921 0.305149 0.478568
0.959339 0.306494 0.471641
0.262767 0.705772 0.999946
0.264796 0.495281 0.858939
0.732150 0.411149 0.694529
0.887074 0.397460 0.656699
0.940750 0.396349 0.652343
0.966503 0.400219 0.658063
0.968809 0.404120 0.668524
0.969103 0.422386 0.654049
0.968665 0.443971 0.643571
0.132936 0.828428 0.999999
0.113719 0.725917 0.982311
0.569940 0.639726 0.825684
0.828272 0.611655 0.756584
0.908112 0.594680 0.731407
0.947884 0.585567 0.722511
0.972070 0.581041 0.719223
0.976334 0.579016 0.722992
0.976234 0.580139 0.720281
0.064899 0.871900 0.999635
0.059825 0.816849 0.999907
0.391405 0.752750 0.902820
0.743374 0.733892 0.819314
0.873352 0.718908 0.783671
0.925730 0.706284 0.767063
0.955463 0.698443 0.759022
0.976243 0.692420 0.756286
0.980507 0.686988 0.755676
0.063841 0.897534 0.999636
0.062848 0.862447 0.999866
0.242538 0.809088 0.953923
0.624244 0.799156 0.866662
0.825121 0.790859 0.820154
0.901424 0.780504 0.798080
0.939469 0.772137 0.786359
0.962337 0.765612 0.779905
0.978314 0.759464 0.775842
0.064881 0.915385 0.999896
0.063498 0.890311 0.999626
0.120327 0.842094 0.985977
0.480101 0.836754 0.906489
0.756733 0.834267 0.849926
0.869176 0.827578 0.821252
0.918707 0.820068 0.806231
0.948098 0.813603 0.796902
0.967720 0.807378 0.790463
0.065144 0.926144 0.999924
0.064644 0.909919 0.999898
0.061078 0.865830 0.999051
0.338761 0.858871 0.936992
0.659776 0.861726 0.875121
0.826773 0.859050 0.838805
0.894718 0.852937 0.820529
0.931746 0.846839 0.809248
0.954568 0.840947 0.800979
0.064921 0.933411 0.999875
0.064368 0.923522 0.999948
0.061574 0.885045 0.999798
0.220795 0.873975 0.959954
0.540907 0.878561 0.898585
0.767565 0.880987 0.854708
0.864431 0.877106 0.832592
0.912661 0.871596 0.818682
0.940557 0.865903 0.809090
0.065580 0.939021 0.999926
0.064842 0.934065 0.999754
0.061702 0.900132 0.999782
0.126157 0.884886 0.976786
0.416404 0.889093 0.919621
0.687783 0.895311 0.870869
0.824166 0.894534 0.843247
0.889415 0.890232 0.826807
0.924940 0.885731 0.815902
0.265414 0.119417 0.742487
0.418530 0.079229 0.524139
0.893252 0.059978 0.456067
0.956683 0.113193 0.527073
0.957602 0.187541 0.515649
0.959703 0.260446 0.509100
0.960652 0.295391 0.506600
0.960785 0.299423 0.499806
0.960852 0.300945 0.492817
0.318654 0.714516 0.999807
0.247010 0.542302 0.921401
0.715237 0.427950 0.744420
0.882431 0.406131 0.696636
0.939008 0.402149 0.686382
0.966697 0.402986 0.687796
0.971248 0.405940 0.695689
0.970641 0.420929 0.682682
0.970807 0.440183 0.669516
0.190277 0.828838 0.999992
0.154060 0.758086 0.999619
0.549282 0.654376 0.866614
0.822033 0.622012 0.792803
0.906674 0.602545 0.765954
0.946017 0.591500 0.754275
0.970378 0.585810 0.749328
0.977085 0.582687 0.750693
0.977073 0.581666 0.747161
0.077802 0.869743 0.999983
0.067259 0.832925 0.999974
0.376050 0.762082 0.939575
0.734314 0.741848 0.854560
0.869615 0.725496 0.816218
0.924111 0.711714 0.798880
0.954511 0.703231 0.789211
0.975064 0.696878 0.784251
0.980940 0.690392 0.781217
0.064157 0.894290 0.999591
0.063259 0.872622 0.999871
0.233051 0.816033 0.984476
0.611601 0.804363 0.900843
0.820115 0.795770 0.851933
0.898920 0.785019 0.828176
0.936988 0.775729 0.816362
0.961585 0.768227 0.808345
0.977497 0.761631 0.801843
0.065329 0.910792 0.999615
0.064665 0.898415 0.999695
0.112630 0.846142 0.999310
0.467245 0.839754 0.937087
0.749498 0.837618 0.880104
0.866223 0.830349 0.851340
0.916767 0.822360 0.835129
0.946731 0.815199 0.823889
0.966000 0.808584 0.816498
0.065679 0.922566 0.999996
0.065280 0.916399 0.999935
0.063232 0.868495 0.999966
0.329628 0.860373 0.965509
0.649449 0.863536 0.904955
0.821037 0.860215 0.868581
0.891400 0.854319 0.849308
0.929090 0.847834 0.836702
0.953047 0.841411 0.827795
0.065712 0.930697 0.999808
0.065631 0.930039 0.999830
0.062554 0.886561 0.999979
0.215646 0.874595 0.985745
0.529007 0.879219 0.928277
0.756866 0.880934 0.884398
0.859552 0.877589 0.861281
0.909279 0.871971 0.846717
0.938723 0.866501 0.836759
0.065808 0.937238 0.999724
0.065819 0.937214 0.999729
0.062955 0.900871 0.999979
0.123640 0.885596 0.996746
0.406763 0.889290 0.948916
0.673941 0.894857 0.900598
0.817419 0.894273 0.871692
0.885114 0.890428 0.854620
0.922189 0.885873 0.843647
0.306844 0.136314 0.784210
0.340418 0.096104 0.628739
0.876577 0.064758 0.491599
0.956762 0.098628 0.547589
0.958447 0.165790 0.547348
0.960027 0.237461 0.529863
0.961075 0.284928 0.525864
0.960754 0.294518 0.518930
0.960494 0.296127 0.511962
0.368965 0.719340 0.999535
0.286591 0.603005 0.972354
0.695124 0.442470 0.783929
0.876510 0.415841 0.728986
0.935229 0.407566 0.714026
0.966357 0.407014 0.712305
0.971907 0.408587 0.716545
0.971122 0.420221 0.706966
0.971565 0.437816 0.692034
0.231849 0.827767 0.999787
0.208595 0.790236 0.999978
0.528065 0.667319 0.900990
0.812141 0.631117 0.823518
0.903532 0.609814 0.792823
0.943960 0.597539 0.778922
0.969081 0.590093 0.772676
0.977688 0.585971 0.771512
0.978039 0.583381 0.768180
0.112654 0.866504 0.999842
0.108501 0.852615 0.999966
0.358919 0.771539 0.968622
0.721619 0.748638 0.882963
0.866258 0.731639 0.842960
0.923023 0.717105 0.824350
0.953150 0.707813 0.812668
0.973747 0.699916 0.805651
0.981476 0.692931 0.802337
0.066479 0.889485 1.000000
0.066644 0.885441 0.999996
0.221334 0.821138 0.998859
0.596577 0.809072 0.926620
0.816444 0.799969 0.877280
0.896429 0.788620 0.853100
0.935039 0.779324 0.839563
0.959865 0.770956 0.830531
0.977057 0.763536 0.823402
0.066417 0.906982 0.999931
0.066423 0.906941 0.999931
0.106222 0.849273 0.999599
0.451498 0.841834 0.960976
0.739758 0.839525 0.904192
0.860543 0.832493 0.874966
0.914290 0.823919 0.857731
0.944868 0.816692 0.846128
0.964849 0.809687 0.838011
0.065581 0.918994 0.999886
0.065578 0.918964 0.999883
0.063406 0.870500 0.999898
0.316091 0.861104 0.987550
0.635585 0.864037 0.928127
0.812183 0.861319 0.891939
0.887857 0.855016 0.871656
0.926623 0.848530 0.858550
0.951228 0.841966 0.849424
0.066176 0.927832 1.000000
0.066169 0.927816 1.000000
0.063436 0.888454 0.999986
0.207779 0.875249 0.998442
0.514850 0.879145 0.950940
0.745392 0.881074 0.906992
0.855033 0.877772 0.883453
0.905969 0.872309 0.868660
0.936319 0.866721 0.858234
0.066366 0.934910 0.999935
0.066365 0.934898 0.999933
0.063856 0.902137 0.999956
0.117083 0.885721 0.999835
0.395465 0.888849 0.970718
0.660947 0.894164 0.923332
0.811874 0.894278 0.893661
0.881045 0.890535 0.876790
0.919316 0.886070 0.865254
0.347503 0.152618 0.815664
0.286327 0.120139 0.741234
0.856874 0.079488 0.530968
0.953199 0.087565 0.565646
0.959069 0.144989 0.578526
0.960564 0.215353 0.550400
0.961514 0.272000 0.542822
0.961876 0.289370 0.536263
0.961386 0.291226 0.528932
0.413023 0.721521 0.999600
0.380129 0.685775 0.999801
0.674686 0.458185 0.818441
0.870032 0.424679 0.756079
0.932827 0.412460 0.737081
0.965752 0.411294 0.732700
0.972102 0.411067 0.734148
0.971941 0.420034 0.727599
0.972136 0.435605 0.711565
0.259637 0.822701 0.999626
0.259779 0.822687 0.999631
0.505621 0.680614 0.930180
0.803201 0.640782 0.848696
0.900402 0.616465 0.815551
0.942092 0.602526 0.800307
0.967866 0.594316 0.792966
0.978472 0.589177 0.789870
0.979233 0.585229 0.786284
0.148618 0.862097 0.999567
0.148817 0.862076 0.999566
0.343134 0.779200 0.991306
0.709837 0.755246 0.906312
0.861746 0.736443 0.864168
0.920670 0.721747 0.844619
0.951882 0.711517 0.832797
0.972712 0.702792 0.823799
0.982008 0.695084 0.819253
0.070102 0.883632 0.999962
0.070153 0.883593 0.999961
0.209925 0.825546 0.999942
0.580195 0.812255 0.948645
0.807065 0.803449 0.898610
0.892202 0.791590 0.873142
0.933197 0.782142 0.858831
0.958062 0.773055 0.848254
0.975611 0.765105 0.840367
0.066445 0.901811 0.999650
0.066431 0.901766 0.999644
0.100621 0.852034 0.999440
0.435231 0.843175 0.980001
0.726393 0.840310 0.923621
0.854395 0.834369 0.893797
0.911106 0.825655 0.876439
0.942857 0.818313 0.864861
0.963563 0.810952 0.856274
0.065421 0.914769 0.999616
0.065423 0.914723 0.999613
0.063173 0.873318 0.999847
0.305217 0.861938 0.997321
0.620340 0.864268 0.947517
0.803753 0.862070 0.910309
0.884128 0.855835 0.889688
0.924192 0.849398 0.876293
0.949257 0.842773 0.866848
0.065717 0.924867 0.999897
0.065717 0.924828 0.999894
0.063521 0.890069 0.999822
0.200153 0.875615 0.999900
0.499387 0.879042 0.969625
0.735088 0.881220 0.925467
0.850565 0.878098 0.900869
0.902985 0.872524 0.886282
0.934050 0.866799 0.875795
0.066226 0.932683 0.999808
0.066224 0.932654 0.999807
0.064263 0.902829 0.999746
0.115823 0.886298 0.999942
0.382645 0.888718 0.987027
0.648756 0.893811 0.941567
0.806512 0.894455 0.911200
0.877336 0.890457 0.894772
0.916955 0.885964 0.883083
