output/AP0_display/AP0_to_ACROS_33grid.cube
TITLE "AP0_to_ACROS"
# Input: Linear ACES2065-1 / AP0 (D60)
# Output: BT.709 / Gamma 2.2 (display-referred)
# Use: Display/output transform in ACES pipeline (replaces ODT)
# Source: FLog2C_to_ACROS_65grid_V.1.00.cube
# Generated from Fujifilm GFX ETERNA 55 F-Log2C LUT
LUT_3D_SIZE 5
0.000105 0.000105 0.000105
0.486520 0.486520 0.486520
0.558594 0.558594 0.558594
0.558594 0.558594 0.558594
0.558594 0.558594 0.558594
0.475297 0.475297 0.475297
0.456323 0.456323 0.456323
0.570269 0.570269 0.570269
0.631682 0.631682 0.631682
0.656203 0.656203 0.656203
0.629309 0.629309 0.629309
0.558564 0.558564 0.558564
0.632307 0.632307 0.632307
0.685835 0.685835 0.685835
0.712521 0.712521 0.712521
0.680457 0.680457 0.680457
0.623117 0.623117 0.623117
0.678660 0.678660 0.678660
0.721384 0.721384 0.721384
0.750235 0.750235 0.750235
0.691050 0.691050 0.691050
0.666578 0.666578 0.666578
0.713524 0.713524 0.713524
0.749441 0.749441 0.749441
0.776383 0.776383 0.776383
0.045124 0.045124 0.045124
0.395491 0.395491 0.395491
0.554573 0.554573 0.554573
0.564289 0.564289 0.564289
0.563713 0.563713 0.563713
0.617425 0.617425 0.617425
0.542418 0.542418 0.542418
0.616409 0.616409 0.616409
0.668603 0.668603 0.668603
0.690714 0.690714 0.690714
0.725769 0.725769 0.725769
0.655704 0.655704 0.655704
0.702606 0.702606 0.702606
0.738736 0.738736 0.738736
0.764095 0.764095 0.764095
0.763704 0.763704 0.763704
0.717625 0.717625 0.717625
0.755438 0.755438 0.755438
0.784347 0.784347 0.784347
0.805450 0.805450 0.805450
0.773763 0.773763 0.773763
0.751196 0.751196 0.751196
0.789915 0.789915 0.789915
0.815367 0.815367 0.815367
0.833319 0.833319 0.833319
0.068529 0.068529 0.068529
0.339255 0.339255 0.339255
0.520698 0.520698 0.520698
0.564708 0.564708 0.564708
0.565037 0.565037 0.565037
0.623647 0.623647 0.623647
0.558313 0.558313 0.558313
0.624334 0.624334 0.624334
0.674107 0.674107 0.674107
0.698881 0.698881 0.698881
0.722459 0.722459 0.722459
0.669482 0.669482 0.669482
0.715126 0.715126 0.715126
0.749018 0.749018 0.749018
0.772728 0.772728 0.772728
0.760965 0.760965 0.760965
0.723527 0.723527 0.723527
0.766319 0.766319 0.766319
0.793573 0.793573 0.793573
0.813210 0.813210 0.813210
0.779242 0.779242 0.779242
0.750646 0.750646 0.750646
0.794853 0.794853 0.794853
0.821216 0.821216 0.821216
0.839289 0.839289 0.839289
0.085001 0.085001 0.085001
0.288194 0.288194 0.288194
0.483741 0.483741 0.483741
0.560708 0.560708 0.560708
0.563040 0.563040 0.563040
0.619525 0.619525 0.619525
0.561489 0.561489 0.561489
0.625961 0.625961 0.625961
0.673513 0.673513 0.673513
0.700920 0.700920 0.700920
0.713354 0.713354 0.713354
0.670533 0.670533 0.670533
0.718733 0.718733 0.718733
0.751237 0.751237 0.751237
0.774623 0.774623 0.774623
0.753569 0.753569 0.753569
0.717466 0.717466 0.717466
0.766003 0.766003 0.766003
0.794279 0.794279 0.794279
0.813079 0.813079 0.813079
0.776245 0.776245 0.776245
0.742225 0.742225 0.742225
0.791232 0.791232 0.791232
0.819826 0.819826 0.819826
0.838119 0.838119 0.838119
0.097277 0.097277 0.097277
0.263180 0.263180 0.263180
0.447642 0.447642 0.447642
0.548310 0.548310 0.548310
0.559859 0.559859 0.559859
0.611556 0.611556 0.611556
0.559474 0.559474 0.559474
0.624224 0.624224 0.624224
0.671624 0.671624 0.671624
0.700519 0.700519 0.700519
0.702661 0.702661 0.702661
0.661819 0.661819 0.661819
0.717795 0.717795 0.717795
0.750791 0.750791 0.750791
0.773059 0.773059 0.773059
0.745241 0.745241 0.745241
0.706013 0.706013 0.706013
0.761037 0.761037 0.761037
0.791166 0.791166 0.791166
0.811456 0.811456 0.811456
0.770770 0.770770 0.770770
0.731279 0.731279 0.731279
0.784868 0.784868 0.784868
0.816064 0.816064 0.816064
0.835667 0.835667 0.835667
