output/AP0_display/AP0_to_ETERNA-BB_33grid.cube
TITLE "AP0_to_ETERNA-BB"
# Input: Linear ACES2065-1 / AP0 (D60)
# Output: BT.709 / Gamma 2.2 (display-referred)
# Use: Display/output transform in ACES pipeline (replaces ODT)
# Source: FLog2C_to_ETERNA-BB_65grid_V.1.00.cube
# Generated from Fujifilm GFX ETERNA 55 F-Log2C LUT
LUT_3D_SIZE 9
0.000282 0.000191 0.000111
0.582487 0.127979 0.170094
0.697939 0.273187 0.294920
0.752580 0.375065 0.373889
0.753503 0.376840 0.375047
0.753503 0.376840 0.375047
0.753503 0.376840 0.375047
0.753503 0.376840 0.375047
0.753503 0.376840 0.375047
0.105151 0.433956 0.125622
0.310596 0.252769 0.103299
0.563577 0.305128 0.182383
0.697133 0.385959 0.252304
0.778458 0.459445 0.319064
0.802220 0.487345 0.357350
0.807797 0.493921 0.377601
0.815897 0.506245 0.397032
0.822531 0.515658 0.414457
0.205464 0.680256 0.224483
0.292037 0.449642 0.177426
0.552438 0.485858 0.243824
0.715390 0.547677 0.312908
0.797150 0.593417 0.351829
0.844678 0.628367 0.373333
0.866197 0.641979 0.388443
0.869396 0.636100 0.404702
0.871288 0.632471 0.418128
0.235625 0.766179 0.256227
0.296143 0.593060 0.223280
0.550096 0.614297 0.295916
0.716584 0.656656 0.346978
0.804550 0.688682 0.374839
0.855802 0.710701 0.390884
0.885172 0.726849 0.401825
0.896007 0.730122 0.407021
0.896060 0.723497 0.414804
0.248542 0.801530 0.269267
0.292299 0.683479 0.247613
0.535782 0.697400 0.315079
0.706361 0.730339 0.358675
0.803512 0.753908 0.384686
0.856840 0.769580 0.399291
0.888105 0.780023 0.407783
0.907356 0.787925 0.412929
0.913369 0.786234 0.414451
0.257344 0.824511 0.277293
0.277773 0.735829 0.257859
0.511111 0.750537 0.319131
0.688678 0.780942 0.360904
0.793000 0.799955 0.385562
0.850622 0.812584 0.397967
0.884008 0.818936 0.407152
0.907218 0.824765 0.412643
0.920110 0.826706 0.415360
0.259872 0.829741 0.280004
0.250147 0.764352 0.258795
0.481236 0.782600 0.316329
0.666830 0.814102 0.359047
0.778090 0.831472 0.384294
0.841490 0.841603 0.397302
0.877291 0.847087 0.404960
0.901314 0.851013 0.410273
0.919227 0.853965 0.413910
0.259872 0.829741 0.280004
0.243598 0.785866 0.263892
0.449215 0.802154 0.312712
0.641386 0.835887 0.355421
0.760880 0.853546 0.381302
0.829585 0.863583 0.394957
0.869713 0.867940 0.401952
0.896438 0.871558 0.408133
0.915973 0.874570 0.411610
0.259872 0.829741 0.280004
0.249783 0.803682 0.269704
0.414859 0.814062 0.308552
0.613908 0.849921 0.350757
0.741757 0.869735 0.378516
0.816524 0.879515 0.391545
0.861330 0.884056 0.399866
0.890064 0.887563 0.405788
0.909658 0.889415 0.409536
0.034156 0.011597 0.139470
0.505019 0.078695 0.187602
0.672687 0.209498 0.297662
0.736842 0.333443 0.384520
0.769187 0.395137 0.425231
0.766281 0.393040 0.417698
0.763130 0.390620 0.410859
0.761846 0.388058 0.405226
0.760237 0.385438 0.399992
0.220804 0.567716 0.537738
0.323032 0.324109 0.322339
0.571565 0.347366 0.361996
0.708503 0.406672 0.424821
0.782951 0.458633 0.471468
0.827800 0.502023 0.508218
0.841942 0.523218 0.527421
0.852118 0.542267 0.543112
0.860671 0.557644 0.555498
0.273775 0.759202 0.641679
0.334903 0.559345 0.436765
0.579111 0.562168 0.460017
0.736336 0.590818 0.496995
0.820438 0.617174 0.526882
0.867625 0.638978 0.552073
0.898016 0.654924 0.564200
0.908980 0.662669 0.574188
0.910470 0.662821 0.582023
0.282385 0.821972 0.671707
0.332714 0.688782 0.498409
0.564855 0.685492 0.511732
0.726869 0.705518 0.534766
0.821267 0.719726 0.549479
0.872939 0.730104 0.563339
0.904853 0.738407 0.573262
0.927099 0.745464 0.582536
0.936008 0.746626 0.588779
0.285768 0.846473 0.675338
0.319947 0.755540 0.528549
0.535933 0.756399 0.530940
0.704122 0.772610 0.555565
0.805145 0.785114 0.566262
0.862902 0.791135 0.570712
0.897526 0.795860 0.575497
0.921652 0.799012 0.583213
0.938075 0.801431 0.588495
0.287158 0.862315 0.673425
0.287174 0.789114 0.538454
0.499338 0.797343 0.535690
0.677816 0.814494 0.559247
0.786084 0.825942 0.571532
0.849993 0.832305 0.573849
0.887256 0.835138 0.578937
0.912975 0.837484 0.582384
0.933331 0.839227 0.586347
0.286529 0.872310 0.666850
0.271989 0.812324 0.545345
0.460814 0.820067 0.534280
0.646799 0.840905 0.554582
0.764426 0.853423 0.569737
0.833568 0.859262 0.578297
0.876424 0.862761 0.578636
0.903794 0.864412 0.580630
0.925010 0.864544 0.584367
0.285937 0.874410 0.656058
0.275032 0.830761 0.550898
0.425922 0.833670 0.529518
0.614778 0.856759 0.549274
0.740514 0.871763 0.563919
0.817183 0.878389 0.574734
0.864884 0.882215 0.576812
0.894503 0.883805 0.578646
0.916883 0.883717 0.581637
0.284788 0.872913 0.640739
0.277760 0.843015 0.552444
0.395558 0.842937 0.523630
0.582812 0.867754 0.541950
0.715541 0.885076 0.557042
0.799986 0.892342 0.567457
0.852816 0.896579 0.572981
0.885172 0.897812 0.576224
0.907712 0.897957 0.578254
0.061318 0.021627 0.252867
0.450899 0.043510 0.225394
0.657054 0.175877 0.338860
0.722330 0.289764 0.404693
0.778639 0.400562 0.472809
0.790259 0.422966 0.483663
0.788449 0.421760 0.477756
0.785574 0.418076 0.471427
0.783884 0.415399 0.465610
0.274189 0.595671 0.643099
0.323013 0.357271 0.445024
0.572040 0.370563 0.472631
0.709290 0.415236 0.518560
0.784626 0.461077 0.558989
0.832509 0.498563 0.589230
0.848514 0.525816 0.602575
0.862068 0.551138 0.614708
0.873150 0.571442 0.625054
0.303326 0.771901 0.721047
0.342663 0.598609 0.570220
0.585257 0.585834 0.584452
0.743685 0.605884 0.613116
0.826336 0.624664 0.634217
0.873786 0.640143 0.649220
0.903345 0.654295 0.659132
0.918772 0.663896 0.666257
0.921306 0.669962 0.670735
0.288763 0.822494 0.734563
0.339121 0.719590 0.629805
0.565110 0.707393 0.634359
0.729373 0.719908 0.656634
0.827758 0.728465 0.665330
0.879916 0.734605 0.673867
0.911999 0.739966 0.678422
0.934586 0.745277 0.684118
0.947273 0.748593 0.688578
0.291514 0.846581 0.741250
0.317959 0.778840 0.656044
0.529909 0.774181 0.656100
0.703379 0.785349 0.677386
0.806943 0.793659 0.683990
0.868147 0.796755 0.684121
0.905070 0.798984 0.688286
0.929718 0.801043 0.690885
0.948406 0.801940 0.693705
0.293242 0.862699 0.743010
0.283699 0.810048 0.664852
0.492245 0.812150 0.665553
0.672587 0.826469 0.685918
0.784642 0.834262 0.697276
0.850077 0.838861 0.696373
0.893490 0.839328 0.694778
0.919467 0.840445 0.694508
0.939991 0.840629 0.696424
0.294169 0.874188 0.742463
0.283489 0.831487 0.674297
0.453930 0.833433 0.667417
0.639292 0.851323 0.688511
0.761758 0.862275 0.701523
0.833876 0.865732 0.705541
0.880129 0.867278 0.704093
0.909698 0.867665 0.700686
0.931437 0.866974 0.698608
0.293547 0.881262 0.740329
0.285703 0.846543 0.679724
0.417767 0.846654 0.665475
0.605247 0.867429 0.686923
0.735498 0.880463 0.701128
0.817132 0.884876 0.708765
0.866932 0.886241 0.710002
0.898058 0.886598 0.705199
0.920532 0.886256 0.702239
0.293487 0.882248 0.733485
0.287082 0.859127 0.683221
0.386911 0.854091 0.659900
0.570749 0.876426 0.681700
0.707881 0.891975 0.696901
0.797322 0.898218 0.706226
0.852724 0.900580 0.710320
0.886650 0.900495 0.708123
0.910303 0.900153 0.705255
0.082569 0.027550 0.341185
0.403176 0.035281 0.273418
0.639542 0.148812 0.368015
0.710030 0.251573 0.426666
0.762146 0.361479 0.479108
0.786610 0.412285 0.502838
0.787277 0.416145 0.499892
0.788444 0.417733 0.497089
0.788908 0.419302 0.494222
0.295939 0.602007 0.680674
0.313514 0.379040 0.522055
0.567981 0.378707 0.535871
0.709790 0.417544 0.576882
0.783489 0.459687 0.611662
0.831537 0.493263 0.637558
0.849414 0.519463 0.649128
0.860960 0.543420 0.650618
0.871566 0.564806 0.655214
0.328758 0.774058 0.751409
0.337721 0.622969 0.638814
0.579085 0.599430 0.648817
0.737295 0.615843 0.680398
0.819810 0.630314 0.697358
0.868951 0.642355 0.709127
0.900255 0.652664 0.716593
0.919613 0.663405 0.722736
0.924603 0.671079 0.724124
0.318323 0.823492 0.764462
0.334154 0.735797 0.690032
0.554362 0.717817 0.698219
0.724552 0.726018 0.724072
0.823739 0.731071 0.733723
0.878893 0.735366 0.740813
0.911724 0.738685 0.745130
0.935756 0.742785 0.748217
0.950536 0.747129 0.751256
0.301011 0.845744 0.766834
0.303252 0.788995 0.708467
0.517142 0.781495 0.718194
0.694149 0.791407 0.742349
0.802141 0.796581 0.753928
0.867379 0.798707 0.755578
0.907323 0.797950 0.756075
0.932383 0.799705 0.758720
0.950505 0.800980 0.759326
0.294248 0.859605 0.765858
0.286109 0.818334 0.717707
0.477449 0.818126 0.725438
0.662185 0.830623 0.751570
0.780757 0.838350 0.766922
0.848887 0.841229 0.768410
0.895084 0.841335 0.764905
0.923795 0.840192 0.764921
0.943407 0.838542 0.764461
0.295805 0.870907 0.767497
0.288648 0.837699 0.724753
0.439102 0.837938 0.725826
0.627712 0.855672 0.754243
0.754065 0.864631 0.770412
0.831505 0.868040 0.777682
0.880183 0.868978 0.774925
0.911004 0.868243 0.770870
0.932910 0.866056 0.767105
0.296063 0.880634 0.767876
0.289400 0.852838 0.729406
0.406185 0.849367 0.723159
0.590524 0.869342 0.750618
0.725793 0.881889 0.769502
0.811894 0.886109 0.779085
0.864392 0.887648 0.780808
0.897732 0.888187 0.777031
0.921601 0.885965 0.770074
0.295799 0.886040 0.766986
0.291598 0.863904 0.733320
0.380581 0.856537 0.718934
0.553750 0.877352 0.743947
0.695268 0.891952 0.765173
0.789602 0.898404 0.776300
0.847594 0.900575 0.780204
0.885418 0.901762 0.780693
0.910196 0.900278 0.772749
0.097364 0.031039 0.407794
0.355364 0.038098 0.320654
0.619049 0.115653 0.388065
0.702336 0.222705 0.452878
0.745257 0.318887 0.481634
0.782218 0.395761 0.518065
0.786875 0.407099 0.517134
0.786559 0.409242 0.513713
0.786909 0.412089 0.509705
0.310202 0.603671 0.700452
0.297496 0.397934 0.570071
0.558405 0.382834 0.579677
0.705804 0.416151 0.616053
0.780806 0.454706 0.645954
0.828150 0.485931 0.669543
0.851605 0.512791 0.683287
0.860875 0.535665 0.680739
0.869249 0.556167 0.681311
0.342364 0.769961 0.766781
0.327757 0.640758 0.678165
0.567157 0.606261 0.687686
0.730352 0.618261 0.719035
0.817673 0.630929 0.737961
0.863693 0.640968 0.746683
0.895399 0.652266 0.754723
0.916789 0.661532 0.761719
0.920784 0.668788 0.758077
0.337145 0.822487 0.781809
0.320351 0.749635 0.722008
0.540558 0.722990 0.732334
0.713865 0.729073 0.760912
0.814334 0.733953 0.777159
0.869597 0.736982 0.782873
0.904697 0.739474 0.786548
0.929268 0.742421 0.788489
0.948766 0.745717 0.791331
0.326471 0.845859 0.784581
0.307594 0.798186 0.739002
0.500285 0.784811 0.749891
0.683487 0.793874 0.779883
0.796973 0.798401 0.796907
0.862410 0.798664 0.800721
0.902902 0.799044 0.802600
0.929333 0.798728 0.803638
0.948987 0.799335 0.802314
0.311536 0.859131 0.782497
0.295962 0.824562 0.746699
0.460831 0.819469 0.755897
0.649382 0.832743 0.787063
0.771767 0.839337 0.805078
0.845617 0.841805 0.812085
0.891176 0.840985 0.810480
0.921418 0.839104 0.810637
0.942205 0.836596 0.807724
0.299675 0.867939 0.780223
0.290918 0.843278 0.752126
0.423194 0.836550 0.753751
0.612052 0.855081 0.786536
0.743089 0.864699 0.807565
0.825441 0.867944 0.817870
0.874660 0.868326 0.818086
0.907600 0.867270 0.813821
0.930546 0.864291 0.812119
0.295860 0.876979 0.780395
0.292243 0.857001 0.756262
0.393755 0.847492 0.750045
0.574304 0.868081 0.781421
0.712557 0.880584 0.805636
0.803630 0.885711 0.817685
0.857845 0.886788 0.822008
0.894137 0.886754 0.819243
0.918928 0.885002 0.814352
0.296689 0.884061 0.780745
0.294002 0.868153 0.760860
0.371039 0.855975 0.747056
0.537818 0.875438 0.774936
0.680533 0.890708 0.801119
0.779590 0.897779 0.814787
0.840660 0.900392 0.821110
0.880027 0.900119 0.822366
0.906844 0.899771 0.817572
0.109432 0.034057 0.457531
0.300852 0.039866 0.364628
0.592170 0.069084 0.397456
0.695427 0.199235 0.475376
0.733394 0.286328 0.491712
0.773115 0.371242 0.524392
0.785473 0.396744 0.532132
0.785569 0.400022 0.527470
0.786326 0.402013 0.523975
0.322017 0.601350 0.713064
0.281402 0.416908 0.603425
0.543433 0.382658 0.606755
0.700173 0.415475 0.644068
0.778783 0.449592 0.672723
0.825271 0.480579 0.693092
0.851436 0.503852 0.707232
0.861284 0.528983 0.705125
0.869994 0.549747 0.701399
0.353390 0.765615 0.777172
0.317979 0.659097 0.704243
0.550278 0.610343 0.711303
0.721767 0.618990 0.744800
0.812935 0.629989 0.763437
0.861105 0.638967 0.773433
0.892744 0.648354 0.780662
0.917954 0.657892 0.786973
0.921688 0.664370 0.785253
0.349611 0.818654 0.792846
0.328190 0.763765 0.747781
0.521287 0.725495 0.753332
0.702972 0.730378 0.784440
0.807920 0.734732 0.802489
0.865145 0.736715 0.810197
0.899304 0.739501 0.814302
0.923363 0.742127 0.815864
0.941049 0.745399 0.817697
0.341981 0.843232 0.796832
0.326079 0.809898 0.764592
0.482125 0.786548 0.768481
0.670051 0.794757 0.801532
0.787911 0.799167 0.820492
0.854831 0.800126 0.828401
0.894952 0.799911 0.831523
0.921822 0.799056 0.832576
0.942023 0.797900 0.831674
0.331357 0.858998 0.796238
0.317423 0.834941 0.772936
0.441049 0.818062 0.770503
0.634049 0.833081 0.807258
0.761901 0.839848 0.828071
0.840505 0.841204 0.840135
0.886854 0.839924 0.840776
0.917525 0.837469 0.840586
0.938535 0.834788 0.838713
0.317956 0.868421 0.793891
0.307386 0.849708 0.774658
0.408667 0.834927 0.769251
0.594510 0.852678 0.804720
0.731772 0.863767 0.828824
0.817570 0.866971 0.842096
0.869781 0.866885 0.845438
0.904220 0.865569 0.843701
0.927205 0.862829 0.841680
0.304866 0.876032 0.792575
0.299456 0.862152 0.776633
0.383322 0.846567 0.766311
0.556004 0.864567 0.799065
0.698158 0.878781 0.825425
0.793413 0.884114 0.840701
0.851817 0.885403 0.846931
0.889357 0.885045 0.847247
0.915806 0.883419 0.843739
0.298819 0.882875 0.791491
0.296574 0.873186 0.781076
0.362425 0.854782 0.763680
0.520887 0.871776 0.792543
0.664754 0.888239 0.819649
0.767834 0.895949 0.837833
0.833718 0.898645 0.845765
0.875165 0.898600 0.848916
0.903687 0.898109 0.846598
0.119402 0.034702 0.494790
0.240622 0.041263 0.407889
0.570306 0.052143 0.414200
0.686492 0.175839 0.489297
0.724280 0.257653 0.504253
0.762929 0.342436 0.528422
0.782910 0.386114 0.543282
0.784746 0.391519 0.540165
0.784529 0.393345 0.536005
0.331882 0.596787 0.722398
0.267978 0.442215 0.629992
0.528200 0.386713 0.629364
0.690948 0.411565 0.662275
0.773790 0.445398 0.690954
0.820837 0.474278 0.710303
0.850625 0.498524 0.723784
0.861592 0.520354 0.722201
0.869697 0.541132 0.718714
0.361275 0.759357 0.782299
0.330782 0.684464 0.730299
0.532121 0.613029 0.724988
0.710899 0.618656 0.761708
0.806821 0.628134 0.781627
0.858480 0.636099 0.792321
0.890793 0.645147 0.799026
0.916558 0.654325 0.806497
0.922792 0.660382 0.804612
0.357998 0.815650 0.799399
0.342943 0.776722 0.770074
0.500333 0.726915 0.763722
0.688670 0.729679 0.799167
0.800133 0.733539 0.819632
0.861452 0.736533 0.828623
0.897147 0.737697 0.833825
0.921595 0.739940 0.836541
0.940184 0.741867 0.836830
0.350661 0.841753 0.804603
0.341537 0.819720 0.784986
0.462205 0.785747 0.777729
0.656104 0.793568 0.814755
0.779510 0.798754 0.837160
0.849794 0.799889 0.846706
0.890736 0.799296 0.850091
0.916372 0.798490 0.851070
0.936232 0.796482 0.851074
0.342932 0.857532 0.805961
0.336782 0.844819 0.792622
0.422808 0.814369 0.778389
0.617261 0.829405 0.817788
0.750238 0.838512 0.842649
0.832243 0.839593 0.854977
0.878813 0.838611 0.860196
0.909928 0.836291 0.860839
0.932133 0.833958 0.859305
0.334214 0.868587 0.805747
0.330322 0.861091 0.797011
0.393618 0.832051 0.776757
0.576705 0.848893 0.814867
0.718368 0.861308 0.841759
0.808151 0.864682 0.857037
0.863350 0.865059 0.862980
0.898487 0.863414 0.864063
0.923469 0.860422 0.862881
0.322825 0.876381 0.804458
0.322689 0.875171 0.802978
0.371750 0.844011 0.775437
0.538711 0.860263 0.809152
0.683424 0.875091 0.837123
0.782812 0.881777 0.855168
0.844802 0.883252 0.863592
0.884535 0.882836 0.866064
0.911891 0.880825 0.864546
0.311831 0.882651 0.801759
0.312007 0.882659 0.801870
0.353354 0.853403 0.773766
0.502992 0.867334 0.802034
0.649908 0.884221 0.831386
0.756586 0.893880 0.852162
0.825620 0.896341 0.862286
0.869737 0.896963 0.866125
0.899440 0.895959 0.865819
0.129327 0.035753 0.521774
0.180581 0.039344 0.450044
0.553671 0.054400 0.438708
0.672018 0.149225 0.496760
0.717340 0.233654 0.519016
0.751636 0.313676 0.533394
0.777520 0.371173 0.550200
0.782407 0.384057 0.550587
0.783419 0.386996 0.546797
0.338045 0.589810 0.727813
0.282283 0.482049 0.664034
0.508617 0.387498 0.643908
0.680947 0.409334 0.676665
0.767805 0.439697 0.704291
0.816403 0.468028 0.722539
0.848408 0.492288 0.736438
0.860736 0.514137 0.736846
0.868766 0.534232 0.732009
0.368730 0.752991 0.784317
0.349815 0.711025 0.758298
0.510800 0.614487 0.734113
0.698204 0.617542 0.772865
0.800206 0.625679 0.794786
0.854494 0.632993 0.806404
0.888117 0.642036 0.812313
0.913229 0.650046 0.819407
0.922881 0.655827 0.818540
0.364637 0.812363 0.802074
0.356746 0.794046 0.791938
0.479767 0.728268 0.771986
0.674720 0.729496 0.809643
0.792284 0.733375 0.831874
0.857463 0.734957 0.842751
0.893983 0.735845 0.847375
0.919048 0.736795 0.850043
0.937313 0.738697 0.851094
0.358547 0.839379 0.809303
0.355471 0.835046 0.806041
0.439805 0.783030 0.781519
0.640000 0.792042 0.823457
0.771003 0.798050 0.848526
0.843624 0.798718 0.859468
0.886351 0.797415 0.863327
0.913485 0.795670 0.864456
0.932756 0.794143 0.864941
0.352424 0.856064 0.812691
0.352502 0.856048 0.812716
0.405638 0.812761 0.783510
0.598926 0.826537 0.824996
0.737456 0.835738 0.852052
0.823796 0.837880 0.865597
0.873616 0.836659 0.872557
0.904790 0.834650 0.874519
0.926789 0.832144 0.873663
0.345015 0.867602 0.812917
0.345098 0.867604 0.812952
0.381583 0.830682 0.782970
0.558183 0.845231 0.820839
0.703757 0.857424 0.850073
0.798664 0.862353 0.867196
0.856848 0.862939 0.875097
0.892824 0.861507 0.877733
0.917766 0.858889 0.877364
0.337073 0.876756 0.813112
0.337173 0.876756 0.813170
0.361736 0.843351 0.782670
0.520382 0.856309 0.814948
0.668487 0.871413 0.845619
0.771337 0.878943 0.865337
0.837498 0.881011 0.874898
0.879084 0.880565 0.878834
0.907221 0.879045 0.879185
0.328041 0.883173 0.811689
0.328166 0.883182 0.811766
0.344558 0.851692 0.780471
0.486087 0.863848 0.807605
0.635137 0.880835 0.840262
0.743825 0.890703 0.861677
0.817711 0.894440 0.873420
0.863804 0.894895 0.878493
0.895324 0.894372 0.880149
0.137983 0.035964 0.540857
0.130895 0.035911 0.497977
0.532612 0.056063 0.459097
0.652549 0.112724 0.498477
0.710126 0.212154 0.534094
0.740725 0.285847 0.537675
0.770559 0.352647 0.555224
0.780409 0.375077 0.559016
0.781337 0.378583 0.554849
0.342754 0.581569 0.728964
0.324528 0.546661 0.710564
0.486356 0.388077 0.653340
0.670125 0.405834 0.687767
0.760016 0.432916 0.712596
0.811797 0.462103 0.732388
0.844767 0.485649 0.747023
0.860339 0.507467 0.750117
0.868305 0.527156 0.744500
0.374058 0.745367 0.784078
0.374088 0.745323 0.784066
0.488300 0.615527 0.739925
0.683545 0.615975 0.779443
0.793140 0.623702 0.804918
0.850469 0.630487 0.816452
0.885048 0.638247 0.823961
0.910084 0.646025 0.829548
0.922402 0.651937 0.829897
0.371339 0.806713 0.803262
0.371379 0.806682 0.803262
0.457508 0.728206 0.774576
0.660201 0.728417 0.816329
0.782847 0.732216 0.841308
0.851705 0.732872 0.853416
0.890755 0.733483 0.858018
0.916054 0.734544 0.859958
0.934585 0.735645 0.861798
0.365179 0.835990 0.809620
0.365245 0.835946 0.809619
0.419169 0.779759 0.783591
0.621858 0.789879 0.827847
0.758592 0.796127 0.855551
0.836559 0.796721 0.867989
0.881794 0.795209 0.873146
0.910615 0.793074 0.874662
0.929929 0.791512 0.875024
0.359954 0.853493 0.814432
0.360011 0.853471 0.814436
0.391388 0.809819 0.787010
0.580187 0.822453 0.827630
0.723326 0.832331 0.857667
0.814565 0.835541 0.873620
0.868713 0.834824 0.882245
0.900858 0.832916 0.884437
0.922871 0.830072 0.884141
0.353288 0.866161 0.815542
0.353355 0.866137 0.815555
0.369983 0.828526 0.787592
0.539799 0.841356 0.823210
0.688428 0.854109 0.855131
0.787985 0.859933 0.874450
0.850365 0.860514 0.884520
0.887306 0.859335 0.886982
0.912593 0.857232 0.887856
0.346766 0.875852 0.817455
0.346844 0.875840 0.817471
0.352357 0.841145 0.786994
0.502991 0.852553 0.817540
0.652989 0.868131 0.850686
0.759687 0.876110 0.871887
0.830218 0.879068 0.883557
0.873727 0.878632 0.888315
0.902133 0.877117 0.890113
0.340321 0.883042 0.817798
0.340422 0.883032 0.817828
0.336207 0.849713 0.785063
0.470163 0.859987 0.810792
0.619709 0.877344 0.845394
0.730999 0.887773 0.867565
0.809326 0.892414 0.881470
0.858191 0.893182 0.888136
0.890904 0.892518 0.891233
