output/AP0_display/AP0_to_PROVIA_33grid.cube
TITLE "AP0_to_PROVIA"
# Input: Linear ACES2065-1 / AP0 (D60)
# Output: BT.709 / Gamma 2.2 (display-referred)
# Use: Display/output transform in ACES pipeline (replaces ODT)
# Source: FLog2C_to_PROVIA_65grid_V.1.00.cube
# Generated from Fujifilm GFX ETERNA 55 F-Log2C LUT
LUT_3D_SIZE 33
0.000459 0.000290 0.000061
0.362330 0.011961 0.041340
0.659861 0.018916 0.093368
0.859584 0.028872 0.165981
0.986247 0.045199 0.255783
0.999664 0.063405 0.342022
0.999663 0.086766 0.411244
0.999399 0.116950 0.444348
0.999591 0.150376 0.454058
0.999582 0.182918 0.463015
0.999645 0.215982 0.469412
0.999758 0.238813 0.474839
0.999977 0.255341 0.480208
1.000000 0.256879 0.480683
1.000000 0.257116 0.480657
1.000000 0.257130 0.480656
1.000000 0.257130 0.480656
1.000000 0.257130 0.480656
1.000000 0.257130 0.480656
1.000000 0.257130 0.480656
1.000000 0.257130 0.480656
1.000000 0.257130 0.480656
1.000000 0.257130 0.480656
1.000000 0.257130 0.480656
1.000000 0.257130 0.480656
1.000000 0.257130 0.480656
1.000000 0.257130 0.480656
1.000000 0.257130 0.480656
1.000000 0.257130 0.480656
1.000000 0.257130 0.480656
1.000000 0.257130 0.480656
1.000000 0.257130 0.480656
1.000000 0.257130 0.480656
0.002007 0.162412 0.000163
0.133875 0.101299 0.000508
0.371117 0.092029 0.000152
0.560583 0.086764 0.015009
0.709785 0.084371 0.052331
0.824990 0.085464 0.097070
0.912256 0.088914 0.153711
0.973270 0.094331 0.207147
0.999951 0.101654 0.260902
0.999686 0.109783 0.311639
0.999586 0.119018 0.361090
0.999726 0.128869 0.396315
0.999930 0.139115 0.421040
0.999556 0.152852 0.431590
0.999091 0.166290 0.439721
0.999162 0.183061 0.446631
0.999237 0.198688 0.453052
0.999426 0.214459 0.459114
0.999703 0.230268 0.464903
0.999983 0.245290 0.470425
0.999788 0.249387 0.473775
0.999541 0.253498 0.477149
0.999286 0.257619 0.480397
0.999486 0.257614 0.480317
0.999692 0.257446 0.480319
0.999892 0.257250 0.480491
1.000000 0.257130 0.480656
1.000000 0.257130 0.480656
1.000000 0.257130 0.480656
1.000000 0.257130 0.480656
1.000000 0.257130 0.480656
1.000000 0.257130 0.480656
1.000000 0.257130 0.480656
0.000070 0.322084 0.000028
0.024511 0.207826 0.000443
0.253217 0.188607 0.000197
0.438177 0.181100 0.000264
0.587677 0.180129 0.000038
0.706377 0.181490 0.000908
0.801568 0.185117 0.013678
0.878357 0.189612 0.041712
0.940459 0.195031 0.084358
0.989831 0.201228 0.125908
0.996591 0.206470 0.170081
0.999441 0.212427 0.213096
0.999681 0.218489 0.254925
0.999825 0.224986 0.292760
0.999869 0.231157 0.327858
0.999734 0.236630 0.343925
0.999692 0.241704 0.356049
0.999764 0.248006 0.366187
0.999835 0.254884 0.375634
0.999878 0.261280 0.385233
0.999655 0.270735 0.393383
0.999375 0.279832 0.400917
0.999177 0.288507 0.407995
0.999357 0.295230 0.414897
0.999554 0.301691 0.421534
0.999739 0.308028 0.427927
0.999852 0.311389 0.432280
0.999861 0.310519 0.433816
0.999857 0.309745 0.435297
0.999842 0.309062 0.436729
0.999798 0.308265 0.437929
0.999712 0.307081 0.438736
0.999635 0.305929 0.439562
0.000056 0.456205 0.000458
0.000020 0.311051 0.000264
0.156206 0.276084 0.000092
0.352134 0.264873 0.000072
0.502589 0.259971 0.000206
0.624665 0.259313 0.000004
0.725232 0.262894 0.000064
0.807142 0.265431 0.000089
0.875137 0.269566 0.000999
0.929978 0.272833 0.005269
0.974963 0.277466 0.037043
0.997517 0.281310 0.073539
0.998761 0.284874 0.114208
0.999326 0.290820 0.153003
0.999505 0.296904 0.189346
0.999698 0.301453 0.225065
0.999893 0.305629 0.259015
0.999949 0.308155 0.280448
0.999904 0.309276 0.292079
0.999863 0.310256 0.302862
0.999602 0.313620 0.313092
0.999340 0.316919 0.323260
0.999055 0.320219 0.332973
0.999188 0.325999 0.341858
0.999408 0.331631 0.350699
0.999660 0.336787 0.359561
0.999769 0.341310 0.367867
0.999586 0.345264 0.374852
0.999411 0.349094 0.381436
0.999242 0.352810 0.387646
0.999180 0.355027 0.392494
0.999386 0.353923 0.394309
0.999540 0.352914 0.396098
0.000041 0.566546 0.000315
0.000037 0.403030 0.000228
0.064033 0.355696 0.000439
0.273883 0.338087 0.000253
0.433199 0.329724 0.000273
0.561316 0.328244 0.000076
0.663786 0.326979 0.000175
0.750135 0.328380 0.000153
0.820557 0.331335 0.000048
0.878967 0.333241 0.000006
0.927536 0.337399 0.000025
0.965289 0.341227 0.005062
0.992422 0.343930 0.016138
0.999339 0.347224 0.045269
0.999441 0.350776 0.077863
0.999690 0.354570 0.113018
0.999912 0.358199 0.146880
0.999908 0.360676 0.175823
0.999760 0.362226 0.201111
0.999654 0.363803 0.225427
0.999480 0.364123 0.239754
0.999257 0.364029 0.252407
0.999079 0.363862 0.263982
0.999196 0.365907 0.274098
0.999374 0.368195 0.283804
0.999559 0.370282 0.293271
0.999726 0.372801 0.302423
0.999827 0.376592 0.311033
0.999906 0.380347 0.319262
0.999966 0.384069 0.327137
0.999985 0.387250 0.334425
0.999926 0.388771 0.340805
0.999870 0.390283 0.347006
0.000216 0.657446 0.000952
0.000011 0.486742 0.000470
0.000039 0.427579 0.000087
0.193274 0.403855 0.000179
0.369970 0.390774 0.000235
0.503365 0.385937 0.000056
0.611625 0.384193 0.000024
0.702083 0.383053 0.000187
0.776119 0.384063 0.000021
0.836020 0.385410 0.000039
0.886327 0.388620 0.000071
0.929253 0.392362 0.000109
0.966303 0.395703 0.000076
0.985114 0.397781 0.000849
0.996200 0.399028 0.002895
0.999199 0.400973 0.026758
0.999393 0.403377 0.056022
0.999559 0.406683 0.085349
0.999564 0.410785 0.115115
0.999497 0.414720 0.142490
0.999610 0.413606 0.162199
0.999767 0.411812 0.180095
0.999935 0.410419 0.196640
0.999762 0.410143 0.209807
0.999591 0.410109 0.221139
0.999517 0.410083 0.231294
0.999589 0.410600 0.240652
0.999797 0.412468 0.250135
0.999928 0.414167 0.259206
0.999987 0.415707 0.267890
0.999890 0.417293 0.277447
0.999696 0.419121 0.286688
0.999538 0.420822 0.295269
0.000044 0.730940 0.000429
0.000204 0.564029 0.000153
0.000324 0.494358 0.000814
0.112396 0.463951 0.000482
0.302380 0.448592 0.000301
0.447940 0.439308 0.000461
0.561598 0.436398 0.000000
0.656023 0.434404 0.000043
0.734718 0.433591 0.000199
0.799866 0.434225 0.000056
0.852333 0.436052 0.000108
0.896761 0.437962 0.000137
0.934474 0.439094 0.000054
0.963755 0.440691 0.000031
0.988554 0.442280 0.000010
0.997088 0.444203 0.002086
0.998524 0.446297 0.006023
0.999443 0.448534 0.020580
0.999645 0.450880 0.047896
0.999843 0.452996 0.073981
0.999815 0.453838 0.098066
0.999699 0.454432 0.120409
0.999533 0.455091 0.141510
0.999459 0.453783 0.156427
0.999499 0.451877 0.168814
0.999615 0.450060 0.180481
0.999765 0.448744 0.191420
0.999795 0.448939 0.201299
0.999790 0.449154 0.210263
0.999730 0.449332 0.219167
0.999652 0.449586 0.228771
0.999637 0.450878 0.238906
0.999643 0.452173 0.248315
0.000187 0.792128 0.000539
0.000264 0.633122 0.000047
0.000246 0.555382 0.000475
0.038786 0.520822 0.000235
0.235391 0.501795 0.000030
0.392344 0.490583 0.000382
0.514066 0.484487 0.000016
0.613175 0.481065 0.000103
0.695387 0.477288 0.000007
0.763593 0.477364 0.000030
0.818010 0.478525 0.000093
0.864380 0.479728 0.000162
0.904209 0.479911 0.000177
0.938418 0.480592 0.000177
0.968786 0.481458 0.000096
0.984935 0.482405 0.000068
0.993884 0.483426 0.000083
0.999547 0.484725 0.002884
0.999736 0.486377 0.011072
0.999846 0.487834 0.020113
0.999742 0.489465 0.042027
0.999573 0.491104 0.067425
0.999402 0.492676 0.092025
0.999308 0.491075 0.108912
0.999294 0.488277 0.122244
0.999331 0.485621 0.135038
0.999405 0.483441 0.147236
0.999432 0.482943 0.158427
0.999426 0.482542 0.169041
0.999444 0.482088 0.179452
0.999476 0.481618 0.189527
0.999389 0.482044 0.199001
0.999294 0.482501 0.208277
0.000026 0.841965 0.000186
0.000281 0.696219 0.000167
0.000196 0.610851 0.000244
0.007316 0.572568 0.000834
0.162893 0.552298 0.000010
0.334815 0.538471 0.000005
0.466928 0.527756 0.000084
0.570333 0.523552 0.000492
0.657641 0.518379 0.000035
0.728199 0.516916 0.000018
0.785374 0.516551 0.000013
0.834565 0.517039 0.000051
0.877064 0.518125 0.000136
0.913277 0.518375 0.000165
0.945042 0.518371 0.000235
0.968548 0.518576 0.000229
0.986556 0.518982 0.000104
0.998218 0.519494 0.000004
0.998729 0.520041 0.000003
0.999343 0.520479 0.000038
0.999540 0.521706 0.009145
0.999566 0.523251 0.022889
0.999597 0.524759 0.037462
0.999541 0.523766 0.054508
0.999407 0.521723 0.072172
0.999237 0.519945 0.089390
0.999066 0.518330 0.105699
0.999106 0.516233 0.118265
0.999209 0.514002 0.130160
0.999327 0.511818 0.141472
0.999429 0.509846 0.152291
0.999402 0.509722 0.162704
0.999379 0.509614 0.172752
0.000004 0.881521 0.000109
0.000075 0.751768 0.000208
0.000168 0.661247 0.000350
0.000755 0.620346 0.000162
0.087189 0.597367 0.000118
0.274797 0.581767 0.000060
0.416792 0.570480 0.000457
0.528998 0.562641 0.000394
0.620755 0.555720 0.000047
0.693376 0.553505 0.000000
0.754915 0.551890 0.000148
0.808075 0.550561 0.000270
0.852096 0.550976 0.000266
0.889595 0.551240 0.000199
0.921372 0.551452 0.000094
0.949180 0.551202 0.000043
0.973949 0.550551 0.000020
0.991585 0.550053 0.000001
0.994630 0.550162 0.000012
0.997795 0.550250 0.000050
0.998959 0.550905 0.001600
0.998998 0.551804 0.003999
0.998979 0.552629 0.006466
0.998942 0.552391 0.016844
0.998918 0.551567 0.032684
0.998895 0.550804 0.049118
0.998884 0.549883 0.065740
0.999007 0.546938 0.078669
0.999225 0.544242 0.091274
0.999383 0.541701 0.103330
0.999484 0.539319 0.114873
0.999465 0.538302 0.125973
0.999482 0.537310 0.136691
0.000001 0.915039 0.000068
0.000000 0.798972 0.000430
0.000036 0.706306 0.000465
0.000007 0.662967 0.000211
0.032209 0.637963 0.000261
0.209248 0.620805 0.000151
0.365582 0.608298 0.000420
0.486413 0.598877 0.000400
0.581605 0.591880 0.000046
0.660102 0.587448 0.000020
0.725265 0.584384 0.000179
0.780685 0.582173 0.000282
0.825998 0.581696 0.000241
0.865476 0.581277 0.000164
0.899381 0.581299 0.000066
0.929274 0.581003 0.000034
0.955839 0.580115 0.000023
0.977246 0.579293 0.000002
0.986578 0.579174 0.000014
0.995603 0.579029 0.000031
0.998983 0.579140 0.000072
0.998948 0.579455 0.000101
0.998953 0.579805 0.000103
0.999003 0.579995 0.004096
0.999034 0.580072 0.011410
0.999028 0.580179 0.019064
0.998991 0.580148 0.027185
0.999103 0.576777 0.039150
0.999231 0.573532 0.051392
0.999340 0.570445 0.063507
0.999433 0.567506 0.075502
0.999442 0.565819 0.087574
0.999467 0.564246 0.099140
0.000020 0.944045 0.000148
0.000003 0.841492 0.000359
0.000030 0.746991 0.000583
0.000039 0.702020 0.000407
0.000000 0.675195 0.000411
0.143909 0.656827 0.000201
0.312972 0.642937 0.000315
0.442527 0.632387 0.000315
0.542978 0.625276 0.000118
0.627053 0.619041 0.000082
0.695934 0.614723 0.000197
0.753859 0.611694 0.000253
0.800701 0.610163 0.000166
0.842168 0.608780 0.000115
0.878343 0.608118 0.000133
0.909987 0.607400 0.000136
0.937468 0.606171 0.000063
0.961576 0.604984 0.000011
0.977156 0.604882 0.000032
0.992000 0.604793 0.000046
0.998289 0.604778 0.000051
0.998558 0.604866 0.000056
0.998973 0.605017 0.000067
0.999251 0.605379 0.000067
0.999256 0.605909 0.000050
0.999189 0.606461 0.000027
0.999056 0.606996 0.000141
0.999105 0.603437 0.009996
0.999172 0.600036 0.020106
0.999256 0.596782 0.030449
0.999354 0.593664 0.041007
0.999371 0.591441 0.052969
0.999377 0.589387 0.064584
0.000104 0.968661 0.000473
0.000020 0.878001 0.000174
0.000028 0.783980 0.000401
0.000073 0.737791 0.000470
0.000000 0.710399 0.000500
0.081307 0.691198 0.000110
0.254496 0.675548 0.000327
0.393616 0.664087 0.000129
0.504531 0.654922 0.000337
0.591911 0.648954 0.000244
0.664494 0.643918 0.000271
0.726833 0.639338 0.000349
0.776190 0.636911 0.000148
0.819721 0.634448 0.000125
0.857172 0.631652 0.000366
0.890552 0.629134 0.000407
0.919920 0.626899 0.000176
0.946461 0.625151 0.000016
0.966600 0.625693 0.000101
0.985772 0.626346 0.000191
0.995294 0.627026 0.000243
0.996775 0.627512 0.000272
0.998438 0.627819 0.000323
0.999331 0.627954 0.000327
0.999213 0.628020 0.000243
0.999042 0.628061 0.000135
0.998821 0.628024 0.000246
0.998918 0.625495 0.003463
0.999020 0.622972 0.007123
0.999111 0.620558 0.011079
0.999193 0.618245 0.015310
0.999182 0.615656 0.024535
0.999149 0.613085 0.034496
0.000105 0.985454 0.000527
0.000053 0.910600 0.000261
0.000090 0.817340 0.000380
0.000101 0.770567 0.000674
0.000059 0.742218 0.000576
0.036013 0.722458 0.000128
0.193646 0.706066 0.000474
0.344349 0.693180 0.000185
0.463620 0.683269 0.000329
0.556465 0.676403 0.000246
0.633295 0.670530 0.000244
0.699710 0.665098 0.000370
0.751957 0.660908 0.000141
0.797814 0.657059 0.000098
0.836255 0.653139 0.000381
0.870936 0.649582 0.000457
0.901659 0.646714 0.000191
0.929850 0.644288 0.000010
0.952962 0.644355 0.000117
0.974925 0.644587 0.000245
0.988023 0.645147 0.000326
0.992403 0.645819 0.000353
0.996844 0.646337 0.000395
0.999346 0.646908 0.000389
0.999267 0.647602 0.000288
0.999160 0.648160 0.000158
0.998997 0.648534 0.000011
0.999000 0.646709 0.000287
0.999029 0.644783 0.000856
0.999066 0.642961 0.001673
0.999113 0.641236 0.002719
0.999118 0.638478 0.008463
0.999090 0.635572 0.015314
0.000032 0.995137 0.000354
0.000041 0.940005 0.000247
0.000141 0.847220 0.000468
0.000123 0.800682 0.000852
0.000124 0.770841 0.000547
0.010355 0.750909 0.000254
0.131732 0.734563 0.000761
0.294178 0.720157 0.000447
0.420841 0.710149 0.000243
0.520356 0.701819 0.000149
0.602085 0.694920 0.000133
0.672165 0.689454 0.000290
0.727839 0.682529 0.000117
0.776375 0.676680 0.000051
0.815528 0.672669 0.000234
0.851187 0.668949 0.000295
0.882948 0.665584 0.000123
0.912315 0.662483 0.000005
0.937016 0.661058 0.000100
0.960440 0.659825 0.000231
0.976999 0.659547 0.000316
0.985667 0.660402 0.000303
0.994142 0.661344 0.000279
0.999245 0.662903 0.000239
0.999357 0.665135 0.000177
0.999435 0.666948 0.000089
0.999446 0.668408 0.000009
0.999295 0.667126 0.000127
0.999190 0.665579 0.000366
0.999149 0.664157 0.000696
0.999169 0.662852 0.001110
0.999218 0.660092 0.002967
0.999226 0.657028 0.005251
0.000000 1.000000 0.000285
0.000000 0.966069 0.000204
0.000081 0.874065 0.000390
0.000124 0.827797 0.000786
0.000129 0.797310 0.000434
0.000186 0.777067 0.000407
0.077862 0.760895 0.000727
0.238905 0.746284 0.000469
0.375865 0.735194 0.000261
0.483209 0.725641 0.000142
0.570277 0.717533 0.000073
0.643609 0.711137 0.000239
0.702472 0.702955 0.000104
0.753932 0.695844 0.000024
0.795239 0.691148 0.000134
0.832788 0.686993 0.000202
0.865209 0.683260 0.000174
0.895418 0.679707 0.000133
0.921146 0.677406 0.000145
0.945500 0.675297 0.000209
0.964969 0.674209 0.000262
0.978051 0.674612 0.000229
0.990702 0.675172 0.000178
0.998822 0.676533 0.000127
0.999082 0.678988 0.000091
0.999294 0.681067 0.000045
0.999498 0.682860 0.000006
0.999398 0.682913 0.000030
0.999301 0.682664 0.000084
0.999274 0.682448 0.000157
0.999311 0.682263 0.000248
0.999325 0.679885 0.000283
0.999283 0.676861 0.000284
0.000000 1.000000 0.000285
0.000000 0.986545 0.000373
0.000017 0.898089 0.000174
0.000089 0.852194 0.000598
0.000181 0.822109 0.000351
0.000153 0.801074 0.000542
0.036294 0.785382 0.000443
0.178339 0.771475 0.000220
0.327733 0.758944 0.000278
0.444518 0.748235 0.000187
0.537593 0.738773 0.000066
0.613935 0.730373 0.000222
0.675597 0.722278 0.000100
0.730056 0.715039 0.000010
0.775080 0.709035 0.000073
0.815413 0.703918 0.000201
0.848201 0.699951 0.000334
0.878957 0.696106 0.000365
0.905238 0.693509 0.000226
0.930006 0.691104 0.000150
0.951782 0.689306 0.000131
0.969461 0.688477 0.000113
0.986480 0.687720 0.000088
0.998084 0.687713 0.000062
0.998381 0.689355 0.000046
0.998743 0.690959 0.000028
0.999208 0.692497 0.000005
0.999321 0.694429 0.000038
0.999341 0.696320 0.000108
0.999384 0.698043 0.000200
0.999450 0.699606 0.000312
0.999370 0.698013 0.000347
0.999212 0.695208 0.000320
0.000000 1.000000 0.000285
0.000000 1.000000 0.000285
0.000016 0.920678 0.000083
0.000037 0.874970 0.000532
0.000294 0.845325 0.000350
0.000093 0.823568 0.000592
0.005933 0.808109 0.000284
0.121129 0.794762 0.000019
0.279918 0.781375 0.000248
0.406084 0.769659 0.000217
0.505360 0.758998 0.000082
0.584864 0.748684 0.000217
0.649439 0.740475 0.000105
0.706731 0.733231 0.000000
0.755115 0.726012 0.000054
0.798218 0.720012 0.000218
0.831683 0.715769 0.000445
0.863189 0.711627 0.000504
0.890090 0.708712 0.000268
0.915271 0.706025 0.000095
0.938731 0.703630 0.000017
0.960270 0.701673 0.000012
0.980945 0.699732 0.000006
0.995924 0.698554 0.000006
0.996718 0.699596 0.000021
0.997704 0.700751 0.000023
0.998866 0.702010 0.000013
0.999278 0.705177 0.000052
0.999372 0.708711 0.000132
0.999456 0.711929 0.000233
0.999530 0.714852 0.000355
0.999393 0.714140 0.000386
0.999153 0.711705 0.000332
0.000000 1.000000 0.000285
0.000000 1.000000 0.000285
0.000026 0.940976 0.000190
0.000020 0.895026 0.000755
0.000218 0.865474 0.000425
0.000062 0.843801 0.000534
0.003066 0.827999 0.000399
0.077833 0.814639 0.000166
0.224864 0.801422 0.000189
0.361120 0.789472 0.000251
0.468107 0.778341 0.000325
0.553262 0.766623 0.000401
0.621717 0.757536 0.000223
0.681930 0.749540 0.000005
0.732310 0.742057 0.000051
0.777786 0.735598 0.000162
0.813686 0.730924 0.000329
0.847374 0.726411 0.000375
0.875258 0.723249 0.000247
0.901046 0.720413 0.000181
0.925042 0.717785 0.000169
0.946837 0.715436 0.000119
0.967707 0.713190 0.000057
0.984425 0.711596 0.000029
0.988941 0.711646 0.000057
0.993459 0.711758 0.000075
0.997982 0.711929 0.000085
0.999414 0.714188 0.000110
0.999471 0.717216 0.000148
0.999531 0.720082 0.000191
0.999595 0.722798 0.000238
0.999505 0.723195 0.000247
0.999305 0.722232 0.000210
0.000000 1.000000 0.000285
0.000000 1.000000 0.000285
0.000017 0.960180 0.000259
0.000015 0.914293 0.001088
0.000092 0.884763 0.000462
0.000026 0.862943 0.000515
0.001054 0.846931 0.000498
0.041197 0.833433 0.000278
0.171191 0.820384 0.000142
0.317402 0.808277 0.000270
0.432108 0.796903 0.000602
0.522749 0.783845 0.000628
0.595063 0.773821 0.000366
0.658206 0.765050 0.000004
0.710494 0.757264 0.000028
0.758194 0.750316 0.000081
0.796373 0.745247 0.000211
0.832103 0.740398 0.000264
0.861024 0.736995 0.000236
0.887377 0.734027 0.000275
0.911889 0.731219 0.000338
0.933913 0.728530 0.000239
0.955005 0.726040 0.000125
0.973245 0.724002 0.000066
0.981284 0.723066 0.000107
0.989150 0.722151 0.000142
0.996855 0.721253 0.000170
0.999544 0.722642 0.000179
0.999571 0.725254 0.000170
0.999615 0.727849 0.000149
0.999675 0.730426 0.000117
0.999622 0.731774 0.000098
0.999452 0.732209 0.000083
0.000000 1.000000 0.000285
0.000000 1.000000 0.000285
0.000000 0.976235 0.000308
0.000004 0.931779 0.000996
0.000000 0.902564 0.000402
0.000000 0.880662 0.000480
0.000142 0.864589 0.000499
0.018163 0.850973 0.000310
0.122675 0.838178 0.000141
0.269951 0.825976 0.000249
0.393847 0.814391 0.000718
0.490612 0.800298 0.000786
0.567752 0.789337 0.000502
0.634361 0.779878 0.000077
0.688697 0.771789 0.000035
0.738656 0.764392 0.000016
0.778761 0.759011 0.000134
0.816231 0.753909 0.000212
0.846359 0.750199 0.000238
0.873499 0.747007 0.000313
0.898820 0.743988 0.000401
0.921246 0.741025 0.000283
0.942795 0.738300 0.000169
0.962270 0.735915 0.000113
0.973525 0.734354 0.000158
0.984419 0.732788 0.000192
0.994979 0.731216 0.000215
0.999116 0.731733 0.000207
0.999218 0.733672 0.000168
0.999381 0.735665 0.000112
0.999599 0.737707 0.000040
0.999661 0.739395 0.000002
0.999514 0.740741 0.000002
0.000000 1.000000 0.000285
0.000000 1.000000 0.000285
0.000000 0.986815 0.000357
0.000000 0.947194 0.000549
0.000000 0.918417 0.000252
0.000000 0.896886 0.000373
0.000083 0.880715 0.000350
0.010141 0.867239 0.000262
0.084197 0.854818 0.000218
0.215821 0.842612 0.000199
0.351126 0.830623 0.000521
0.455168 0.815894 0.000772
0.538431 0.804114 0.000600
0.609424 0.794091 0.000259
0.666250 0.785741 0.000107
0.718684 0.778011 0.000007
0.760300 0.772424 0.000135
0.799165 0.767180 0.000257
0.830745 0.763081 0.000269
0.859102 0.759517 0.000264
0.885755 0.756175 0.000269
0.908871 0.752980 0.000194
0.930898 0.750038 0.000157
0.951384 0.747415 0.000170
0.965487 0.745765 0.000198
0.979025 0.744105 0.000199
0.992042 0.742435 0.000176
0.997764 0.742118 0.000147
0.998122 0.742905 0.000117
0.998624 0.743726 0.000077
0.999259 0.744580 0.000029
0.999596 0.745793 0.000001
0.999472 0.747456 0.000003
0.000000 1.000000 0.000285
0.000000 1.000000 0.000285
0.000000 0.995024 0.000321
0.000000 0.962086 0.000235
0.000000 0.933500 0.000127
0.000000 0.912400 0.000266
0.000043 0.896044 0.000201
0.003850 0.882771 0.000227
0.050424 0.870712 0.000316
0.162582 0.858584 0.000167
0.309145 0.846250 0.000292
0.420543 0.830777 0.000694
0.509785 0.818261 0.000667
0.584820 0.807750 0.000409
0.644409 0.799093 0.000171
0.699119 0.791062 0.000005
0.742378 0.785259 0.000153
0.782582 0.779899 0.000332
0.815657 0.775458 0.000326
0.845269 0.771537 0.000227
0.873332 0.767871 0.000122
0.896963 0.764445 0.000108
0.919414 0.761292 0.000149
0.940661 0.758431 0.000239
0.957457 0.756689 0.000242
0.973493 0.754933 0.000204
0.988832 0.753164 0.000130
0.996289 0.752115 0.000074
0.996941 0.751770 0.000057
0.997813 0.751446 0.000037
0.998892 0.751139 0.000014
0.999556 0.751775 0.000000
0.999446 0.753863 0.000014
0.000000 1.000000 0.000285
0.000000 1.000000 0.000285
0.000000 1.000000 0.000285
0.000000 0.975459 0.000099
0.000000 0.947706 0.000058
0.000000 0.927028 0.000179
0.000035 0.910507 0.000094
0.000044 0.897424 0.000199
0.024821 0.885791 0.000400
0.114009 0.873908 0.000171
0.265506 0.861413 0.000087
0.384521 0.845162 0.000590
0.480030 0.831971 0.000665
0.559238 0.821027 0.000488
0.621927 0.811977 0.000210
0.678955 0.803615 0.000010
0.724146 0.797543 0.000165
0.765790 0.792031 0.000383
0.800490 0.787270 0.000371
0.831401 0.783016 0.000200
0.860827 0.779023 0.000005
0.885006 0.775404 0.000047
0.907979 0.772068 0.000142
0.929859 0.768988 0.000288
0.948671 0.767118 0.000270
0.966575 0.765245 0.000206
0.983658 0.763362 0.000098
0.993022 0.761780 0.000021
0.994535 0.760559 0.000013
0.996295 0.759355 0.000007
0.998285 0.758167 0.000002
0.999561 0.758262 0.000002
0.999444 0.760477 0.000028
0.000000 1.000000 0.000285
0.000000 1.000000 0.000285
0.000000 1.000000 0.000285
0.000000 0.984173 0.000156
0.000000 0.960618 0.000094
0.000000 0.940262 0.000179
0.000112 0.923881 0.000136
0.000027 0.910825 0.000164
0.015076 0.899763 0.000345
0.081152 0.888478 0.000221
0.215083 0.876255 0.000097
0.342175 0.859419 0.000418
0.445081 0.845664 0.000502
0.529216 0.834303 0.000438
0.595946 0.824648 0.000198
0.656095 0.815770 0.000015
0.703737 0.809284 0.000118
0.747322 0.803418 0.000279
0.783975 0.798281 0.000285
0.816146 0.793747 0.000168
0.846880 0.789464 0.000027
0.872032 0.785736 0.000057
0.895879 0.782279 0.000125
0.918575 0.779067 0.000227
0.937702 0.776955 0.000227
0.955839 0.774912 0.000189
0.973193 0.772882 0.000121
0.984505 0.771140 0.000062
0.988533 0.769802 0.000043
0.992679 0.768506 0.000025
0.996936 0.767250 0.000010
0.999657 0.766966 0.000005
0.999468 0.768382 0.000030
0.000000 1.000000 0.000285
0.000000 1.000000 0.000285
0.000000 1.000000 0.000285
0.000000 0.991569 0.000204
0.000000 0.972929 0.000136
0.000000 0.952957 0.000190
0.000221 0.936744 0.000157
0.000013 0.923710 0.000128
0.007496 0.913157 0.000258
0.051683 0.902442 0.000252
0.166839 0.890308 0.000144
0.300432 0.873233 0.000276
0.410754 0.858918 0.000341
0.499619 0.847126 0.000382
0.570405 0.836901 0.000184
0.633614 0.827531 0.000019
0.683801 0.820596 0.000070
0.729328 0.814354 0.000167
0.767894 0.808850 0.000184
0.801316 0.804049 0.000124
0.833236 0.799503 0.000051
0.859484 0.795642 0.000059
0.884167 0.792063 0.000093
0.907643 0.788717 0.000147
0.927153 0.786384 0.000165
0.945537 0.784183 0.000159
0.963173 0.782020 0.000137
0.976189 0.780132 0.000103
0.982621 0.778692 0.000073
0.989050 0.777318 0.000044
0.995441 0.775990 0.000019
0.999734 0.775233 0.000008
0.999480 0.775890 0.000027
0.000000 1.000000 0.000285
0.000000 1.000000 0.000285
0.000000 1.000000 0.000285
0.000000 0.997700 0.000257
0.000000 0.984689 0.000180
0.000000 0.965139 0.000203
0.000361 0.949126 0.000158
0.000003 0.936118 0.000090
0.001877 0.926020 0.000144
0.025420 0.915858 0.000281
0.121544 0.903841 0.000199
0.259206 0.886635 0.000164
0.376996 0.871774 0.000180
0.470408 0.859537 0.000319
0.545257 0.848769 0.000168
0.611471 0.838928 0.000020
0.664286 0.831516 0.000021
0.711760 0.824880 0.000051
0.752220 0.819006 0.000069
0.786888 0.813972 0.000079
