output/AP0_display/AP0_to_Velvia_33grid.cube
TITLE "AP0_to_Velvia"
# Input: Linear ACES2065-1 / AP0 (D60)
# Output: BT.709 / Gamma 2.2 (display-referred)
# Use: Display/output transform in ACES pipeline (replaces ODT)
# Source: FLog2C_to_Velvia_65grid_V.1.00.cube
# Generated from Fujifilm GFX ETERNA 55 F-Log2C LUT
LUT_3D_SIZE 9
0.000000 0.000000 0.000000
0.999976 0.021639 0.249576
0.999872 0.170707 0.486996
0.999856 0.285124 0.492419
0.999899 0.286792 0.492290
0.999899 0.286792 0.492290
0.999899 0.286792 0.492290
0.999899 0.286792 0.492290
0.999899 0.286792 0.492290
0.000068 0.633207 0.000480
0.453962 0.352084 0.000366
0.857660 0.361375 0.000009
0.999481 0.382854 0.000119
0.999289 0.407307 0.050875
0.999270 0.416025 0.172921
0.999548 0.415366 0.235132
0.999664 0.423370 0.282530
0.999504 0.430273 0.316421
0.000018 0.887370 0.000109
0.074966 0.616946 0.000366
0.664945 0.559476 0.000105
0.922640 0.540888 0.000105
0.999118 0.542887 0.000003
0.999497 0.560259 0.000057
0.999255 0.560804 0.000080
0.999562 0.550656 0.023707
0.999300 0.545114 0.079070
0.000000 0.996981 0.000312
0.000023 0.770940 0.000327
0.502467 0.680271 0.000067
0.784384 0.639356 0.000000
0.970259 0.618445 0.000259
0.999111 0.613911 0.000079
0.999500 0.632549 0.000026
0.999346 0.644746 0.000037
0.998944 0.639545 0.000029
0.000000 1.000000 0.000285
0.000169 0.874033 0.000370
0.279599 0.781712 0.000204
0.672194 0.718175 0.000000
0.876258 0.688305 0.000080
0.998578 0.670769 0.000195
0.999437 0.667279 0.000149
0.999282 0.679368 0.000196
0.999253 0.689397 0.000145
0.000000 1.000000 0.000285
0.000000 0.951865 0.000141
0.057201 0.879555 0.000481
0.557083 0.787604 0.000192
0.779676 0.750522 0.000041
0.943656 0.726876 0.000043
0.998621 0.713450 0.000014
0.999050 0.711538 0.000013
0.999263 0.717570 0.000236
0.000000 1.000000 0.000285
0.000000 0.998939 0.000205
0.000081 0.951018 0.000380
0.408550 0.858542 0.000100
0.691344 0.809007 0.000131
0.866402 0.780364 0.000121
0.979296 0.761359 0.000072
0.999271 0.752393 0.000147
0.999472 0.750480 0.000035
0.000000 1.000000 0.000285
0.000000 1.000000 0.000285
0.000000 0.990707 0.000125
0.203676 0.932446 0.000365
0.598026 0.864547 0.000237
0.786749 0.831374 0.000047
0.928348 0.808041 0.000104
0.992954 0.794022 0.000291
0.999300 0.787087 0.000051
0.000000 1.000000 0.000285
0.000000 1.000000 0.000285
0.000000 1.000000 0.000285
0.026495 0.988594 0.000561
0.493058 0.916726 0.000337
0.711663 0.877756 0.000015
0.865990 0.851750 0.000109
0.968180 0.833568 0.000077
0.998936 0.822603 0.000106
0.003322 0.000363 0.345127
0.936786 0.000338 0.437336
0.999981 0.042979 0.640345
0.999846 0.218438 0.588892
0.999697 0.290071 0.564922
0.999644 0.291612 0.553652
0.999677 0.288988 0.545552
0.999788 0.287401 0.538328
0.999714 0.286495 0.533364
0.000118 0.637960 0.639017
0.361524 0.366139 0.364471
0.774339 0.324959 0.373454
0.987085 0.328508 0.426591
0.999262 0.347079 0.481454
0.999361 0.371730 0.537073
0.999641 0.390306 0.555962
0.999592 0.410455 0.559209
0.999567 0.427308 0.562000
0.000017 0.883471 0.568368
0.000217 0.646115 0.313037
0.581413 0.556236 0.267745
0.828559 0.528180 0.292815
0.982768 0.516164 0.333953
0.999894 0.516052 0.379306
0.999596 0.522697 0.426563
0.999292 0.527757 0.462649
0.999529 0.528487 0.482727
0.000141 0.991918 0.491441
0.000065 0.790156 0.250514
0.373582 0.699122 0.195537
0.692820 0.654412 0.204822
0.883031 0.631617 0.235932
0.999376 0.619463 0.273805
0.999381 0.614743 0.315915
0.999249 0.616125 0.359211
0.999436 0.615943 0.395191
0.000324 0.999777 0.419697
0.000137 0.906468 0.181429
0.091390 0.818523 0.136161
0.568078 0.753203 0.124642
0.774511 0.723571 0.152211
0.930574 0.703999 0.186188
0.999067 0.691522 0.225548
0.999247 0.687049 0.267319
0.999226 0.685892 0.307597
0.000055 0.999369 0.355227
0.000014 0.995541 0.109605
0.000006 0.919215 0.068358
0.421915 0.842312 0.051772
0.678093 0.802875 0.072131
0.844506 0.778596 0.103235
0.962788 0.760816 0.145254
0.999534 0.751385 0.183755
0.999572 0.747695 0.225356
0.000001 0.999675 0.296759
0.000000 0.999933 0.050019
0.000015 0.983373 0.010151
0.207260 0.929120 0.000423
0.579435 0.878287 0.011938
0.758650 0.848841 0.034474
0.900091 0.827575 0.064474
0.985157 0.813475 0.102297
0.998985 0.804229 0.143683
0.000000 0.999747 0.235925
0.000000 0.999882 0.011340
0.000000 1.000000 0.000285
0.028396 0.988171 0.000740
0.466042 0.946462 0.002678
0.678823 0.913303 0.005239
0.828508 0.889663 0.012331
0.940184 0.871742 0.038853
0.994529 0.858914 0.068072
0.000000 0.999897 0.178018
0.000000 1.000000 0.000285
0.000000 1.000000 0.000285
0.000000 1.000000 0.000285
0.316615 0.991136 0.000119
0.596870 0.964244 0.000010
0.757780 0.940556 0.001697
0.885957 0.920776 0.008106
0.972822 0.905706 0.018200
0.026489 0.000022 0.624207
0.835211 0.000334 0.604272
0.999889 0.000123 0.764302
0.999862 0.133723 0.706679
0.999739 0.274571 0.646751
0.999834 0.300461 0.630577
0.999779 0.300737 0.623675
0.999740 0.299241 0.615559
0.999716 0.298443 0.608210
0.000122 0.618533 0.915797
0.293345 0.365296 0.650642
0.744350 0.304811 0.613440
0.973503 0.301162 0.621550
0.999790 0.315280 0.647277
0.999838 0.339318 0.677695
0.999824 0.367368 0.686110
0.999816 0.398561 0.670782
0.999859 0.423965 0.661797
0.000350 0.855268 0.876411
0.000244 0.646917 0.625016
0.543778 0.545654 0.544430
0.794186 0.513717 0.533545
0.965952 0.498279 0.543064
0.999642 0.495283 0.562915
0.999908 0.501037 0.588466
0.999731 0.509139 0.611438
0.999529 0.516505 0.618717
0.000024 0.944496 0.802083
0.000082 0.790632 0.591026
0.315914 0.690036 0.509317
0.658461 0.642631 0.483436
0.848630 0.618367 0.483679
0.984770 0.603876 0.496004
0.999527 0.598619 0.513532
0.999577 0.599677 0.536015
0.999447 0.602240 0.557475
0.000086 0.991557 0.734595
0.000272 0.904561 0.547209
0.037708 0.813368 0.482730
0.527061 0.741194 0.442236
0.739209 0.709686 0.437613
0.898538 0.689909 0.441507
0.992679 0.677581 0.455690
0.999537 0.672110 0.473553
0.999264 0.671033 0.496127
0.000116 0.999670 0.682408
0.000012 0.972014 0.508485
0.000124 0.907712 0.446879
0.362193 0.831611 0.404854
0.639063 0.790255 0.392043
0.807708 0.765284 0.396285
0.937328 0.747885 0.406755
0.996691 0.737061 0.421928
0.999579 0.731904 0.439617
0.000252 0.999958 0.637808
0.000096 0.999134 0.471065
0.000040 0.968488 0.403479
0.139373 0.919407 0.372402
0.536081 0.865214 0.350538
0.720539 0.836001 0.352248
0.864948 0.814324 0.360505
0.965050 0.798937 0.373350
0.999772 0.789054 0.388594
0.000228 0.999957 0.596206
0.000022 0.999734 0.436496
0.000035 0.996193 0.364613
0.015274 0.978566 0.342486
0.406054 0.933716 0.312538
0.636019 0.899448 0.310718
0.787815 0.875040 0.316426
0.908151 0.856231 0.326091
0.983946 0.841079 0.339008
0.000081 0.999816 0.550588
0.000091 0.999692 0.407545
0.000047 0.999743 0.326172
0.000059 0.999229 0.305353
0.238360 0.981494 0.280871
0.545300 0.951663 0.270340
0.712514 0.925874 0.274079
0.842502 0.904921 0.281031
0.940909 0.887089 0.293449
0.062976 0.000011 0.807823
0.752097 0.000378 0.715272
0.999968 0.000070 0.848641
0.999640 0.042704 0.822315
0.999474 0.217116 0.717304
0.999954 0.277415 0.683132
0.999775 0.283343 0.671230
0.999833 0.288442 0.662760
0.999712 0.291676 0.653811
0.000871 0.597550 0.999997
0.216053 0.367458 0.821659
0.717057 0.289036 0.751749
0.960510 0.279913 0.743990
0.999789 0.292075 0.751604
0.999563 0.313790 0.774678
0.999924 0.341631 0.778894
0.999663 0.376151 0.748360
0.999934 0.403960 0.727567
0.000073 0.823358 0.998812
0.000110 0.649749 0.798108
0.508263 0.540285 0.695844
0.770110 0.502843 0.672138
0.952661 0.486957 0.666234
0.999274 0.483282 0.674955
0.999913 0.486399 0.690367
0.999317 0.494527 0.707153
0.999400 0.505836 0.706956
0.000142 0.909542 0.973908
0.000299 0.795620 0.773802
0.255225 0.688592 0.673182
0.632941 0.634525 0.634421
0.824641 0.609073 0.621741
0.966088 0.593844 0.622478
0.999600 0.586216 0.629243
0.999971 0.586930 0.646198
0.999998 0.589928 0.660585
0.000071 0.959555 0.916370
0.000090 0.898841 0.745966
0.016967 0.811587 0.658173
0.492893 0.735911 0.604027
0.714371 0.702144 0.587693
0.874449 0.681259 0.583187
0.985636 0.667784 0.586436
0.998997 0.661514 0.595717
0.999886 0.660123 0.610491
0.000023 0.989127 0.867390
0.000097 0.953010 0.708536
0.000285 0.901600 0.627483
0.311349 0.829446 0.578726
0.612923 0.783296 0.556597
0.783637 0.757554 0.548847
0.918004 0.739733 0.550711
0.994983 0.727717 0.553569
0.999756 0.720288 0.564104
0.000052 0.999746 0.823833
0.000203 0.986992 0.676553
0.000147 0.949742 0.593897
0.094991 0.914073 0.557043
0.501190 0.860049 0.524290
0.695678 0.828162 0.514567
0.840444 0.805916 0.513255
0.949616 0.788914 0.517224
0.998425 0.776342 0.522343
0.000145 0.999738 0.788397
0.000278 0.999705 0.647539
0.000056 0.982498 0.558821
0.010028 0.962697 0.531021
0.355430 0.926140 0.495890
0.607602 0.889161 0.482069
0.759970 0.864794 0.478027
0.883343 0.844083 0.479129
0.971930 0.827309 0.483856
0.000335 0.999816 0.751243
0.000193 0.999503 0.624275
0.000084 0.998729 0.527501
0.000218 0.986950 0.500424
0.185017 0.974993 0.473668
0.510207 0.939480 0.451500
0.681528 0.912459 0.446478
0.812302 0.891384 0.444332
0.915542 0.872493 0.448584
0.103262 0.000192 0.871546
0.675828 0.000013 0.814371
0.999924 0.000039 0.907694
0.999922 0.001261 0.927004
0.999725 0.146930 0.796086
0.999700 0.251141 0.731217
0.999592 0.266085 0.713903
0.999933 0.270772 0.702928
0.999994 0.274475 0.695066
0.000530 0.581110 0.999985
0.119169 0.375196 0.954933
0.690677 0.276310 0.856007
0.938078 0.258941 0.837716
0.999988 0.270317 0.832792
0.999908 0.292312 0.846144
0.999999 0.317912 0.859836
0.999676 0.354774 0.816071
0.999549 0.385191 0.784215
0.000455 0.797809 0.999929
0.000585 0.653140 0.942300
0.473826 0.536148 0.807102
0.747530 0.493993 0.772203
0.935093 0.475620 0.759625
0.998686 0.469862 0.760245
0.999723 0.472860 0.770939
0.999805 0.480416 0.784750
0.999802 0.492614 0.778383
0.000498 0.884009 0.999778
0.000578 0.804694 0.935841
0.201752 0.688633 0.795189
0.607752 0.630271 0.740925
0.804783 0.601946 0.721678
0.951330 0.585524 0.715608
0.998604 0.576976 0.718369
0.999690 0.577506 0.728576
0.999452 0.578351 0.741340
0.000665 0.935651 0.995030
0.000577 0.887160 0.903509
0.001605 0.813630 0.787747
0.462920 0.732271 0.719409
0.694836 0.696578 0.695200
0.856957 0.674889 0.684234
0.972034 0.660337 0.683017
0.999394 0.652991 0.683938
0.999802 0.649488 0.696363
0.000011 0.967612 0.976523
0.000290 0.936674 0.865870
0.000116 0.889579 0.761767
0.266747 0.827666 0.699825
0.590908 0.779160 0.669303
0.764195 0.752069 0.656342
0.899393 0.733155 0.651787
0.988255 0.718733 0.651547
0.999316 0.710257 0.655726
0.000044 0.986837 0.939666
0.000318 0.970009 0.834754
0.000323 0.933547 0.725794
0.054381 0.906359 0.682897
0.470628 0.854523 0.641652
0.674053 0.821050 0.626156
0.818342 0.797988 0.619549
0.930736 0.779495 0.616789
0.989007 0.765786 0.619217
0.000197 0.996759 0.908377
0.000056 0.991689 0.809844
0.000371 0.965374 0.693372
0.000511 0.945466 0.659888
0.312539 0.918732 0.616338
0.582420 0.880049 0.596880
0.736406 0.854273 0.587911
0.860171 0.833191 0.584100
0.950878 0.817044 0.582949
0.000383 0.999431 0.878299
0.000199 0.999810 0.790856
0.000295 0.987632 0.664280
0.000365 0.972106 0.629784
0.141228 0.964864 0.596046
0.481085 0.928790 0.570214
0.657137 0.901329 0.558406
0.787563 0.879760 0.553209
0.891943 0.861847 0.550524
0.149605 0.000085 0.914573
0.591139 0.000304 0.903614
0.999983 0.000076 0.949570
0.999953 0.000000 0.994861
0.999877 0.078493 0.874926
0.999974 0.212316 0.783552
0.999540 0.247282 0.754019
0.999665 0.253521 0.741360
0.999286 0.257311 0.732414
0.000851 0.566162 0.999995
0.010586 0.385588 0.999919
0.663798 0.263045 0.944285
0.916325 0.244431 0.912972
0.999712 0.251002 0.903325
0.999581 0.273466 0.907766
0.999286 0.297284 0.920423
0.999650 0.335259 0.874312
0.999996 0.368279 0.836992
0.000278 0.778077 0.999393
0.000308 0.662657 0.999926
0.435669 0.533732 0.904208
0.726921 0.487768 0.854936
0.916636 0.466254 0.836141
0.998138 0.458812 0.832118
0.999754 0.461286 0.836264
0.999855 0.468967 0.847383
0.999762 0.479682 0.845486
0.000052 0.864610 0.999870
0.000119 0.807304 0.999589
0.130266 0.690771 0.900475
0.586579 0.624865 0.830230
0.786058 0.595970 0.806544
0.937169 0.577798 0.794209
0.996410 0.569325 0.791147
0.999435 0.567879 0.796526
0.999920 0.568624 0.807913
0.000168 0.916130 1.000000
0.000069 0.878034 0.999846
0.002760 0.812220 0.901622
0.435489 0.729783 0.817864
0.675465 0.692186 0.783949
0.839133 0.668731 0.769029
0.959228 0.653554 0.760822
0.997398 0.645433 0.760931
0.999479 0.640500 0.765601
0.000087 0.950731 0.999792
0.000418 0.926107 0.979162
0.000271 0.877062 0.870289
0.224417 0.825308 0.804357
0.568536 0.774665 0.763365
0.745200 0.745426 0.744449
0.882510 0.725844 0.734265
0.976949 0.711102 0.729676
0.998255 0.700208 0.730110
0.000126 0.972247 0.995662
0.000187 0.957998 0.954262
0.000458 0.918718 0.836354
0.037226 0.896476 0.787116
0.442146 0.847358 0.738436
0.653465 0.813127 0.716377
0.797971 0.789292 0.704476
0.912374 0.770483 0.697960
0.979232 0.755705 0.695032
0.000088 0.986778 0.980123
0.000234 0.980601 0.935005
0.000108 0.949739 0.804820
0.000044 0.931910 0.760747
0.273769 0.909812 0.714469
0.559270 0.870461 0.687949
0.715237 0.844316 0.675079
0.839938 0.822801 0.666819
0.933948 0.806075 0.662742
0.000012 0.995236 0.960194
0.000183 0.993565 0.922421
0.000099 0.973559 0.775700
0.000059 0.957146 0.730851
0.101376 0.953205 0.696818
0.453968 0.919366 0.663248
0.634506 0.891364 0.647542
0.765784 0.868971 0.639071
0.872293 0.850969 0.633706
0.190476 0.000122 0.949253
0.493001 0.000054 0.976316
0.999787 0.000031 0.983955
1.000000 0.000000 0.999715
0.999909 0.025497 0.952535
0.999846 0.163424 0.840778
0.999820 0.226334 0.791892
0.999992 0.235580 0.777658
0.999945 0.241282 0.766884
0.000774 0.555871 0.999973
0.000251 0.403756 0.999872
0.635015 0.252655 0.997719
0.892188 0.228460 0.975354
0.999815 0.233876 0.964557
0.999896 0.253070 0.965548
0.999758 0.279389 0.971087
0.999843 0.315891 0.932561
0.999983 0.350739 0.885148
0.000362 0.760511 0.999933
0.000418 0.679951 0.999969
0.394729 0.531335 0.980022
0.705801 0.480282 0.929188
0.898627 0.458016 0.904208
0.997405 0.448935 0.894300
0.999883 0.450346 0.895997
0.999580 0.457412 0.904261
0.999761 0.467744 0.901624
0.000070 0.848526 0.999639
0.000681 0.806452 0.999997
0.074116 0.692742 0.983072
0.562181 0.621285 0.914484
0.766686 0.590382 0.878791
0.923239 0.572050 0.863692
0.993980 0.562070 0.856898
0.999364 0.559060 0.860778
0.999813 0.559166 0.867095
0.000339 0.901312 1.000000
0.000519 0.874885 0.999950
0.000238 0.808008 0.980519
0.400842 0.728201 0.905687
0.656684 0.687754 0.863755
0.823057 0.663648 0.843247
0.947107 0.647040 0.831760
0.995062 0.636939 0.827408
0.999968 0.631177 0.827782
0.000510 0.935736 0.999999
0.000151 0.921470 0.999718
0.000255 0.865788 0.957106
0.178611 0.821217 0.893372
0.546796 0.769133 0.845233
0.726034 0.738926 0.820687
0.865451 0.718803 0.806183
0.965283 0.703448 0.797775
0.996641 0.692120 0.794899
0.000729 0.959931 0.999996
0.000075 0.953517 0.999804
0.000408 0.905921 0.924435
0.026854 0.887555 0.874809
0.414269 0.839476 0.820497
0.632856 0.804964 0.793852
0.778302 0.780531 0.778202
0.895119 0.761319 0.768187
0.969633 0.746305 0.762898
0.000379 0.975961 0.999988
0.000348 0.975476 0.999924
0.000215 0.936839 0.894306
0.000108 0.918361 0.847728
0.238726 0.901523 0.797648
0.535398 0.861915 0.765872
0.695263 0.835062 0.749993
0.820784 0.813967 0.739246
0.918011 0.796260 0.732387
0.000035 0.986317 0.996560
0.000036 0.986249 0.996613
0.000008 0.960731 0.866821
0.000134 0.943593 0.818417
0.078633 0.941649 0.781657
0.421983 0.910402 0.742371
0.614374 0.881874 0.724278
0.745797 0.860308 0.711844
0.853770 0.841419 0.703801
0.234897 0.000059 0.983899
0.376087 0.000277 0.999551
0.993712 0.000010 0.999570
1.000000 0.000000 0.999715
1.000000 0.003043 0.992734
0.999998 0.108462 0.901502
0.999869 0.199791 0.830071
0.999918 0.219019 0.808369
0.999859 0.225179 0.797768
0.000998 0.539911 0.999993
0.000391 0.440149 0.999803
0.602855 0.243276 0.999579
0.870438 0.214363 0.999666
0.999777 0.216042 0.998272
0.999945 0.235569 0.996301
0.999721 0.261797 0.998263
0.999843 0.298553 0.979558
0.999972 0.334660 0.933736
0.000372 0.745063 0.999822
0.000264 0.699404 0.999835
0.346024 0.531182 0.999612
0.684075 0.474623 0.984280
0.880638 0.450382 0.964635
0.996820 0.439502 0.952699
0.999885 0.440238 0.951884
0.999741 0.447029 0.956180
0.999735 0.456614 0.953887
0.000032 0.834127 0.999505
0.000440 0.813183 0.999963
0.032911 0.697230 0.999591
0.537227 0.618418 0.976830
0.748762 0.584698 0.947267
0.910629 0.566052 0.926428
0.991841 0.554685 0.918218
0.999654 0.550803 0.917882
0.999761 0.550781 0.919924
0.000446 0.888957 0.999970
0.000423 0.881618 0.999745
0.000847 0.801276 0.999994
0.366250 0.725586 0.973279
0.639456 0.683109 0.935010
0.806520 0.658342 0.910214
0.934525 0.640591 0.894657
0.991970 0.629459 0.886129
0.999922 0.622825 0.883140
0.000460 0.924202 0.999995
0.000460 0.924118 0.999995
0.000271 0.855541 0.997280
0.132107 0.817462 0.963678
0.523579 0.762972 0.916568
0.706642 0.732903 0.889258
0.847552 0.711430 0.869902
0.951765 0.695456 0.858444
0.994072 0.683493 0.851622
0.000608 0.949869 0.999985
0.000610 0.949792 0.999985
0.000239 0.895136 0.982905
0.004657 0.880717 0.946902
0.379997 0.832611 0.892008
0.611728 0.796846 0.861999
0.758669 0.772292 0.843425
0.878433 0.752779 0.831293
0.959350 0.737642 0.822814
0.000393 0.967640 0.999982
0.000399 0.967562 0.999982
0.000060 0.925953 0.962916
0.000155 0.905575 0.918620
0.203954 0.892896 0.872178
0.511385 0.852979 0.835960
0.675554 0.826351 0.816518
0.802333 0.804978 0.803859
0.902503 0.787532 0.794387
0.000188 0.978939 0.999981
0.000191 0.978873 0.999981
0.000101 0.950287 0.940090
0.000196 0.932301 0.891069
0.061301 0.931839 0.856280
0.392869 0.901767 0.813919
0.595257 0.873138 0.791913
0.727778 0.851394 0.777079
0.836661 0.832698 0.766629
0.274982 0.000381 0.999412
0.235462 0.000321 0.973051
0.940165 0.000110 0.999611
1.000000 0.000000 0.999715
1.000000 0.000010 0.999657
0.999981 0.048152 0.964995
0.999931 0.167636 0.871935
0.999984 0.203156 0.837589
0.999784 0.209330 0.826679
0.005451 0.519647 0.999995
0.003520 0.493375 0.999891
0.569899 0.234539 0.999612
0.845900 0.201261 0.999470
0.999920 0.198714 0.999723
0.999932 0.218764 0.999528
0.999696 0.244862 0.999156
0.999844 0.281096 0.999077
0.999861 0.318687 0.972830
0.000354 0.729875 0.999833
0.000354 0.729797 0.999834
0.293168 0.532540 0.999813
0.661824 0.469455 0.999493
0.863222 0.443270 0.999533
0.989747 0.431315 0.991760
0.999874 0.430800 0.988797
0.999766 0.436656 0.990086
0.999810 0.445774 0.988516
0.000040 0.820733 0.999571
0.000039 0.820646 0.999575
0.005119 0.701105 0.999948
0.513174 0.616015 0.999936
0.731913 0.580246 0.993095
0.895830 0.559751 0.976124
0.989740 0.548211 0.967929
0.999792 0.543273 0.965794
0.999617 0.542231 0.965398
0.000530 0.876850 0.999864
0.000527 0.876760 0.999862
0.000385 0.794197 0.999813
0.330969 0.722258 0.999904
0.620134 0.678155 0.983992
0.789900 0.652752 0.965394
0.921932 0.634287 0.949687
0.988236 0.622364 0.939140
0.999883 0.614963 0.933246
0.000501 0.913989 0.999957
0.000503 0.913907 0.999956
0.000264 0.847785 0.999989
0.093864 0.812620 0.999013
0.497784 0.756371 0.969320
0.689121 0.726090 0.946500
0.830881 0.703805 0.926238
0.938596 0.687763 0.911901
0.990542 0.675710 0.902050
0.000690 0.940906 0.999984
0.000690 0.940833 0.999984
0.000277 0.887447 0.999959
0.000246 0.867405 0.989438
0.345611 0.825701 0.950193
0.591973 0.789145 0.919812
0.741097 0.764128 0.900241
0.862511 0.744895 0.885879
0.948553 0.729663 0.875152
0.000740 0.959624 0.999964
0.000739 0.959566 0.999963
0.000429 0.917803 0.996539
0.000182 0.895543 0.970727
0.166142 0.887064 0.932733
0.488586 0.845374 0.894699
0.657462 0.818186 0.874291
0.784824 0.796817 0.859850
0.888111 0.779256 0.848854
0.000373 0.972443 0.999941
0.000373 0.972398 0.999940
0.000383 0.941693 0.987360
0.000249 0.922185 0.949266
0.037280 0.924812 0.917472
0.364915 0.894852 0.873870
0.576828 0.865246 0.850331
0.711020 0.842974 0.835049
0.821066 0.824140 0.822982
