output/AP0_display/AP0_to_PROVIA_33grid.cube
TITLE "AP0_to_PROVIA"
# Input: Linear ACES2065-1 / AP0 (D60)
# Output: BT.709 / Gamma 2.2 (display-referred)
# Use: Display/output transform in ACES pipeline (replaces ODT)
# Source: FLog2C_to_PROVIA_65grid_V.1.00.cube
# Generated from Fujifilm GFX ETERNA 55 F-Log2C LUT
LUT_3D_SIZE 9
0.000459 0.000290 0.000061
0.986247 0.045199 0.255783
0.999591 0.150376 0.454058
0.999977 0.255341 0.480208
1.000000 0.257130 0.480656
1.000000 0.257130 0.480656
1.000000 0.257130 0.480656
1.000000 0.257130 0.480656
1.000000 0.257130 0.480656
0.000041 0.566546 0.000315
0.433199 0.329724 0.000273
0.820557 0.331335 0.000048
0.992422 0.343930 0.016138
0.999912 0.358199 0.146880
0.999480 0.364123 0.239754
0.999374 0.368195 0.283804
0.999906 0.380347 0.319262
0.999870 0.390283 0.347006
0.000026 0.841965 0.000186
0.162893 0.552298 0.000010
0.657641 0.518379 0.000035
0.877064 0.518125 0.000136
0.986556 0.518982 0.000104
0.999540 0.521706 0.009145
0.999407 0.521723 0.072172
0.999209 0.514002 0.130160
0.999379 0.509614 0.172752
0.000104 0.968661 0.000473
0.000000 0.710399 0.000500
0.504531 0.654922 0.000337
0.776190 0.636911 0.000148
0.919920 0.626899 0.000176
0.995294 0.627026 0.000243
0.999213 0.628020 0.000243
0.999020 0.622972 0.007123
0.999149 0.613085 0.034496
0.000000 1.000000 0.000285
0.000181 0.822109 0.000351
0.327733 0.758944 0.000278
0.675597 0.722278 0.000100
0.848201 0.699951 0.000334
0.951782 0.689306 0.000131
0.998381 0.689355 0.000046
0.999341 0.696320 0.000108
0.999212 0.695208 0.000320
0.000000 1.000000 0.000285
0.000000 0.902564 0.000402
0.122675 0.838178 0.000141
0.567752 0.789337 0.000502
0.778761 0.759011 0.000134
0.898820 0.743988 0.000401
0.973525 0.734354 0.000158
0.999218 0.733672 0.000168
0.999514 0.740741 0.000002
0.000000 1.000000 0.000285
0.000000 0.960618 0.000094
0.015076 0.899763 0.000345
0.445081 0.845664 0.000502
0.703737 0.809284 0.000118
0.846880 0.789464 0.000027
0.937702 0.776955 0.000227
0.988533 0.769802 0.000043
0.999468 0.768382 0.000030
0.000000 1.000000 0.000285
0.000000 0.994693 0.000237
0.000000 0.947805 0.000147
0.295661 0.896791 0.000136
0.621217 0.851985 0.000090
0.791963 0.827967 0.000138
0.895180 0.813061 0.000104
0.963262 0.804244 0.000118
0.997093 0.798260 0.000128
0.000000 1.000000 0.000285
0.000000 1.000000 0.000285
0.000000 0.981670 0.000197
0.132333 0.943885 0.000180
0.528931 0.890599 0.000359
0.732978 0.862170 0.000303
0.851696 0.845270 0.000158
0.932656 0.834560 0.000098
0.984990 0.826843 0.000226
0.035198 0.000105 0.348138
0.850100 0.000037 0.367681
0.999753 0.058403 0.556176
0.999663 0.198821 0.552668
0.999902 0.264348 0.544104
0.999930 0.264137 0.533447
0.999836 0.262712 0.526113
0.999768 0.261741 0.520259
0.999366 0.260573 0.514184
0.000403 0.622965 0.626098
0.359650 0.362748 0.360012
0.762408 0.326941 0.367816
0.946115 0.325978 0.417383
0.999769 0.332388 0.472822
0.999625 0.344761 0.529995
0.999586 0.362495 0.552722
0.999838 0.384823 0.560518
0.999785 0.403868 0.568161
0.000331 0.851485 0.615892
0.032425 0.613338 0.338684
0.579808 0.544498 0.303440
0.814311 0.518363 0.325601
0.942819 0.508059 0.362600
0.999687 0.506599 0.404596
0.999323 0.509531 0.449244
0.999659 0.510658 0.484501
0.999907 0.513132 0.502757
0.000425 0.959022 0.587214
0.000045 0.762589 0.304854
0.391781 0.685598 0.256200
0.700345 0.648221 0.260433
0.857330 0.630185 0.286797
0.955098 0.620734 0.321402
0.999566 0.615593 0.359723
0.999688 0.614169 0.398657
0.999709 0.611445 0.431709
0.000083 0.996765 0.533987
0.000024 0.861013 0.268704
0.162953 0.788990 0.216478
0.582225 0.743902 0.208251
0.778948 0.720541 0.228113
0.894205 0.706186 0.255935
0.968012 0.697514 0.289956
0.999248 0.691427 0.325360
0.999431 0.688414 0.360247
0.000076 0.999281 0.477716
0.000000 0.930873 0.231242
0.006766 0.867160 0.177077
0.449239 0.818407 0.163061
0.695951 0.791392 0.173509
0.834767 0.773710 0.196351
0.923496 0.762211 0.228693
0.980164 0.754022 0.262771
0.999367 0.749012 0.297258
0.000142 0.999892 0.419563
0.000020 0.981200 0.193872
0.000518 0.922824 0.129162
0.285959 0.877876 0.119057
0.604338 0.846539 0.124952
0.770964 0.827565 0.146533
0.877127 0.814353 0.174961
0.948199 0.805273 0.206311
0.992810 0.797466 0.241827
0.000244 0.999739 0.364793
0.000012 0.999707 0.149108
0.000095 0.966938 0.082872
0.103087 0.929383 0.076030
0.501203 0.894139 0.076624
0.705772 0.873060 0.096684
0.828912 0.858849 0.124100
0.910317 0.847920 0.155144
0.968496 0.838624 0.191743
0.000235 0.999762 0.312924
0.000012 0.999845 0.101046
0.000000 0.995372 0.038240
0.000064 0.971908 0.035985
0.380122 0.935865 0.036192
0.632406 0.912846 0.051010
0.778605 0.896507 0.074336
0.871160 0.883974 0.106239
0.936845 0.873684 0.141111
0.062457 0.000084 0.550269
0.769458 0.000166 0.486641
0.999966 0.010761 0.640310
0.999914 0.135537 0.644102
0.999728 0.256170 0.618684
0.999757 0.278567 0.607212
0.999908 0.278689 0.600280
0.999833 0.276481 0.593520
0.999829 0.275547 0.587342
0.000748 0.623606 0.865885
0.301951 0.375742 0.595737
0.733760 0.322769 0.566386
0.923226 0.313717 0.585803
0.999663 0.317462 0.619585
0.999417 0.327600 0.658867
0.999794 0.348182 0.673394
0.999954 0.380398 0.663788
0.999966 0.407707 0.659828
0.000015 0.848740 0.860657
0.000473 0.629593 0.613903
0.543101 0.545036 0.543894
0.789069 0.515199 0.535876
0.921599 0.502220 0.548895
0.996129 0.497763 0.571895
0.999825 0.498893 0.599470
0.999631 0.503066 0.624725
0.999276 0.510467 0.633404
0.000055 0.930966 0.829793
0.000238 0.776051 0.612227
0.339807 0.689466 0.527442
0.669135 0.648607 0.504917
0.834879 0.627779 0.506416
0.935165 0.615960 0.521603
0.996702 0.609039 0.539316
0.999691 0.606516 0.561758
0.999679 0.606540 0.585282
0.000143 0.968609 0.791683
0.000086 0.868485 0.602683
0.098445 0.791656 0.517922
0.543520 0.744060 0.479649
0.750952 0.717303 0.475703
0.870841 0.702331 0.483217
0.952225 0.691570 0.497989
0.996807 0.685856 0.515540
0.999491 0.682442 0.536941
0.000102 0.993922 0.755003
0.000042 0.935069 0.596169
0.000048 0.866379 0.505389
0.397081 0.816563 0.461507
0.663562 0.787155 0.449301
0.809345 0.769295 0.452189
0.903778 0.756510 0.463837
0.967227 0.748791 0.479076
0.998556 0.742761 0.496789
0.000397 0.999812 0.721769
0.000051 0.975872 0.574465
0.000060 0.919317 0.488528
0.219790 0.875684 0.447082
0.566340 0.842563 0.426308
0.743385 0.822974 0.425565
0.853813 0.808961 0.433547
0.927880 0.799111 0.449691
0.982656 0.791176 0.463762
0.000296 0.999681 0.686410
0.000052 0.995662 0.552442
0.000064 0.959701 0.466665
0.063624 0.924860 0.433234
0.451084 0.889318 0.406873
0.671236 0.867740 0.399923
0.802630 0.851907 0.405590
0.886354 0.840246 0.418868
0.948432 0.830275 0.431876
0.000123 0.999576 0.650703
0.000055 0.999788 0.526025
0.000111 0.986050 0.439573
0.000069 0.961540 0.412705
0.312010 0.928874 0.386673
0.588047 0.904772 0.375838
0.746215 0.887131 0.378945
0.843448 0.873684 0.387090
0.911826 0.863290 0.400684
0.093340 0.000052 0.705145
0.691879 0.000073 0.572665
1.000000 0.000281 0.701394
0.999647 0.069628 0.729447
0.999836 0.209045 0.674040
0.999567 0.262840 0.652614
0.999538 0.266552 0.643244
0.999745 0.269946 0.636098
0.999842 0.271702 0.629762
0.000316 0.620144 0.984205
0.235456 0.387373 0.749737
0.706240 0.319776 0.693202
0.904096 0.306200 0.694866
0.999902 0.307497 0.714634
0.999638 0.315782 0.742131
0.999552 0.330520 0.758213
0.999733 0.363344 0.737007
0.999307 0.392925 0.720445
0.000074 0.835110 0.968188
0.000348 0.646220 0.775268
0.505944 0.549330 0.685455
0.768379 0.513376 0.661967
0.906584 0.498118 0.664917
0.988068 0.492008 0.677747
0.999968 0.491144 0.693699
0.999961 0.495585 0.711122
0.999822 0.506010 0.715024
0.000058 0.912829 0.935570
0.000014 0.788464 0.777375
0.288401 0.694172 0.681538
0.644956 0.647863 0.645977
0.818007 0.623463 0.637483
0.921035 0.611722 0.641007
0.992032 0.603704 0.650527
0.999832 0.599769 0.663582
0.999861 0.600960 0.681134
0.000393 0.949172 0.903099
0.000346 0.879401 0.777775
0.056597 0.797126 0.681854
0.508890 0.744882 0.632501
0.730626 0.716350 0.616110
0.855266 0.699334 0.614374
0.940490 0.688908 0.620409
0.993770 0.682655 0.630968
0.999926 0.678983 0.643995
0.000387 0.973631 0.873583
0.000167 0.933755 0.765774
0.000322 0.868016 0.678881
0.352073 0.817601 0.625722
0.638297 0.786579 0.601387
0.791128 0.768006 0.594618
0.887816 0.754549 0.596275
0.955821 0.746022 0.604596
0.997411 0.739241 0.614966
0.000240 0.992021 0.844559
0.000153 0.962389 0.747673
0.000340 0.917171 0.666728
0.167010 0.876494 0.621113
0.532340 0.842390 0.590180
0.722137 0.821162 0.578555
0.837115 0.806111 0.579133
0.914115 0.794807 0.581194
0.972001 0.785434 0.587712
0.000218 0.999731 0.819064
0.000312 0.983488 0.731148
0.000224 0.951136 0.647682
0.032750 0.921764 0.611592
0.406844 0.886375 0.578436
0.643427 0.863583 0.562089
0.780667 0.846717 0.558836
0.868908 0.833318 0.561220
0.931247 0.823871 0.564233
0.000555 0.999428 0.793875
0.000207 0.997249 0.713463
0.000187 0.974821 0.628580
0.000559 0.952947 0.594546
0.257262 0.922304 0.565008
0.552668 0.897536 0.544120
0.717838 0.879922 0.537771
0.820549 0.865607 0.539056
0.891976 0.855386 0.541657
0.119934 0.000347 0.823566
0.611105 0.000235 0.649447
0.993876 0.000174 0.754736
0.999687 0.020368 0.803911
0.999973 0.154839 0.729534
0.999832 0.241397 0.694332
0.999703 0.253650 0.679652
0.999961 0.256830 0.672912
0.999883 0.258838 0.665068
0.000444 0.617146 0.999852
0.155511 0.401750 0.864661
0.677532 0.318975 0.786204
0.886997 0.298537 0.775127
0.998593 0.297834 0.786324
0.999719 0.304653 0.804282
0.999457 0.315489 0.827019
0.999389 0.348712 0.794213
0.999185 0.377938 0.771542
0.000339 0.821479 0.999891
0.000005 0.662014 0.887906
0.468811 0.553048 0.785070
0.748369 0.512040 0.754356
0.892187 0.494559 0.749041
0.979484 0.486046 0.753737
0.999831 0.485050 0.764596
0.999712 0.487328 0.777887
0.999519 0.497141 0.777328
0.000589 0.899037 0.992787
0.000232 0.805380 0.890583
0.239105 0.699414 0.785494
0.618733 0.649625 0.741736
0.801038 0.623963 0.725354
0.909384 0.608946 0.725116
0.983874 0.600353 0.728632
0.999237 0.596113 0.738980
0.999761 0.595366 0.753167
0.000346 0.934104 0.970868
0.000158 0.885048 0.881360
0.021084 0.802346 0.790163
0.477009 0.746817 0.734244
0.711988 0.715845 0.713297
0.842421 0.698230 0.706186
0.929083 0.686113 0.706742
0.990390 0.678966 0.710736
0.999531 0.674703 0.719456
0.000660 0.958900 0.943605
0.000360 0.928908 0.866045
0.000297 0.870407 0.786131
0.312020 0.819595 0.732416
0.614810 0.787012 0.704456
0.775699 0.767310 0.692528
0.875519 0.753197 0.689117
0.946037 0.743070 0.690397
0.992095 0.734348 0.693387
0.000377 0.977514 0.918310
0.000401 0.954200 0.852232
0.000101 0.913392 0.772704
0.116104 0.876133 0.730274
0.501739 0.840775 0.695934
0.702732 0.818584 0.679536
0.820671 0.803119 0.672689
0.899626 0.790932 0.671458
0.957761 0.781671 0.671846
0.000008 0.992041 0.895316
0.000413 0.974902 0.838424
0.000209 0.942840 0.756539
0.000016 0.917134 0.722833
0.366428 0.882771 0.686230
0.617992 0.858847 0.665163
0.760400 0.842024 0.656502
0.852724 0.828268 0.652210
0.916285 0.818098 0.651655
0.000160 0.999566 0.874673
0.000253 0.990926 0.824523
0.000255 0.962545 0.739338
0.000169 0.944176 0.706327
0.208450 0.917177 0.675933
0.521853 0.891601 0.651248
0.693571 0.873967 0.639766
0.802610 0.859549 0.634321
0.875358 0.848468 0.633582
0.148821 0.000073 0.901288
0.525811 0.000015 0.724969
0.977683 0.000068 0.794386
0.999929 0.000191 0.862494
0.999941 0.104303 0.788847
0.999829 0.211565 0.735393
0.999857 0.240584 0.713017
0.999904 0.243942 0.704692
0.999708 0.248002 0.694368
0.000025 0.612352 0.999663
0.065055 0.420304 0.951514
0.646788 0.316648 0.861779
0.870192 0.294019 0.839819
0.988676 0.290723 0.843266
0.999796 0.296125 0.855885
0.999562 0.306588 0.872563
0.999824 0.335323 0.842411
0.999534 0.365512 0.814079
0.000184 0.808637 0.999494
0.000586 0.683993 0.972321
0.428770 0.557768 0.862193
0.728935 0.511653 0.824566
0.878763 0.491412 0.813064
0.970983 0.482039 0.812908
0.999150 0.479014 0.818076
0.999664 0.481059 0.831289
0.999725 0.488131 0.830109
0.000157 0.886075 0.999991
0.000126 0.819091 0.972752
0.179273 0.706419 0.863249
0.594854 0.650657 0.814309
0.786509 0.623030 0.795947
0.897754 0.606597 0.789209
0.975015 0.598105 0.789656
0.998847 0.592902 0.793789
0.999362 0.591067 0.803451
0.000610 0.922250 0.999940
0.000329 0.888906 0.955862
0.007236 0.807655 0.868923
0.446626 0.749112 0.810304
0.692982 0.717138 0.784244
0.829275 0.697803 0.773365
0.919101 0.684968 0.770531
0.982636 0.676083 0.773115
0.998393 0.670254 0.775383
0.000224 0.946089 0.989462
0.000608 0.925317 0.942291
0.000517 0.869367 0.859417
0.270976 0.821441 0.809811
0.591921 0.787871 0.777647
0.762102 0.765010 0.763826
0.863171 0.750492 0.756509
0.934736 0.740016 0.753342
0.985308 0.730479 0.752454
0.000075 0.965781 0.970099
0.000337 0.950655 0.928277
0.000245 0.909861 0.843858
0.078344 0.874481 0.805878
0.470518 0.838903 0.769117
0.682626 0.815371 0.750906
0.804700 0.799239 0.740272
0.886224 0.786173 0.735705
0.946465 0.775940 0.734494
0.000032 0.981806 0.949833
0.000497 0.970084 0.914855
0.000432 0.935758 0.829845
0.000099 0.912116 0.796290
0.327741 0.879037 0.760689
0.593497 0.854436 0.738023
0.741210 0.837342 0.726575
0.836668 0.823694 0.719604
0.904055 0.812585 0.717291
0.000155 0.993312 0.931207
0.000347 0.986331 0.905571
0.000590 0.954107 0.815736
0.000148 0.937534 0.782878
0.161602 0.912783 0.752748
0.492802 0.886715 0.726550
0.671661 0.868827 0.712903
0.785336 0.854428 0.704833
0.861507 0.843453 0.700935
0.176690 0.000136 0.923278
0.433371 0.000097 0.806146
0.940871 0.000110 0.830567
0.999858 0.000039 0.904561
0.999877 0.056750 0.844309
0.999771 0.176243 0.777228
0.999902 0.224519 0.747023
0.999816 0.231878 0.734490
0.999837 0.235397 0.724775
0.000173 0.606119 0.999336
0.002930 0.448514 0.999988
0.614594 0.318346 0.922231
0.853910 0.289163 0.892329
0.977556 0.284861 0.890428
0.999638 0.288233 0.897163
0.999812 0.297613 0.910980
0.999829 0.322917 0.886051
0.999949 0.352799 0.853198
0.000107 0.796138 0.999599
0.000476 0.712042 0.999730
0.385650 0.563812 0.922060
0.708062 0.512886 0.878566
0.865925 0.489623 0.863907
0.962189 0.478655 0.860651
0.998489 0.474034 0.863251
0.999703 0.475830 0.871722
0.999448 0.481394 0.871279
0.000530 0.875955 0.999957
0.000207 0.831519 0.999844
0.122335 0.714178 0.926869
0.568782 0.653472 0.870824
0.770717 0.623238 0.848717
0.887445 0.605438 0.838780
0.967136 0.595533 0.838667
0.997426 0.589558 0.840583
0.999782 0.586061 0.846212
0.000209 0.910782 0.999945
0.000084 0.893196 0.999789
0.000197 0.811931 0.927951
0.413635 0.752477 0.869208
0.676081 0.717748 0.839766
0.818829 0.697408 0.826366
0.909474 0.683427 0.820940
0.973925 0.673882 0.818733
0.996872 0.665779 0.818275
0.000577 0.935656 0.999923
0.000386 0.925073 0.996006
0.000276 0.867822 0.912962
0.222233 0.821883 0.866800
0.568326 0.787175 0.833625
0.746867 0.763556 0.815184
0.851496 0.747936 0.805550
0.924023 0.735969 0.801102
0.978134 0.725400 0.799055
0.000374 0.955217 0.996359
0.000470 0.949161 0.988432
0.000263 0.905289 0.898997
0.045964 0.872069 0.861196
0.441183 0.836408 0.824515
0.662420 0.812648 0.803013
0.790547 0.795021 0.792347
0.874474 0.782184 0.785690
0.935637 0.771456 0.781678
0.000312 0.971557 0.986523
0.000245 0.970489 0.984743
0.000022 0.929857 0.884353
0.000501 0.907551 0.851680
0.292469 0.875612 0.817110
0.568356 0.850989 0.792654
0.724486 0.832879 0.779464
0.823568 0.819162 0.771590
0.892480 0.807985 0.766416
0.000420 0.985160 0.973015
0.000422 0.985087 0.973355
0.000108 0.948082 0.870055
0.000305 0.931365 0.838909
0.126256 0.908462 0.810790
0.461304 0.882722 0.783014
0.651903 0.864102 0.767236
0.769544 0.849982 0.757428
0.848460 0.838543 0.751670
0.204393 0.000017 0.941229
0.329549 0.000043 0.893828
0.902172 0.000070 0.865881
0.999876 0.000112 0.933939
0.999773 0.020408 0.900701
0.999799 0.135305 0.820773
0.999862 0.206267 0.775606
0.999667 0.221424 0.757913
0.999883 0.224471 0.750810
0.000209 0.597416 0.999479
0.000209 0.486487 0.999856
0.580242 0.320250 0.972127
0.834960 0.286508 0.938311
0.966681 0.278365 0.931107
0.999369 0.280969 0.933070
0.999804 0.289711 0.942806
0.999814 0.312965 0.923499
0.999780 0.341768 0.888440
0.000163 0.784623 0.999783
0.000187 0.739586 0.999899
0.337851 0.570199 0.972913
0.685710 0.513940 0.924697
0.852336 0.488189 0.906481
0.954131 0.475265 0.899866
0.997679 0.470389 0.899705
0.999681 0.471230 0.905243
0.999353 0.475437 0.905694
0.000185 0.866129 0.999917
0.000111 0.846176 0.999971
0.053117 0.722936 0.977630
0.541611 0.656831 0.918191
0.755422 0.623647 0.892534
0.877767 0.604683 0.882257
0.958398 0.593776 0.878493
0.995753 0.586761 0.878347
0.999804 0.582346 0.880797
0.000204 0.901631 0.999912
0.000666 0.898103 0.999969
0.000139 0.812712 0.972909
0.377200 0.754843 0.915512
0.658835 0.717951 0.885847
0.806499 0.696721 0.869995
0.899231 0.681564 0.861732
0.965542 0.670771 0.857662
0.994683 0.661543 0.855844
0.000692 0.926599 0.999855
0.000688 0.926529 0.999855
0.000462 0.865884 0.957861
0.173940 0.821691 0.912389
0.542152 0.785215 0.878412
0.729258 0.761386 0.857583
0.839177 0.745047 0.846423
0.913840 0.732455 0.840816
0.970502 0.721768 0.836674
0.000192 0.946254 0.999653
0.000189 0.946192 0.999655
0.000381 0.901821 0.944598
0.012137 0.870385 0.906550
0.407775 0.833738 0.869941
0.640876 0.809524 0.846664
0.776227 0.791992 0.833219
0.862958 0.778391 0.825449
0.925587 0.767300 0.820190
0.000517 0.962902 0.999931
0.000518 0.962836 0.999932
0.000227 0.924709 0.930645
0.000260 0.903677 0.895954
0.250182 0.872739 0.863251
0.542715 0.847982 0.837010
0.707385 0.829282 0.821420
0.810727 0.814607 0.813071
0.881918 0.803437 0.806478
0.000687 0.977045 0.995931
0.000690 0.976974 0.995988
0.000231 0.942311 0.917156
0.000343 0.925318 0.882657
0.097477 0.905121 0.856766
0.432077 0.879566 0.828439
0.632233 0.860295 0.810063
0.754394 0.845267 0.800559
0.836991 0.833965 0.793316
0.230564 0.000072 0.957605
0.211098 0.000159 0.937401
0.861916 0.000119 0.900986
0.999761 0.000241 0.955549
0.999974 0.003305 0.955747
0.999753 0.093531 0.865413
0.999857 0.182693 0.808497
0.999811 0.209894 0.783802
0.999773 0.214180 0.773540
0.001631 0.587753 0.999669
0.001985 0.552379 0.999549
0.542590 0.323426 0.999149
0.815843 0.284820 0.974757
0.955824 0.273577 0.965185
0.999492 0.274852 0.964278
0.999756 0.283014 0.970971
0.999878 0.303818 0.956917
0.999734 0.331417 0.920872
0.000244 0.772495 0.999978
0.000245 0.772434 0.999977
0.287563 0.577851 0.999861
0.663000 0.515485 0.965186
0.839480 0.486776 0.942887
0.944380 0.472838 0.933977
0.997036 0.467109 0.931613
0.999712 0.466841 0.935040
0.999521 0.470013 0.935073
0.000377 0.854806 0.999864
0.000380 0.854738 0.999865
0.023976 0.730935 0.999916
0.515309 0.659471 0.959144
0.740461 0.624641 0.929748
0.866536 0.604196 0.918317
0.949697 0.592377 0.911863
0.993637 0.584050 0.909663
0.999891 0.578638 0.910546
0.000579 0.893917 1.000000
0.000582 0.893869 1.000000
0.000339 0.813214 0.999099
0.339810 0.755995 0.955163
0.637145 0.718065 0.923467
0.793057 0.695590 0.906745
0.888462 0.679538 0.894930
0.957014 0.667775 0.889692
0.992210 0.657649 0.886455
0.000422 0.918536 0.999810
0.000420 0.918476 0.999807
0.000789 0.864955 0.989362
0.131374 0.820626 0.951584
0.514655 0.783449 0.914797
0.710794 0.758954 0.893703
0.826970 0.742246 0.880938
0.904181 0.728630 0.873847
0.962294 0.718016 0.868295
0.000051 0.939071 0.999813
0.000052 0.939013 0.999814
0.000659 0.899293 0.979614
0.010374 0.868072 0.943751
0.374143 0.831745 0.906115
0.619276 0.806690 0.883243
0.762094 0.788938 0.867563
0.851320 0.775123 0.857930
0.915673 0.763783 0.852036
0.000482 0.955609 0.999995
0.000481 0.955553 0.999995
0.000379 0.920830 0.967800
0.000186 0.899820 0.932249
0.209198 0.870658 0.899611
0.517400 0.844706 0.873671
0.691140 0.825994 0.855702
0.797732 0.810930 0.846226
0.871421 0.799746 0.839229
0.000741 0.969763 0.999987
0.000737 0.969711 0.999987
0.000537 0.937999 0.955014
0.000341 0.920707 0.919750
0.067685 0.902155 0.893470
0.403675 0.876325 0.865456
0.614076 0.856706 0.845046
0.739822 0.841482 0.835727
0.825981 0.830149 0.827836
