output/AP0_display/AP0_to_ETERNA_33grid.cube
TITLE "AP0_to_ETERNA"
# Input: Linear ACES2065-1 / AP0 (D60)
# Output: BT.709 / Gamma 2.2 (display-referred)
# Use: Display/output transform in ACES pipeline (replaces ODT)
# Source: FLog2C_to_ETERNA_65grid_V.1.00.cube
# Generated from Fujifilm GFX ETERNA 55 F-Log2C LUT
LUT_3D_SIZE 5
0.006510 0.006095 0.006119
0.941555 0.257700 0.195390
0.943984 0.328397 0.270514
0.943984 0.328397 0.270514
0.943984 0.328397 0.270514
0.009434 0.759436 0.000461
0.593258 0.492578 0.010492
0.862647 0.524254 0.053721
0.928274 0.545636 0.065538
0.928656 0.535450 0.066965
0.017066 0.949921 0.000240
0.466859 0.696001 0.000079
0.766986 0.680823 0.024259
0.901712 0.686521 0.052819
0.925628 0.684846 0.057423
0.022818 0.999838 0.000199
0.344364 0.814065 0.000219
0.701622 0.780435 0.005545
0.848623 0.773041 0.037094
0.922862 0.769799 0.055733
0.022818 0.999838 0.000199
0.213811 0.892495 0.000163
0.640778 0.849106 0.000488
0.804023 0.834262 0.027031
0.896886 0.828303 0.048275
0.030206 0.004081 0.458550
0.942690 0.146558 0.435122
0.950791 0.332040 0.419101
0.950059 0.347086 0.406132
0.949567 0.344588 0.390564
0.065152 0.789470 0.727342
0.545040 0.546460 0.545247
0.827593 0.533327 0.542035
0.947995 0.542506 0.538959
0.950499 0.550547 0.532191
0.077635 0.911033 0.700298
0.373806 0.743168 0.544373
0.730304 0.704348 0.542139
0.874309 0.693850 0.536693
0.949447 0.690728 0.531257
0.082998 0.964015 0.670215
0.195365 0.843485 0.520995
0.650223 0.800320 0.529635
0.816101 0.783983 0.527116
0.909705 0.775031 0.521922
0.084121 0.987230 0.639494
0.063271 0.904296 0.489281
0.565663 0.862358 0.509832
0.762114 0.843669 0.510286
0.864865 0.830755 0.504212
0.041425 0.010174 0.656574
0.883391 0.064662 0.583231
0.959261 0.264800 0.515525
0.953516 0.331490 0.488518
0.952088 0.336006 0.472166
0.072704 0.770415 0.841024
0.489188 0.563390 0.707999
0.808666 0.533289 0.698999
0.944607 0.534428 0.693731
0.957305 0.543307 0.672055
0.083184 0.886712 0.814479
0.289962 0.752503 0.701936
0.704347 0.707241 0.705080
0.859850 0.692639 0.698711
0.948839 0.686251 0.693915
0.089366 0.940192 0.790331
0.091886 0.843946 0.673709
0.610976 0.799894 0.695683
0.795628 0.780580 0.693981
0.894297 0.768543 0.687619
0.092627 0.973328 0.768876
0.073408 0.896450 0.662053
0.509890 0.855495 0.674502
0.733109 0.836627 0.678826
0.845357 0.822743 0.674632
0.048234 0.019873 0.779282
0.807278 0.000142 0.677464
0.964101 0.201631 0.614363
0.958261 0.311285 0.549955
0.956845 0.317999 0.531375
0.074682 0.753501 0.892088
0.415779 0.574638 0.792290
0.785241 0.532601 0.783091
0.929961 0.529970 0.774942
0.962348 0.534778 0.757429
0.085505 0.867745 0.866358
0.175499 0.759595 0.775331
0.674604 0.708374 0.785045
0.843127 0.690626 0.779897
0.936253 0.680832 0.773304
0.092096 0.923223 0.846117
0.074069 0.841779 0.754198
0.566741 0.796734 0.771809
0.773332 0.775607 0.773402
0.877890 0.762320 0.766929
0.095629 0.958429 0.829512
0.079225 0.891744 0.746235
0.451228 0.849593 0.748567
0.704453 0.829433 0.758771
0.826124 0.816277 0.756672
0.054503 0.030513 0.864369
0.730408 0.000209 0.742258
0.968521 0.138735 0.714206
0.960762 0.283513 0.605240
0.959402 0.303977 0.578914
0.073601 0.737465 0.897709
0.325558 0.587087 0.846457
0.760375 0.532513 0.837755
0.915234 0.525481 0.830305
0.965703 0.527714 0.814581
0.085884 0.852818 0.874985
0.075155 0.762055 0.820540
0.639772 0.708175 0.837306
0.824059 0.687782 0.831638
0.923204 0.675600 0.824688
0.090272 0.909989 0.864349
0.078694 0.840630 0.812121
0.515274 0.792361 0.817285
0.748165 0.771283 0.821890
0.861709 0.756916 0.818372
0.096402 0.946585 0.858234
0.083980 0.889494 0.802858
0.392478 0.843973 0.793533
0.675922 0.824808 0.807258
0.807472 0.810181 0.807454
