output/AP0_display/AP0_to_ETERNA-BB_33grid.cube
TITLE "AP0_to_ETERNA-BB"
# Input: Linear ACES2065-1 / AP0 (D60)
# Output: BT.709 / Gamma 2.2 (display-referred)
# Use: Display/output transform in ACES pipeline (replaces ODT)
# Source: FLog2C_to_ETERNA-BB_65grid_V.1.00.cube
# Generated from Fujifilm GFX ETERNA 55 F-Log2C LUT
LUT_3D_SIZE 33
0.000282 0.000191 0.000111
0.184696 0.034874 0.046492
0.385678 0.062869 0.088264
0.507396 0.088337 0.128180
0.582487 0.127979 0.170094
0.630940 0.169482 0.208697
0.664855 0.209967 0.242407
0.681848 0.242009 0.269349
0.697939 0.273187 0.294920
0.714816 0.305784 0.320752
0.732174 0.336647 0.345696
0.744073 0.358677 0.362352
0.752580 0.375065 0.373889
0.753375 0.376591 0.374937
0.753496 0.376827 0.375041
0.753503 0.376840 0.375047
0.753503 0.376840 0.375047
0.753503 0.376840 0.375047
0.753503 0.376840 0.375047
0.753503 0.376840 0.375047
0.753503 0.376840 0.375047
0.753503 0.376840 0.375047
0.753503 0.376840 0.375047
0.753503 0.376840 0.375047
0.753503 0.376840 0.375047
0.753503 0.376840 0.375047
0.753503 0.376840 0.375047
0.753503 0.376840 0.375047
0.753503 0.376840 0.375047
0.753503 0.376840 0.375047
0.753503 0.376840 0.375047
0.753503 0.376840 0.375047
0.753503 0.376840 0.375047
0.024781 0.115083 0.036575
0.101403 0.093679 0.034708
0.211034 0.095756 0.049598
0.331631 0.097944 0.067385
0.424455 0.103984 0.092958
0.495240 0.116991 0.119943
0.547345 0.136708 0.151827
0.588166 0.158143 0.177779
0.619157 0.180585 0.200040
0.643918 0.203224 0.222477
0.666403 0.225491 0.242983
0.681035 0.243855 0.259756
0.689994 0.259013 0.273462
0.697964 0.273340 0.286424
0.705016 0.286579 0.298205
0.713271 0.302496 0.312047
0.720887 0.317427 0.324947
0.729039 0.333509 0.337718
0.737670 0.350210 0.350559
0.746115 0.366227 0.362992
0.748937 0.370647 0.367639
0.751527 0.374908 0.372172
0.754006 0.379048 0.376564
0.754044 0.378654 0.376240
0.753903 0.378015 0.375770
0.753670 0.377283 0.375304
0.753503 0.376840 0.375047
0.753503 0.376840 0.375047
0.753503 0.376840 0.375047
0.753503 0.376840 0.375047
0.753503 0.376840 0.375047
0.753503 0.376840 0.375047
0.753503 0.376840 0.375047
0.045015 0.216259 0.061481
0.087611 0.145818 0.046628
0.167613 0.144600 0.055096
0.271569 0.145923 0.065971
0.364912 0.149212 0.082279
0.438047 0.156259 0.099988
0.499668 0.170653 0.120488
0.548442 0.189581 0.145121
0.587031 0.212406 0.174122
0.619357 0.236410 0.202497
0.647660 0.258669 0.225948
0.673179 0.280781 0.247142
0.696091 0.302814 0.266916
0.711843 0.321890 0.283104
0.725446 0.339513 0.297735
0.731334 0.348850 0.307776
0.735742 0.356357 0.316398
0.740549 0.364433 0.324981
0.745676 0.372892 0.333744
0.750686 0.381025 0.342340
0.756884 0.391055 0.351481
0.762757 0.400613 0.360068
0.768443 0.409583 0.368222
0.773208 0.416647 0.375764
0.777746 0.423525 0.383008
0.782133 0.430352 0.390005
0.784647 0.434249 0.394338
0.784496 0.433794 0.394945
0.784296 0.433296 0.395522
0.784054 0.432761 0.396076
0.783590 0.431878 0.396248
0.782747 0.430357 0.395671
0.781945 0.428971 0.395121
0.070429 0.331803 0.089619
0.080089 0.210669 0.058289
0.153739 0.194938 0.069565
0.239248 0.196436 0.073203
0.331243 0.196583 0.088534
0.408664 0.202435 0.104908
0.473160 0.215611 0.126996
0.526571 0.233275 0.146871
0.570343 0.256234 0.168554
0.606843 0.277104 0.188887
0.638490 0.298830 0.210198
0.666910 0.320194 0.230643
0.692921 0.341836 0.250606
0.716139 0.363430 0.273150
0.737362 0.383882 0.294354
0.751059 0.400028 0.309018
0.762980 0.414666 0.322345
0.769700 0.423044 0.332063
0.772168 0.426522 0.338582
0.774419 0.429749 0.344675
0.778097 0.434037 0.351223
0.781687 0.438164 0.357463
0.785121 0.442296 0.363541
0.788836 0.448607 0.370574
0.792313 0.454728 0.377252
0.795511 0.460370 0.383446
0.798276 0.465255 0.389099
0.800587 0.469328 0.394310
0.802819 0.473254 0.399331
0.804978 0.477043 0.404175
0.806263 0.479440 0.407499
0.805731 0.478788 0.407662
0.805213 0.478149 0.407844
0.105151 0.433956 0.125622
0.067625 0.288358 0.071429
0.150002 0.256377 0.083690
0.223758 0.251976 0.096248
0.310596 0.252769 0.103299
0.389742 0.258636 0.119585
0.456600 0.269337 0.138642
0.515425 0.284459 0.158948
0.563577 0.305128 0.182383
0.604883 0.324444 0.201924
0.640886 0.346302 0.220040
0.671730 0.366951 0.236783
0.697133 0.385959 0.252304
0.719956 0.404960 0.268040
0.740670 0.422807 0.283166
0.760174 0.441427 0.301294
0.778458 0.459445 0.319064
0.789770 0.471505 0.332406
0.795098 0.478430 0.342082
0.800377 0.485200 0.351285
0.802220 0.487345 0.357350
0.803588 0.488545 0.362764
0.804668 0.489491 0.367540
0.806220 0.491552 0.372655
0.807797 0.493921 0.377601
0.809275 0.496354 0.382241
0.811017 0.499228 0.386854
0.813479 0.502832 0.391938
0.815897 0.506245 0.397032
0.818272 0.509480 0.402136
0.820360 0.512270 0.406998
0.821488 0.513978 0.410830
0.822531 0.515658 0.414457
0.139055 0.517569 0.159578
0.076991 0.360226 0.093190
0.153729 0.320642 0.101138
0.218616 0.306958 0.114181
0.298304 0.307787 0.128272
0.376381 0.313967 0.136172
0.444886 0.323461 0.154517
0.506204 0.336945 0.177105
0.559277 0.353267 0.198197
0.605526 0.372699 0.215890
0.644224 0.392574 0.234560
0.677601 0.412391 0.252353
0.706338 0.432554 0.268549
0.729145 0.449119 0.281084
0.748521 0.463700 0.291816
0.766883 0.479126 0.303716
0.784592 0.494406 0.315754
0.799220 0.508383 0.328045
0.810258 0.520875 0.340164
0.820554 0.532600 0.351190
0.823251 0.534657 0.359298
0.824456 0.534943 0.366564
0.825546 0.535249 0.372998
0.826198 0.535220 0.378181
0.826682 0.535106 0.382633
0.827092 0.534998 0.386540
0.827581 0.535547 0.390220
0.828464 0.537791 0.394466
0.829378 0.539901 0.398705
0.830320 0.541888 0.402936
0.831422 0.543730 0.407196
0.832725 0.545021 0.411127
0.833918 0.546207 0.414869
0.169513 0.584964 0.188528
0.101661 0.430519 0.119859
0.159131 0.379094 0.119516
0.218939 0.361193 0.129802
0.293118 0.358719 0.146762
0.368960 0.364437 0.161093
0.439293 0.374233 0.175577
0.500562 0.387148 0.194527
0.556818 0.401077 0.213923
0.605083 0.418886 0.232857
0.646765 0.437581 0.251841
0.682463 0.456075 0.269719
0.711731 0.473832 0.285833
0.735211 0.489769 0.298554
0.755024 0.504250 0.309143
0.772684 0.517908 0.319472
0.789036 0.530818 0.329442
0.803489 0.543018 0.338386
0.815684 0.554601 0.346066
0.827243 0.565577 0.353373
0.832862 0.570443 0.360708
0.836717 0.573594 0.367387
0.840386 0.576592 0.373738
0.841742 0.576198 0.379409
0.842320 0.574723 0.384381
0.842863 0.573293 0.388787
0.843505 0.572351 0.392770
0.844559 0.573021 0.396694
0.845569 0.573753 0.400303
0.846512 0.574496 0.403689
0.847363 0.575068 0.406950
0.848301 0.575436 0.410663
0.849245 0.575917 0.414319
0.190276 0.639082 0.208839
0.128954 0.494227 0.146668
0.164218 0.431940 0.136966
0.222077 0.410527 0.145912
0.292051 0.405477 0.162640
0.367117 0.410032 0.182693
0.434532 0.418628 0.198581
0.497875 0.431891 0.211220
0.554429 0.444844 0.229164
0.603967 0.461816 0.248959
0.647012 0.478953 0.267223
0.684248 0.495680 0.284123
0.713738 0.511296 0.299332
0.738393 0.525914 0.312432
0.759713 0.539642 0.323988
0.777499 0.552003 0.333986
0.793051 0.563401 0.342975
0.807360 0.574312 0.350755
0.820275 0.584843 0.356917
0.832535 0.594740 0.363003
0.840569 0.601638 0.367936
0.847095 0.607446 0.372534
0.853460 0.613081 0.377286
0.855708 0.613188 0.382442
0.856319 0.611195 0.387669
0.857000 0.609414 0.392829
0.857722 0.608013 0.397729
0.858342 0.607547 0.401407
0.858923 0.607103 0.404628
0.859356 0.606503 0.407543
0.859907 0.605829 0.410406
0.860700 0.605492 0.413443
0.861548 0.605298 0.416348
0.205464 0.680256 0.224483
0.156157 0.551523 0.174907
0.170362 0.482625 0.155091
0.226847 0.457017 0.162493
0.292037 0.449642 0.177426
0.366341 0.452414 0.199414
0.432681 0.459350 0.217504
0.494787 0.473535 0.230828
0.552438 0.485858 0.243824
0.602885 0.499708 0.262117
0.646963 0.515944 0.281451
0.685087 0.532536 0.299109
0.715390 0.547677 0.312908
0.741040 0.560407 0.325017
0.762879 0.571613 0.335676
0.781170 0.582668 0.344386
0.797150 0.593417 0.351829
0.811504 0.603433 0.358520
0.823575 0.612505 0.364023
0.835141 0.620890 0.369161
0.844678 0.628367 0.373333
0.853263 0.635385 0.377213
0.861572 0.642190 0.381144
0.865000 0.643468 0.384735
0.866197 0.641979 0.388443
0.867631 0.640530 0.392495
0.869100 0.639081 0.396829
0.869389 0.637475 0.400896
0.869396 0.636100 0.404702
0.869275 0.634859 0.408290
0.869241 0.633649 0.411673
0.870230 0.633058 0.415015
0.871288 0.632471 0.418128
0.215584 0.709140 0.234893
0.176068 0.602043 0.194600
0.171010 0.524885 0.169828
0.231305 0.499625 0.177645
0.293346 0.490188 0.191602
0.365968 0.492184 0.211559
0.431940 0.497920 0.228084
0.494423 0.509526 0.246262
0.551762 0.522332 0.259667
0.603200 0.535627 0.276348
0.647895 0.550621 0.293066
0.686258 0.565319 0.309006
0.716550 0.578639 0.323668
0.742473 0.590576 0.335092
0.764696 0.601249 0.343810
0.783800 0.611040 0.351866
0.800476 0.620036 0.359472
0.815494 0.628385 0.366107
0.827951 0.636247 0.370995
0.839674 0.643571 0.375663
0.850093 0.650493 0.379767
0.859665 0.657207 0.383485
0.868786 0.663739 0.387027
0.873159 0.666642 0.389378
0.874982 0.667416 0.391220
0.877094 0.668281 0.393252
0.879273 0.668927 0.395612
0.879561 0.666636 0.399690
0.879455 0.664395 0.404245
0.879412 0.662214 0.408579
0.879430 0.660099 0.412706
0.879768 0.659067 0.416446
0.880067 0.658114 0.419948
0.224220 0.732733 0.244353
0.191747 0.644632 0.211285
0.170926 0.562857 0.182597
0.237137 0.538218 0.191456
0.294595 0.527317 0.203824
0.364717 0.528153 0.221263
0.431777 0.533474 0.239537
0.494590 0.543610 0.259214
0.551370 0.556084 0.275112
0.602410 0.568902 0.290436
0.647203 0.581783 0.305678
0.686097 0.594452 0.320338
0.717171 0.606635 0.332913
0.743970 0.617760 0.343249
0.767082 0.628045 0.351500
0.786882 0.637129 0.358546
0.803679 0.645032 0.364483
0.818823 0.652348 0.369811
0.831220 0.659408 0.374529
0.842962 0.666003 0.379021
0.853323 0.672299 0.383206
0.862476 0.678452 0.387080
0.870948 0.684445 0.390714
0.876141 0.688293 0.393059
0.879324 0.690562 0.394653
0.882658 0.692788 0.396366
0.885934 0.694736 0.398202
0.885335 0.691890 0.400761
0.884900 0.689198 0.403744
0.884611 0.686654 0.406914
0.884455 0.684246 0.410258
0.885314 0.683012 0.414650
0.886099 0.681843 0.418727
0.231389 0.752325 0.252273
0.204952 0.680158 0.224627
0.174940 0.598302 0.194528
0.242369 0.573349 0.203616
0.295625 0.561387 0.214448
0.363063 0.560904 0.230121
0.431112 0.565942 0.250068
0.493928 0.574808 0.269546
0.550840 0.586843 0.288053
0.601268 0.598814 0.303118
0.645886 0.610198 0.317303
0.685178 0.621363 0.330657
0.717189 0.632371 0.340965
0.744840 0.642540 0.350140
0.768569 0.652255 0.358170
0.788847 0.660782 0.364552
0.805527 0.667998 0.369206
0.820692 0.674598 0.373543
0.833247 0.680916 0.377992
0.845184 0.686874 0.382210
0.855338 0.692528 0.386306
0.863806 0.697980 0.390195
0.871528 0.703257 0.393816
0.877422 0.707470 0.396361
0.882107 0.710701 0.398162
0.886772 0.713775 0.400041
0.891443 0.716695 0.402002
0.890539 0.713841 0.402884
0.889844 0.711198 0.404271
0.889342 0.708751 0.406125
0.889020 0.706486 0.408412
0.890156 0.705006 0.412756
0.891295 0.703594 0.416912
0.235625 0.766179 0.256227
0.215628 0.706875 0.234989
0.187178 0.632097 0.206786
0.244757 0.605490 0.213270
0.296143 0.593060 0.223280
0.361313 0.591146 0.239266
0.429557 0.595487 0.258631
0.491322 0.602755 0.276295
0.550096 0.614297 0.295916
0.599967 0.625185 0.313174
0.644079 0.636169 0.326826
0.683509 0.647017 0.337851
0.716584 0.656656 0.346978
0.744853 0.665650 0.355267
0.768113 0.673956 0.362650
0.788186 0.681638 0.369073
0.804550 0.688682 0.374839
0.819804 0.694993 0.380144
0.833104 0.700465 0.383832
0.845599 0.705766 0.387377
0.855802 0.710701 0.390884
0.864067 0.715180 0.394192
0.871912 0.719383 0.397194
0.878907 0.723247 0.399659
0.885172 0.726849 0.401825
0.891273 0.730321 0.404050
0.897251 0.733639 0.406320
0.896699 0.731913 0.406577
0.896007 0.730122 0.407021
0.895453 0.728478 0.407725
0.895028 0.726972 0.408668
0.895486 0.725193 0.411624
0.896060 0.723497 0.414804
0.239375 0.777456 0.259754
0.223640 0.729352 0.243917
0.197947 0.660435 0.217379
0.244647 0.633133 0.220969
0.295752 0.620687 0.230817
0.358878 0.617967 0.246384
0.427053 0.621859 0.265408
0.489030 0.628239 0.283295
0.547786 0.638908 0.302759
0.597954 0.648842 0.319927
0.642174 0.658969 0.333204
0.681822 0.669121 0.343352
0.715252 0.678125 0.351734
0.744031 0.686530 0.359485
0.767309 0.694094 0.366475
0.787662 0.701104 0.372715
0.804377 0.707463 0.378725
0.819931 0.713261 0.384341
0.833255 0.718171 0.387848
0.845761 0.722982 0.391208
0.856208 0.727408 0.394431
0.864782 0.731244 0.397387
0.873041 0.734777 0.400056
0.880616 0.738237 0.402328
0.887383 0.741811 0.404371
0.893864 0.745277 0.406437
0.900084 0.748597 0.408477
0.900514 0.747959 0.408723
0.900474 0.747047 0.408900
0.900503 0.746228 0.409173
0.900594 0.745495 0.409535
0.900607 0.743589 0.411327
0.900636 0.741599 0.413518
0.242812 0.786575 0.263116
0.229726 0.748667 0.250431
0.206419 0.683884 0.226070
0.241580 0.656574 0.226378
0.294880 0.644809 0.237399
0.356019 0.641709 0.251802
0.423848 0.645417 0.270648
0.486885 0.651582 0.290152
0.544457 0.660995 0.308960
0.595223 0.670086 0.324225
0.640001 0.679227 0.336704
0.679949 0.688456 0.347209
0.713240 0.697271 0.355361
0.742372 0.705450 0.363023
0.766117 0.712858 0.369933
0.787238 0.719354 0.375930
0.804772 0.724698 0.381279
0.820902 0.729719 0.386493
0.833717 0.734250 0.390280
0.845847 0.738661 0.393837
0.856560 0.742733 0.397067
0.865763 0.746260 0.399911
0.874579 0.749509 0.402530
0.882361 0.752633 0.404611
0.888713 0.755834 0.406093
0.894713 0.758974 0.407565
0.900572 0.762045 0.409056
0.902350 0.762395 0.409713
0.903503 0.762375 0.410209
0.904637 0.762389 0.410668
0.905754 0.762434 0.411095
0.905547 0.760505 0.411925
0.905007 0.758161 0.413041
0.245867 0.794558 0.266262
0.235404 0.764642 0.255851
0.213573 0.703918 0.233606
0.236639 0.676238 0.230639
0.293822 0.665768 0.243089
0.352496 0.662290 0.256432
0.420022 0.665860 0.275341
0.483335 0.671780 0.295237
0.540524 0.680418 0.313069
0.591706 0.689203 0.327154
0.636906 0.697828 0.339030
0.676908 0.706268 0.349523
0.710275 0.714638 0.357657
0.739827 0.722429 0.365232
0.764676 0.729483 0.372151
0.786820 0.735450 0.378163
0.804496 0.740117 0.383307
0.820827 0.744557 0.388328
0.833617 0.748848 0.392072
0.845823 0.752981 0.395583
0.856745 0.756739 0.398697
0.866005 0.759902 0.401333
0.874833 0.762815 0.403807
0.882661 0.765612 0.405845
0.888935 0.768521 0.407253
0.894868 0.771417 0.408621
0.900669 0.774253 0.409983
0.903551 0.775307 0.410848
0.905776 0.775966 0.411540
0.907949 0.776601 0.412165
0.910073 0.777214 0.412728
0.909997 0.775456 0.413009
0.909205 0.773003 0.413352
0.248542 0.801530 0.269267
0.240717 0.776804 0.260463
0.220367 0.721041 0.240147
0.230342 0.692287 0.234128
0.292299 0.683479 0.247613
0.348403 0.679900 0.260277
0.415221 0.683328 0.279309
0.478579 0.689107 0.298849
0.535782 0.697400 0.315079
0.587368 0.706363 0.328463
0.633036 0.714887 0.340296
0.672958 0.722576 0.350591
0.706361 0.730339 0.358675
0.736203 0.737648 0.366003
0.762894 0.744100 0.373087
0.786252 0.749661 0.379387
0.803512 0.753908 0.384686
0.819601 0.757939 0.389665
0.832903 0.762111 0.393131
0.845631 0.766082 0.396400
0.856840 0.769580 0.399291
0.865593 0.772323 0.401627
0.873899 0.774846 0.403861
0.881535 0.777300 0.405939
0.888105 0.780023 0.407783
0.894343 0.782693 0.409498
0.900310 0.785285 0.411090
0.904132 0.786790 0.412088
0.907356 0.787925 0.412929
0.910542 0.788979 0.413763
0.913694 0.789957 0.414588
0.914087 0.788534 0.414657
0.913369 0.786234 0.414451
0.251059 0.808193 0.272081
0.244470 0.787507 0.263864
0.226560 0.736818 0.245942
0.224252 0.706940 0.237068
0.290395 0.699729 0.251456
0.344509 0.696153 0.263788
0.409940 0.699455 0.282593
0.473665 0.705163 0.301974
0.530922 0.713193 0.316982
0.582839 0.722251 0.329598
0.629080 0.730716 0.341421
0.669009 0.737737 0.351594
0.702482 0.744990 0.359578
0.732429 0.751918 0.366597
0.760682 0.757806 0.373954
0.785137 0.763057 0.380419
0.802207 0.766907 0.385776
0.818214 0.770558 0.390653
0.831984 0.774563 0.393914
0.845160 0.778361 0.396959
0.856728 0.781632 0.399675
0.865110 0.783989 0.401798
0.873033 0.786151 0.403873
0.880469 0.788313 0.405983
0.887291 0.790854 0.408152
0.893716 0.793291 0.410091
0.899777 0.795633 0.411820
0.904381 0.797427 0.412957
0.908505 0.798932 0.413957
0.912590 0.800315 0.414992
0.916639 0.801586 0.416059
0.917593 0.800525 0.416008
0.917016 0.798422 0.415333
0.253510 0.814455 0.274077
0.247416 0.797322 0.267833
0.230329 0.749355 0.250004
0.223333 0.719735 0.240031
0.286516 0.712874 0.253924
0.339644 0.708897 0.266450
0.402399 0.712459 0.284397
0.466589 0.718578 0.302656
0.524336 0.726611 0.318013
0.576681 0.735433 0.330603
0.623450 0.743736 0.341816
0.663618 0.750691 0.351992
0.697912 0.757875 0.360186
0.728694 0.764673 0.367427
0.756551 0.770166 0.374289
0.781156 0.775119 0.380299
0.799178 0.778660 0.385774
0.816192 0.782053 0.390888
0.830013 0.785886 0.393959
0.842977 0.789560 0.396622
0.854666 0.792706 0.399085
0.863582 0.794746 0.401367
0.872015 0.796599 0.403632
0.879669 0.798546 0.405871
0.886261 0.800838 0.407810
0.892597 0.802992 0.409587
0.898697 0.805019 0.411213
0.903725 0.806681 0.412427
0.908230 0.808144 0.413502
0.912615 0.809526 0.414580
0.916887 0.810834 0.415660
0.918439 0.810233 0.415815
0.918362 0.808559 0.415378
0.255732 0.820292 0.275872
0.250495 0.806646 0.271729
0.234065 0.761348 0.254052
0.225031 0.732284 0.243768
0.282603 0.725281 0.256264
0.335079 0.721006 0.268937
0.395261 0.724645 0.286157
0.459675 0.731182 0.303364
0.517880 0.739297 0.318902
0.570673 0.747890 0.331630
0.617935 0.756019 0.342119
0.658307 0.762933 0.352300
0.693361 0.770046 0.360647
0.725077 0.776741 0.368247
0.752539 0.781871 0.374552
0.777224 0.786538 0.380054
0.796214 0.789803 0.385707
0.814239 0.792965 0.391103
0.828195 0.796628 0.394025
0.840929 0.800185 0.396288
0.852648 0.803231 0.398441
0.862074 0.804965 0.400895
0.870891 0.806549 0.403386
0.878784 0.808268 0.405750
0.885224 0.810301 0.407499
0.891536 0.812166 0.409144
0.897730 0.813876 0.410695
0.903129 0.815401 0.411967
0.907965 0.816843 0.413098
0.912604 0.818242 0.414204
0.917061 0.819602 0.415286
0.919144 0.819412 0.415625
0.919537 0.818135 0.415430
0.257344 0.824511 0.277293
0.253794 0.815633 0.274346
0.237510 0.771744 0.257882
0.229031 0.743748 0.248000
0.277773 0.735829 0.257859
0.330482 0.732096 0.270877
0.388547 0.735225 0.287365
0.452622 0.742189 0.303827
0.511111 0.750537 0.319131
0.564281 0.759005 0.332078
0.611940 0.766940 0.342148
0.652772 0.773975 0.352348
0.688678 0.780942 0.360904
0.721092 0.787433 0.368577
0.748426 0.792382 0.374624
0.773297 0.796906 0.379898
0.793000 0.799955 0.385562
0.811706 0.802939 0.391003
0.825987 0.806342 0.393914
0.838734 0.809678 0.395988
0.850622 0.812584 0.397967
0.860410 0.814106 0.400495
0.869376 0.815543 0.403114
0.877544 0.817116 0.405511
0.884008 0.818936 0.407152
0.890368 0.820575 0.408711
0.896633 0.822046 0.410194
0.902219 0.823414 0.411482
0.907218 0.824765 0.412643
0.912007 0.826092 0.413769
0.916601 0.827396 0.414860
0.919200 0.827545 0.415357
0.920110 0.826706 0.415360
0.258242 0.826497 0.278311
0.256715 0.822687 0.276946
0.240039 0.779537 0.261054
0.232242 0.753212 0.251275
0.271371 0.743891 0.258350
0.325702 0.741875 0.272050
0.382193 0.743883 0.287744
0.445202 0.751217 0.303842
0.503793 0.759906 0.318553
0.557249 0.768488 0.331560
0.605124 0.776183 0.341827
0.646867 0.783577 0.352111
0.683519 0.790302 0.360636
0.716467 0.796375 0.368108
0.744106 0.801406 0.374447
0.769423 0.805992 0.380104
0.789377 0.808903 0.385430
0.808203 0.811775 0.390477
0.822986 0.814817 0.393510
0.836167 0.817788 0.395752
0.848581 0.820470 0.397866
0.858440 0.821923 0.400350
0.867533 0.823391 0.402837
0.875911 0.824958 0.405136
0.882538 0.826651 0.406745
0.888949 0.828171 0.408239
0.895161 0.829533 0.409628
0.900702 0.830734 0.410879
0.905701 0.831869 0.412056
0.910558 0.832971 0.413209
0.915284 0.834044 0.414341
0.918426 0.834422 0.414973
0.919944 0.834099 0.415097
0.259153 0.828362 0.279279
0.258952 0.827736 0.279062
0.242502 0.786461 0.263819
0.235334 0.762283 0.254426
0.264623 0.751404 0.258711
0.321091 0.751064 0.273065
0.376061 0.752135 0.288109
0.437894 0.759749 0.303849
0.496580 0.768701 0.318058
0.550427 0.777533 0.331053
0.598413 0.784920 0.341463
0.641087 0.792689 0.351844
0.678374 0.799204 0.360273
0.711844 0.804880 0.367540
0.739894 0.809949 0.374231
0.765577 0.814545 0.380388
0.785813 0.817375 0.385370
0.804711 0.820152 0.390004
0.819974 0.822890 0.393117
0.833615 0.825529 0.395542
0.846602 0.827991 0.397828
0.856554 0.829420 0.400269
0.865794 0.830919 0.402607
0.874342 0.832488 0.404809
0.881078 0.834058 0.406370
0.887492 0.835465 0.407787
0.893610 0.836720 0.409071
0.899104 0.837767 0.410272
0.904140 0.838686 0.411472
0.909097 0.839567 0.412659
0.913981 0.840411 0.413835
0.917631 0.840942 0.414596
0.919711 0.841128 0.414819
0.259872 0.829741 0.280004
0.259872 0.829741 0.280004
0.245146 0.793114 0.266256
0.238115 0.770522 0.257381
0.257328 0.758325 0.258842
0.316382 0.759228 0.273869
0.369955 0.759673 0.288390
0.430421 0.767518 0.303586
0.489212 0.776540 0.317469
0.543534 0.785658 0.330374
0.591566 0.792815 0.340853
0.635039 0.800967 0.351318
0.672979 0.807362 0.359771
0.707006 0.812714 0.366994
0.735541 0.817735 0.373924
0.761547 0.822265 0.380446
0.782162 0.825098 0.385170
0.801183 0.827827 0.389434
0.816902 0.830382 0.392611
0.830944 0.832787 0.395228
0.844440 0.835083 0.397777
0.854530 0.836527 0.400071
0.863901 0.838025 0.402258
0.872618 0.839572 0.404347
0.879444 0.841006 0.405884
0.885870 0.842290 0.407260
0.891938 0.843438 0.408491
0.897453 0.844370 0.409661
0.902600 0.845141 0.410877
0.907704 0.845872 0.412089
0.912768 0.846567 0.413298
0.916851 0.847202 0.414164
0.919436 0.847788 0.414471
0.259872 0.829741 0.280004
0.259872 0.829741 0.280004
0.247594 0.799328 0.268430
0.240097 0.776882 0.259910
0.250147 0.764352 0.258795
0.310920 0.765308 0.274328
0.363465 0.765719 0.288417
0.422222 0.773804 0.302474
0.481236 0.782600 0.316329
0.535948 0.791605 0.329005
0.584146 0.799141 0.339644
0.628193 0.807665 0.350188
0.666830 0.814102 0.359047
0.701345 0.819267 0.366690
0.730472 0.824135 0.373432
0.756889 0.828530 0.379699
0.778090 0.831472 0.384294
0.797552 0.834268 0.388401
0.813725 0.836878 0.391699
0.827882 0.839297 0.394494
0.841490 0.841603 0.397302
0.851701 0.843011 0.399409
0.861260 0.844417 0.401411
0.870247 0.845829 0.403323
0.877291 0.847087 0.404960
0.883889 0.848226 0.406455
0.890151 0.849261 0.407828
0.895926 0.850176 0.409075
0.901314 0.851013 0.410273
0.906619 0.851826 0.411468
0.911845 0.852616 0.412661
0.916194 0.853345 0.413547
0.919227 0.853965 0.413910
0.259872 0.829741 0.280004
0.259872 0.829741 0.280004
0.249719 0.805321 0.270697
0.241991 0.782892 0.262129
0.244897 0.770226 0.259298
0.305591 0.771048 0.274678
0.357269 0.771476 0.288541
0.414250 0.779831 0.301416
0.473547 0.788457 0.315188
0.528575 0.797208 0.327560
0.576940 0.805301 0.338527
0.621527 0.814052 0.349130
0.660830 0.820568 0.358316
0.695780 0.825587 0.366309
0.725474 0.830317 0.372912
0.752292 0.834578 0.378935
0.774091 0.837615 0.383416
0.794009 0.840479 0.387384
0.810629 0.843142 0.390776
0.824874 0.845564 0.393810
0.838433 0.847844 0.396791
0.848899 0.849225 0.398758
0.858683 0.850522 0.400583
0.867973 0.851783 0.402325
0.875259 0.852887 0.404050
0.882035 0.853900 0.405672
0.888495 0.854839 0.407194
0.894516 0.855736 0.408539
0.900121 0.856646 0.409719
0.905603 0.857545 0.410898
0.910929 0.858420 0.412049
0.915487 0.859209 0.412926
0.918949 0.859857 0.413346
0.259872 0.829741 0.280004
0.259872 0.829741 0.280004
0.251678 0.811018 0.273023
0.243829 0.788597 0.264106
0.241421 0.775952 0.260317
0.300350 0.776463 0.274925
0.351347 0.776979 0.288735
0.406461 0.785600 0.300423
0.466138 0.794152 0.314058
0.521302 0.802621 0.326103
0.569903 0.811228 0.337442
0.615021 0.820158 0.348136
0.654975 0.826776 0.357585
0.690309 0.831689 0.365863
0.720541 0.836296 0.372368
0.747750 0.840428 0.378157
0.770154 0.843544 0.382536
0.790541 0.846478 0.386381
0.807613 0.849194 0.389843
0.821873 0.851590 0.393131
