output/AP0_display/AP0_to_ETERNA_33grid.cube
TITLE "AP0_to_ETERNA"
# Input: Linear ACES2065-1 / AP0 (D60)
# Output: BT.709 / Gamma 2.2 (display-referred)
# Use: Display/output transform in ACES pipeline (replaces ODT)
# Source: FLog2C_to_ETERNA_65grid_V.1.00.cube
# Generated from Fujifilm GFX ETERNA 55 F-Log2C LUT
LUT_3D_SIZE 9
0.006510 0.006095 0.006119
0.829381 0.147499 0.106082
0.941555 0.257700 0.195390
0.943997 0.327214 0.269591
0.943984 0.328397 0.270514
0.943984 0.328397 0.270514
0.943984 0.328397 0.270514
0.943984 0.328397 0.270514
0.943984 0.328397 0.270514
0.007849 0.514079 0.000538
0.401326 0.323011 0.009489
0.690432 0.341930 0.048289
0.855069 0.374427 0.066993
0.928836 0.406993 0.076552
0.932124 0.419049 0.077482
0.932077 0.422729 0.080341
0.934009 0.429989 0.112325
0.935609 0.435224 0.158484
0.009434 0.759436 0.000461
0.294859 0.504779 0.000004
0.593258 0.492578 0.010492
0.758529 0.507293 0.034618
0.862647 0.524254 0.053721
0.924993 0.540154 0.065323
0.928274 0.545636 0.065538
0.928402 0.539761 0.066675
0.928656 0.535450 0.066965
0.010877 0.880907 0.000551
0.206038 0.643541 0.000114
0.525765 0.609622 0.000606
0.699730 0.607084 0.014637
0.806813 0.612473 0.036293
0.884309 0.620403 0.052711
0.922631 0.627477 0.059580
0.926198 0.626899 0.060394
0.925901 0.619725 0.060523
0.017066 0.949921 0.000240
0.092291 0.742129 0.000172
0.466859 0.696001 0.000079
0.653485 0.682692 0.003195
0.766986 0.680823 0.024259
0.845280 0.684094 0.041371
0.901712 0.686521 0.052819
0.925285 0.688566 0.057716
0.925628 0.684846 0.057423
0.022064 0.993248 0.000464
0.010575 0.815762 0.000205
0.407379 0.761144 0.000307
0.612108 0.742310 0.000143
0.732807 0.735827 0.013469
0.814683 0.734162 0.032876
0.875204 0.733940 0.045236
0.913237 0.734309 0.052024
0.924527 0.733007 0.055654
0.022818 0.999838 0.000199
0.010167 0.873164 0.000435
0.344364 0.814065 0.000219
0.573124 0.790383 0.000151
0.701622 0.780435 0.005545
0.787232 0.775059 0.022902
0.848623 0.773041 0.037094
0.896265 0.771471 0.048626
0.922862 0.769799 0.055733
0.022818 0.999838 0.000199
0.013653 0.916573 0.000342
0.282086 0.856654 0.000114
0.532004 0.830508 0.000031
0.671506 0.817446 0.002302
0.760698 0.810579 0.017703
0.825276 0.806228 0.031783
0.875591 0.803117 0.043256
0.910497 0.801335 0.051804
0.022818 0.999838 0.000199
0.016638 0.953013 0.000661
0.213811 0.892495 0.000163
0.489115 0.864022 0.000079
0.640778 0.849106 0.000488
0.735828 0.840949 0.011233
0.804023 0.834262 0.027031
0.855955 0.830985 0.038813
0.896886 0.828303 0.048275
0.021924 0.002357 0.308698
0.709864 0.077790 0.301187
0.947109 0.191143 0.313243
0.949269 0.292102 0.332478
0.947328 0.334624 0.342112
0.947897 0.334564 0.331043
0.946433 0.333179 0.320501
0.945970 0.332027 0.312668
0.945577 0.330826 0.306712
0.044283 0.595241 0.555069
0.363293 0.364818 0.362724
0.661078 0.355400 0.371154
0.821130 0.371591 0.382771
0.920428 0.393060 0.390436
0.946139 0.412018 0.389873
0.946389 0.426876 0.396846
0.946060 0.442186 0.408209
0.945906 0.453919 0.416949
0.054847 0.791828 0.580188
0.240259 0.578328 0.378499
0.564701 0.536047 0.370677
0.731679 0.528709 0.374819
0.836955 0.532123 0.379565
0.910899 0.540373 0.385619
0.942510 0.546624 0.383927
0.943102 0.549550 0.384877
0.944256 0.548773 0.397449
0.064650 0.880070 0.575340
0.080093 0.708148 0.370726
0.487582 0.653239 0.366571
0.673256 0.635778 0.369822
0.783253 0.631377 0.370494
0.860128 0.630279 0.371842
0.916093 0.631767 0.373954
0.942332 0.633271 0.372498
0.942414 0.631266 0.374198
0.068698 0.928220 0.558377
0.039340 0.792802 0.367848
0.412347 0.735208 0.355482
0.621699 0.712632 0.357354
0.741098 0.701832 0.359308
0.821613 0.696037 0.360672
0.880917 0.694563 0.361531
0.923560 0.693961 0.361709
0.942677 0.692943 0.359719
0.072418 0.959868 0.538575
0.046138 0.852090 0.369314
0.337437 0.794471 0.339127
0.571211 0.769684 0.344280
0.701235 0.756786 0.344295
0.786953 0.748185 0.346274
0.850742 0.743369 0.349053
0.899457 0.741382 0.350161
0.931755 0.739541 0.348543
0.073104 0.982626 0.516345
0.049855 0.897243 0.364584
0.257764 0.841006 0.317457
0.520260 0.813447 0.327211
0.665717 0.798765 0.332085
0.756779 0.789758 0.333409
0.822908 0.783728 0.334549
0.874501 0.779641 0.335273
0.913868 0.776898 0.335412
0.072247 0.993265 0.492108
0.053364 0.930986 0.356297
0.169865 0.878571 0.293641
0.466642 0.850419 0.307977
0.628497 0.834986 0.314770
0.727388 0.824742 0.317980
0.797470 0.817568 0.319374
0.850850 0.812641 0.321464
0.893744 0.808184 0.322343
0.069655 0.994511 0.465897
0.055870 0.956538 0.344094
0.086550 0.909281 0.268890
0.410904 0.880849 0.287017
0.589638 0.865599 0.295525
0.698335 0.854164 0.301283
0.773009 0.845996 0.303324
0.827514 0.840974 0.305460
0.872291 0.835369 0.307699
0.030206 0.004081 0.458550
0.639473 0.015223 0.404595
0.942690 0.146558 0.435122
0.953385 0.251371 0.413174
0.950791 0.332040 0.419101
0.949188 0.347912 0.413210
0.950059 0.347086 0.406132
0.949962 0.345247 0.397474
0.949567 0.344588 0.390564
0.053748 0.607462 0.709565
0.325133 0.385321 0.531332
0.646471 0.359666 0.525960
0.808320 0.367600 0.528370
0.910770 0.385230 0.535045
0.952935 0.401799 0.530930
0.952556 0.419849 0.522514
0.951697 0.442257 0.520647
0.951836 0.460089 0.521923
0.065152 0.789470 0.727342
0.176801 0.602671 0.560019
0.545040 0.546460 0.545247
0.720882 0.533985 0.541570
0.827593 0.533327 0.542035
0.902655 0.536520 0.541271
0.947995 0.542506 0.538959
0.949911 0.546685 0.532211
0.950499 0.550547 0.532191
0.074003 0.865783 0.715091
0.049318 0.726951 0.562379
0.459442 0.665504 0.548787
0.659227 0.643558 0.546739
0.773936 0.633869 0.542926
0.852366 0.629832 0.541689
0.911103 0.628959 0.540174
0.945871 0.629873 0.536054
0.951530 0.629533 0.530634
0.077635 0.911033 0.700298
0.055175 0.805117 0.570190
0.373806 0.743168 0.544373
0.604053 0.717515 0.543175
0.730304 0.704348 0.542139
0.812988 0.698423 0.539227
0.874309 0.693850 0.536693
0.921108 0.692000 0.534890
0.949447 0.690728 0.531257
0.080379 0.942200 0.685159
0.063037 0.858872 0.575665
0.290898 0.799675 0.534788
0.548332 0.772742 0.538938
0.690259 0.758340 0.536608
0.778905 0.749270 0.534343
0.844183 0.743161 0.532585
0.894455 0.739840 0.530728
0.931636 0.737694 0.527485
0.082998 0.964015 0.670215
0.066252 0.897250 0.572532
0.195365 0.843485 0.520995
0.490550 0.816333 0.528432
0.650223 0.800320 0.529635
0.746634 0.790533 0.528637
0.816101 0.783983 0.527116
0.867589 0.779038 0.525202
0.909705 0.775031 0.521922
0.084161 0.980065 0.656478
0.070259 0.925857 0.567106
0.097933 0.877905 0.502129
0.430451 0.850753 0.517546
0.608989 0.834932 0.521124
0.715379 0.824328 0.520847
0.789131 0.816284 0.520099
0.843316 0.810636 0.516434
0.886649 0.805355 0.513361
0.084121 0.987230 0.639494
0.072131 0.948955 0.560283
0.063271 0.904296 0.489281
0.369009 0.878492 0.502317
0.565663 0.862358 0.509832
0.682619 0.852423 0.510765
0.762114 0.843669 0.510286
0.819336 0.836929 0.507407
0.864865 0.830755 0.504212
0.037036 0.006120 0.571082
0.571893 0.000186 0.477403
0.919823 0.107320 0.519610
0.957109 0.208537 0.487758
0.954826 0.299949 0.467918
0.952402 0.336554 0.459507
0.951063 0.340104 0.449530
0.950396 0.342056 0.442078
0.950326 0.343796 0.435927
0.058684 0.608986 0.790663
0.277628 0.403021 0.637128
0.626612 0.363469 0.622137
0.794315 0.365199 0.620694
0.899995 0.379552 0.624130
0.953627 0.394210 0.620645
0.957391 0.409243 0.607217
0.954883 0.430654 0.590002
0.954659 0.449783 0.579693
0.070444 0.779959 0.796327
0.080199 0.622509 0.655431
0.519132 0.555613 0.642606
0.707820 0.537502 0.638349
0.818660 0.533174 0.634536
0.894595 0.534426 0.633406
0.946884 0.538382 0.630283
0.955530 0.541921 0.623318
0.955349 0.548674 0.613794
0.078315 0.852670 0.782933
0.056010 0.741292 0.667638
0.425130 0.671935 0.646428
0.644612 0.646313 0.644776
0.764350 0.634632 0.640265
0.844176 0.629834 0.637023
0.904615 0.627434 0.634761
0.946144 0.627262 0.630684
0.956016 0.627802 0.623044
0.080957 0.897746 0.769684
0.065426 0.814684 0.674917
0.334944 0.748188 0.641156
0.583437 0.719869 0.642418
0.717796 0.706070 0.641288
0.804276 0.698187 0.637868
0.867208 0.692896 0.635724
0.916002 0.690491 0.631723
0.950285 0.688302 0.627649
0.083585 0.928542 0.756954
0.070296 0.862506 0.674987
0.244393 0.803169 0.632628
0.521844 0.775257 0.636941
0.675140 0.758905 0.638207
0.768880 0.749397 0.635701
0.835768 0.743616 0.633804
0.887078 0.739256 0.629613
0.927812 0.734946 0.627787
0.086811 0.951116 0.743266
0.074046 0.897293 0.671072
0.130041 0.844628 0.614546
0.458672 0.817321 0.629579
0.631530 0.801138 0.633338
0.734907 0.790138 0.631456
0.806773 0.782095 0.628738
0.860703 0.776395 0.625741
0.902392 0.771445 0.623113
0.088856 0.968572 0.732667
0.076986 0.924490 0.666329
0.066454 0.875747 0.600549
0.393455 0.849644 0.617545
0.586118 0.833306 0.624404
0.700302 0.822599 0.624279
0.776806 0.814101 0.622728
0.833741 0.807184 0.620344
0.878569 0.800727 0.616545
0.089246 0.980648 0.719735
0.079284 0.946330 0.660865
0.068848 0.899767 0.596093
0.327844 0.874726 0.602190
0.537940 0.859236 0.612380
0.664689 0.848572 0.614810
0.747975 0.839570 0.615419
0.808168 0.832259 0.612685
0.855498 0.826056 0.609214
0.041425 0.010174 0.656574
0.502816 0.000190 0.541390
0.883391 0.064662 0.583231
0.960541 0.171164 0.563458
0.959261 0.264800 0.515525
0.953960 0.322762 0.499570
0.953516 0.331490 0.488518
0.952518 0.333575 0.479426
0.952088 0.336006 0.472166
0.061666 0.608813 0.844834
0.215513 0.422345 0.709752
0.603500 0.366344 0.689919
0.782472 0.362888 0.687011
0.890518 0.374813 0.686853
0.952858 0.387461 0.683231
0.959190 0.400280 0.671540
0.958447 0.421551 0.646325
0.956760 0.440515 0.628918
0.072704 0.770415 0.841024
0.055259 0.640136 0.727582
0.489188 0.563390 0.707999
0.692863 0.540440 0.702464
0.808666 0.533289 0.698999
0.886162 0.532848 0.695677
0.944607 0.534428 0.693731
0.957914 0.538639 0.684507
0.957305 0.543307 0.672055
0.079961 0.842024 0.825840
0.063604 0.754903 0.741387
0.387396 0.677304 0.708703
0.624358 0.649737 0.706777
0.752249 0.635752 0.703324
0.835638 0.629061 0.700558
0.896610 0.625615 0.695997
0.943956 0.625221 0.694249
0.959215 0.624207 0.687394
0.083184 0.886712 0.814479
0.071396 0.821126 0.743674
0.289962 0.752503 0.701936
0.559542 0.723010 0.705059
0.704347 0.707241 0.705080
0.794039 0.697798 0.701541
0.859850 0.692639 0.698711
0.910682 0.688752 0.695951
0.948839 0.686251 0.693915
0.086412 0.917688 0.801087
0.076540 0.865233 0.741394
0.184043 0.806078 0.689002
0.493840 0.776252 0.699126
0.658314 0.760288 0.701867
0.757692 0.749760 0.700699
0.827152 0.742696 0.697961
0.879464 0.736711 0.695586
0.921402 0.732220 0.691063
0.089366 0.940192 0.790331
0.078852 0.898520 0.736516
0.091886 0.843946 0.673709
0.426007 0.816229 0.690325
0.610976 0.799894 0.695683
0.721252 0.789075 0.696025
0.795628 0.780580 0.693981
0.851145 0.774105 0.690532
0.894297 0.768543 0.687619
0.091259 0.958895 0.779247
0.082027 0.924968 0.732939
0.070882 0.873083 0.666432
0.357006 0.846719 0.676897
0.561797 0.830745 0.685931
0.683617 0.819873 0.688383
0.764477 0.811181 0.686664
0.824030 0.803789 0.685294
0.869111 0.798458 0.682080
0.092627 0.973328 0.768876
0.085769 0.946118 0.729120
0.073408 0.896450 0.662053
0.286636 0.871209 0.661595
0.509890 0.855495 0.674502
0.645528 0.845136 0.679297
0.733109 0.836627 0.678826
0.796762 0.828963 0.678089
0.845357 0.822743 0.674632
0.045616 0.014764 0.726223
0.426123 0.000243 0.598910
0.845565 0.013005 0.637206
0.963823 0.135640 0.629073
0.962004 0.232783 0.564552
0.957483 0.302027 0.534280
0.956044 0.322325 0.520879
0.955751 0.324411 0.512099
0.955487 0.326313 0.503630
0.063729 0.606472 0.883910
0.122459 0.443430 0.762444
0.576772 0.368861 0.742439
0.767231 0.363438 0.736398
0.880563 0.370170 0.735674
0.947888 0.383659 0.730496
0.963030 0.393938 0.722140
0.960646 0.413036 0.692212
0.957793 0.432703 0.667544
0.073556 0.762063 0.873441
0.059768 0.659595 0.788114
0.454100 0.569410 0.754200
0.676690 0.542549 0.750198
0.796719 0.533096 0.745582
0.876797 0.530998 0.742491
0.937198 0.531862 0.739850
0.959602 0.534943 0.732400
0.959202 0.537989 0.719789
0.082692 0.832092 0.859040
0.069065 0.767385 0.796215
0.345366 0.683009 0.751718
0.603979 0.651161 0.752579
0.739024 0.636821 0.748961
0.825732 0.629128 0.747341
0.889417 0.625339 0.744504
0.938689 0.623488 0.740360
0.960051 0.621713 0.734698
0.084529 0.876638 0.845147
0.075240 0.828111 0.794179
0.243242 0.756806 0.745680
0.534260 0.725292 0.750283
0.689902 0.708100 0.750310
0.784488 0.697986 0.747312
0.851532 0.691551 0.744950
0.902749 0.687626 0.742152
0.942790 0.683484 0.738373
0.088412 0.907019 0.832722
0.080014 0.870295 0.790476
0.116624 0.806709 0.728529
0.464207 0.777115 0.743548
0.640257 0.760135 0.746939
0.746893 0.748767 0.747166
0.818035 0.740884 0.743124
0.871224 0.734976 0.739644
0.914145 0.729245 0.736142
0.091386 0.930970 0.821363
0.083799 0.902524 0.787922
0.071165 0.842679 0.718185
0.390413 0.814693 0.730195
0.589900 0.798617 0.738902
0.706625 0.787142 0.740947
0.784342 0.778670 0.738392
0.841690 0.771715 0.735704
0.886717 0.765624 0.732306
0.092757 0.950192 0.812427
0.086563 0.929061 0.785348
0.073614 0.870738 0.713888
0.317209 0.844076 0.716963
0.535398 0.828813 0.727943
0.667648 0.816710 0.732880
0.751558 0.808468 0.732050
0.812928 0.801277 0.729670
0.860564 0.794837 0.727188
0.094582 0.965635 0.804591
0.090931 0.950227 0.784614
0.075752 0.894286 0.709004
0.241111 0.868173 0.702487
0.479960 0.852844 0.716353
0.626758 0.841734 0.722691
0.719149 0.832761 0.724423
0.785178 0.825625 0.723247
0.835914 0.819502 0.720797
0.048234 0.019873 0.779282
0.340187 0.000085 0.656209
0.807278 0.000142 0.677464
0.966406 0.102125 0.683066
0.964101 0.201631 0.614363
0.959471 0.279400 0.570068
0.958261 0.311285 0.549955
0.957649 0.315856 0.539528
0.956845 0.317999 0.531375
0.065168 0.601789 0.912440
0.057727 0.470152 0.814206
0.547176 0.374376 0.783006
0.752150 0.361976 0.774350
0.868448 0.367895 0.771437
0.942402 0.378451 0.768173
0.964268 0.388792 0.758896
0.962781 0.404572 0.731161
0.960771 0.424456 0.703430
0.074682 0.753501 0.892088
0.064225 0.682252 0.841914
0.415779 0.574638 0.792290
0.659075 0.543753 0.787413
0.785241 0.532601 0.783091
0.868531 0.529361 0.778631
0.929961 0.529970 0.774942
0.959558 0.531725 0.769814
0.962348 0.534778 0.757429
0.081428 0.824236 0.878413
0.073151 0.778634 0.841156
0.301610 0.687459 0.788167
0.581694 0.654205 0.788332
0.726439 0.636999 0.785221
0.816033 0.628730 0.783178
0.881983 0.623749 0.779524
0.932344 0.621762 0.776121
0.959436 0.619544 0.770365
0.085505 0.867745 0.866358
0.081479 0.835884 0.838443
0.175499 0.759595 0.775331
0.507566 0.726372 0.784555
0.674604 0.708374 0.785045
0.774323 0.697989 0.783396
0.843127 0.690626 0.779897
0.895465 0.685413 0.777176
0.936253 0.680832 0.773304
0.090224 0.898470 0.856159
0.084860 0.878192 0.834795
0.084573 0.807095 0.760236
0.430434 0.776031 0.774834
0.621442 0.759278 0.781408
0.733977 0.747736 0.780648
0.807775 0.738778 0.777800
0.863227 0.731988 0.775061
0.905977 0.726417 0.771185
0.092096 0.923223 0.846117
0.089256 0.911222 0.832556
0.074069 0.841779 0.754198
0.353835 0.812677 0.761991
0.566741 0.796734 0.771809
0.692198 0.784943 0.773707
0.773332 0.775607 0.773402
0.831981 0.768524 0.770401
0.877890 0.762320 0.766929
0.093515 0.943053 0.837860
0.093226 0.941326 0.836528
0.076521 0.869534 0.750498
0.279188 0.841423 0.748380
0.509547 0.825717 0.760613
0.649453 0.814550 0.765197
0.738755 0.805129 0.766602
0.802398 0.798266 0.764191
0.851497 0.791925 0.762388
0.095629 0.958429 0.829512
0.095649 0.958368 0.829732
0.079225 0.891744 0.746235
0.192701 0.865253 0.731811
0.451228 0.849593 0.748567
0.606339 0.838678 0.756256
0.704453 0.829433 0.758771
0.773450 0.822421 0.757583
0.826124 0.816277 0.756672
0.051454 0.025572 0.825255
0.246503 0.006999 0.717701
0.768496 0.000433 0.711271
0.964339 0.066848 0.726678
0.966634 0.170517 0.664903
0.962473 0.253235 0.607716
0.959348 0.298844 0.577250
0.958944 0.308818 0.564822
0.958392 0.311251 0.555679
0.065944 0.595798 0.927018
0.061328 0.506358 0.871334
0.512448 0.379452 0.816602
0.735984 0.362501 0.808725
0.856966 0.364622 0.803023
0.936496 0.374220 0.799818
0.965509 0.384098 0.790367
0.964485 0.399310 0.765394
0.962187 0.417667 0.735114
0.074512 0.745492 0.896271
0.069543 0.704934 0.887597
0.372415 0.580296 0.822160
0.637768 0.546077 0.817093
0.772947 0.532482 0.812862
0.860173 0.527555 0.808022
0.922736 0.527709 0.804451
0.958467 0.529016 0.799939
0.964091 0.531094 0.788212
0.081128 0.816795 0.881340
0.078455 0.794471 0.880312
0.252115 0.692646 0.815899
0.556681 0.656341 0.817105
0.713004 0.637941 0.815144
0.807506 0.628035 0.813171
0.874051 0.622422 0.809272
0.925248 0.619416 0.805135
0.956919 0.617343 0.799151
0.085888 0.860502 0.873406
0.084766 0.852868 0.873687
0.092937 0.761565 0.795758
0.477326 0.727163 0.812288
0.658924 0.708541 0.813315
0.762364 0.697617 0.811769
0.834098 0.689243 0.808273
0.887962 0.682825 0.805191
0.929669 0.678268 0.801297
0.088990 0.891679 0.867877
0.088977 0.891633 0.867911
0.072919 0.807033 0.789851
0.395228 0.774803 0.800122
0.600842 0.757586 0.808062
0.719044 0.745957 0.807213
0.797152 0.736968 0.805168
0.854385 0.729973 0.802780
0.898847 0.723956 0.799109
0.091349 0.916837 0.861169
0.091328 0.916787 0.861202
0.076739 0.841066 0.785751
0.316979 0.811151 0.785389
0.541357 0.794390 0.797090
0.674868 0.782558 0.800177
0.761067 0.773290 0.799522
0.822435 0.765665 0.797999
0.869820 0.759396 0.794992
0.094019 0.936609 0.854424
0.094019 0.936560 0.854493
0.079750 0.867615 0.781371
0.237344 0.839435 0.770711
0.481385 0.823121 0.785362
0.630525 0.811720 0.791771
0.725613 0.802606 0.793252
0.791969 0.795110 0.792332
0.842562 0.789073 0.789953
0.096814 0.952103 0.848519
0.096817 0.952060 0.848653
0.081740 0.890080 0.776939
0.146247 0.862680 0.754266
0.421689 0.846692 0.773068
0.585959 0.835595 0.782669
0.690263 0.826943 0.786051
0.762415 0.819308 0.785823
0.816525 0.813308 0.784152
0.054503 0.030513 0.864369
0.097466 0.018985 0.788134
0.730408 0.000209 0.742258
0.947909 0.026895 0.763028
0.968521 0.138735 0.714206
0.966392 0.225557 0.644568
0.960762 0.283513 0.605240
0.960209 0.301543 0.588646
0.959402 0.303977 0.578914
0.066406 0.589766 0.928566
0.065308 0.560174 0.929898
0.474100 0.384343 0.846353
0.718604 0.362624 0.836974
0.844933 0.362017 0.830623
0.928532 0.370612 0.825383
0.966026 0.380327 0.817295
0.965973 0.394058 0.794842
0.963552 0.411234 0.763234
0.073601 0.737465 0.897709
0.073594 0.737433 0.897718
0.325558 0.587087 0.846457
0.615631 0.548010 0.843253
0.760375 0.532513 0.837755
0.851248 0.526286 0.834227
0.915234 0.525481 0.830305
0.956336 0.526473 0.825534
0.965703 0.527714 0.814581
0.080488 0.808592 0.882706
0.080483 0.808522 0.882732
0.191585 0.697536 0.837428
0.531680 0.657542 0.841728
0.698605 0.638840 0.840978
0.797057 0.627340 0.837985
0.866074 0.621538 0.833493
0.918570 0.617684 0.830053
0.954146 0.614311 0.824185
0.085884 0.852818 0.874985
0.085863 0.852755 0.875004
0.075155 0.762055 0.820540
0.445067 0.727296 0.834149
0.639772 0.708175 0.837306
0.749613 0.696278 0.835378
0.824059 0.687782 0.831638
0.880450 0.680740 0.828596
0.923204 0.675600 0.824688
0.087796 0.884680 0.870211
0.087793 0.884615 0.870203
0.075350 0.807163 0.815419
0.359510 0.773879 0.820696
0.577993 0.756184 0.828520
0.704182 0.744293 0.830126
0.786205 0.734929 0.828731
0.845298 0.727712 0.825831
0.891731 0.721574 0.822637
0.090272 0.909989 0.864349
0.090284 0.909928 0.864367
0.078694 0.840630 0.812121
0.276882 0.809892 0.804950
0.515274 0.792361 0.817285
0.658049 0.780159 0.822501
0.748165 0.771283 0.821890
0.812395 0.763543 0.820614
0.861709 0.756916 0.818372
0.093692 0.930303 0.860191
0.093689 0.930245 0.860219
0.081306 0.867394 0.807367
0.187448 0.837656 0.788485
0.453090 0.820833 0.805611
0.611907 0.809264 0.813145
0.711706 0.800979 0.814691
0.781351 0.792469 0.815173
0.834048 0.785903 0.813293
0.096402 0.946585 0.858234
0.096388 0.946536 0.858256
0.083980 0.889494 0.802858
0.106765 0.860847 0.774019
0.392478 0.843973 0.793533
0.565177 0.832934 0.803596
0.675922 0.824808 0.807258
0.751332 0.816609 0.808957
0.807472 0.810181 0.807454
