output/AP0_display/AP0_to_CLASSIC-CHROME_33grid.cube
TITLE "AP0_to_CLASSIC-CHROME"
# Input: Linear ACES2065-1 / AP0 (D60)
# Output: BT.709 / Gamma 2.2 (display-referred)
# Use: Display/output transform in ACES pipeline (replaces ODT)
# Source: FLog2C_to_CLASSIC-CHROME_65grid_V.1.00.cube
# Generated from Fujifilm GFX ETERNA 55 F-Log2C LUT
LUT_3D_SIZE 9
0.000178 0.000085 0.000052
0.902746 0.116943 0.199655
0.960953 0.284034 0.394546
0.958855 0.373014 0.447811
0.958776 0.374451 0.448598
0.958776 0.374451 0.448598
0.958776 0.374451 0.448598
0.958776 0.374451 0.448598
0.958776 0.374451 0.448598
0.003494 0.518138 0.000277
0.436247 0.299757 0.002051
0.766372 0.341753 0.032525
0.905844 0.394736 0.121866
0.957158 0.440435 0.228970
0.958081 0.460587 0.299923
0.957819 0.465436 0.336354
0.957505 0.476756 0.367765
0.957647 0.486083 0.391846
0.021994 0.756172 0.011103
0.282005 0.511551 0.006317
0.659867 0.505467 0.027693
0.823128 0.527489 0.040890
0.913735 0.552439 0.095732
0.953842 0.575803 0.172121
0.954212 0.587055 0.235002
0.954536 0.584391 0.274074
0.954013 0.583132 0.306097
0.033820 0.854640 0.021460
0.134630 0.652743 0.008547
0.582196 0.623497 0.036039
0.767034 0.627021 0.050065
0.863632 0.638285 0.063466
0.926179 0.649640 0.096755
0.951766 0.663084 0.158040
0.951669 0.666683 0.210693
0.952210 0.662417 0.246237
0.041322 0.914417 0.027422
0.032956 0.743158 0.010507
0.502034 0.704754 0.038778
0.719826 0.698041 0.056087
0.826933 0.698954 0.074801
0.893929 0.705349 0.086024
0.938020 0.712457 0.109254
0.950502 0.719034 0.151976
0.950805 0.719891 0.193079
0.046140 0.956404 0.033477
0.027649 0.803655 0.016505
0.413800 0.761962 0.037591
0.673876 0.749580 0.062838
0.794000 0.746546 0.082868
0.866517 0.748884 0.096036
0.918437 0.753439 0.107949
0.947278 0.757671 0.119583
0.951320 0.759474 0.144635
0.047866 0.967222 0.033919
0.032827 0.849572 0.020149
0.314751 0.805037 0.035178
0.624112 0.789585 0.067031
0.763004 0.783798 0.088481
0.842863 0.783473 0.104199
0.897301 0.785299 0.114802
0.934683 0.787779 0.122069
0.951284 0.790240 0.129547
0.047866 0.967222 0.033919
0.037026 0.885660 0.023924
0.206417 0.839770 0.031308
0.568841 0.822034 0.066734
0.731780 0.813896 0.092975
0.819624 0.811827 0.108815
0.877689 0.812012 0.119327
0.920241 0.813647 0.128271
0.948080 0.815473 0.134547
0.047866 0.967222 0.033919
0.041311 0.916936 0.027712
0.100895 0.868870 0.026447
0.508182 0.848720 0.064806
0.699395 0.839229 0.095914
0.797124 0.835733 0.111384
0.859358 0.834952 0.124115
0.904978 0.835904 0.133556
0.937909 0.836978 0.141433
0.000039 0.000005 0.242874
0.788955 0.045146 0.272896
0.962949 0.200566 0.447492
0.960165 0.329585 0.485855
0.959005 0.383871 0.500224
0.958914 0.382913 0.492775
0.960162 0.380685 0.485419
0.960244 0.378926 0.479026
0.960171 0.378046 0.474051
0.021558 0.602658 0.607600
0.348471 0.351044 0.348424
0.712908 0.354334 0.368703
0.863089 0.385420 0.419459
0.945224 0.419451 0.470375
0.958735 0.451565 0.516502
0.959040 0.471722 0.538763
0.958282 0.491804 0.551780
0.957185 0.509168 0.562619
0.045777 0.794797 0.654606
0.138024 0.587630 0.389649
0.598836 0.549497 0.379472
0.778803 0.550017 0.405158
0.874997 0.560669 0.441753
0.936566 0.575765 0.480437
0.953201 0.591260 0.515626
0.953337 0.600687 0.541214
0.953189 0.603542 0.554348
0.058276 0.878289 0.661266
0.028847 0.713316 0.402706
0.490009 0.668262 0.378312
0.717120 0.657294 0.396760
0.824355 0.657659 0.426465
0.893439 0.662399 0.457950
0.938385 0.670755 0.490380
0.952953 0.678746 0.519008
0.953238 0.681974 0.541785
0.064649 0.918518 0.641351
0.037727 0.790130 0.404253
0.376458 0.743022 0.368120
0.657002 0.727852 0.384200
0.785384 0.722750 0.411130
0.859476 0.723255 0.439476
0.912949 0.727229 0.467972
0.946485 0.732442 0.498031
0.954734 0.735965 0.522984
0.070788 0.944581 0.613255
0.044605 0.844637 0.399397
0.250673 0.795299 0.347335
0.593897 0.777310 0.367242
0.747179 0.769953 0.392698
0.829868 0.768998 0.419317
0.888341 0.770289 0.448810
0.931255 0.773333 0.476323
0.955201 0.776429 0.503724
0.073482 0.959758 0.579490
0.049743 0.886169 0.386131
0.121113 0.835141 0.322649
0.521609 0.814262 0.341934
0.706921 0.806741 0.371688
0.803126 0.803932 0.398477
0.865388 0.803322 0.426803
0.911822 0.804296 0.454899
0.944738 0.806565 0.480700
0.072089 0.962330 0.541969
0.053359 0.916568 0.366136
0.055821 0.869115 0.296970
0.440458 0.845437 0.314186
0.664830 0.835940 0.347594
0.775700 0.832483 0.375555
0.844266 0.830863 0.404624
0.893681 0.830425 0.432091
0.930374 0.831766 0.457315
0.070288 0.962720 0.505290
0.055732 0.938571 0.338874
0.046768 0.896988 0.269885
0.350101 0.872811 0.280349
0.618758 0.860590 0.318371
0.747127 0.856062 0.350040
0.823229 0.853532 0.379539
0.875557 0.852009 0.407732
0.914770 0.851949 0.434322
0.003234 0.000015 0.431414
0.715149 0.009655 0.360837
0.965216 0.139034 0.501646
0.961374 0.278770 0.537426
0.959384 0.379803 0.553352
0.959116 0.398650 0.552485
0.959491 0.398011 0.546347
0.959719 0.395617 0.540442
0.959660 0.394578 0.535500
0.027212 0.609340 0.764868
0.268367 0.369711 0.536109
0.685157 0.355825 0.517857
0.844270 0.378214 0.543098
0.932397 0.407367 0.575536
0.958936 0.436656 0.606967
0.957460 0.465012 0.622957
0.956481 0.493272 0.625726
0.955727 0.517587 0.630540
0.052175 0.799296 0.804939
0.047512 0.610726 0.601395
0.558136 0.559662 0.558240
0.758552 0.553661 0.559911
0.858779 0.560589 0.576527
0.924036 0.573384 0.597267
0.953243 0.586975 0.619630
0.953471 0.598954 0.637978
0.953701 0.607508 0.645485
0.062006 0.868225 0.805963
0.038763 0.733271 0.631483
0.430546 0.679385 0.576959
0.691695 0.664467 0.572709
0.808087 0.662613 0.582035
0.879098 0.665070 0.597243
0.930375 0.671429 0.615402
0.953491 0.679547 0.633616
0.953584 0.684372 0.647054
0.071608 0.905269 0.793523
0.047818 0.807790 0.650215
0.293248 0.753739 0.584015
0.623233 0.735454 0.577111
0.766221 0.729312 0.584188
0.845671 0.728971 0.595871
0.901528 0.731203 0.610551
0.940047 0.735013 0.626753
0.956394 0.738488 0.641867
0.079133 0.929355 0.779585
0.055669 0.860479 0.660855
0.153612 0.805128 0.584619
0.549744 0.784876 0.577847
0.725351 0.777863 0.582812
0.816821 0.775631 0.594424
0.877054 0.774930 0.607451
0.921024 0.777192 0.622065
0.953141 0.780792 0.636120
0.083849 0.947983 0.765685
0.059719 0.893671 0.658610
0.071077 0.845306 0.584343
0.464500 0.822543 0.573129
0.681207 0.814134 0.579055
0.787682 0.810600 0.589153
0.854107 0.809853 0.602510
0.901629 0.809851 0.614168
0.937915 0.810769 0.627316
0.085550 0.957608 0.748358
0.064649 0.916576 0.652416
0.054837 0.875813 0.579496
0.367451 0.852846 0.563998
0.631809 0.843087 0.572260
0.757003 0.839027 0.582792
0.831227 0.837427 0.594014
0.882073 0.836390 0.605730
0.920932 0.834807 0.617326
0.084799 0.959616 0.726590
0.070650 0.934731 0.643236
0.058230 0.898064 0.569594
0.259403 0.876430 0.549982
0.572855 0.865550 0.561128
0.722213 0.861524 0.572118
0.806968 0.858815 0.583255
0.862070 0.856911 0.593896
0.903187 0.854497 0.605635
0.002327 0.000140 0.566371
0.636096 0.000611 0.431584
0.955388 0.093321 0.540607
0.964393 0.223439 0.584283
0.960618 0.341930 0.582164
0.960495 0.385448 0.580882
0.960270 0.389181 0.575226
0.960033 0.391215 0.570566
0.959596 0.393898 0.567119
0.029198 0.608781 0.838153
0.171173 0.383726 0.654254
0.656420 0.354563 0.609888
0.827573 0.370445 0.618971
0.920499 0.396939 0.638365
0.957666 0.424877 0.661379
0.957386 0.453124 0.674382
0.956762 0.481554 0.668702
0.957431 0.505602 0.666929
0.052243 0.792171 0.868086
0.027968 0.628012 0.712648
0.510686 0.565815 0.655673
0.740238 0.554822 0.646906
0.844937 0.559019 0.653325
0.912226 0.569627 0.666631
0.953667 0.582302 0.678694
0.955120 0.593816 0.692436
0.954186 0.606663 0.695450
0.062287 0.857640 0.864333
0.042116 0.749481 0.742437
0.367642 0.685566 0.678255
0.665777 0.668116 0.666723
0.793892 0.663261 0.667144
0.868057 0.666256 0.674516
0.921445 0.670998 0.684124
0.954694 0.677685 0.696135
0.955315 0.683814 0.705242
0.071476 0.894873 0.854344
0.053473 0.822149 0.761486
0.211570 0.759280 0.690544
0.588473 0.740094 0.676161
0.749000 0.733329 0.675552
0.834064 0.731123 0.680520
0.891876 0.732663 0.688343
0.934694 0.736904 0.698214
0.957879 0.739304 0.707919
0.079209 0.918919 0.843584
0.059213 0.865692 0.767422
0.076170 0.811488 0.698633
0.502588 0.789567 0.681492
0.704227 0.781702 0.681374
0.803337 0.778805 0.684465
0.867160 0.777882 0.691390
0.914002 0.779263 0.698181
0.949150 0.781326 0.706866
0.085005 0.936987 0.833451
0.066353 0.894456 0.763892
0.054646 0.849730 0.701512
0.405484 0.826452 0.682367
0.653459 0.818332 0.682264
0.771754 0.814203 0.686660
0.843184 0.812246 0.691631
0.892232 0.811980 0.696292
0.929619 0.811324 0.702943
0.088808 0.950626 0.822861
0.072437 0.915290 0.760427
0.059487 0.876454 0.698442
0.291576 0.854157 0.677611
0.594136 0.844750 0.679373
0.736798 0.841019 0.684359
0.817957 0.838655 0.688904
0.870796 0.836579 0.693257
0.910007 0.835531 0.697690
0.088666 0.958519 0.809524
0.077671 0.932906 0.756044
0.062690 0.896856 0.692377
0.172763 0.875855 0.668749
0.523326 0.864280 0.670937
0.696570 0.860918 0.677429
0.789585 0.858386 0.681592
0.849400 0.855844 0.686864
0.890939 0.854456 0.691618
0.003201 0.000220 0.665406
0.545658 0.000025 0.498581
0.922891 0.053462 0.575779
0.965233 0.177376 0.627004
0.960924 0.298861 0.607740
0.959886 0.369210 0.604699
0.959816 0.379480 0.597937
0.960458 0.381694 0.593247
0.960912 0.383464 0.588965
0.029995 0.606826 0.885550
0.066017 0.398632 0.734946
0.622133 0.353924 0.673850
0.809956 0.362560 0.671566
0.908850 0.386949 0.682890
0.955954 0.413708 0.700293
0.960586 0.440286 0.715168
0.957640 0.469475 0.701823
0.957308 0.494942 0.695221
0.052402 0.782241 0.904907
0.031722 0.645797 0.785158
0.460370 0.569739 0.718722
0.717648 0.555068 0.704870
0.832212 0.556471 0.704241
0.902162 0.565698 0.711623
0.950263 0.577607 0.720981
0.954816 0.589327 0.729989
0.954995 0.600802 0.731997
0.062374 0.847388 0.900243
0.046823 0.765338 0.814992
0.299920 0.690643 0.742463
0.636868 0.670990 0.725185
0.779072 0.665042 0.720106
0.858270 0.665841 0.724138
0.913546 0.670390 0.729739
0.953514 0.676459 0.737969
0.954699 0.681138 0.744327
0.071799 0.884775 0.893224
0.057284 0.829117 0.825447
0.133982 0.765350 0.756711
0.550882 0.742991 0.736868
0.731887 0.734666 0.732827
0.822951 0.732256 0.732574
0.883743 0.733524 0.737685
0.928662 0.736003 0.743146
0.957696 0.738746 0.750034
0.079047 0.909579 0.884196
0.064361 0.867543 0.828504
0.054045 0.816002 0.764495
0.454413 0.792245 0.742990
0.681558 0.784718 0.739561
0.791229 0.780856 0.740705
0.857212 0.779499 0.743131
0.905223 0.779185 0.747431
0.941546 0.779192 0.751137
0.084064 0.927781 0.874241
0.070956 0.894730 0.826027
0.057592 0.849711 0.766300
0.342004 0.827235 0.744987
0.623100 0.818902 0.741746
0.755891 0.814791 0.743035
0.831217 0.812496 0.744056
0.881716 0.810929 0.747095
0.920204 0.809516 0.749563
0.089430 0.943049 0.864544
0.077581 0.915797 0.822472
0.061684 0.874511 0.763884
0.215270 0.852982 0.740407
0.552980 0.843431 0.737744
0.715079 0.839977 0.740080
0.802139 0.837064 0.741426
0.858619 0.834625 0.743950
0.899758 0.832726 0.746126
0.092362 0.953376 0.854385
0.083190 0.932902 0.820268
0.065119 0.894163 0.758469
0.113842 0.873542 0.733816
0.472317 0.861670 0.730944
0.668933 0.858800 0.734398
0.770276 0.856108 0.736207
0.834373 0.853778 0.738929
0.879990 0.851742 0.742082
0.003366 0.000641 0.732480
0.437623 0.000014 0.563291
0.888734 0.022390 0.605049
0.966586 0.135456 0.660071
0.962081 0.256619 0.634428
0.959649 0.346641 0.626263
0.959347 0.370200 0.618960
0.959538 0.372672 0.612054
0.958983 0.375063 0.607268
0.029862 0.603382 0.919316
0.012138 0.415376 0.796862
0.584738 0.350299 0.720661
0.793611 0.358118 0.710410
0.897492 0.378342 0.716965
0.953252 0.405365 0.729100
0.960137 0.430119 0.742173
0.959924 0.458779 0.729644
0.958166 0.486187 0.718810
0.051321 0.772452 0.930805
0.035843 0.664969 0.840698
0.403644 0.573516 0.764266
0.695934 0.554863 0.746596
0.820191 0.553587 0.742533
0.892894 0.562243 0.744928
0.943897 0.574097 0.750978
0.954504 0.584830 0.758635
0.955330 0.596153 0.760813
0.061853 0.837959 0.927424
0.050817 0.779329 0.866594
0.221639 0.694890 0.788301
0.607136 0.672852 0.766831
0.763839 0.665538 0.758568
0.848583 0.664644 0.759576
0.904676 0.669077 0.763723
0.948392 0.675377 0.768866
0.955790 0.679215 0.774157
0.070579 0.876331 0.918914
0.058515 0.835466 0.871421
0.075887 0.770076 0.802726
0.511609 0.745198 0.779734
0.712953 0.736831 0.772020
0.812281 0.733442 0.771201
0.875427 0.733304 0.772544
0.920860 0.735385 0.776408
0.953908 0.737155 0.780029
0.076759 0.902014 0.909855
0.065564 0.872069 0.872985
0.055866 0.817033 0.808567
0.402196 0.793078 0.786072
0.657554 0.785274 0.779168
0.778409 0.780485 0.778884
0.847929 0.779093 0.778370
0.896899 0.777914 0.780297
0.933972 0.777201 0.782046
0.083809 0.920085 0.901506
0.074268 0.898160 0.871622
0.060450 0.848365 0.808578
0.272867 0.826133 0.786566
0.589380 0.817559 0.780478
0.737966 0.813630 0.779244
0.818435 0.810861 0.780303
0.872206 0.808909 0.780611
0.911264 0.807254 0.781732
0.087800 0.935878 0.894344
0.081558 0.917856 0.869738
0.064661 0.872250 0.806192
0.153363 0.851044 0.781727
0.508807 0.841139 0.776746
0.692751 0.837379 0.776999
0.786258 0.835087 0.778108
0.847142 0.832838 0.778195
0.890106 0.830466 0.780345
0.091030 0.948740 0.886592
0.086465 0.936408 0.868950
0.069399 0.891442 0.802577
0.085793 0.871300 0.777605
0.419283 0.859377 0.771222
0.640805 0.855656 0.772190
0.752332 0.853734 0.774020
0.821133 0.851647 0.774980
0.868855 0.848940 0.776588
0.004963 0.000283 0.784230
0.309091 0.000136 0.629771
0.854710 0.008593 0.632304
0.968366 0.099098 0.682672
0.964314 0.215099 0.663980
0.960810 0.316251 0.645491
0.959488 0.357351 0.637558
0.959261 0.363365 0.631706
0.959290 0.366894 0.624959
0.030231 0.597018 0.947459
0.014174 0.439583 0.849443
0.538423 0.349759 0.758688
0.775788 0.351121 0.742876
0.884407 0.371512 0.746123
0.949509 0.395600 0.754300
0.960574 0.421131 0.763425
0.959853 0.448788 0.753056
0.958037 0.475390 0.740269
0.051037 0.763425 0.949451
0.040282 0.691361 0.892344
0.339728 0.577115 0.800647
0.672335 0.554082 0.777870
0.806769 0.551455 0.771822
0.883282 0.558570 0.771665
0.937455 0.569393 0.775456
0.953698 0.580263 0.781598
0.954973 0.591393 0.782368
0.061618 0.829894 0.946945
0.053928 0.789105 0.905259
0.141810 0.699165 0.824704
0.574234 0.673509 0.798451
0.748884 0.665605 0.789217
0.838417 0.664357 0.786928
0.897252 0.667638 0.788347
0.942791 0.672170 0.793933
0.955229 0.676133 0.796950
0.069400 0.868308 0.939335
0.061796 0.842074 0.909621
0.053646 0.773136 0.836746
0.466256 0.747165 0.811966
0.693668 0.737093 0.802038
0.800787 0.733701 0.798602
0.867561 0.732657 0.800082
0.914200 0.733515 0.801396
0.948200 0.734205 0.802429
0.076820 0.893766 0.930112
0.070472 0.877942 0.910789
0.055462 0.817599 0.841078
0.341083 0.792701 0.817564
0.630968 0.784367 0.808896
0.763509 0.780417 0.805191
0.837160 0.777972 0.805345
0.888464 0.775979 0.805036
0.926021 0.774932 0.805597
0.083199 0.912641 0.921934
0.079006 0.904414 0.911220
0.060240 0.847866 0.841176
0.201200 0.824862 0.816689
0.553333 0.814819 0.808033
0.717715 0.811419 0.806540
0.805601 0.808565 0.806334
0.861297 0.806420 0.805656
0.902944 0.804335 0.805409
0.086816 0.929120 0.915037
0.086747 0.927659 0.913064
0.065464 0.870907 0.839219
0.100929 0.849152 0.813330
0.463724 0.837268 0.804588
0.666232 0.834533 0.803996
0.770705 0.832051 0.804125
0.835142 0.829833 0.804300
0.880301 0.827928 0.804342
0.090623 0.942793 0.907834
0.090627 0.942727 0.908026
0.070429 0.889637 0.835650
0.067774 0.869308 0.809900
0.365086 0.855624 0.799909
0.607608 0.852258 0.799551
0.733165 0.850544 0.800842
0.807626 0.848552 0.801069
0.857715 0.846563 0.800880
0.004861 0.000209 0.825246
0.147975 0.000181 0.700778
0.818390 0.006205 0.658226
0.968916 0.064825 0.699771
0.964619 0.176556 0.691559
0.961289 0.283594 0.665156
0.959445 0.342176 0.653007
0.959416 0.354450 0.646397
0.959220 0.357588 0.641220
0.029599 0.587906 0.962666
0.018586 0.477382 0.901289
0.486443 0.349142 0.791178
0.755751 0.346393 0.770445
0.871618 0.364090 0.769036
0.944482 0.387852 0.774179
0.960464 0.413044 0.781969
0.959528 0.440667 0.774585
0.958340 0.466266 0.758752
0.050223 0.753870 0.957807
0.044142 0.715222 0.936108
0.263210 0.581159 0.831885
0.643847 0.554303 0.805273
0.792842 0.548927 0.796108
0.874512 0.554611 0.793380
0.930773 0.565163 0.796305
0.952786 0.575900 0.800428
0.954879 0.586777 0.800845
0.060815 0.821343 0.956085
0.056906 0.803811 0.944894
0.068053 0.705561 0.854745
0.535244 0.675062 0.825977
0.733604 0.665403 0.814660
0.828644 0.663805 0.810969
0.889699 0.666094 0.810515
0.935285 0.670040 0.813118
0.953290 0.672932 0.814634
0.067647 0.860784 0.951345
0.066919 0.855171 0.946969
0.050482 0.774687 0.866172
0.415982 0.747765 0.838059
0.673793 0.737220 0.825871
0.789142 0.733070 0.821745
0.858662 0.731666 0.821219
0.906794 0.731297 0.821652
0.942268 0.731259 0.821502
0.075286 0.886603 0.944415
0.075269 0.886552 0.944509
0.056081 0.817375 0.867989
0.275361 0.791630 0.841517
0.600340 0.782077 0.831631
0.746245 0.778454 0.827370
0.825758 0.775507 0.825613
0.879074 0.773527 0.824687
0.918137 0.771646 0.824596
0.082771 0.905867 0.937652
0.082753 0.905817 0.937780
0.060409 0.847530 0.866437
0.131454 0.823612 0.840570
0.511657 0.812201 0.829975
0.695845 0.808620 0.827558
0.791918 0.805581 0.826541
0.850922 0.803694 0.825817
0.894039 0.801514 0.824740
0.086833 0.922038 0.932695
0.086826 0.921984 0.932841
0.065296 0.870349 0.864341
0.065028 0.847542 0.838049
0.412412 0.834931 0.827037
0.638678 0.831390 0.824575
0.754714 0.828778 0.825044
0.823444 0.826726 0.824678
0.870797 0.824849 0.823890
0.090688 0.935855 0.926459
0.090690 0.935801 0.926621
0.070765 0.888435 0.861437
0.063710 0.867209 0.835988
0.307010 0.853335 0.823002
0.574035 0.848978 0.821022
0.714553 0.847191 0.822264
0.794659 0.845445 0.822028
0.847579 0.843699 0.821898
0.004968 0.000271 0.859926
0.005336 0.000136 0.785376
0.778837 0.005621 0.684506
0.961093 0.037297 0.716706
0.965793 0.138834 0.719930
0.962168 0.248689 0.685293
0.960135 0.322878 0.668193
0.960069 0.345154 0.660365
0.959516 0.348717 0.654580
0.029176 0.577473 0.967430
0.025811 0.543909 0.960765
0.425860 0.347988 0.820936
0.735039 0.342152 0.793325
0.860513 0.356355 0.788552
0.937352 0.380585 0.791610
0.960641 0.404987 0.798036
0.959498 0.432311 0.792870
0.958464 0.457826 0.775375
0.048652 0.743126 0.958908
0.048638 0.743081 0.958913
0.180401 0.585804 0.859139
0.613660 0.553872 0.828108
0.779195 0.546711 0.816800
0.865794 0.551465 0.812387
0.923376 0.560852 0.813908
0.951606 0.571678 0.817052
0.954775 0.581613 0.817497
0.058293 0.812404 0.955999
0.058291 0.812338 0.955987
0.043977 0.710177 0.881507
0.495554 0.675839 0.849635
0.715442 0.666096 0.835146
0.817664 0.662961 0.830203
0.882267 0.664025 0.828835
0.929126 0.667617 0.829988
0.951542 0.669761 0.830043
0.066075 0.852702 0.955044
0.066042 0.852643 0.955067
0.050694 0.775425 0.889142
0.360102 0.747360 0.859170
0.648017 0.736622 0.846305
0.775295 0.731403 0.841100
0.848686 0.729631 0.838427
0.898845 0.728591 0.837500
0.935400 0.728225 0.836479
0.072875 0.879654 0.951310
0.072857 0.879591 0.951319
0.056309 0.817738 0.889676
0.207855 0.790008 0.861138
0.564241 0.779583 0.849830
0.727509 0.776134 0.844827
0.813565 0.772906 0.842168
0.869342 0.770690 0.840521
0.910521 0.768682 0.840031
0.080772 0.899578 0.946502
0.080758 0.899522 0.946511
0.061309 0.847194 0.888573
0.092867 0.821637 0.860357
0.467237 0.808969 0.847883
0.672170 0.806081 0.844965
0.777743 0.802563 0.843009
0.840167 0.800843 0.841614
0.885324 0.798819 0.840372
0.085913 0.915465 0.942834
0.085906 0.915405 0.942844
0.065996 0.870177 0.887133
0.061389 0.845617 0.858765
0.359735 0.832028 0.845183
0.609608 0.828326 0.842214
0.738022 0.825974 0.841320
0.811894 0.823786 0.840664
0.861645 0.821796 0.840098
0.089528 0.929670 0.938169
0.089500 0.929618 0.938193
0.071927 0.887850 0.883984
0.064635 0.865155 0.857233
0.248336 0.851049 0.841913
0.539787 0.845781 0.838275
0.695411 0.844360 0.839040
0.781825 0.842457 0.838532
0.837853 0.840739 0.838693
