output/AP0_display/AP0_to_PROVIA_33grid.cube
TITLE "AP0_to_PROVIA"
# Input: Linear ACES2065-1 / AP0 (D60)
# Output: BT.709 / Gamma 2.2 (display-referred)
# Use: Display/output transform in ACES pipeline (replaces ODT)
# Source: FLog2C_to_PROVIA_65grid_V.1.00.cube
# Generated from Fujifilm GFX ETERNA 55 F-Log2C LUT
LUT_3D_SIZE 5
0.000459 0.000290 0.000061
0.999591 0.150376 0.454058
1.000000 0.257130 0.480656
1.000000 0.257130 0.480656
1.000000 0.257130 0.480656
0.000026 0.841965 0.000186
0.657641 0.518379 0.000035
0.986556 0.518982 0.000104
0.999407 0.521723 0.072172
0.999379 0.509614 0.172752
0.000000 1.000000 0.000285
0.327733 0.758944 0.000278
0.848201 0.699951 0.000334
0.998381 0.689355 0.000046
0.999212 0.695208 0.000320
0.000000 1.000000 0.000285
0.015076 0.899763 0.000345
0.703737 0.809284 0.000118
0.937702 0.776955 0.000227
0.999468 0.768382 0.000030
0.000000 1.000000 0.000285
0.000000 0.981670 0.000197
0.528931 0.890599 0.000359
0.851696 0.845270 0.000158
0.984990 0.826843 0.000226
0.062457 0.000084 0.550269
0.999966 0.010761 0.640310
0.999728 0.256170 0.618684
0.999908 0.278689 0.600280
0.999829 0.275547 0.587342
0.000015 0.848740 0.860657
0.543101 0.545036 0.543894
0.921599 0.502220 0.548895
0.999825 0.498893 0.599470
0.999276 0.510467 0.633404
0.000143 0.968609 0.791683
0.098445 0.791656 0.517922
0.750952 0.717303 0.475703
0.952225 0.691570 0.497989
0.999491 0.682442 0.536941
0.000397 0.999812 0.721769
0.000060 0.919317 0.488528
0.566340 0.842563 0.426308
0.853813 0.808961 0.433547
0.982656 0.791176 0.463762
0.000123 0.999576 0.650703
0.000111 0.986050 0.439573
0.312010 0.928874 0.386673
0.746215 0.887131 0.378945
0.911826 0.863290 0.400684
0.119934 0.000347 0.823566
0.993876 0.000174 0.754736
0.999973 0.154839 0.729534
0.999703 0.253650 0.679652
0.999883 0.258838 0.665068
0.000339 0.821479 0.999891
0.468811 0.553048 0.785070
0.892187 0.494559 0.749041
0.999831 0.485050 0.764596
0.999519 0.497141 0.777328
0.000346 0.934104 0.970868
0.021084 0.802346 0.790163
0.711988 0.715845 0.713297
0.929083 0.686113 0.706742
0.999531 0.674703 0.719456
0.000377 0.977514 0.918310
0.000101 0.913392 0.772704
0.501739 0.840775 0.695934
0.820671 0.803119 0.672689
0.957761 0.781671 0.671846
0.000160 0.999566 0.874673
0.000255 0.962545 0.739338
0.208450 0.917177 0.675933
0.693571 0.873967 0.639766
0.875358 0.848468 0.633582
0.176690 0.000136 0.923278
0.940871 0.000110 0.830567
0.999877 0.056750 0.844309
0.999902 0.224519 0.747023
0.999837 0.235397 0.724775
0.000107 0.796138 0.999599
0.385650 0.563812 0.922060
0.865925 0.489623 0.863907
0.998489 0.474034 0.863251
0.999448 0.481394 0.871279
0.000209 0.910782 0.999945
0.000197 0.811931 0.927951
0.676081 0.717748 0.839766
0.909474 0.683427 0.820940
0.996872 0.665779 0.818275
0.000374 0.955217 0.996359
0.000263 0.905289 0.898997
0.441183 0.836408 0.824515
0.790547 0.795021 0.792347
0.935637 0.771456 0.781678
0.000420 0.985160 0.973015
0.000108 0.948082 0.870055
0.126256 0.908462 0.810790
0.651903 0.864102 0.767236
0.848460 0.838543 0.751670
0.230564 0.000072 0.957605
0.861916 0.000119 0.900986
0.999974 0.003305 0.955747
0.999857 0.182693 0.808497
0.999773 0.214180 0.773540
0.000244 0.772495 0.999978
0.287563 0.577851 0.999861
0.839480 0.486776 0.942887
0.997036 0.467109 0.931613
0.999521 0.470013 0.935073
0.000579 0.893917 1.000000
0.000339 0.813214 0.999099
0.637145 0.718065 0.923467
0.888462 0.679538 0.894930
0.992210 0.657649 0.886455
0.000051 0.939071 0.999813
0.000659 0.899293 0.979614
0.374143 0.831745 0.906115
0.762094 0.788938 0.867563
0.915673 0.763783 0.852036
0.000741 0.969763 0.999987
0.000537 0.937999 0.955014
0.067685 0.902155 0.893470
0.614076 0.856706 0.845046
0.825981 0.830149 0.827836
