output/AP0_display/AP0_to_PRO-Neg.Std_33grid.cube
TITLE "AP0_to_PRO-Neg.Std"
# Input: Linear ACES2065-1 / AP0 (D60)
# Output: BT.709 / Gamma 2.2 (display-referred)
# Use: Display/output transform in ACES pipeline (replaces ODT)
# Source: FLog2C_to_PRO-Neg.Std_65grid_V.1.00.cube
# Generated from Fujifilm GFX ETERNA 55 F-Log2C LUT
LUT_3D_SIZE 5
0.000438 0.000379 0.000085
0.953854 0.156974 0.451755
0.966102 0.257228 0.484735
0.966102 0.257228 0.484735
0.966102 0.257228 0.484735
0.004566 0.798489 0.000183
0.601839 0.511786 0.000147
0.891994 0.517341 0.006750
0.966985 0.513705 0.139280
0.970425 0.501243 0.223110
0.000000 0.990886 0.000240
0.446710 0.736466 0.000135
0.787569 0.711197 0.000195
0.934659 0.702050 0.000013
0.967636 0.687046 0.015682
0.000000 1.000000 0.000285
0.277368 0.863170 0.000207
0.705171 0.819750 0.000364
0.872845 0.800929 0.000186
0.958140 0.794681 0.000186
0.000000 1.000000 0.000285
0.075362 0.941590 0.001122
0.622972 0.889877 0.000012
0.819855 0.864815 0.000258
0.924163 0.851551 0.000006
0.044871 0.005607 0.408835
0.942620 0.036725 0.618509
0.973100 0.261116 0.610303
0.974756 0.281706 0.595517
0.974154 0.277693 0.583659
0.029856 0.815584 0.773993
0.545535 0.547065 0.545397
0.856920 0.510481 0.570823
0.987409 0.500705 0.615098
0.990389 0.506038 0.642040
0.017185 0.948687 0.728805
0.324253 0.767889 0.511780
0.742715 0.715815 0.510399
0.906408 0.691856 0.534427
0.989987 0.680307 0.568003
0.010241 0.999617 0.679688
0.087398 0.880276 0.485593
0.637873 0.832785 0.471620
0.837898 0.805935 0.486322
0.944569 0.789453 0.509851
0.007239 0.999787 0.630884
0.012521 0.946843 0.456955
0.525411 0.906819 0.437466
0.771912 0.878920 0.445647
0.890236 0.858769 0.460620
0.073157 0.010401 0.636744
0.882063 0.000000 0.713925
0.969587 0.170198 0.704073
0.977475 0.259733 0.667531
0.977192 0.264031 0.654313
0.033044 0.796641 0.918333
0.484612 0.557806 0.743990
0.834967 0.507086 0.745367
0.983303 0.491739 0.768344
0.996665 0.495554 0.777503
0.022314 0.919718 0.876551
0.227405 0.776977 0.727828
0.714113 0.716505 0.714624
0.890594 0.689868 0.720498
0.989901 0.674447 0.734721
0.015980 0.978036 0.837101
0.028601 0.877647 0.706046
0.594130 0.830347 0.692373
0.816497 0.800354 0.690654
0.926434 0.779511 0.693493
0.010009 0.999905 0.804525
0.016325 0.935287 0.684177
0.460259 0.894259 0.663620
0.737775 0.866074 0.660405
0.867906 0.845386 0.660085
0.094027 0.014966 0.783774
0.809324 0.000262 0.775453
0.967647 0.083059 0.801567
0.977667 0.234232 0.725730
0.977485 0.244130 0.707266
0.036973 0.776399 0.988582
0.411561 0.570613 0.852146
0.812656 0.507482 0.845838
0.968760 0.487446 0.858996
0.999624 0.484543 0.864652
0.025309 0.898396 0.948414
0.113199 0.784394 0.832044
0.682669 0.720546 0.821746
0.874820 0.688657 0.820460
0.977443 0.669367 0.825683
0.018863 0.957368 0.913240
0.025534 0.873073 0.810676
0.544733 0.825607 0.798231
0.791865 0.793721 0.792410
0.908517 0.771924 0.789670
0.013614 0.993514 0.887091
0.020002 0.927051 0.792052
0.395328 0.885364 0.768508
0.704572 0.856912 0.765104
0.847107 0.835382 0.761763
0.112741 0.029545 0.837523
0.734081 0.000195 0.832911
0.963264 0.010872 0.900052
0.977144 0.196913 0.779692
0.977925 0.224596 0.752412
0.038120 0.756968 0.999899
0.320713 0.585726 0.923117
0.788400 0.507919 0.913828
0.954102 0.484997 0.920019
0.999938 0.477442 0.925060
0.026383 0.879773 0.980280
0.037400 0.787487 0.896132
0.645937 0.721621 0.891340
0.857503 0.686875 0.886636
0.963716 0.664048 0.884579
0.020695 0.939674 0.954561
0.025793 0.872392 0.878360
0.490258 0.820818 0.861578
0.765334 0.788495 0.856616
0.891522 0.765652 0.853062
0.016349 0.980025 0.932732
0.021822 0.923657 0.862059
0.327408 0.878791 0.832907
0.671070 0.850222 0.830333
0.826117 0.827986 0.827643
