output/AP0_display/AP0_to_PRO-Neg.Std_33grid.cube
TITLE "AP0_to_PRO-Neg.Std"
# Input: Linear ACES2065-1 / AP0 (D60)
# Output: BT.709 / Gamma 2.2 (display-referred)
# Use: Display/output transform in ACES pipeline (replaces ODT)
# Source: FLog2C_to_PRO-Neg.Std_65grid_V.1.00.cube
# Generated from Fujifilm GFX ETERNA 55 F-Log2C LUT
LUT_3D_SIZE 33
0.000438 0.000379 0.000085
0.257712 0.031019 0.072390
0.517500 0.047988 0.142976
0.717254 0.058126 0.213350
0.839233 0.072199 0.285252
0.922211 0.085374 0.356997
0.945156 0.101100 0.412465
0.950314 0.124330 0.440771
0.953854 0.156974 0.451755
0.956902 0.189388 0.463698
0.961317 0.219065 0.473440
0.964136 0.240091 0.479857
0.966000 0.255580 0.484560
0.966142 0.257009 0.484898
0.966104 0.257216 0.484743
0.966102 0.257228 0.484735
0.966102 0.257228 0.484735
0.966102 0.257228 0.484735
0.966102 0.257228 0.484735
0.966102 0.257228 0.484735
0.966102 0.257228 0.484735
0.966102 0.257228 0.484735
0.966102 0.257228 0.484735
0.966102 0.257228 0.484735
0.966102 0.257228 0.484735
0.966102 0.257228 0.484735
0.966102 0.257228 0.484735
0.966102 0.257228 0.484735
0.966102 0.257228 0.484735
0.966102 0.257228 0.484735
0.966102 0.257228 0.484735
0.966102 0.257228 0.484735
0.966102 0.257228 0.484735
0.019856 0.151068 0.000193
0.126455 0.106409 0.001523
0.288391 0.109245 0.027877
0.442578 0.111952 0.071960
0.581622 0.112472 0.114191
0.690027 0.116199 0.157904
0.771652 0.119411 0.205846
0.835691 0.123167 0.249675
0.889856 0.127088 0.292163
0.935788 0.130385 0.334508
0.944230 0.132567 0.373563
0.948904 0.138378 0.401938
0.950770 0.146268 0.422042
0.953582 0.158917 0.431897
0.956153 0.171441 0.439882
0.957729 0.186770 0.448502
0.959041 0.201375 0.456402
0.961059 0.216378 0.463673
0.963526 0.231170 0.470705
0.965952 0.244954 0.477482
0.965942 0.249525 0.479639
0.965876 0.254165 0.481810
0.965773 0.258778 0.484029
0.965866 0.258434 0.484283
0.965961 0.257950 0.484464
0.966052 0.257482 0.484640
0.966102 0.257228 0.484735
0.966102 0.257228 0.484735
0.966102 0.257228 0.484735
0.966102 0.257228 0.484735
0.966102 0.257228 0.484735
0.966102 0.257228 0.484735
0.966102 0.257228 0.484735
0.023941 0.293887 0.000346
0.079810 0.193493 0.000062
0.229907 0.188826 0.000067
0.364806 0.189653 0.000121
0.488394 0.195395 0.015321
0.592808 0.199816 0.051780
0.679310 0.204904 0.088364
0.747608 0.209061 0.123666
0.805498 0.213071 0.159175
0.853546 0.217302 0.193304
0.895606 0.220517 0.227652
0.926538 0.224144 0.260456
0.949024 0.228028 0.292709
0.954916 0.229654 0.322365
0.957229 0.230823 0.349611
0.958466 0.235933 0.362963
0.959284 0.241049 0.373685
0.960151 0.247358 0.383021
0.961272 0.254482 0.391526
0.962507 0.261293 0.399834
0.963449 0.270434 0.407787
0.964318 0.279147 0.415143
0.965195 0.287279 0.422227
0.966291 0.293769 0.428563
0.967309 0.299945 0.434677
0.968236 0.305930 0.440628
0.968780 0.309091 0.444653
0.968880 0.308361 0.445916
0.969016 0.307786 0.447089
0.969187 0.307355 0.448180
0.969240 0.306745 0.449309
0.968973 0.305503 0.450712
0.968674 0.304325 0.452041
0.016650 0.427876 0.000792
0.026819 0.280967 0.000557
0.189865 0.262787 0.000098
0.322039 0.262045 0.000401
0.434691 0.263809 0.000375
0.533260 0.267237 0.000195
0.619342 0.274106 0.010591
0.690978 0.277255 0.037383
0.749749 0.281699 0.065491
0.799497 0.285121 0.096287
0.841905 0.288671 0.126812
0.880334 0.291648 0.156234
0.915480 0.294620 0.184969
0.936159 0.297546 0.213894
0.952694 0.300295 0.240677
0.957946 0.301921 0.265870
0.960365 0.303354 0.289628
0.961244 0.305015 0.306623
0.961229 0.306565 0.318539
0.961358 0.307792 0.329998
0.962734 0.311143 0.338939
0.964174 0.314499 0.347547
0.965623 0.317685 0.356143
0.966695 0.323017 0.365283
0.967642 0.328290 0.374124
0.968519 0.333207 0.382592
0.969105 0.337583 0.390326
0.969264 0.341392 0.397035
0.969422 0.345082 0.403448
0.969578 0.348661 0.409583
0.969666 0.350885 0.414128
0.969560 0.350138 0.414944
0.969502 0.349399 0.415902
0.014682 0.533519 0.000267
0.020688 0.372461 0.000225
0.148228 0.335703 0.000183
0.284768 0.328215 0.000031
0.398313 0.326369 0.000382
0.495473 0.329213 0.000037
0.576855 0.332728 0.000091
0.647643 0.336173 0.001649
0.708758 0.339134 0.009879
0.759552 0.341591 0.027223
0.803126 0.345211 0.050708
0.841588 0.348472 0.074082
0.876373 0.350841 0.100007
0.907981 0.353571 0.128741
0.936734 0.356266 0.155251
0.948867 0.358041 0.180226
0.956547 0.359562 0.203432
0.960819 0.360102 0.224265
0.961706 0.359782 0.243388
0.962496 0.359555 0.261494
0.963049 0.359863 0.274222
0.963663 0.360144 0.286119
0.964240 0.360268 0.297050
0.964707 0.362370 0.306407
0.965134 0.364659 0.315333
0.965539 0.366728 0.324033
0.966186 0.369053 0.332508
0.967359 0.372327 0.340529
0.968471 0.375613 0.348045
0.969527 0.378910 0.355093
0.970313 0.381789 0.361625
0.970465 0.383225 0.367528
0.970658 0.384655 0.373172
0.012863 0.619485 0.000623
0.015443 0.456139 0.000164
0.106470 0.405097 0.000417
0.250325 0.388905 0.000561
0.365292 0.383577 0.000027
0.463466 0.382167 0.000006
0.545061 0.384289 0.000407
0.615434 0.385491 0.000149
0.675027 0.388202 0.000018
0.727783 0.391650 0.000010
0.773231 0.394306 0.004652
0.812804 0.397408 0.016936
0.846306 0.400652 0.039262
0.877287 0.402181 0.064788
0.906180 0.403099 0.089524
0.928763 0.404697 0.113535
0.948496 0.406463 0.135329
0.959800 0.407824 0.155855
0.961994 0.408886 0.175897
0.963964 0.410084 0.194154
0.964603 0.408493 0.209994
0.965016 0.406447 0.225019
0.965412 0.404633 0.238724
0.965962 0.404279 0.250572
0.966487 0.404325 0.261186
0.966943 0.404419 0.270829
0.967417 0.405040 0.279701
0.968106 0.406924 0.288358
0.968821 0.408705 0.296662
0.969559 0.410391 0.304638
0.970172 0.411845 0.312904
0.970381 0.413483 0.320804
0.970591 0.415038 0.328271
0.010778 0.689671 0.000218
0.014907 0.529299 0.000350
0.064345 0.466097 0.000286
0.216302 0.444564 0.000560
0.334711 0.435278 0.000403
0.434099 0.432358 0.000073
0.516307 0.432423 0.000645
0.586815 0.432531 0.000061
0.647949 0.433477 0.000406
0.700831 0.435265 0.000183
0.746595 0.437829 0.000084
0.786951 0.440107 0.001224
0.822067 0.441137 0.006235
0.853072 0.442769 0.020917
0.881026 0.444521 0.038946
0.907086 0.446048 0.059284
0.931796 0.447456 0.079891
0.948795 0.448224 0.100818
0.955974 0.448144 0.122550
0.962703 0.448020 0.142983
0.964752 0.448032 0.160297
0.965542 0.448038 0.176307
0.966282 0.448013 0.191715
0.966900 0.446223 0.204769
0.967489 0.444050 0.216391
0.968081 0.442099 0.227214
0.968545 0.440828 0.237290
0.968493 0.441250 0.246596
0.968344 0.441617 0.255187
0.968247 0.441846 0.263642
0.968529 0.442031 0.272313
0.969498 0.442967 0.280808
0.970331 0.443972 0.288828
0.007432 0.749094 0.000244
0.013543 0.594954 0.000159
0.030639 0.520945 0.000657
0.181666 0.495346 0.000249
0.305190 0.483108 0.000136
0.406417 0.477780 0.000076
0.489947 0.475265 0.000140
0.562626 0.473966 0.000131
0.624859 0.473909 0.000528
0.678049 0.476234 0.000150
0.723465 0.477573 0.000050
0.764191 0.478677 0.000111
0.800495 0.479303 0.000059
0.832210 0.480570 0.001881
0.860682 0.482006 0.006305
0.886704 0.483064 0.018916
0.910917 0.484016 0.034878
0.931196 0.484610 0.052770
0.946043 0.484615 0.074037
0.960063 0.484601 0.094420
0.964164 0.485065 0.114552
0.964957 0.485606 0.133934
0.965718 0.486069 0.152413
0.966344 0.484073 0.166024
0.966835 0.481185 0.177405
0.967234 0.478437 0.188352
0.967541 0.476114 0.198951
0.967793 0.475285 0.209336
0.968068 0.474580 0.219223
0.968571 0.473870 0.228940
0.969181 0.473211 0.238310
0.970071 0.473379 0.246743
0.970839 0.473607 0.254856
0.004566 0.798489 0.000183
0.011484 0.655442 0.000490
0.013697 0.572770 0.000313
0.146377 0.541693 0.000646
0.276053 0.527622 0.000206
0.380431 0.519080 0.000204
0.465631 0.515030 0.000023
0.537738 0.512538 0.000373
0.601839 0.511786 0.000147
0.655338 0.512907 0.000053
0.703276 0.513660 0.000033
0.745364 0.514812 0.000115
0.780855 0.516375 0.000152
0.812503 0.516924 0.000106
0.840741 0.517019 0.000045
0.867176 0.517197 0.002238
0.891994 0.517341 0.006750
0.914911 0.517336 0.016525
0.935954 0.517198 0.035321
0.955828 0.517117 0.053751
0.962351 0.517443 0.072731
0.963642 0.517900 0.091429
0.965118 0.518332 0.109261
0.966215 0.516575 0.124856
0.966985 0.513705 0.139280
0.967677 0.510853 0.153381
0.968227 0.508151 0.166718
0.968291 0.506430 0.176628
0.968413 0.504941 0.185926
0.968575 0.503484 0.195079
0.968749 0.502032 0.204294
0.969625 0.501602 0.213901
0.970425 0.501243 0.223110
0.003541 0.835447 0.000919
0.010364 0.707783 0.000042
0.012658 0.619476 0.000268
0.107281 0.584189 0.000408
0.244935 0.568896 0.000049
0.354698 0.558888 0.000235
0.441815 0.552264 0.000217
0.515357 0.548982 0.000157
0.581273 0.545728 0.000034
0.635981 0.546691 0.000252
0.684332 0.546641 0.000186
0.726976 0.546638 0.000082
0.762353 0.548173 0.000191
0.794570 0.548789 0.000218
0.824509 0.548670 0.000204
0.851119 0.548569 0.000606
0.874628 0.548525 0.001574
0.896579 0.548250 0.003834
0.918047 0.547422 0.009498
0.938436 0.546704 0.016446
0.949631 0.546584 0.032398
0.956255 0.546707 0.051821
0.962695 0.546805 0.070299
0.965754 0.545699 0.086992
0.966724 0.543912 0.102402
0.967649 0.542200 0.117186
0.968466 0.540446 0.131114
0.968560 0.537704 0.141806
0.968700 0.534978 0.152315
0.968922 0.532366 0.162452
0.969225 0.529873 0.172246
0.969746 0.528852 0.181967
0.970233 0.527939 0.191367
0.001869 0.868894 0.000587
0.008241 0.755308 0.000343
0.011422 0.662897 0.000422
0.065298 0.623086 0.000163
0.214060 0.606600 0.000272
0.326886 0.595250 0.000371
0.418857 0.586441 0.000181
0.495550 0.582736 0.000509
0.561135 0.579786 0.000064
0.617107 0.578197 0.000131
0.666658 0.577423 0.000136
0.710382 0.577362 0.000143
0.746416 0.577778 0.000276
0.779340 0.578027 0.000299
0.809751 0.578108 0.000169
0.836605 0.577755 0.000145
0.860344 0.577015 0.000311
0.882528 0.576268 0.000718
0.903079 0.575690 0.002263
0.922580 0.575118 0.004583
0.937379 0.574682 0.012366
0.949228 0.574331 0.023535
0.960628 0.573982 0.034977
0.965916 0.573164 0.049868
0.966740 0.572114 0.066598
0.967478 0.571210 0.082580
0.968125 0.570310 0.097722
0.968592 0.566724 0.109339
0.969100 0.563257 0.120551
0.969599 0.560006 0.131297
0.970089 0.556956 0.141607
0.970474 0.555489 0.151573
0.970840 0.554141 0.161314
0.000474 0.898641 0.000108
0.005969 0.797624 0.000382
0.010246 0.702958 0.000570
0.032112 0.659397 0.000109
0.182961 0.641257 0.000505
0.299684 0.628685 0.000479
0.396069 0.618298 0.000207
0.476087 0.613674 0.000693
0.542078 0.611530 0.000101
0.599405 0.607852 0.000009
0.650000 0.606112 0.000082
0.694523 0.605890 0.000232
0.731801 0.605244 0.000354
0.765533 0.604952 0.000365
0.795849 0.605091 0.000146
0.822908 0.604616 0.000072
0.847259 0.603396 0.000219
0.869784 0.602281 0.000286
0.889560 0.601822 0.000182
0.908436 0.601242 0.000108
0.925610 0.600552 0.001594
0.941382 0.599885 0.005202
0.956506 0.599276 0.009922
0.964164 0.598624 0.020869
0.965374 0.598019 0.036302
0.966463 0.597562 0.051176
0.967468 0.597203 0.065552
0.968359 0.593221 0.077927
0.969144 0.589534 0.089799
0.969830 0.586121 0.101203
0.970426 0.582962 0.112170
0.970738 0.580986 0.122549
0.971027 0.579147 0.132705
0.000137 0.923871 0.000233
0.003411 0.833223 0.000436
0.009265 0.739697 0.000350
0.016088 0.694269 0.000397
0.147742 0.673842 0.000208
0.272623 0.659839 0.000540
0.372168 0.648672 0.000527
0.453781 0.642845 0.000277
0.523417 0.639695 0.000038
0.582854 0.636315 0.000060
0.634100 0.633562 0.000155
0.678772 0.631855 0.000180
0.717761 0.630934 0.000160
0.752314 0.630196 0.000131
0.782278 0.629760 0.000054
0.809395 0.629288 0.000121
0.833768 0.628517 0.000384
0.856488 0.627645 0.000519
0.876997 0.626440 0.000399
0.896454 0.625147 0.000300
0.914544 0.624157 0.000725
0.931422 0.623638 0.001902
0.947558 0.623291 0.003427
0.957259 0.622809 0.007916
0.960482 0.622049 0.015600
0.963586 0.621285 0.023605
0.966691 0.620357 0.032305
0.967634 0.617120 0.045419
0.968402 0.614065 0.058259
0.969098 0.611278 0.070671
0.969726 0.608740 0.082684
0.969964 0.606161 0.093692
0.970174 0.603677 0.104266
0.000000 0.945880 0.000297
0.001854 0.864841 0.000626
0.007661 0.772381 0.000267
0.009259 0.726153 0.000462
0.112840 0.702995 0.000283
0.244282 0.688634 0.000507
0.348252 0.676986 0.000538
0.432490 0.670261 0.000102
0.504527 0.666336 0.000150
0.565644 0.662316 0.000140
0.617994 0.658858 0.000156
0.663499 0.656433 0.000108
0.703707 0.655053 0.000068
0.739068 0.653942 0.000036
0.769101 0.653233 0.000013
0.796546 0.652531 0.000109
0.821300 0.651572 0.000360
0.844441 0.650587 0.000503
0.865211 0.649297 0.000382
0.884851 0.647966 0.000275
0.903290 0.646895 0.000194
0.920678 0.646233 0.000137
0.937323 0.645689 0.000089
0.949014 0.645015 0.001297
0.954874 0.644062 0.004510
0.960566 0.643070 0.008304
0.966142 0.641892 0.013142
0.967259 0.639247 0.023475
0.967917 0.636719 0.034228
0.968536 0.634442 0.044920
0.969118 0.632398 0.055553
0.969389 0.629562 0.066658
0.969647 0.626661 0.077525
0.000000 0.964949 0.000230
0.000916 0.893476 0.000515
0.005800 0.801695 0.000300
0.007780 0.755696 0.000310
0.078956 0.729339 0.000681
0.215002 0.715252 0.000227
0.324105 0.703526 0.000196
0.412040 0.696245 0.000050
0.485601 0.691512 0.000378
0.548016 0.686374 0.000211
0.601663 0.682399 0.000060
0.648738 0.679960 0.000037
0.689707 0.677947 0.000089
0.725705 0.676414 0.000105
0.756143 0.675604 0.000040
0.784184 0.674538 0.000068
0.809669 0.672898 0.000235
0.833411 0.671346 0.000331
0.854067 0.670573 0.000221
0.873579 0.669813 0.000120
0.891955 0.668901 0.000057
0.909393 0.667731 0.000039
0.926163 0.666497 0.000024
0.939668 0.665259 0.000418
0.948672 0.664182 0.001542
0.957342 0.663135 0.002922
0.965695 0.662046 0.004590
0.967182 0.659880 0.009796
0.967657 0.657780 0.016095
0.968133 0.655906 0.022970
0.968608 0.654242 0.030381
0.968983 0.651367 0.041002
0.969401 0.648199 0.052132
0.000000 0.979952 0.000200
0.000016 0.920487 0.000266
0.004249 0.828054 0.000395
0.006386 0.782340 0.000227
0.047663 0.753967 0.000746
0.185061 0.739855 0.000064
0.298967 0.728074 0.000148
0.390407 0.720420 0.000048
0.466409 0.714772 0.000344
0.530672 0.709046 0.000185
0.585724 0.704601 0.000005
0.633960 0.701714 0.000021
0.675684 0.699150 0.000146
0.712443 0.697090 0.000201
0.743721 0.695832 0.000079
0.772578 0.694521 0.000070
0.798428 0.692739 0.000183
0.822550 0.691030 0.000258
0.843247 0.690320 0.000165
0.862792 0.689629 0.000064
0.881228 0.688778 0.000000
0.898749 0.687545 0.000000
0.915618 0.686168 0.000000
0.930413 0.684707 0.000010
0.941943 0.683426 0.000020
0.952990 0.682229 0.000031
0.963640 0.681019 0.000040
0.965971 0.679237 0.002289
0.966575 0.677495 0.005689
0.967175 0.675917 0.009777
0.967770 0.674491 0.014501
0.968242 0.671613 0.022674
0.968743 0.668281 0.031756
0.000000 0.990886 0.000240
0.000124 0.945374 0.000502
0.003046 0.851368 0.000441
0.004949 0.806103 0.000232
0.022326 0.777000 0.000501
0.154243 0.762646 0.000108
0.272495 0.750901 0.000425
0.367685 0.742988 0.000113
0.446710 0.736466 0.000135
0.513364 0.730493 0.000081
0.570045 0.725624 0.000016
0.618945 0.721814 0.000069
0.661424 0.718718 0.000239
0.699099 0.716094 0.000315
0.731762 0.714182 0.000136
0.761678 0.712562 0.000101
0.787569 0.711197 0.000195
0.811801 0.709901 0.000274
0.832753 0.708741 0.000199
0.852503 0.707573 0.000089
0.871119 0.706574 0.000000
0.888711 0.705811 0.000000
0.905607 0.704910 0.000000
0.921207 0.703678 0.000004
0.934659 0.702050 0.000013
0.947620 0.700498 0.000022
0.960149 0.698998 0.000029
0.963677 0.697471 0.001070
0.964692 0.695992 0.002693
0.965655 0.694580 0.004619
0.966568 0.693229 0.006826
0.967143 0.690394 0.010877
0.967636 0.687046 0.015682
0.000000 1.000000 0.000285
0.000234 0.968068 0.000922
0.001834 0.873469 0.000364
0.003293 0.828333 0.000263
0.005132 0.798663 0.000291
0.123647 0.783858 0.000133
0.246372 0.772182 0.000636
0.345629 0.764017 0.000173
0.427511 0.756846 0.000005
0.496410 0.750620 0.000011
0.554768 0.745399 0.000034
0.604461 0.740733 0.000109
0.647645 0.737116 0.000297
0.686098 0.734022 0.000384
0.720143 0.731688 0.000190
0.751143 0.729670 0.000145
0.777142 0.728573 0.000237
0.801510 0.727565 0.000328
0.822788 0.726019 0.000252
0.842778 0.724400 0.000119
0.861599 0.723146 0.000000
0.879254 0.722707 0.000001
0.896175 0.722150 0.000001
0.912263 0.721158 0.000002
0.927307 0.719276 0.000009
0.941848 0.717512 0.000016
0.955927 0.715860 0.000023
0.960803 0.714535 0.000019
0.962392 0.713287 0.000013
0.963891 0.712020 0.000007
0.965305 0.710735 0.000002
0.966075 0.708010 0.000720
0.966568 0.704713 0.001993
0.000000 1.000000 0.000285
0.000060 0.984190 0.000473
0.000895 0.894132 0.000205
0.002256 0.847741 0.000406
0.003635 0.818334 0.000167
0.087072 0.801571 0.000151
0.218336 0.790589 0.000704
0.322045 0.782306 0.000287
0.406702 0.774970 0.000046
0.477441 0.768771 0.000090
0.537740 0.763661 0.000106
0.589846 0.758875 0.000077
0.633802 0.754982 0.000173
0.672777 0.751747 0.000243
0.707740 0.749292 0.000151
0.739571 0.746943 0.000127
0.766051 0.745072 0.000277
0.790898 0.743383 0.000392
0.812817 0.741559 0.000267
0.833305 0.739703 0.000114
0.852509 0.738059 0.000002
0.870294 0.737043 0.000005
0.887315 0.736029 0.000002
0.903382 0.734889 0.000003
0.918239 0.733480 0.000014
0.932610 0.732236 0.000024
0.946534 0.731143 0.000031
0.953250 0.730258 0.000025
0.956778 0.729353 0.000016
0.960198 0.728370 0.000008
0.963518 0.727313 0.000002
0.965124 0.724950 0.000427
0.965702 0.721897 0.001223
0.000000 1.000000 0.000285
0.000000 0.995583 0.000286
0.000253 0.913589 0.000107
0.001490 0.866008 0.000555
0.002061 0.837164 0.000062
0.051042 0.818283 0.000159
0.191181 0.808004 0.000739
0.299108 0.799619 0.000429
0.386516 0.792170 0.000084
0.459004 0.785977 0.000134
0.521147 0.781023 0.000145
0.575733 0.776170 0.000039
0.620643 0.772022 0.000062
0.660121 0.768595 0.000155
0.695865 0.765966 0.000119
0.728460 0.763343 0.000072
0.755421 0.760757 0.000263
0.780744 0.758439 0.000389
0.803253 0.756327 0.000243
0.824200 0.754248 0.000092
0.843781 0.752284 0.000002
0.861684 0.750759 0.000005
0.878780 0.749326 0.000000
0.894879 0.747971 0.000003
0.909568 0.747042 0.000018
0.923786 0.746317 0.000029
0.937570 0.745781 0.000036
0.945899 0.745316 0.000029
0.951295 0.744709 0.000017
0.956565 0.743968 0.000008
0.961717 0.743104 0.000002
0.964278 0.741047 0.000153
0.964928 0.738192 0.000456
0.000000 1.000000 0.000285
0.000000 1.000000 0.000285
0.000005 0.931643 0.000184
0.000970 0.883484 0.000540
0.000909 0.854758 0.000057
0.024431 0.834242 0.000182
0.162575 0.824060 0.000625
0.275382 0.815552 0.000492
0.365900 0.808197 0.000127
0.440552 0.802080 0.000159
0.504625 0.797162 0.000138
0.561003 0.792102 0.000036
0.607247 0.787624 0.000068
0.647797 0.783712 0.000201
0.684199 0.780855 0.000191
0.717536 0.778007 0.000118
0.745132 0.774851 0.000245
0.771052 0.772008 0.000304
0.794101 0.769698 0.000174
0.815462 0.767516 0.000057
0.835443 0.765401 0.000004
0.853517 0.763563 0.000017
0.870732 0.761823 0.000029
0.886944 0.760282 0.000040
0.901557 0.759536 0.000042
0.915687 0.758983 0.000041
0.929373 0.758605 0.000036
0.939066 0.758275 0.000030
0.946192 0.757803 0.000031
0.953166 0.757217 0.000037
0.960000 0.756525 0.000048
0.963584 0.754935 0.000052
0.964293 0.752592 0.000043
0.000000 1.000000 0.000285
0.000000 1.000000 0.000285
0.000007 0.948269 0.000469
0.000570 0.900158 0.000390
0.000705 0.870769 0.000173
0.014604 0.849772 0.000232
0.131051 0.838562 0.000356
0.249997 0.829954 0.000363
0.344203 0.822955 0.000171
0.421778 0.817063 0.000211
0.488146 0.811949 0.000096
0.545062 0.806396 0.000096
0.593038 0.801303 0.000189
0.635479 0.796706 0.000355
0.672523 0.793566 0.000391
0.706648 0.790561 0.000371
0.735091 0.786996 0.000301
0.761771 0.783731 0.000199
0.785352 0.781346 0.000096
0.807117 0.779241 0.000031
0.827559 0.777183 0.000006
0.845871 0.775246 0.000053
0.863249 0.773424 0.000097
0.879677 0.771761 0.000134
0.894314 0.770720 0.000101
0.908421 0.769791 0.000068
0.922041 0.768965 0.000034
0.932845 0.768358 0.000033
0.941531 0.767877 0.000068
0.950031 0.767402 0.000113
0.958359 0.766933 0.000167
0.963001 0.766064 0.000187
0.963787 0.764710 0.000148
0.000000 1.000000 0.000285
0.000000 1.000000 0.000285
0.000030 0.963647 0.000752
0.000298 0.916003 0.000371
0.000687 0.886008 0.000284
0.006621 0.864711 0.000282
0.100097 0.852349 0.000136
0.225120 0.843714 0.000199
0.322955 0.837065 0.000205
0.403423 0.831423 0.000297
0.472218 0.826116 0.000052
0.529579 0.820074 0.000146
0.579223 0.814345 0.000279
0.623396 0.809120 0.000463
0.661219 0.805689 0.000560
0.696040 0.802562 0.000624
0.725364 0.798612 0.000383
0.752764 0.794925 0.000134
0.776910 0.792426 0.000035
0.799090 0.790401 0.000011
0.820018 0.788418 0.000006
0.838492 0.786409 0.000085
0.856039 0.784516 0.000160
0.872699 0.782740 0.000227
0.887341 0.781374 0.000161
0.901409 0.780046 0.000098
0.914949 0.778752 0.000036
0.926681 0.777865 0.000037
0.936875 0.777434 0.000108
0.946850 0.777121 0.000192
0.956621 0.776917 0.000291
0.962417 0.776702 0.000330
0.963293 0.776327 0.000241
0.000000 1.000000 0.000285
0.000000 1.000000 0.000285
0.000057 0.976642 0.000793
0.000155 0.930791 0.000475
0.000713 0.900456 0.000380
0.001435 0.879093 0.000309
0.071066 0.865431 0.000031
0.199580 0.856892 0.000064
0.301310 0.850507 0.000219
0.384843 0.844925 0.000387
0.456107 0.839325 0.000009
0.514316 0.832814 0.000178
0.565453 0.826594 0.000318
0.611099 0.820908 0.000484
0.649866 0.817138 0.000626
0.685419 0.813820 0.000756
0.715620 0.809623 0.000442
0.743673 0.805628 0.000118
0.768411 0.802986 0.000016
0.791027 0.801010 0.000019
0.812412 0.799117 0.000024
0.831028 0.797016 0.000112
0.848735 0.795022 0.000196
0.865618 0.793126 0.000276
0.880366 0.791477 0.000204
0.894490 0.789825 0.000135
0.908049 0.788168 0.000068
0.920476 0.787015 0.000067
0.931881 0.786581 0.000151
0.943025 0.786332 0.000252
0.953925 0.786257 0.000367
0.960881 0.786457 0.000402
0.961966 0.786813 0.000278
0.000000 1.000000 0.000285
0.000000 1.000000 0.000285
0.000058 0.985092 0.000560
0.000098 0.943896 0.000512
0.000469 0.913909 0.000429
0.000941 0.892840 0.000265
0.048289 0.877749 0.000193
0.170657 0.869574 0.000132
0.277368 0.863170 0.000207
0.364746 0.856925 0.000400
0.438109 0.850694 0.000010
0.498311 0.843886 0.000190
0.550943 0.837634 0.000267
0.597552 0.831917 0.000336
0.637555 0.827648 0.000444
0.674179 0.823883 0.000555
0.705171 0.819750 0.000364
0.733745 0.815831 0.000150
0.759082 0.813090 0.000085
0.782160 0.811063 0.000098
0.804044 0.809172 0.000105
0.822799 0.806884 0.000135
0.840622 0.804708 0.000163
0.857613 0.802638 0.000190
0.872845 0.800929 0.000186
0.887361 0.799268 0.000180
0.901270 0.797637 0.000175
0.914123 0.796337 0.000178
0.925905 0.795563 0.000202
0.937363 0.794935 0.000238
0.948519 0.794445 0.000286
0.956332 0.794351 0.000269
0.958140 0.794681 0.000186
0.000000 1.000000 0.000285
0.000000 1.000000 0.000285
0.000043 0.992167 0.000399
0.000052 0.956359 0.000401
0.000253 0.926874 0.000466
0.000518 0.906015 0.000253
0.027473 0.889536 0.000390
0.142179 0.881732 0.000213
0.253877 0.875381 0.000181
0.345242 0.868479 0.000411
0.420309 0.861546 0.000048
0.482631 0.854555 0.000202
0.536758 0.848248 0.000223
0.584320 0.842440 0.000201
0.625546 0.837714 0.000274
0.663242 0.833520 0.000369
0.695033 0.829418 0.000286
0.724098 0.825581 0.000180
0.750007 0.822774 0.000156
0.773568 0.820749 0.000171
0.795912 0.818802 0.000185
0.814895 0.816357 0.000162
0.832828 0.814007 0.000137
0.849926 0.811769 0.000113
0.865583 0.810008 0.000163
0.880466 0.808354 0.000219
0.894703 0.806763 0.000272
0.907941 0.805347 0.000288
0.920066 0.804223 0.000251
0.931808 0.803208 0.000223
0.943223 0.802302 0.000196
0.951808 0.801830 0.000149
0.954334 0.802184 0.000103
0.000000 1.000000 0.000285
0.000000 1.000000 0.000285
0.000011 0.997956 0.000305
0.000014 0.968222 0.000165
0.000069 0.939371 0.000495
0.000150 0.918642 0.000271
0.008567 0.900826 0.000624
0.114077 0.893404 0.000312
0.230779 0.887181 0.000142
0.326188 0.879607 0.000403
0.402935 0.871986 0.000094
0.467256 0.864844 0.000217
0.522867 0.858478 0.000186
0.571375 0.852523 0.000078
0.613807 0.847370 0.000114
0.652577 0.842767 0.000197
0.685183 0.838662 0.000210
0.714711 0.834912 0.000207
0.741165 0.832069 0.000229
