output/AP0_display/AP0_to_CLASSIC-Neg._33grid.cube
TITLE "AP0_to_CLASSIC-Neg."
# Input: Linear ACES2065-1 / AP0 (D60)
# Output: BT.709 / Gamma 2.2 (display-referred)
# Use: Display/output transform in ACES pipeline (replaces ODT)
# Source: FLog2C_to_CLASSIC-Neg._65grid_V.1.00.cube
# Generated from Fujifilm GFX ETERNA 55 F-Log2C LUT
LUT_3D_SIZE 33
0.000129 0.000120 0.000052
0.254104 0.020239 0.000183
0.614994 0.052999 0.000000
0.817073 0.081753 0.000053
0.891544 0.106708 0.033533
0.930728 0.129656 0.084726
0.941994 0.150368 0.136854
0.945044 0.172078 0.174168
0.946428 0.198785 0.199688
0.948230 0.224962 0.225181
0.949366 0.249359 0.247725
0.950177 0.266940 0.263616
0.950947 0.280520 0.276020
0.951031 0.281760 0.277152
0.951058 0.281886 0.277244
0.951060 0.281893 0.277250
0.951060 0.281893 0.277250
0.951060 0.281893 0.277250
0.951060 0.281893 0.277250
0.951060 0.281893 0.277250
0.951060 0.281893 0.277250
0.951060 0.281893 0.277250
0.951060 0.281893 0.277250
0.951060 0.281893 0.277250
0.951060 0.281893 0.277250
0.951060 0.281893 0.277250
0.951060 0.281893 0.277250
0.951060 0.281893 0.277250
0.951060 0.281893 0.277250
0.951060 0.281893 0.277250
0.951060 0.281893 0.277250
0.951060 0.281893 0.277250
0.951060 0.281893 0.277250
0.003793 0.126830 0.029757
0.093722 0.085876 0.001635
0.258113 0.089163 0.000515
0.475164 0.101673 0.000274
0.672096 0.116070 0.000023
0.788600 0.128184 0.000132
0.850453 0.137777 0.007284
0.889481 0.146685 0.030442
0.916287 0.155022 0.057953
0.936332 0.162982 0.086080
0.940724 0.170420 0.118245
0.943450 0.178791 0.144851
0.944507 0.187770 0.167084
0.945356 0.199087 0.182026
0.946290 0.209769 0.195105
0.947050 0.222566 0.209566
0.947729 0.234723 0.223080
0.948550 0.247234 0.236772
0.949383 0.259704 0.250183
0.950104 0.271461 0.262633
0.950286 0.275394 0.267570
0.950486 0.279327 0.272681
0.950722 0.283198 0.277832
0.950825 0.282930 0.277667
0.950919 0.282527 0.277432
0.951011 0.282120 0.277291
0.951060 0.281893 0.277250
0.951060 0.281893 0.277250
0.951060 0.281893 0.277250
0.951060 0.281893 0.277250
0.951060 0.281893 0.277250
0.951060 0.281893 0.277250
0.951060 0.281893 0.277250
0.007472 0.239293 0.052278
0.020427 0.154811 0.022994
0.166540 0.148027 0.002372
0.323336 0.153307 0.000161
0.508527 0.166229 0.000057
0.665835 0.178119 0.000086
0.767499 0.189920 0.000574
0.828186 0.198256 0.001712
0.868992 0.206311 0.010342
0.896918 0.215145 0.029564
0.916186 0.222290 0.051367
0.930884 0.229406 0.074179
0.942281 0.236659 0.098111
0.944869 0.242619 0.121409
0.945544 0.247914 0.143205
0.945939 0.253524 0.156979
0.946398 0.258783 0.168932
0.947040 0.265241 0.180509
0.947637 0.272344 0.191700
0.948104 0.279014 0.202387
0.948981 0.287227 0.213914
0.949780 0.295152 0.224795
0.950541 0.302798 0.235185
0.950875 0.309794 0.244528
0.951178 0.316415 0.253394
0.951482 0.322716 0.261869
0.951649 0.326115 0.267186
0.951648 0.325689 0.268224
0.951700 0.325467 0.269269
0.951802 0.325434 0.270322
0.951899 0.325134 0.271021
0.951844 0.323882 0.271012
0.951767 0.322606 0.271061
0.011635 0.356116 0.071311
0.006438 0.226585 0.037446
0.113427 0.204560 0.018118
0.243570 0.204333 0.001712
0.398851 0.210301 0.000040
0.560256 0.220953 0.000000
0.688098 0.233444 0.000063
0.772095 0.242581 0.000148
0.825970 0.251323 0.000369
0.862406 0.258728 0.001882
0.887882 0.267155 0.017967
0.908273 0.274424 0.035288
0.924293 0.280681 0.053591
0.934463 0.287795 0.073594
0.942801 0.294683 0.092910
0.945014 0.299858 0.112859
0.945872 0.304423 0.132131
0.946561 0.308180 0.146383
0.947078 0.311181 0.156326
0.947520 0.313863 0.165336
0.947833 0.318012 0.175048
0.948208 0.322172 0.184470
0.948686 0.326278 0.193523
0.949220 0.332166 0.204021
0.949716 0.337919 0.214214
0.950167 0.343292 0.223879
0.950653 0.348309 0.232715
0.951212 0.353065 0.240548
0.951705 0.357621 0.248056
0.952137 0.361990 0.255263
0.952501 0.364755 0.260499
0.952911 0.363995 0.261679
0.953266 0.363330 0.262815
0.014465 0.468260 0.087718
0.008820 0.304714 0.049640
0.062731 0.263816 0.035021
0.187784 0.256286 0.016993
0.323982 0.258442 0.002480
0.478181 0.266560 0.000103
0.616146 0.277065 0.000000
0.717774 0.286030 0.000005
0.787826 0.295442 0.000019
0.831734 0.303637 0.000082
0.862607 0.311252 0.003818
0.886718 0.318311 0.012873
0.905050 0.324995 0.028586
0.920021 0.332166 0.046025
0.933168 0.339021 0.062344
0.939778 0.345077 0.080705
0.944545 0.350731 0.098500
0.947006 0.354527 0.113683
0.947223 0.356641 0.126965
0.947350 0.358663 0.139672
0.947938 0.360363 0.149136
0.948612 0.361945 0.157955
0.949184 0.363326 0.166026
0.949502 0.366393 0.175200
0.949758 0.369629 0.184259
0.949991 0.372680 0.192903
0.950274 0.375998 0.201212
0.950718 0.380140 0.209310
0.951179 0.384164 0.217141
0.951655 0.388078 0.224723
0.952155 0.391554 0.231870
0.952649 0.393896 0.238242
0.953083 0.396200 0.244474
0.018207 0.567353 0.102030
0.011772 0.383445 0.062553
0.013036 0.325318 0.052771
0.142353 0.310367 0.031761
0.265908 0.307320 0.014268
0.409318 0.312441 0.000955
0.549481 0.321434 0.000022
0.665422 0.329741 0.000014
0.748055 0.337348 0.000109
0.803394 0.345615 0.000170
0.839818 0.353917 0.000046
0.867519 0.362007 0.004074
0.888853 0.368876 0.015733
0.905641 0.374640 0.030907
0.919781 0.379932 0.046223
0.930858 0.386060 0.061307
0.940450 0.392194 0.075341
0.945739 0.397501 0.090035
0.946564 0.402039 0.105757
0.947345 0.406417 0.120210
0.948050 0.406667 0.130139
0.948747 0.406169 0.139005
0.949333 0.405811 0.147146
0.949764 0.406147 0.155237
0.950151 0.406705 0.162757
0.950518 0.407325 0.169592
0.950894 0.408555 0.176582
0.951340 0.411186 0.185346
0.951791 0.413615 0.193886
0.952247 0.415856 0.202217
0.952552 0.418162 0.210281
0.952685 0.421035 0.217435
0.952807 0.423671 0.224174
0.020802 0.646444 0.113820
0.013831 0.462535 0.076641
0.012009 0.389526 0.063875
0.101366 0.364501 0.047832
0.218049 0.357313 0.030103
0.348814 0.359372 0.012229
0.489364 0.366367 0.001602
0.614883 0.373881 0.000000
0.710573 0.381527 0.000022
0.775578 0.388202 0.000435
0.817739 0.395428 0.000272
0.849296 0.402561 0.002941
0.873707 0.408906 0.011544
0.892664 0.414662 0.023849
0.908033 0.419836 0.036778
0.920415 0.425492 0.049947
0.931524 0.431187 0.062910
0.939800 0.436120 0.076415
0.944357 0.440164 0.090830
0.948694 0.443933 0.104357
0.949697 0.445543 0.116016
0.949914 0.446520 0.126639
0.950198 0.447443 0.136720
0.950485 0.446980 0.144757
0.950684 0.446141 0.151804
0.950805 0.445390 0.158423
0.950952 0.445056 0.164937
0.951409 0.445896 0.172039
0.951860 0.446696 0.178725
0.952312 0.447460 0.185359
0.952717 0.448338 0.192249
0.953015 0.449976 0.199710
0.953291 0.451600 0.206808
0.022144 0.707437 0.121163
0.016679 0.537439 0.089845
0.013764 0.451358 0.074989
0.057225 0.417924 0.062629
0.176358 0.406823 0.044272
0.297835 0.405481 0.027190
0.432804 0.409012 0.009278
0.563278 0.416101 0.001073
0.669201 0.421873 0.000007
0.743755 0.428501 0.000490
0.794770 0.434596 0.000365
0.833105 0.440925 0.002077
0.860194 0.446601 0.007460
0.880650 0.451856 0.017412
0.896952 0.456788 0.029467
0.910460 0.462021 0.041930
0.922289 0.467228 0.054244
0.932307 0.471927 0.066711
0.939748 0.476169 0.079861
0.946796 0.480191 0.092191
0.949093 0.482703 0.105083
0.949836 0.484650 0.117819
0.950605 0.486504 0.130041
0.951025 0.485534 0.138101
0.951230 0.483443 0.144289
0.951368 0.481407 0.150213
0.951471 0.479734 0.156174
0.951658 0.479554 0.163161
0.951840 0.479451 0.169888
0.952052 0.479556 0.176661
0.952279 0.479700 0.183174
0.952659 0.480498 0.189798
0.953005 0.481290 0.196298
0.024459 0.753124 0.125879
0.019264 0.606767 0.101003
0.016183 0.511230 0.084454
0.025310 0.469527 0.076402
0.139080 0.454732 0.057999
0.254314 0.449752 0.041487
0.379452 0.450178 0.022808
0.512675 0.456135 0.006602
0.626750 0.461567 0.000535
0.710784 0.466026 0.000583
0.770819 0.471878 0.000595
0.815558 0.478306 0.001166
0.845041 0.484303 0.003543
0.868083 0.488873 0.011511
0.886278 0.492480 0.022719
0.900998 0.496618 0.034756
0.913546 0.500947 0.046857
0.925056 0.505014 0.058800
0.934848 0.509063 0.071426
0.943780 0.512943 0.083174
0.947316 0.516290 0.095750
0.948859 0.519300 0.108563
0.950571 0.522128 0.120977
0.951380 0.521496 0.130032
0.951595 0.519254 0.137255
0.951730 0.517155 0.144233
0.951843 0.515241 0.150960
0.952277 0.513746 0.157298
0.952736 0.512338 0.163548
0.953127 0.511060 0.169726
0.953431 0.509936 0.175777
0.953440 0.510078 0.182403
0.953534 0.510232 0.188881
0.025488 0.786049 0.130832
0.020527 0.664001 0.109871
0.017669 0.565770 0.093730
0.016966 0.520967 0.086417
0.100964 0.501572 0.070980
0.214147 0.493404 0.054015
0.332272 0.491156 0.037516
0.463183 0.495006 0.019044
0.584904 0.498444 0.005344
0.676443 0.503317 0.001236
0.744563 0.508371 0.000241
0.796229 0.512989 0.000802
0.829118 0.517668 0.003813
0.855334 0.521994 0.010528
0.875784 0.525892 0.019455
0.892226 0.529826 0.029673
0.905818 0.533846 0.040547
0.918065 0.537454 0.051397
0.927660 0.540274 0.063332
0.936637 0.542957 0.074583
0.942452 0.545864 0.086890
0.946712 0.548786 0.099447
0.950891 0.551552 0.111390
0.952635 0.552024 0.121451
0.952848 0.551214 0.130405
0.953022 0.550517 0.139163
0.953165 0.549748 0.147504
0.953353 0.547283 0.153257
0.953549 0.544885 0.158781
0.953714 0.542634 0.164245
0.953850 0.540535 0.169665
0.954097 0.539903 0.176195
0.954350 0.539298 0.182550
0.025774 0.813562 0.135162
0.022160 0.711309 0.117813
0.018826 0.614754 0.101681
0.017665 0.568535 0.093981
0.057256 0.543697 0.084573
0.175580 0.533965 0.066195
0.289678 0.529575 0.050189
0.415628 0.531180 0.032198
0.540023 0.534337 0.016281
0.641246 0.538402 0.005473
0.717235 0.542776 0.001373
0.775296 0.546869 0.000746
0.812805 0.550804 0.002680
0.842767 0.554442 0.007463
0.865323 0.557971 0.015071
0.883476 0.561219 0.024623
0.897789 0.564072 0.035096
0.910565 0.566756 0.045378
0.920639 0.569566 0.056721
0.930078 0.572166 0.067363
0.937501 0.574771 0.079020
0.943729 0.577345 0.091050
0.949757 0.579782 0.102447
0.952620 0.580876 0.113051
0.953191 0.581085 0.123098
0.953758 0.581370 0.132818
0.954301 0.581572 0.142066
0.954352 0.578691 0.147682
0.954416 0.575866 0.153185
0.954513 0.573116 0.158557
0.954642 0.570436 0.163807
0.954942 0.569126 0.170194
0.955239 0.567905 0.176447
0.026075 0.836898 0.138975
0.023516 0.750885 0.125008
0.020066 0.658409 0.109106
0.019129 0.611437 0.101006
0.023464 0.582444 0.096340
0.138561 0.571305 0.077668
0.250202 0.565323 0.061665
0.370791 0.564781 0.044664
0.495793 0.567881 0.028024
0.605156 0.571076 0.012272
0.689048 0.574877 0.004459
0.753882 0.578689 0.001526
0.796297 0.581844 0.001625
0.830264 0.584753 0.004375
0.854814 0.587790 0.011118
0.874690 0.590356 0.020126
0.889699 0.592097 0.030272
0.903250 0.593997 0.040243
0.913921 0.596858 0.050966
0.923896 0.599432 0.061063
0.932449 0.601737 0.072083
0.940033 0.603880 0.083563
0.947342 0.605903 0.094387
0.951370 0.607290 0.105130
0.952581 0.608207 0.115869
0.953765 0.609162 0.126199
0.954915 0.610143 0.136167
0.954893 0.607190 0.141972
0.954946 0.604275 0.147603
0.955070 0.601395 0.153071
0.955260 0.598549 0.158387
0.955597 0.596649 0.164641
0.955927 0.594893 0.170799
0.026966 0.855132 0.142227
0.024578 0.782001 0.129592
0.021468 0.695758 0.115671
0.019964 0.649208 0.108096
0.020949 0.619931 0.103413
0.099479 0.605556 0.089072
0.212345 0.598974 0.072329
0.326839 0.596887 0.056653
0.452243 0.598933 0.038879
0.566073 0.601785 0.022630
0.657850 0.605037 0.011557
0.731074 0.608515 0.004432
0.778523 0.610775 0.002466
0.816658 0.613068 0.003205
0.843135 0.615324 0.008552
0.864943 0.617257 0.016212
0.881214 0.618743 0.026020
0.896041 0.620350 0.035662
0.907248 0.622708 0.045914
0.917883 0.624848 0.055735
0.927090 0.626703 0.066320
0.935074 0.628342 0.077210
0.942729 0.629874 0.087305
0.947762 0.631193 0.097695
0.950062 0.632370 0.108776
0.952173 0.633555 0.119565
0.954205 0.634701 0.130067
0.954440 0.632307 0.136087
0.954631 0.629896 0.141915
0.954859 0.627616 0.147738
0.955121 0.625456 0.153555
0.955535 0.623159 0.159751
0.955920 0.620937 0.165792
0.027510 0.870776 0.145329
0.025314 0.808856 0.134305
0.022625 0.727494 0.120942
0.021183 0.682702 0.113937
0.020395 0.653353 0.109228
0.067475 0.636362 0.099104
0.176044 0.629037 0.082263
0.287061 0.625929 0.067173
0.409395 0.627085 0.049583
0.526420 0.629431 0.033127
0.624984 0.632181 0.020060
0.705954 0.635335 0.009811
0.758901 0.637134 0.005484
0.801966 0.638939 0.003694
0.830818 0.640682 0.006572
0.854825 0.642233 0.011968
0.872493 0.643503 0.021106
0.888788 0.644808 0.030119
0.900777 0.646620 0.040550
0.912133 0.648321 0.050547
0.921945 0.649796 0.060818
0.930284 0.651010 0.071113
0.938282 0.652100 0.080661
0.944264 0.653196 0.090658
0.947775 0.654415 0.101708
0.951054 0.655636 0.112470
0.954285 0.656759 0.122802
0.954755 0.655025 0.129629
0.955006 0.653171 0.136145
0.955298 0.651457 0.142652
0.955629 0.649872 0.149149
0.955979 0.647380 0.155194
0.956272 0.644809 0.160957
0.027681 0.884105 0.148261
0.026106 0.832311 0.138638
0.023519 0.754262 0.125607
0.022459 0.712232 0.118543
0.021112 0.683154 0.114044
0.045385 0.664457 0.107553
0.140861 0.655885 0.091665
0.250692 0.652317 0.076352
0.367483 0.652573 0.059952
0.486088 0.654423 0.043804
0.590457 0.656796 0.029766
0.678256 0.659438 0.017444
0.737586 0.660962 0.010498
0.786302 0.662310 0.005835
0.817842 0.663951 0.005171
0.844336 0.665516 0.007674
0.863569 0.666640 0.015806
0.881547 0.667640 0.023862
0.894418 0.668898 0.034924
0.906443 0.670183 0.045385
0.916784 0.671336 0.055510
0.925471 0.672171 0.065328
0.933840 0.672848 0.074591
0.940763 0.673607 0.084247
0.945662 0.674695 0.094866
0.950307 0.675795 0.105077
0.954865 0.676800 0.114809
0.955623 0.675721 0.122713
0.955890 0.674418 0.130238
0.956237 0.673199 0.137620
0.956656 0.672055 0.144867
0.956859 0.669501 0.150740
0.956946 0.666672 0.156120
0.028271 0.895792 0.150299
0.027183 0.852632 0.141795
0.024220 0.777634 0.129718
0.023329 0.737587 0.122800
0.022012 0.709271 0.118302
0.031756 0.689734 0.114031
0.108771 0.680096 0.100112
0.215052 0.676040 0.085064
0.327458 0.675413 0.069554
0.445598 0.676761 0.053770
0.554176 0.678878 0.039080
0.648072 0.681072 0.025219
0.714102 0.682454 0.016451
0.768677 0.683607 0.009895
0.803938 0.685007 0.006658
0.833828 0.686484 0.006858
0.854451 0.687406 0.012690
0.873944 0.688147 0.018806
0.887661 0.689147 0.029784
0.900430 0.690230 0.040098
0.911393 0.691197 0.049973
0.920385 0.691760 0.059576
0.929064 0.692154 0.068720
0.936642 0.692615 0.078111
0.942418 0.693483 0.088322
0.947932 0.694354 0.098099
0.953362 0.695164 0.107430
0.954840 0.694599 0.116085
0.955538 0.693784 0.124418
0.956285 0.693004 0.132511
0.957079 0.692256 0.140382
0.957345 0.689782 0.146313
0.957382 0.686833 0.151494
0.029269 0.906070 0.151513
0.027866 0.870007 0.144549
0.024858 0.798067 0.132982
0.023924 0.758971 0.126929
0.023161 0.731801 0.122200
0.025800 0.712262 0.118413
0.080604 0.701874 0.107593
0.180165 0.697296 0.093312
0.289077 0.695870 0.078499
0.405034 0.696741 0.063031
0.515967 0.698670 0.047896
0.615849 0.700455 0.032930
0.688264 0.701994 0.023259
0.748738 0.703387 0.015854
0.788990 0.704319 0.011308
0.823209 0.705305 0.008920
0.845021 0.706012 0.011472
0.865679 0.706572 0.015015
0.880432 0.707548 0.025071
0.894098 0.708595 0.034677
0.905847 0.709496 0.044087
0.915089 0.709916 0.053678
0.924004 0.710174 0.062809
0.931975 0.710415 0.071998
0.938118 0.710954 0.081972
0.944099 0.711500 0.091514
0.949969 0.712042 0.100605
0.952443 0.711866 0.109764
0.953940 0.711484 0.118733
0.955395 0.711098 0.127406
0.956811 0.710708 0.135800
0.957350 0.708442 0.141962
0.957496 0.705512 0.147105
0.030086 0.915678 0.152742
0.028456 0.885635 0.147304
0.025554 0.817083 0.135755
0.024460 0.778699 0.130663
0.024281 0.752577 0.125943
0.022727 0.733454 0.122162
0.055827 0.722053 0.114498
0.147358 0.717004 0.101144
0.252992 0.714852 0.086867
0.366351 0.715270 0.071685
0.478583 0.717065 0.056246
0.583854 0.718462 0.040356
0.662487 0.720197 0.029826
0.728723 0.721941 0.021664
0.773907 0.722430 0.015556
0.812485 0.722967 0.010862
0.835603 0.723493 0.010785
0.857456 0.723914 0.012277
0.873321 0.724788 0.020979
0.887849 0.725741 0.029689
0.900421 0.726546 0.038470
0.909938 0.726833 0.047998
0.919108 0.726971 0.057075
0.927428 0.727034 0.066166
0.934001 0.727253 0.075998
0.940418 0.727516 0.085334
0.946691 0.727819 0.094212
0.950053 0.727917 0.103700
0.952295 0.727902 0.113188
0.954420 0.727854 0.122336
0.956439 0.727776 0.131166
0.957280 0.725766 0.137610
0.957525 0.722896 0.142768
0.029957 0.923367 0.154222
0.028663 0.899834 0.150337
0.026324 0.832790 0.138580
0.024676 0.795112 0.133210
0.024871 0.769703 0.128801
0.023545 0.751794 0.125408
0.041039 0.739118 0.120313
0.116673 0.733103 0.108736
0.218422 0.730553 0.094352
0.327745 0.730615 0.079442
0.438543 0.732409 0.064285
0.546707 0.734130 0.048626
0.632061 0.735984 0.036974
0.705230 0.737865 0.027317
0.754872 0.738464 0.020783
0.798160 0.739035 0.015315
0.823915 0.739512 0.013788
0.848245 0.739943 0.013259
0.865334 0.740380 0.018745
0.880642 0.740863 0.025148
0.894082 0.741321 0.032442
0.904116 0.741540 0.041568
0.913731 0.741663 0.050328
0.922572 0.741683 0.059373
0.929616 0.741672 0.069228
0.936414 0.741688 0.078547
0.942987 0.741730 0.087374
0.947170 0.741851 0.096813
0.950246 0.741994 0.106382
0.953208 0.742131 0.115641
0.956063 0.742263 0.124609
0.957306 0.740653 0.131508
0.957575 0.738043 0.137057
0.029729 0.930530 0.155617
0.028974 0.913220 0.152629
0.026904 0.847556 0.141310
0.024791 0.810670 0.135648
0.025364 0.785921 0.131367
0.024357 0.769053 0.128394
0.029634 0.755476 0.125356
0.087745 0.748253 0.115929
0.185473 0.745412 0.101473
0.290982 0.745196 0.086827
0.400031 0.746952 0.071965
0.511016 0.748985 0.056641
0.602442 0.750932 0.043910
0.682331 0.752896 0.032750
0.736230 0.753576 0.025767
0.784213 0.754185 0.019505
0.812493 0.754643 0.016303
0.839195 0.755111 0.013587
0.857607 0.755171 0.016291
0.873667 0.755199 0.020771
0.887959 0.755296 0.026761
0.898466 0.755473 0.035538
0.908546 0.755586 0.044151
0.917944 0.755602 0.053069
0.925403 0.755360 0.062922
0.932535 0.755131 0.072206
0.939367 0.754914 0.080963
0.944288 0.755030 0.090347
0.948174 0.755338 0.100007
0.951945 0.755665 0.109384
0.955610 0.756010 0.118497
0.957324 0.754775 0.125813
0.957628 0.752398 0.131725
0.029427 0.936212 0.156655
0.029016 0.924994 0.154758
0.027284 0.860670 0.143590
0.025308 0.824748 0.137969
0.025723 0.800691 0.133530
0.024928 0.784280 0.130871
0.024302 0.770476 0.128918
0.063483 0.761981 0.122041
0.153270 0.758739 0.108270
0.255721 0.758369 0.093814
0.362080 0.759965 0.079303
0.474491 0.762260 0.064333
0.571148 0.764292 0.050713
0.657357 0.766214 0.038312
0.715869 0.767092 0.030765
0.768985 0.767843 0.023766
0.800108 0.768297 0.019324
0.829478 0.768770 0.015081
0.849588 0.768639 0.015643
0.866640 0.768418 0.018365
0.882007 0.768305 0.022695
0.893007 0.768396 0.030476
0.903663 0.768421 0.038564
0.913562 0.768394 0.046844
0.921235 0.767990 0.056534
0.928558 0.767597 0.065679
0.935559 0.767213 0.074321
0.941100 0.767261 0.083634
0.945703 0.767612 0.093350
0.950172 0.767990 0.102768
0.954516 0.768392 0.111907
0.956780 0.767473 0.119579
0.957252 0.765384 0.125901
0.029175 0.939947 0.157187
0.029644 0.934800 0.156783
0.027590 0.871713 0.145310
0.026071 0.837239 0.140097
0.025976 0.813805 0.135384
0.025110 0.797112 0.132746
0.024665 0.783611 0.131011
0.047016 0.774241 0.126463
0.121311 0.770215 0.114758
0.221952 0.769772 0.100379
0.324451 0.771047 0.086343
0.436080 0.773572 0.071578
0.536701 0.775615 0.057410
0.628478 0.777475 0.044249
0.692651 0.778742 0.035971
0.751581 0.779791 0.028330
0.786085 0.780213 0.023588
0.818623 0.780602 0.019041
0.840972 0.780504 0.018009
0.859406 0.780362 0.018692
0.876240 0.780324 0.020510
0.887843 0.780212 0.026675
0.898979 0.780052 0.033431
0.909412 0.779863 0.040439
0.917074 0.779412 0.049790
0.924443 0.778984 0.058703
0.931542 0.778576 0.067213
0.937575 0.778507 0.076432
0.942760 0.778708 0.086117
0.947762 0.778922 0.095430
0.952595 0.779149 0.104395
0.955438 0.778439 0.112302
0.956256 0.776747 0.119125
0.028995 0.943483 0.157691
0.029467 0.942534 0.157672
0.028076 0.882198 0.147247
0.026553 0.849082 0.142090
0.026234 0.826371 0.137259
0.025284 0.809401 0.134529
0.024975 0.796061 0.133068
0.033889 0.786104 0.130314
0.090689 0.781151 0.120930
0.189851 0.780615 0.106639
0.288445 0.781543 0.093134
0.399437 0.784333 0.078422
0.503107 0.786398 0.063918
0.599613 0.788232 0.050123
0.669791 0.789831 0.041069
0.733970 0.791144 0.032879
0.772272 0.791528 0.027768
0.807863 0.791818 0.022913
0.832548 0.791756 0.020287
0.852341 0.791717 0.018806
0.870689 0.791803 0.018012
0.882782 0.791492 0.023123
0.894377 0.791152 0.028579
0.905407 0.790785 0.034358
0.913087 0.790295 0.043427
0.920527 0.789837 0.052159
0.927745 0.789410 0.060581
0.934216 0.789237 0.069695
0.939943 0.789286 0.079311
0.945443 0.789336 0.088488
0.950732 0.789387 0.097254
0.954133 0.788831 0.105302
0.955274 0.787561 0.112703
0.028918 0.946107 0.158066
0.028906 0.946113 0.158066
0.028548 0.892278 0.149146
0.026857 0.859961 0.143924
0.026550 0.838002 0.139149
0.025502 0.820942 0.136274
0.025275 0.807703 0.135002
0.025862 0.797546 0.133291
0.064076 0.791577 0.126385
0.158081 0.790622 0.112796
0.254084 0.791200 0.099681
0.363890 0.794083 0.085077
0.469177 0.796243 0.070438
0.569372 0.798183 0.056152
0.645443 0.800005 0.046285
0.714468 0.801510 0.037515
0.757320 0.801948 0.031855
0.796147 0.802218 0.026596
0.823436 0.802199 0.022689
0.844683 0.802230 0.019474
0.864628 0.802406 0.017070
0.877257 0.801972 0.020849
0.889416 0.801502 0.024979
0.901150 0.800998 0.029426
0.909034 0.800484 0.037938
0.916678 0.800009 0.046283
0.924125 0.799568 0.054448
0.930968 0.799315 0.063354
0.937085 0.799242 0.072869
0.942941 0.799165 0.081910
0.948554 0.799084 0.090510
0.952465 0.798656 0.098715
0.953995 0.797740 0.106690
0.028968 0.946082 0.158066
0.028905 0.946114 0.158066
0.028947 0.901231 0.150515
0.027368 0.869149 0.145495
0.027065 0.847641 0.140847
0.025886 0.831184 0.138075
0.025749 0.818196 0.136525
0.025924 0.808409 0.134774
0.049364 0.801591 0.129984
0.123424 0.799121 0.119376
0.221697 0.799457 0.105828
0.328415 0.801903 0.091728
0.432433 0.804147 0.077360
0.533568 0.806461 0.063010
0.615461 0.808372 0.052109
0.689817 0.810008 0.042350
0.738164 0.810768 0.035781
0.781081 0.811338 0.029834
0.811672 0.811401 0.025594
0.834716 0.811313 0.022411
0.856640 0.811374 0.020136
0.870219 0.810990 0.022132
0.883221 0.810570 0.024547
0.895759 0.810120 0.027312
0.904416 0.809619 0.034254
0.912616 0.809144 0.041507
0.920571 0.808694 0.048851
0.927727 0.808407 0.057252
0.933848 0.808319 0.066675
0.939702 0.808239 0.075682
0.945308 0.808168 0.084302
0.949615 0.807835 0.092763
0.951823 0.806985 0.101116
0.028962 0.946085 0.158066
0.028899 0.946117 0.158066
0.029434 0.909527 0.151485
0.027926 0.877956 0.147110
0.027551 0.856802 0.142423
0.026256 0.841056 0.139779
0.026278 0.828267 0.137933
0.025970 0.818832 0.136155
0.037628 0.811398 0.133112
0.089824 0.807331 0.125785
0.191189 0.807513 0.111683
0.294293 0.809425 0.098100
0.396736 0.811643 0.084039
0.498804 0.814290 0.069637
0.585933 0.816349 0.057801
0.665464 0.818156 0.047067
0.719228 0.819234 0.039607
0.766112 0.820104 0.033003
0.800094 0.820270 0.028406
0.824933 0.820079 0.025398
0.848600 0.819987 0.022868
0.863415 0.819658 0.023074
0.877232 0.819288 0.023832
0.890546 0.818892 0.024974
0.899956 0.818403 0.030501
0.908681 0.817923 0.036823
0.917115 0.817461 0.043486
0.924607 0.817141 0.051438
0.930728 0.817044 0.060797
0.936578 0.816968 0.069794
0.942166 0.816905 0.078467
0.946826 0.816594 0.087048
0.949688 0.815810 0.095748
0.028906 0.946113 0.158066
0.028899 0.946117 0.158066
0.029848 0.917252 0.152456
0.028512 0.886427 0.148746
0.028007 0.865535 0.143911
0.026612 0.850585 0.141419
0.026862 0.837946 0.139234
0.025999 0.828848 0.137435
0.028696 0.821015 0.135787
0.057397 0.815315 0.131924
0.161399 0.815282 0.117386
0.261426 0.816676 0.104215
0.362001 0.818765 0.090492
0.464995 0.821708 0.076051
0.556810 0.823959 0.063378
0.641371 0.825974 0.051677
0.700482 0.827371 0.043338
0.751221 0.828542 0.036110
0.788683 0.828834 0.031129
