output/AP0_display/AP0_to_CLASSIC-CHROME_33grid.cube
TITLE "AP0_to_CLASSIC-CHROME"
# Input: Linear ACES2065-1 / AP0 (D60)
# Output: BT.709 / Gamma 2.2 (display-referred)
# Use: Display/output transform in ACES pipeline (replaces ODT)
# Source: FLog2C_to_CLASSIC-CHROME_65grid_V.1.00.cube
# Generated from Fujifilm GFX ETERNA 55 F-Log2C LUT
LUT_3D_SIZE 33
0.000178 0.000085 0.000052
0.306248 0.009158 0.017549
0.619792 0.031442 0.062935
0.801792 0.070748 0.124110
0.902746 0.116943 0.199655
0.960999 0.169227 0.277867
0.964732 0.216389 0.342633
0.963253 0.253357 0.377971
0.960953 0.284034 0.394546
0.959937 0.313364 0.410979
0.959447 0.340598 0.426983
0.959093 0.359413 0.438817
0.958855 0.373014 0.447811
0.958816 0.374266 0.448587
0.958778 0.374441 0.448597
0.958776 0.374451 0.448598
0.958776 0.374451 0.448598
0.958776 0.374451 0.448598
0.958776 0.374451 0.448598
0.958776 0.374451 0.448598
0.958776 0.374451 0.448598
0.958776 0.374451 0.448598
0.958776 0.374451 0.448598
0.958776 0.374451 0.448598
0.958776 0.374451 0.448598
0.958776 0.374451 0.448598
0.958776 0.374451 0.448598
0.958776 0.374451 0.448598
0.958776 0.374451 0.448598
0.958776 0.374451 0.448598
0.958776 0.374451 0.448598
0.958776 0.374451 0.448598
0.958776 0.374451 0.448598
0.000020 0.113476 0.000001
0.106573 0.065657 0.000293
0.328393 0.067403 0.003424
0.521614 0.077508 0.021428
0.668236 0.093756 0.052520
0.767843 0.113923 0.092455
0.839016 0.136737 0.135352
0.892745 0.161472 0.178331
0.934038 0.187365 0.223964
0.963344 0.212564 0.270779
0.964364 0.237108 0.311846
0.963863 0.256451 0.342306
0.962429 0.272022 0.364879
0.961692 0.285871 0.377483
0.960817 0.298593 0.387897
0.960456 0.312334 0.398997
0.960262 0.325256 0.409650
0.959766 0.338909 0.419838
0.959196 0.352624 0.429394
0.958786 0.365449 0.438249
0.959135 0.368709 0.441347
0.959417 0.372060 0.444569
0.959533 0.375481 0.447861
0.959228 0.375307 0.448146
0.958993 0.374991 0.448327
0.958834 0.374650 0.448503
0.958776 0.374451 0.448598
0.958776 0.374451 0.448598
0.958776 0.374451 0.448598
0.958776 0.374451 0.448598
0.958776 0.374451 0.448598
0.958776 0.374451 0.448598
0.958776 0.374451 0.448598
0.000472 0.268374 0.000097
0.039509 0.156176 0.000541
0.233118 0.145354 0.000224
0.410978 0.148880 0.000196
0.558675 0.162533 0.007288
0.669772 0.179395 0.027318
0.749267 0.198824 0.055661
0.809609 0.218855 0.087897
0.858344 0.239049 0.121440
0.898851 0.259294 0.156515
0.931922 0.279631 0.193848
0.950634 0.299138 0.230372
0.958176 0.317974 0.265947
0.959578 0.332691 0.296192
0.959573 0.345797 0.323861
0.959297 0.352497 0.338021
0.959054 0.357962 0.349431
0.958931 0.364055 0.359444
0.958850 0.370419 0.368716
0.958755 0.376456 0.377819
0.958517 0.384788 0.387082
0.958318 0.392698 0.395706
0.958083 0.400161 0.403822
0.958156 0.406095 0.410841
0.958268 0.411774 0.417512
0.958394 0.417309 0.423924
0.958423 0.420317 0.428049
0.958311 0.419760 0.429013
0.958226 0.419265 0.429929
0.958164 0.418829 0.430802
0.958093 0.418225 0.431515
0.957950 0.417195 0.432044
0.957824 0.416192 0.432605
0.000162 0.407928 0.000118
0.001156 0.256859 0.000213
0.170053 0.226483 0.000094
0.346073 0.224501 0.000042
0.488334 0.231657 0.001400
0.604221 0.243783 0.006125
0.687860 0.261329 0.017708
0.754418 0.276627 0.037119
0.805618 0.292856 0.062065
0.847699 0.307327 0.090066
0.882285 0.323980 0.120336
0.912935 0.339685 0.150200
0.940311 0.355025 0.179947
0.950942 0.369861 0.211543
0.957185 0.383785 0.241695
0.958530 0.395425 0.269006
0.958757 0.406197 0.294563
0.958711 0.412011 0.311640
0.958490 0.413836 0.322181
0.958300 0.415404 0.332193
0.958528 0.418341 0.341176
0.958774 0.421248 0.349712
0.958971 0.424151 0.357891
0.958564 0.429660 0.366911
0.958133 0.435124 0.375691
0.957757 0.440190 0.384100
0.957573 0.444559 0.391553
0.957706 0.448113 0.397641
0.957903 0.451511 0.403518
0.958158 0.454763 0.409199
0.958386 0.456712 0.413516
0.958257 0.455904 0.414822
0.958112 0.455163 0.416104
0.003494 0.518138 0.000277
0.000366 0.353830 0.000877
0.114616 0.309234 0.000261
0.292453 0.298213 0.000230
0.436247 0.299757 0.002051
0.554737 0.307562 0.006157
0.642987 0.316943 0.012398
0.711761 0.328494 0.019494
0.766372 0.341753 0.032525
0.810013 0.354411 0.050969
0.846743 0.368303 0.074024
0.878573 0.381833 0.097225
0.905844 0.394736 0.121866
0.929042 0.407254 0.150129
0.949917 0.419187 0.176973
0.955575 0.430207 0.203749
0.957158 0.440435 0.228970
0.957961 0.448130 0.250722
0.957991 0.453799 0.270019
0.958093 0.459413 0.288562
0.958081 0.460587 0.299923
0.957975 0.460931 0.309992
0.957852 0.461290 0.319291
0.957839 0.463295 0.327976
0.957819 0.465436 0.336354
0.957766 0.467392 0.344463
0.957667 0.469752 0.352421
0.957560 0.473284 0.360272
0.957505 0.476756 0.367765
0.957498 0.480174 0.374927
0.957530 0.483102 0.381511
0.957576 0.484586 0.386819
0.957647 0.486083 0.391846
0.009934 0.603340 0.000766
0.000126 0.440460 0.000463
0.069252 0.383984 0.000467
0.245689 0.364462 0.000172
0.394954 0.360370 0.003312
0.513666 0.362516 0.008120
0.606351 0.369496 0.012263
0.676820 0.376878 0.017589
0.734035 0.385818 0.022216
0.780783 0.396038 0.030087
0.818558 0.408151 0.046200
0.851439 0.420051 0.064754
0.880422 0.430853 0.085824
0.905542 0.441355 0.109516
0.928139 0.451215 0.132703
0.941182 0.461047 0.157403
0.950688 0.470479 0.180799
0.956061 0.479480 0.203113
0.957020 0.488179 0.224966
0.958049 0.496442 0.245055
0.957959 0.497707 0.258757
0.957724 0.497817 0.271123
0.957633 0.498145 0.282653
0.957753 0.498635 0.292970
0.957806 0.499095 0.302239
0.957753 0.499515 0.310631
0.957674 0.500321 0.318497
0.957787 0.502207 0.326638
0.957949 0.503999 0.334461
0.958157 0.505703 0.341988
0.958206 0.507358 0.349676
0.957877 0.509228 0.356634
0.957621 0.510993 0.363132
0.013287 0.667602 0.003888
0.003339 0.515822 0.000139
0.032295 0.450921 0.000515
0.201829 0.424239 0.000128
0.354432 0.414569 0.003923
0.476446 0.413890 0.009980
0.571950 0.417149 0.015204
0.647685 0.423019 0.018012
0.707482 0.428457 0.023907
0.756346 0.436293 0.026797
0.795545 0.445644 0.034992
0.828866 0.455263 0.046751
0.857483 0.464874 0.062673
0.883110 0.474208 0.082808
0.906555 0.482987 0.103800
0.926264 0.491947 0.124982
0.943813 0.500796 0.145638
0.954087 0.508810 0.166806
0.955406 0.515689 0.188800
0.956865 0.521965 0.209255
0.957168 0.526198 0.225934
0.957215 0.529804 0.241432
0.957306 0.533273 0.256597
0.957343 0.533137 0.267727
0.957350 0.531952 0.276844
0.957353 0.530922 0.285205
0.957303 0.530419 0.293161
0.957033 0.531309 0.301488
0.956685 0.532209 0.309238
0.956312 0.533031 0.316942
0.956039 0.533794 0.324900
0.955935 0.535001 0.332809
0.955801 0.536239 0.340307
0.018569 0.717089 0.006656
0.007169 0.582063 0.000234
0.009861 0.510334 0.000395
0.158771 0.479194 0.000527
0.317813 0.465673 0.005250
0.442824 0.460971 0.011499
0.542190 0.460757 0.016568
0.622203 0.464597 0.021869
0.683610 0.467408 0.026354
0.733163 0.474726 0.029769
0.774384 0.481532 0.033648
0.809410 0.488796 0.039136
0.838631 0.496660 0.048044
0.864690 0.504562 0.062151
0.888388 0.512198 0.079291
0.909842 0.519756 0.098208
0.929246 0.527324 0.117088
0.942766 0.534556 0.136265
0.948414 0.541223 0.157033
0.954138 0.547361 0.176762
0.955521 0.553027 0.196943
0.955383 0.558400 0.217016
0.955217 0.563538 0.236543
0.955297 0.563724 0.248810
0.955455 0.562067 0.257813
0.955580 0.560619 0.266453
0.955676 0.559550 0.274807
0.955773 0.559430 0.282953
0.955882 0.559353 0.290620
0.955915 0.559195 0.298321
0.955869 0.559087 0.305916
0.955489 0.559656 0.313857
0.955157 0.560234 0.321466
0.021994 0.756172 0.011103
0.011672 0.637912 0.000903
0.006170 0.563241 0.000034
0.117699 0.528262 0.000844
0.282005 0.511551 0.006317
0.411191 0.503637 0.012078
0.513961 0.500687 0.019111
0.596550 0.503015 0.024087
0.659867 0.505467 0.027693
0.712165 0.509591 0.033496
0.755335 0.514784 0.036835
0.792012 0.520842 0.038878
0.823128 0.527489 0.040890
0.849866 0.533794 0.048989
0.872963 0.539820 0.061731
0.894081 0.546125 0.077950
0.913735 0.552439 0.095732
0.929897 0.558450 0.114022
0.940446 0.564512 0.134017
0.950652 0.570276 0.152942
0.953842 0.575803 0.172121
0.954029 0.581024 0.191004
0.954161 0.585920 0.209105
0.954216 0.587284 0.223068
0.954212 0.587055 0.235002
0.954167 0.586975 0.246786
0.954122 0.586841 0.258001
0.954333 0.585555 0.266220
0.954536 0.584391 0.274074
0.954680 0.583384 0.281733
0.954772 0.582541 0.289348
0.954373 0.582894 0.297913
0.954013 0.583132 0.306097
0.026675 0.786243 0.015866
0.015565 0.683380 0.004400
0.009133 0.607862 0.000242
0.080754 0.572238 0.000393
0.244356 0.552856 0.008636
0.379851 0.543308 0.014290
0.485764 0.539041 0.019106
0.573536 0.537483 0.025045
0.640743 0.538917 0.028728
0.694379 0.541431 0.035374
0.738694 0.545395 0.038617
0.776201 0.550079 0.040572
0.806767 0.555809 0.042822
0.833803 0.561095 0.046961
0.857854 0.566165 0.053158
0.879719 0.571228 0.062683
0.899642 0.576169 0.074704
0.917250 0.581069 0.089422
0.931589 0.586507 0.110828
0.945340 0.591513 0.130939
0.950498 0.596356 0.150201
0.951448 0.601073 0.168821
0.952480 0.605570 0.186679
0.953093 0.608192 0.201952
0.953395 0.609678 0.215573
0.953683 0.611111 0.228806
0.953943 0.612183 0.241283
0.953996 0.610207 0.249467
0.953807 0.608503 0.257709
0.953619 0.606872 0.265720
0.953434 0.605322 0.273523
0.953389 0.605026 0.281897
0.953349 0.604736 0.289958
0.029215 0.812817 0.017342
0.019358 0.722846 0.008001
0.012327 0.646903 0.002689
0.045413 0.610675 0.001205
0.206942 0.589927 0.008866
0.348484 0.578591 0.014822
0.460022 0.572652 0.020675
0.549760 0.569624 0.025779
0.621107 0.569363 0.032524
0.676477 0.571111 0.037104
0.722356 0.574085 0.040108
0.761405 0.577520 0.042507
0.792683 0.581724 0.045372
0.820477 0.585876 0.048595
0.845174 0.590130 0.052456
0.867270 0.594300 0.057969
0.886979 0.598307 0.065037
0.904943 0.602313 0.074836
0.920578 0.607059 0.093083
0.935365 0.611464 0.110532
0.943185 0.615769 0.128815
0.946931 0.619963 0.147155
0.950674 0.623944 0.164591
0.952367 0.627273 0.180961
0.952500 0.630155 0.196539
0.952616 0.632965 0.211592
0.952717 0.635472 0.225884
0.952775 0.633108 0.234289
0.952767 0.630877 0.242591
0.952739 0.628809 0.250686
0.952692 0.626892 0.258587
0.952693 0.626167 0.266712
0.952715 0.625533 0.274615
0.031346 0.835993 0.018588
0.022108 0.757282 0.010847
0.015387 0.681564 0.005345
0.022469 0.645090 0.002610
0.170737 0.623296 0.008445
0.317404 0.610412 0.015299
0.434740 0.602914 0.022164
0.526328 0.598882 0.026612
0.601719 0.597436 0.035546
0.659364 0.598367 0.038724
0.706872 0.600384 0.041427
0.747453 0.602635 0.044376
0.779754 0.605440 0.047906
0.808350 0.608566 0.051148
0.833418 0.612125 0.054123
0.855671 0.615570 0.057349
0.875203 0.618867 0.060925
0.893245 0.622154 0.066817
0.909292 0.626113 0.080561
0.924434 0.629873 0.094257
0.934770 0.633659 0.110450
0.941773 0.637407 0.127793
0.948629 0.640972 0.144227
0.951807 0.644558 0.160866
0.951739 0.648203 0.177769
0.951658 0.651758 0.194083
0.951567 0.655188 0.209855
0.951757 0.652776 0.218757
0.951926 0.650586 0.227471
0.952075 0.648602 0.236010
0.952206 0.646810 0.244383
0.952230 0.645744 0.252401
0.952274 0.644803 0.260179
0.033820 0.854640 0.021460
0.025272 0.784906 0.013990
0.018115 0.711641 0.007174
0.017411 0.675197 0.003874
0.134630 0.652743 0.008547
0.285231 0.639423 0.015991
0.407448 0.630351 0.023879
0.502276 0.625123 0.027998
0.582196 0.623497 0.036039
0.642870 0.623469 0.039315
0.692005 0.624176 0.042401
0.733663 0.625112 0.046126
0.767034 0.627021 0.050065
0.796339 0.629448 0.053676
0.821466 0.632497 0.056883
0.843945 0.635419 0.060100
0.863632 0.638285 0.063466
0.881840 0.640981 0.067554
0.898110 0.643851 0.075911
0.913524 0.646532 0.084566
0.926179 0.649640 0.096755
0.936597 0.653214 0.111568
0.946714 0.656738 0.125889
0.951824 0.660071 0.141366
0.951766 0.663084 0.158040
0.951720 0.665903 0.174181
0.951578 0.668529 0.189933
0.951585 0.667643 0.200529
0.951669 0.666683 0.210693
0.951817 0.665799 0.220648
0.952024 0.664983 0.230410
0.952123 0.663696 0.238596
0.952210 0.662417 0.246237
0.036125 0.871410 0.023405
0.027961 0.809698 0.016173
0.020474 0.737947 0.009198
0.016968 0.701795 0.005610
0.100720 0.678813 0.009032
0.252667 0.664874 0.016345
0.380450 0.655208 0.024719
0.479718 0.649108 0.029533
0.562451 0.647017 0.036697
0.626358 0.645932 0.040362
0.677663 0.645626 0.043673
0.720643 0.645868 0.047620
0.754976 0.647195 0.051781
0.785188 0.648868 0.055739
0.810811 0.651067 0.059589
0.833728 0.653260 0.063126
0.853401 0.655577 0.066283
0.871676 0.657735 0.069398
0.888184 0.660044 0.074464
0.903888 0.662159 0.079824
0.917909 0.664752 0.088386
0.930338 0.667987 0.100123
0.942312 0.671191 0.111755
0.949217 0.674152 0.125379
0.950016 0.676680 0.141388
0.950800 0.679017 0.157047
0.951406 0.681265 0.172255
0.951344 0.681460 0.184021
0.951311 0.681475 0.195229
0.951365 0.681503 0.206176
0.951501 0.681544 0.216880
0.951645 0.680228 0.225126
0.951796 0.678725 0.232643
0.038318 0.886751 0.024463
0.030100 0.832212 0.017908
0.022537 0.761229 0.011587
0.019351 0.725309 0.007858
0.070803 0.702136 0.009787
0.219888 0.687272 0.016341
0.353587 0.677550 0.024779
0.458294 0.671210 0.031061
0.542650 0.668268 0.037449
0.609753 0.666089 0.041719
0.663700 0.665056 0.045313
0.708152 0.665295 0.049024
0.743478 0.666168 0.053148
0.774729 0.667022 0.057305
0.801220 0.668113 0.062182
0.824774 0.669406 0.066385
0.844317 0.671131 0.069522
0.862575 0.672785 0.072477
0.879342 0.674989 0.075859
0.895358 0.676981 0.079242
0.910052 0.679219 0.084619
0.923256 0.681896 0.092790
0.935859 0.684474 0.101228
0.944187 0.686905 0.112409
0.946571 0.689142 0.127450
0.948855 0.691286 0.142192
0.951081 0.693375 0.156365
0.951130 0.694343 0.168805
0.950917 0.695153 0.180701
0.950768 0.695972 0.192269
0.950678 0.696797 0.203530
0.950832 0.695613 0.211849
0.951089 0.693977 0.219383
0.040057 0.901104 0.025765
0.032999 0.852546 0.020644
0.024681 0.781902 0.013931
0.021425 0.746480 0.010102
0.047924 0.723647 0.010189
0.186659 0.708088 0.015980
0.325212 0.698022 0.024797
0.434976 0.691271 0.031676
0.522615 0.687429 0.038181
0.592851 0.684699 0.042650
0.649425 0.683047 0.046466
0.695486 0.682742 0.050315
0.731748 0.683100 0.054568
0.763843 0.683363 0.058913
0.791314 0.683670 0.064376
0.815694 0.684321 0.069061
0.835512 0.685575 0.072368
0.854097 0.686767 0.075464
0.871025 0.688849 0.077991
0.887136 0.690737 0.080331
0.902115 0.692716 0.083843
0.915793 0.694947 0.089630
0.928856 0.697027 0.095731
0.938507 0.699017 0.104236
0.942562 0.701019 0.116855
0.946483 0.702994 0.129247
0.950379 0.704897 0.141349
0.950862 0.706308 0.153912
0.950658 0.707628 0.166266
0.950492 0.708951 0.178270
0.950359 0.710276 0.189948
0.950502 0.709326 0.198578
0.950777 0.707670 0.206240
0.041322 0.914417 0.027422
0.035592 0.871697 0.022935
0.027143 0.799994 0.015774
0.023115 0.765529 0.012351
0.032956 0.743158 0.010507
0.153037 0.727483 0.015533
0.294907 0.716829 0.024673
0.409939 0.709478 0.031712
0.502034 0.704754 0.038778
0.575586 0.701912 0.043271
0.634803 0.699764 0.047168
0.682804 0.698185 0.051441
0.719826 0.698041 0.056087
0.752464 0.698005 0.060736
0.781042 0.697865 0.066297
0.806439 0.698077 0.071149
0.826933 0.698954 0.074801
0.846217 0.699745 0.078226
0.863149 0.701681 0.080841
0.879056 0.703514 0.083158
0.893929 0.705349 0.086024
0.907880 0.707255 0.090365
0.921323 0.708977 0.094759
0.932226 0.710621 0.100441
0.938020 0.712457 0.109254
0.943697 0.714232 0.118217
0.949299 0.715919 0.127268
0.950510 0.717486 0.139358
0.950502 0.719034 0.151976
0.950498 0.720584 0.164266
0.950499 0.722135 0.176249
0.950619 0.721463 0.185289
0.950805 0.719891 0.193079
0.042492 0.926804 0.029042
0.038408 0.889750 0.024881
0.029523 0.817087 0.017388
0.024712 0.783258 0.014407
0.023698 0.761018 0.011279
0.120707 0.745533 0.015217
0.264950 0.734258 0.024381
0.385498 0.726453 0.031763
0.481705 0.721010 0.039062
0.558575 0.717927 0.043787
0.620512 0.715357 0.047924
0.670460 0.712675 0.052550
0.708424 0.712045 0.057602
0.741565 0.711790 0.062583
0.771187 0.711300 0.068193
0.797505 0.711094 0.073138
0.818687 0.711606 0.077045
0.838650 0.712035 0.080707
0.855625 0.713788 0.083416
0.871338 0.715556 0.085723
0.886092 0.717263 0.088093
0.900318 0.718858 0.091134
0.914110 0.720253 0.094032
0.926038 0.721625 0.097487
0.933527 0.723314 0.103138
0.940873 0.724897 0.109193
0.948087 0.726383 0.115620
0.950117 0.728014 0.126710
0.950303 0.729715 0.139137
0.950477 0.731413 0.151289
0.950640 0.733108 0.163183
0.950752 0.732714 0.172501
0.950833 0.731265 0.180428
0.043851 0.937937 0.030790
0.040486 0.906767 0.026758
0.031079 0.833068 0.019258
0.026608 0.798200 0.015743
0.025199 0.775735 0.013311
0.088240 0.760166 0.015293
0.232798 0.749130 0.023435
0.358597 0.741423 0.031317
0.458780 0.735464 0.038459
0.539100 0.731628 0.044058
0.604346 0.728862 0.049084
0.656840 0.726249 0.053901
0.696718 0.725253 0.059489
0.731206 0.724791 0.064931
0.761181 0.724154 0.070529
0.788176 0.723716 0.075484
0.810130 0.723926 0.079102
0.830767 0.724095 0.082494
0.848140 0.725482 0.085479
0.864174 0.726956 0.088157
0.879188 0.728400 0.090821
0.893335 0.729850 0.094042
0.906974 0.731176 0.097180
0.919309 0.732497 0.100471
0.928522 0.734034 0.104889
0.937450 0.735486 0.109501
0.946116 0.736859 0.114290
0.949082 0.738240 0.122147
0.949625 0.739630 0.131355
0.950221 0.741002 0.140597
0.950865 0.742358 0.149870
0.951099 0.742240 0.158673
0.951008 0.741263 0.167112
0.045134 0.948482 0.032445
0.042640 0.923540 0.028957
0.032590 0.848338 0.020914
0.028449 0.812237 0.017235
0.026532 0.789976 0.015172
0.057470 0.774054 0.015564
0.201754 0.763269 0.022449
0.332371 0.755635 0.030805
0.436575 0.749197 0.038013
0.520133 0.744628 0.044265
0.588573 0.741718 0.050090
0.643592 0.739121 0.055141
0.685457 0.737818 0.061197
0.721247 0.737120 0.067107
0.751593 0.736323 0.072710
0.779268 0.735671 0.077722
0.801939 0.735606 0.081067
0.823200 0.735538 0.084202
0.841015 0.736581 0.087435
0.857387 0.737775 0.090501
0.872696 0.738969 0.093502
0.886734 0.740313 0.096923
0.900187 0.741576 0.100245
0.912766 0.742754 0.103246
0.923588 0.744155 0.106381
0.933992 0.745489 0.109516
0.944011 0.746763 0.112653
0.947992 0.747917 0.117625
0.948915 0.749000 0.123881
0.949947 0.750053 0.130460
0.951083 0.751078 0.137338
0.951489 0.751174 0.145488
0.951210 0.750670 0.154462
0.046140 0.956404 0.033477
0.045041 0.939066 0.031357
0.034305 0.862360 0.022395
0.030060 0.825624 0.018364
0.027649 0.803655 0.016505
0.037359 0.787270 0.015987
0.170696 0.776468 0.021488
0.305284 0.768633 0.030131
0.413800 0.761962 0.037591
0.500682 0.756953 0.044214
0.572226 0.753875 0.050626
0.629761 0.751140 0.056453
0.673876 0.749580 0.062838
0.711344 0.748535 0.069087
0.742306 0.747604 0.074526
0.770783 0.746786 0.079481
0.794000 0.746546 0.082868
0.815777 0.746307 0.086064
0.834101 0.747012 0.089488
0.850847 0.747933 0.092815
0.866517 0.748884 0.096036
0.880575 0.750076 0.099564
0.893968 0.751159 0.102790
0.906685 0.752174 0.105629
0.918437 0.753439 0.107949
0.929693 0.754639 0.110169
0.940494 0.755777 0.112300
0.945610 0.756772 0.115420
0.947278 0.757671 0.119583
0.949060 0.758537 0.124155
0.950947 0.759372 0.129107
0.951714 0.759631 0.136045
0.951320 0.759474 0.144635
0.046771 0.960530 0.033614
0.046820 0.953704 0.032680
0.036436 0.874638 0.023716
0.031485 0.838128 0.019414
0.028804 0.816547 0.017257
0.033845 0.799868 0.016465
0.139126 0.788602 0.020610
0.276433 0.780222 0.029284
0.389644 0.773608 0.037024
0.480210 0.768692 0.043801
0.554776 0.765347 0.050487
0.614785 0.762311 0.057833
0.661632 0.760387 0.064541
0.701199 0.758953 0.070879
0.733165 0.757923 0.075891
0.762628 0.756996 0.080512
0.786213 0.756694 0.084426
0.808408 0.756346 0.088163
0.827292 0.756730 0.091744
0.844440 0.757398 0.095110
0.860513 0.758130 0.098322
0.874799 0.759054 0.101724
0.888362 0.759922 0.104806
0.901224 0.760770 0.107582
0.912999 0.761879 0.109867
0.924281 0.762896 0.112069
0.935112 0.763827 0.114195
0.941360 0.764724 0.116691
0.944262 0.765621 0.119707
0.947203 0.766496 0.122946
0.950181 0.767350 0.126393
0.951587 0.767753 0.131479
0.951211 0.767741 0.138453
0.047391 0.964384 0.033777
0.047382 0.963450 0.033569
0.038415 0.886425 0.024962
0.032906 0.849995 0.020611
0.030128 0.828783 0.018053
0.031133 0.811890 0.016978
0.108672 0.800176 0.019749
0.248124 0.791328 0.028439
0.365962 0.784714 0.036423
0.460198 0.779965 0.043388
0.537657 0.776393 0.050194
0.600119 0.773057 0.058915
0.649699 0.770713 0.066088
0.691103 0.768921 0.072520
0.724214 0.767773 0.077184
0.754567 0.766750 0.081417
0.778657 0.766350 0.085852
0.801295 0.765874 0.090134
0.820730 0.765978 0.093907
0.838260 0.766427 0.097300
0.854728 0.766974 0.100500
0.869210 0.767664 0.103768
0.882926 0.768356 0.106754
0.895923 0.769063 0.109472
0.907725 0.770005 0.111731
0.919038 0.770830 0.113921
0.929901 0.771547 0.116048
0.937133 0.772327 0.117971
0.941206 0.773227 0.119787
0.945248 0.774115 0.121657
0.949261 0.774992 0.123575
0.951380 0.775514 0.126871
0.951090 0.775633 0.132516
0.047866 0.967222 0.033919
0.047866 0.967222 0.033919
0.039860 0.898206 0.026026
0.034366 0.861169 0.021942
0.031570 0.839993 0.018971
0.029719 0.823177 0.017629
0.081576 0.811091 0.019063
0.219607 0.801899 0.027590
0.341758 0.795234 0.035796
0.439945 0.790620 0.043011
0.520328 0.786850 0.049836
0.585359 0.783197 0.059468
0.637588 0.780500 0.067157
0.680760 0.778374 0.073823
0.715073 0.777099 0.078351
0.746259 0.776010 0.082359
0.771086 0.775443 0.087173
0.794226 0.774805 0.091898
0.814213 0.774697 0.095875
0.832111 0.775006 0.099308
0.848978 0.775435 0.102511
0.863662 0.775930 0.105676
0.877549 0.776470 0.108571
0.890714 0.777050 0.111221
0.902531 0.777831 0.113456
0.913855 0.778486 0.115640
0.924730 0.779023 0.117779
0.932814 0.779682 0.119352
0.938046 0.780570 0.120274
0.943191 0.781454 0.121132
0.948257 0.782335 0.121930
0.951223 0.782939 0.123948
0.951071 0.783142 0.128385
0.047866 0.967222 0.033919
0.047866 0.967222 0.033919
0.040723 0.909489 0.027065
0.035865 0.871577 0.023122
0.032827 0.849572 0.020149
0.030639 0.833327 0.018672
0.064451 0.821120 0.019046
0.189380 0.811764 0.026672
0.314751 0.805037 0.035178
0.417898 0.800214 0.042745
0.501743 0.796192 0.049724
0.569211 0.792516 0.058960
0.624112 0.789585 0.067031
0.669248 0.787121 0.074314
0.704953 0.785728 0.079247
0.737169 0.784621 0.083572
0.763004 0.783798 0.088481
0.786736 0.782944 0.093295
0.807270 0.782749 0.097403
0.825551 0.783082 0.100937
0.842863 0.783473 0.104199
0.857843 0.783814 0.107284
0.872024 0.784198 0.110072
0.885490 0.784623 0.112590
0.897301 0.785299 0.114802
0.908563 0.785885 0.116995
0.919373 0.786376 0.119180
0.928189 0.786963 0.120934
0.934683 0.787779 0.122069
0.941074 0.788596 0.123144
0.947368 0.789416 0.124164
0.951396 0.790006 0.126092
0.951284 0.790240 0.129547
0.047866 0.967222 0.033919
0.047866 0.967222 0.033919
0.041734 0.920304 0.028480
0.037318 0.881612 0.024116
0.033968 0.858932 0.021279
0.031612 0.843113 0.019713
0.049732 0.830817 0.019160
0.159936 0.821283 0.025716
0.288151 0.814494 0.034536
0.396335 0.809432 0.042455
0.483144 0.805205 0.049696
0.553326 0.801499 0.058540
0.610827 0.798354 0.066902
0.657878 0.795545 0.074710
0.695080 0.794014 0.080068
0.728359 0.792899 0.084727
0.755153 0.791864 0.089738
0.779402 0.790812 0.094628
0.800463 0.790513 0.098855
0.819160 0.790875 0.102430
0.836853 0.791171 0.105782
0.852188 0.791363 0.108783
0.866663 0.791596 0.111454
0.880430 0.791869 0.113832
0.892268 0.792447 0.116032
0.903469 0.792977 0.118254
0.914214 0.793430 0.120501
0.923630 0.793958 0.122432
0.931356 0.794706 0.123779
0.938960 0.795461 0.125069
0.946450 0.796212 0.126370
0.951566 0.796762 0.128084
0.951492 0.797026 0.130523
0.047866 0.967222 0.033919
0.047866 0.967222 0.033919
0.043283 0.930400 0.029947
0.038707 0.891331 0.024858
0.035028 0.868081 0.022365
0.032639 0.852567 0.020754
0.037353 0.840200 0.019417
0.131203 0.830488 0.024714
0.261904 0.823636 0.033870
0.375208 0.818314 0.042138
0.464842 0.813923 0.049591
0.537681 0.810174 0.058189
0.597711 0.806835 0.066781
0.646632 0.803675 0.075028
0.685421 0.801985 0.080815
0.719796 0.800868 0.085823
0.747520 0.799660 0.090949
0.772216 0.798429 0.095903
0.793777 0.798012 0.100238
