output/AP0_display/AP0_to_ACROS_33grid.cube
TITLE "AP0_to_ACROS"
# Input: Linear ACES2065-1 / AP0 (D60)
# Output: BT.709 / Gamma 2.2 (display-referred)
# Use: Display/output transform in ACES pipeline (replaces ODT)
# Source: FLog2C_to_ACROS_65grid_V.1.00.cube
# Generated from Fujifilm GFX ETERNA 55 F-Log2C LUT
LUT_3D_SIZE 33
0.000105 0.000105 0.000105
0.084846 0.084846 0.084846
0.174550 0.174550 0.174550
0.249504 0.249504 0.249504
0.314450 0.314450 0.314450
0.374572 0.374572 0.374572
0.423258 0.423258 0.423258
0.458610 0.458610 0.458610
0.486520 0.486520 0.486520
0.511355 0.511355 0.511355
0.532844 0.532844 0.532844
0.547272 0.547272 0.547272
0.557622 0.557622 0.557622
0.558545 0.558545 0.558545
0.558591 0.558591 0.558591
0.558594 0.558594 0.558594
0.558594 0.558594 0.558594
0.558594 0.558594 0.558594
0.558594 0.558594 0.558594
0.558594 0.558594 0.558594
0.558594 0.558594 0.558594
0.558594 0.558594 0.558594
0.558594 0.558594 0.558594
0.558594 0.558594 0.558594
0.558594 0.558594 0.558594
0.558594 0.558594 0.558594
0.558594 0.558594 0.558594
0.558594 0.558594 0.558594
0.558594 0.558594 0.558594
0.558594 0.558594 0.558594
0.558594 0.558594 0.558594
0.558594 0.558594 0.558594
0.558594 0.558594 0.558594
0.079339 0.079339 0.079339
0.078166 0.078166 0.078166
0.128526 0.128526 0.128526
0.176764 0.176764 0.176764
0.220251 0.220251 0.220251
0.261086 0.261086 0.261086
0.298286 0.298286 0.298286
0.335261 0.335261 0.335261
0.370166 0.370166 0.370166
0.401379 0.401379 0.401379
0.428582 0.428582 0.428582
0.449975 0.449975 0.449975
0.467023 0.467023 0.467023
0.481572 0.481572 0.481572
0.494954 0.494954 0.494954
0.507790 0.507790 0.507790
0.519808 0.519808 0.519808
0.530882 0.530882 0.530882
0.541162 0.541162 0.541162
0.550750 0.550750 0.550750
0.553583 0.553583 0.553583
0.556442 0.556442 0.556442
0.559324 0.559324 0.559324
0.559179 0.559179 0.559179
0.558944 0.558944 0.558944
0.558717 0.558717 0.558717
0.558594 0.558594 0.558594
0.558594 0.558594 0.558594
0.558594 0.558594 0.558594
0.558594 0.558594 0.558594
0.558594 0.558594 0.558594
0.558594 0.558594 0.558594
0.558594 0.558594 0.558594
0.172630 0.172630 0.172630
0.122012 0.122012 0.122012
0.154067 0.154067 0.154067
0.194660 0.194660 0.194660
0.232704 0.232704 0.232704
0.268738 0.268738 0.268738
0.303656 0.303656 0.303656
0.336050 0.336050 0.336050
0.366706 0.366706 0.366706
0.396053 0.396053 0.396053
0.422903 0.422903 0.422903
0.447084 0.447084 0.447084
0.469047 0.469047 0.469047
0.486049 0.486049 0.486049
0.501198 0.501198 0.501198
0.511843 0.511843 0.511843
0.521301 0.521301 0.521301
0.530288 0.530288 0.530288
0.538810 0.538810 0.538810
0.546875 0.546875 0.546875
0.554691 0.554691 0.554691
0.562089 0.562089 0.562089
0.569107 0.569107 0.569107
0.574733 0.574733 0.574733
0.580091 0.580091 0.580091
0.585288 0.585288 0.585288
0.588253 0.588253 0.588253
0.588133 0.588133 0.588133
0.588100 0.588100 0.588100
0.588150 0.588150 0.588150
0.587985 0.587985 0.587985
0.587223 0.587223 0.587223
0.586509 0.586509 0.586509
0.247967 0.247967 0.247967
0.176902 0.176902 0.176902
0.193682 0.193682 0.193682
0.227700 0.227700 0.227700
0.259438 0.259438 0.259438
0.289968 0.289968 0.289968
0.321748 0.321748 0.321748
0.349921 0.349921 0.349921
0.377642 0.377642 0.377642
0.403347 0.403347 0.403347
0.427803 0.427803 0.427803
0.450000 0.450000 0.450000
0.470225 0.470225 0.470225
0.488996 0.488996 0.488996
0.506317 0.506317 0.506317
0.519520 0.519520 0.519520
0.531350 0.531350 0.531350
0.540577 0.540577 0.540577
0.547603 0.547603 0.547603
0.554104 0.554104 0.554104
0.560655 0.560655 0.560655
0.567049 0.567049 0.567049
0.573226 0.573226 0.573226
0.579549 0.579549 0.579549
0.585604 0.585604 0.585604
0.591356 0.591356 0.591356
0.596462 0.596462 0.596462
0.600721 0.600721 0.600721
0.604837 0.604837 0.604837
0.608820 0.608820 0.608820
0.611470 0.611470 0.611470
0.610998 0.610998 0.610998
0.610656 0.610656 0.610656
0.309661 0.309661 0.309661
0.224935 0.224935 0.224935
0.231967 0.231967 0.231967
0.260510 0.260510 0.260510
0.288995 0.288995 0.288995
0.316343 0.316343 0.316343
0.342530 0.342530 0.342530
0.368028 0.368028 0.368028
0.393083 0.393083 0.393083
0.415666 0.415666 0.415666
0.437893 0.437893 0.437893
0.458412 0.458412 0.458412
0.477319 0.477319 0.477319
0.495233 0.495233 0.495233
0.511830 0.511830 0.511830
0.526300 0.526300 0.526300
0.539529 0.539529 0.539529
0.549984 0.549984 0.549984
0.558082 0.558082 0.558082
0.565827 0.565827 0.565827
0.571870 0.571870 0.571870
0.577401 0.577401 0.577401
0.582606 0.582606 0.582606
0.587758 0.587758 0.587758
0.592729 0.592729 0.592729
0.597494 0.597494 0.597494
0.602106 0.602106 0.602106
0.606642 0.606642 0.606642
0.611046 0.611046 0.611046
0.615327 0.615327 0.615327
0.619146 0.619146 0.619146
0.621705 0.621705 0.621705
0.624187 0.624187 0.624187
0.362462 0.362462 0.362462
0.265007 0.265007 0.265007
0.267429 0.267429 0.267429
0.290140 0.290140 0.290140
0.315616 0.315616 0.315616
0.340013 0.340013 0.340013
0.363962 0.363962 0.363962
0.387137 0.387137 0.387137
0.408966 0.408966 0.408966
0.429973 0.429973 0.429973
0.450035 0.450035 0.450035
0.468961 0.468961 0.468961
0.487296 0.487296 0.487296
0.503554 0.503554 0.503554
0.518474 0.518474 0.518474
0.532644 0.532644 0.532644
0.545982 0.545982 0.545982
0.557672 0.557672 0.557672
0.567672 0.567672 0.567672
0.577055 0.577055 0.577055
0.582872 0.582872 0.582872
0.587882 0.587882 0.587882
0.592726 0.592726 0.592726
0.597400 0.597400 0.597400
0.601824 0.601824 0.601824
0.606013 0.606013 0.606013
0.610107 0.610107 0.610107
0.614353 0.614353 0.614353
0.618445 0.618445 0.618445
0.622394 0.622394 0.622394
0.626125 0.626125 0.626125
0.629380 0.629380 0.629380
0.632531 0.632531 0.632531
0.406065 0.406065 0.406065
0.303491 0.303491 0.303491
0.298047 0.298047 0.298047
0.317214 0.317214 0.317214
0.340249 0.340249 0.340249
0.362416 0.362416 0.362416
0.384470 0.384470 0.384470
0.405619 0.405619 0.405619
0.425373 0.425373 0.425373
0.444708 0.444708 0.444708
0.463068 0.463068 0.463068
0.480453 0.480453 0.480453
0.497158 0.497158 0.497158
0.512810 0.512810 0.512810
0.527422 0.527422 0.527422
0.541101 0.541101 0.541101
0.553933 0.553933 0.553933
0.565443 0.565443 0.565443
0.575527 0.575527 0.575527
0.585016 0.585016 0.585016
0.592037 0.592037 0.592037
0.598179 0.598179 0.598179
0.604025 0.604025 0.604025
0.608396 0.608396 0.608396
0.612151 0.612151 0.612151
0.615725 0.615725 0.615725
0.619281 0.619281 0.619281
0.623208 0.623208 0.623208
0.626993 0.626993 0.626993
0.630654 0.630654 0.630654
0.634119 0.634119 0.634119
0.637160 0.637160 0.637160
0.640114 0.640114 0.640114
0.444221 0.444221 0.444221
0.342490 0.342490 0.342490
0.326362 0.326362 0.326362
0.341995 0.341995 0.341995
0.362961 0.362961 0.362961
0.383414 0.383414 0.383414
0.403160 0.403160 0.403160
0.423327 0.423327 0.423327
0.441292 0.441292 0.441292
0.459144 0.459144 0.459144
0.476155 0.476155 0.476155
0.492568 0.492568 0.492568
0.508127 0.508127 0.508127
0.522763 0.522763 0.522763
0.536715 0.536715 0.536715
0.549787 0.549787 0.549787
0.561983 0.561983 0.561983
0.573262 0.573262 0.573262
0.583675 0.583675 0.583675
0.593504 0.593504 0.593504
0.601278 0.601278 0.601278
0.608145 0.608145 0.608145
0.614671 0.614671 0.614671
0.618962 0.618962 0.618962
0.622300 0.622300 0.622300
0.625534 0.625534 0.625534
0.628770 0.628770 0.628770
0.632331 0.632331 0.632331
0.635775 0.635775 0.635775
0.639113 0.639113 0.639113
0.642284 0.642284 0.642284
0.645235 0.645235 0.645235
0.648133 0.648133 0.648133
0.475297 0.475297 0.475297
0.379019 0.379019 0.379019
0.353439 0.353439 0.353439
0.365701 0.365701 0.365701
0.384710 0.384710 0.384710
0.403559 0.403559 0.403559
0.420805 0.420805 0.420805
0.439828 0.439828 0.439828
0.456323 0.456323 0.456323
0.472596 0.472596 0.472596
0.488919 0.488919 0.488919
0.504691 0.504691 0.504691
0.519667 0.519667 0.519667
0.533465 0.533465 0.533465
0.546391 0.546391 0.546391
0.558624 0.558624 0.558624
0.570269 0.570269 0.570269
0.581303 0.581303 0.581303
0.591743 0.591743 0.591743
0.601450 0.601450 0.601450
0.609375 0.609375 0.609375
0.616530 0.616530 0.616530
0.623476 0.623476 0.623476
0.628203 0.628203 0.628203
0.631682 0.631682 0.631682
0.634977 0.634977 0.634977
0.638144 0.638144 0.638144
0.641456 0.641456 0.641456
0.644685 0.644685 0.644685
0.647775 0.647775 0.647775
0.650717 0.650717 0.650717
0.653485 0.653485 0.653485
0.656203 0.656203 0.656203
0.503066 0.503066 0.503066
0.412652 0.412652 0.412652
0.378054 0.378054 0.378054
0.388451 0.388451 0.388451
0.405656 0.405656 0.405656
0.422544 0.422544 0.422544
0.438855 0.438855 0.438855
0.455594 0.455594 0.455594
0.471297 0.471297 0.471297
0.487086 0.487086 0.487086
0.502243 0.502243 0.502243
0.516496 0.516496 0.516496
0.530388 0.530388 0.530388
0.543402 0.543402 0.543402
0.555695 0.555695 0.555695
0.567442 0.567442 0.567442
0.578615 0.578615 0.578615
0.589047 0.589047 0.589047
0.598875 0.598875 0.598875
0.608106 0.608106 0.608106
0.616291 0.616291 0.616291
0.623833 0.623833 0.623833
0.631048 0.631048 0.631048
0.636379 0.636379 0.636379
0.640548 0.640548 0.640548
0.644589 0.644589 0.644589
0.648423 0.648423 0.648423
0.651236 0.651236 0.651236
0.653879 0.653879 0.653879
0.656425 0.656425 0.656425
0.658880 0.658880 0.658880
0.661428 0.661428 0.661428
0.663902 0.663902 0.663902
0.528274 0.528274 0.528274
0.442450 0.442450 0.442450
0.401084 0.401084 0.401084
0.409903 0.409903 0.409903
0.425045 0.425045 0.425045
0.440302 0.440302 0.440302
0.455275 0.455275 0.455275
0.470942 0.470942 0.470942
0.485905 0.485905 0.485905
0.500554 0.500554 0.500554
0.514630 0.514630 0.514630
0.527952 0.527952 0.527952
0.541113 0.541113 0.541113
0.553533 0.553533 0.553533
0.565325 0.565325 0.565325
0.576505 0.576505 0.576505
0.587115 0.587115 0.587115
0.597066 0.597066 0.597066
0.606638 0.606638 0.606638
0.615659 0.615659 0.615659
0.623803 0.623803 0.623803
0.631310 0.631310 0.631310
0.638470 0.638470 0.638470
0.644126 0.644126 0.644126
0.648687 0.648687 0.648687
0.653091 0.653091 0.653091
0.657278 0.657278 0.657278
0.659835 0.659835 0.659835
0.662285 0.662285 0.662285
0.664652 0.664652 0.664652
0.666941 0.666941 0.666941
0.669370 0.669370 0.669370
0.671731 0.671731 0.671731
0.550926 0.550926 0.550926
0.469247 0.469247 0.469247
0.422363 0.422363 0.422363
0.429575 0.429575 0.429575
0.443112 0.443112 0.443112
0.456918 0.456918 0.456918
0.470621 0.470621 0.470621
0.485420 0.485420 0.485420
0.499647 0.499647 0.499647
0.513313 0.513313 0.513313
0.526476 0.526476 0.526476
0.539024 0.539024 0.539024
0.551533 0.551533 0.551533
0.563341 0.563341 0.563341
0.574594 0.574594 0.574594
0.585200 0.585200 0.585200
0.595271 0.595271 0.595271
0.604815 0.604815 0.604815
0.614138 0.614138 0.614138
0.622948 0.622948 0.622948
0.630955 0.630955 0.630955
0.638317 0.638317 0.638317
0.645341 0.645341 0.645341
0.651203 0.651203 0.651203
0.656064 0.656064 0.656064
0.660732 0.660732 0.660732
0.665217 0.665217 0.665217
0.667727 0.667727 0.667727
0.670151 0.670151 0.670151
0.672493 0.672493 0.672493
0.674760 0.674760 0.674760
0.677056 0.677056 0.677056
0.679290 0.679290 0.679290
0.570539 0.570539 0.570539
0.494921 0.494921 0.494921
0.442093 0.442093 0.442093
0.447602 0.447602 0.447602
0.460340 0.460340 0.460340
0.472922 0.472922 0.472922
0.485742 0.485742 0.485742
0.499482 0.499482 0.499482
0.512894 0.512894 0.512894
0.525971 0.525971 0.525971
0.538375 0.538375 0.538375
0.550104 0.550104 0.550104
0.561912 0.561912 0.561912
0.572991 0.572991 0.572991
0.583570 0.583570 0.583570
0.593595 0.593595 0.593595
0.603201 0.603201 0.603201
0.612369 0.612369 0.612369
0.621270 0.621270 0.621270
0.629636 0.629636 0.629636
0.637356 0.637356 0.637356
0.644544 0.644544 0.644544
0.651401 0.651401 0.651401
0.657418 0.657418 0.657418
0.662614 0.662614 0.662614
0.667603 0.667603 0.667603
0.672399 0.672399 0.672399
0.675142 0.675142 0.675142
0.677707 0.677707 0.677707
0.680186 0.680186 0.680186
0.682584 0.682584 0.682584
0.684672 0.684672 0.684672
0.686663 0.686663 0.686663
0.587678 0.587678 0.587678
0.519150 0.519150 0.519150
0.459964 0.459964 0.459964
0.464295 0.464295 0.464295
0.475995 0.475995 0.475995
0.487702 0.487702 0.487702
0.499817 0.499817 0.499817
0.512541 0.512541 0.512541
0.525321 0.525321 0.525321
0.537777 0.537777 0.537777
0.549503 0.549503 0.549503
0.560538 0.560538 0.560538
0.571699 0.571699 0.571699
0.582138 0.582138 0.582138
0.592137 0.592137 0.592137
0.601662 0.601662 0.601662
0.610981 0.610981 0.610981
0.619832 0.619832 0.619832
0.628330 0.628330 0.628330
0.636314 0.636314 0.636314
0.643779 0.643779 0.643779
0.650807 0.650807 0.650807
0.657510 0.657510 0.657510
0.663559 0.663559 0.663559
0.668911 0.668911 0.668911
0.674059 0.674059 0.674059
0.678999 0.678999 0.678999
0.681967 0.681967 0.681967
0.684664 0.684664 0.684664
0.687270 0.687270 0.687270
0.689790 0.689790 0.689790
0.691745 0.691745 0.691745
0.693554 0.693554 0.693554
0.602757 0.602757 0.602757
0.542213 0.542213 0.542213
0.476345 0.476345 0.476345
0.479685 0.479685 0.479685
0.490391 0.490391 0.490391
0.501438 0.501438 0.501438
0.512913 0.512913 0.512913
0.524818 0.524818 0.524818
0.536903 0.536903 0.536903
0.548770 0.548770 0.548770
0.559936 0.559936 0.559936
0.570439 0.570439 0.570439
0.580984 0.580984 0.580984
0.590841 0.590841 0.590841
0.600321 0.600321 0.600321
0.609434 0.609434 0.609434
0.618548 0.618548 0.618548
0.627136 0.627136 0.627136
0.635275 0.635275 0.635275
0.642957 0.642957 0.642957
0.650213 0.650213 0.650213
0.657093 0.657093 0.657093
0.663653 0.663653 0.663653
0.669653 0.669653 0.669653
0.675018 0.675018 0.675018
0.680174 0.680174 0.680174
0.685121 0.685121 0.685121
0.688289 0.688289 0.688289
0.691108 0.691108 0.691108
0.693831 0.693831 0.693831
0.696466 0.696466 0.696466
0.698355 0.698355 0.698355
0.700040 0.700040 0.700040
0.616649 0.616649 0.616649
0.563498 0.563498 0.563498
0.491707 0.491707 0.491707
0.493786 0.493786 0.493786
0.503730 0.503730 0.503730
0.514287 0.514287 0.514287
0.525184 0.525184 0.525184
0.536453 0.536453 0.536453
0.547921 0.547921 0.547921
0.559169 0.559169 0.559169
0.569760 0.569760 0.569760
0.579737 0.579737 0.579737
0.589659 0.589659 0.589659
0.598973 0.598973 0.598973
0.608054 0.608054 0.608054
0.616855 0.616855 0.616855
0.625607 0.625607 0.625607
0.633831 0.633831 0.633831
0.641749 0.641749 0.641749
0.649239 0.649239 0.649239
0.656328 0.656328 0.656328
0.663035 0.663035 0.663035
0.669419 0.669419 0.669419
0.675315 0.675315 0.675315
0.680635 0.680635 0.680635
0.685749 0.685749 0.685749
0.690665 0.690665 0.690665
0.694102 0.694102 0.694102
0.697137 0.697137 0.697137
0.700060 0.700060 0.700060
0.702877 0.702877 0.702877
0.704767 0.704767 0.704767
0.706352 0.706352 0.706352
0.629309 0.629309 0.629309
0.582653 0.582653 0.582653
0.506065 0.506065 0.506065
0.506743 0.506743 0.506743
0.516017 0.516017 0.516017
0.526338 0.526338 0.526338
0.536843 0.536843 0.536843
0.547573 0.547573 0.547573
0.558564 0.558564 0.558564
0.569190 0.569190 0.569190
0.579136 0.579136 0.579136
0.588472 0.588472 0.588472
0.597773 0.597773 0.597773
0.606567 0.606567 0.606567
0.615502 0.615502 0.615502
0.624053 0.624053 0.624053
0.632307 0.632307 0.632307
0.640059 0.640059 0.640059
0.647858 0.647858 0.647858
0.655249 0.655249 0.655249
0.662212 0.662212 0.662212
0.668713 0.668713 0.668713
0.674873 0.674873 0.674873
0.680597 0.680597 0.680597
0.685835 0.685835 0.685835
0.690878 0.690878 0.690878
0.695726 0.695726 0.695726
0.699475 0.699475 0.699475
0.702811 0.702811 0.702811
0.706005 0.706005 0.706005
0.709069 0.709069 0.709069
0.711019 0.711019 0.711019
0.712521 0.712521 0.712521
0.640962 0.640962 0.640962
0.600995 0.600995 0.600995
0.521135 0.521135 0.521135
0.518907 0.518907 0.518907
0.527468 0.527468 0.527468
0.537723 0.537723 0.537723
0.547784 0.547784 0.547784
0.558030 0.558030 0.558030
0.568535 0.568535 0.568535
0.578593 0.578593 0.578593
0.587932 0.587932 0.587932
0.596676 0.596676 0.596676
0.605397 0.605397 0.605397
0.613700 0.613700 0.613700
0.622644 0.622644 0.622644
0.630936 0.630936 0.630936
0.638735 0.638735 0.638735
0.646066 0.646066 0.646066
0.653691 0.653691 0.653691
0.660955 0.660955 0.660955
0.667777 0.667777 0.667777
0.674074 0.674074 0.674074
0.680017 0.680017 0.680017
0.685592 0.685592 0.685592
0.690782 0.690782 0.690782
0.695761 0.695761 0.695761
0.700546 0.700546 0.700546
0.704534 0.704534 0.704534
0.708124 0.708124 0.708124
0.711552 0.711552 0.711552
0.714828 0.714828 0.714828
0.716873 0.716873 0.716873
0.718320 0.718320 0.718320
0.650069 0.650069 0.650069
0.617974 0.617974 0.617974
0.537202 0.537202 0.537202
0.530326 0.530326 0.530326
0.538066 0.538066 0.538066
0.548521 0.548521 0.548521
0.557853 0.557853 0.557853
0.567680 0.567680 0.567680
0.577539 0.577539 0.577539
0.587058 0.587058 0.587058
0.596051 0.596051 0.596051
0.604761 0.604761 0.604761
0.613131 0.613131 0.613131
0.621225 0.621225 0.621225
0.629790 0.629790 0.629790
0.637684 0.637684 0.637684
0.645191 0.645191 0.645191
0.652281 0.652281 0.652281
0.659520 0.659520 0.659520
0.666406 0.666406 0.666406
0.672907 0.672907 0.672907
0.679035 0.679035 0.679035
0.684816 0.684816 0.684816
0.690353 0.690353 0.690353
0.695528 0.695528 0.695528
0.700473 0.700473 0.700473
0.705206 0.705206 0.705206
0.709279 0.709279 0.709279
0.712980 0.712980 0.712980
0.716530 0.716530 0.716530
0.719939 0.719939 0.719939
0.722171 0.722171 0.722171
0.723709 0.723709 0.723709
0.658717 0.658717 0.658717
0.634232 0.634232 0.634232
0.552378 0.552378 0.552378
0.541162 0.541162 0.541162
0.548234 0.548234 0.548234
0.558777 0.558777 0.558777
0.567312 0.567312 0.567312
0.576746 0.576746 0.576746
0.586027 0.586027 0.586027
0.595064 0.595064 0.595064
0.603733 0.603733 0.603733
0.612439 0.612439 0.612439
0.620513 0.620513 0.620513
0.628386 0.628386 0.628386
0.636539 0.636539 0.636539
0.644050 0.644050 0.644050
0.651298 0.651298 0.651298
0.658174 0.658174 0.658174
0.665049 0.665049 0.665049
0.671563 0.671563 0.671563
0.677732 0.677732 0.677732
0.683700 0.683700 0.683700
0.689371 0.689371 0.689371
0.694855 0.694855 0.694855
0.700007 0.700007 0.700007
0.704911 0.704911 0.704911
0.709586 0.709586 0.709586
0.713732 0.713732 0.713732
0.717546 0.717546 0.717546
0.721219 0.721219 0.721219
0.724761 0.724761 0.724761
0.727182 0.727182 0.727182
0.728807 0.728807 0.728807
0.665795 0.665795 0.665795
0.649563 0.649563 0.649563
0.566351 0.566351 0.566351
0.551327 0.551327 0.551327
0.558122 0.558122 0.558122
0.568260 0.568260 0.568260
0.576200 0.576200 0.576200
0.585250 0.585250 0.585250
0.594094 0.594094 0.594094
0.602790 0.602790 0.602790
0.611223 0.611223 0.611223
0.619798 0.619798 0.619798
0.627775 0.627775 0.627775
0.635299 0.635299 0.635299
0.643060 0.643060 0.643060
0.650199 0.650199 0.650199
0.657219 0.657219 0.657219
0.663884 0.663884 0.663884
0.670434 0.670434 0.670434
0.676636 0.676636 0.676636
0.682525 0.682525 0.682525
0.688355 0.688355 0.688355
0.693986 0.693986 0.693986
0.699378 0.699378 0.699378
0.704444 0.704444 0.704444
0.709261 0.709261 0.709261
0.713848 0.713848 0.713848
0.718018 0.718018 0.718018
0.721892 0.721892 0.721892
0.725625 0.725625 0.725625
0.729229 0.729229 0.729229
0.731832 0.731832 0.731832
0.733599 0.733599 0.733599
0.670635 0.670635 0.670635
0.662528 0.662528 0.662528
0.578817 0.578817 0.578817
0.560715 0.560715 0.560715
0.567731 0.567731 0.567731
0.576852 0.576852 0.576852
0.584585 0.584585 0.584585
0.593257 0.593257 0.593257
0.601844 0.601844 0.601844
0.610355 0.610355 0.610355
0.618706 0.618706 0.618706
0.626906 0.626906 0.626906
0.634770 0.634770 0.634770
0.642077 0.642077 0.642077
0.649449 0.649449 0.649449
0.656223 0.656223 0.656223
0.663022 0.663022 0.663022
0.669449 0.669449 0.669449
0.675730 0.675730 0.675730
0.681726 0.681726 0.681726
0.687450 0.687450 0.687450
0.693215 0.693215 0.693215
0.698772 0.698772 0.698772
0.704069 0.704069 0.704069
0.708972 0.708972 0.708972
0.713650 0.713650 0.713650
0.718119 0.718119 0.718119
0.722250 0.722250 0.722250
0.726096 0.726096 0.726096
0.729790 0.729790 0.729790
0.733342 0.733342 0.733342
0.736097 0.736097 0.736097
0.738087 0.738087 0.738087
0.675186 0.675186 0.675186
0.673489 0.673489 0.673489
0.590832 0.590832 0.590832
0.569774 0.569774 0.569774
0.576908 0.576908 0.576908
0.585076 0.585076 0.585076
0.592570 0.592570 0.592570
0.600875 0.600875 0.600875
0.609244 0.609244 0.609244
0.617571 0.617571 0.617571
0.625899 0.625899 0.625899
0.633826 0.633826 0.633826
0.641415 0.641415 0.641415
0.648538 0.648538 0.648538
0.655531 0.655531 0.655531
0.661957 0.661957 0.661957
0.668519 0.668519 0.668519
0.674706 0.674706 0.674706
0.680746 0.680746 0.680746
0.686568 0.686568 0.686568
0.692154 0.692154 0.692154
0.697876 0.697876 0.697876
0.703342 0.703342 0.703342
0.708558 0.708558 0.708558
0.713313 0.713313 0.713313
0.717864 0.717864 0.717864
0.722228 0.722228 0.722228
0.726314 0.726314 0.726314
0.730127 0.730127 0.730127
0.733777 0.733777 0.733777
0.737274 0.737274 0.737274
0.740151 0.740151 0.740151
0.742363 0.742363 0.742363
0.678908 0.678908 0.678908
0.679683 0.679683 0.679683
0.602592 0.602592 0.602592
0.578374 0.578374 0.578374
0.585497 0.585497 0.585497
0.592901 0.592901 0.592901
0.600220 0.600220 0.600220
0.608146 0.608146 0.608146
0.616326 0.616326 0.616326
0.624448 0.624448 0.624448
0.632769 0.632769 0.632769
0.640352 0.640352 0.640352
0.647671 0.647671 0.647671
0.654603 0.654603 0.654603
0.661284 0.661284 0.661284
0.667433 0.667433 0.667433
0.673727 0.673727 0.673727
0.679669 0.679669 0.679669
0.685501 0.685501 0.685501
0.691186 0.691186 0.691186
0.696694 0.696694 0.696694
0.702333 0.702333 0.702333
0.707706 0.707706 0.707706
0.712836 0.712836 0.712836
0.717465 0.717465 0.717465
0.721904 0.721904 0.721904
0.726171 0.726171 0.726171
0.730204 0.730204 0.730204
0.733978 0.733978 0.733978
0.737583 0.737583 0.737583
0.741031 0.741031 0.741031
0.744019 0.744019 0.744019
0.746427 0.746427 0.746427
0.680457 0.680457 0.680457
0.681187 0.681187 0.681187
0.613533 0.613533 0.613533
0.586294 0.586294 0.586294
0.592895 0.592895 0.592895
0.600194 0.600194 0.600194
0.607670 0.607670 0.607670
0.615159 0.615159 0.615159
0.623117 0.623117 0.623117
0.630983 0.630983 0.630983
0.639149 0.639149 0.639149
0.646379 0.646379 0.646379
0.653399 0.653399 0.653399
0.660088 0.660088 0.660088
0.666598 0.666598 0.666598
0.672642 0.672642 0.672642
0.678660 0.678660 0.678660
0.684348 0.684348 0.684348
0.690012 0.690012 0.690012
0.695586 0.695586 0.695586
0.701061 0.701061 0.701061
0.706591 0.706591 0.706591
0.711846 0.711846 0.711846
0.716847 0.716847 0.716847
0.721384 0.721384 0.721384
0.725724 0.725724 0.725724
0.729895 0.729895 0.729895
0.733860 0.733860 0.733860
0.737594 0.737594 0.737594
0.741172 0.741172 0.741172
0.744604 0.744604 0.744604
0.747710 0.747710 0.747710
0.750235 0.750235 0.750235
0.681918 0.681918 0.681918
0.682692 0.682692 0.682692
0.623971 0.623971 0.623971
0.593847 0.593847 0.593847
0.599884 0.599884 0.599884
0.607164 0.607164 0.607164
0.614858 0.614858 0.614858
0.621916 0.621916 0.621916
0.629642 0.629642 0.629642
0.637268 0.637268 0.637268
0.645248 0.645248 0.645248
0.652151 0.652151 0.652151
0.658866 0.658866 0.658866
0.665306 0.665306 0.665306
0.671651 0.671651 0.671651
0.677608 0.677608 0.677608
0.683377 0.683377 0.683377
0.688821 0.688821 0.688821
0.694305 0.694305 0.694305
0.699885 0.699885 0.699885
0.705269 0.705269 0.705269
0.710674 0.710674 0.710674
0.715807 0.715807 0.715807
0.720676 0.720676 0.720676
0.725124 0.725124 0.725124
0.729369 0.729369 0.729369
0.733448 0.733448 0.733448
0.737346 0.737346 0.737346
0.741048 0.741048 0.741048
0.744605 0.744605 0.744605
0.748052 0.748052 0.748052
0.751243 0.751243 0.751243
0.753880 0.753880 0.753880
0.683297 0.683297 0.683297
0.684170 0.684170 0.684170
0.633811 0.633811 0.633811
0.601060 0.601060 0.601060
0.606514 0.606514 0.606514
0.613821 0.613821 0.613821
0.621800 0.621800 0.621800
0.628442 0.628442 0.628442
0.635920 0.635920 0.635920
0.643343 0.643343 0.643343
0.651088 0.651088 0.651088
0.657688 0.657688 0.657688
0.664093 0.664093 0.664093
0.670278 0.670278 0.670278
0.676460 0.676460 0.676460
0.682348 0.682348 0.682348
0.687895 0.687895 0.687895
0.693106 0.693106 0.693106
0.698398 0.698398 0.698398
0.704037 0.704037 0.704037
