output/AP0_display/AP0_to_ACROS_33grid.cube
TITLE "AP0_to_ACROS"
# Input: Linear ACES2065-1 / AP0 (D60)
# Output: BT.709 / Gamma 2.2 (display-referred)
# Use: Display/output transform in ACES pipeline (replaces ODT)
# Source: FLog2C_to_ACROS_65grid_V.1.00.cube
# Generated from Fujifilm GFX ETERNA 55 F-Log2C LUT
LUT_3D_SIZE 9
0.000105 0.000105 0.000105
0.314450 0.314450 0.314450
0.486520 0.486520 0.486520
0.557622 0.557622 0.557622
0.558594 0.558594 0.558594
0.558594 0.558594 0.558594
0.558594 0.558594 0.558594
0.558594 0.558594 0.558594
0.558594 0.558594 0.558594
0.309661 0.309661 0.309661
0.288995 0.288995 0.288995
0.393083 0.393083 0.393083
0.477319 0.477319 0.477319
0.539529 0.539529 0.539529
0.571870 0.571870 0.571870
0.592729 0.592729 0.592729
0.611046 0.611046 0.611046
0.624187 0.624187 0.624187
0.475297 0.475297 0.475297
0.384710 0.384710 0.384710
0.456323 0.456323 0.456323
0.519667 0.519667 0.519667
0.570269 0.570269 0.570269
0.609375 0.609375 0.609375
0.631682 0.631682 0.631682
0.644685 0.644685 0.644685
0.656203 0.656203 0.656203
0.570539 0.570539 0.570539
0.460340 0.460340 0.460340
0.512894 0.512894 0.512894
0.561912 0.561912 0.561912
0.603201 0.603201 0.603201
0.637356 0.637356 0.637356
0.662614 0.662614 0.662614
0.677707 0.677707 0.677707
0.686663 0.686663 0.686663
0.629309 0.629309 0.629309
0.516017 0.516017 0.516017
0.558564 0.558564 0.558564
0.597773 0.597773 0.597773
0.632307 0.632307 0.632307
0.662212 0.662212 0.662212
0.685835 0.685835 0.685835
0.702811 0.702811 0.702811
0.712521 0.712521 0.712521
0.665795 0.665795 0.665795
0.558122 0.558122 0.558122
0.594094 0.594094 0.594094
0.627775 0.627775 0.627775
0.657219 0.657219 0.657219
0.682525 0.682525 0.682525
0.704444 0.704444 0.704444
0.721892 0.721892 0.721892
0.733599 0.733599 0.733599
0.680457 0.680457 0.680457
0.592895 0.592895 0.592895
0.623117 0.623117 0.623117
0.653399 0.653399 0.653399
0.678660 0.678660 0.678660
0.701061 0.701061 0.701061
0.721384 0.721384 0.721384
0.737594 0.737594 0.737594
0.750235 0.750235 0.750235
0.686153 0.686153 0.686153
0.618352 0.618352 0.618352
0.647233 0.647233 0.647233
0.674332 0.674332 0.674332
0.696864 0.696864 0.696864
0.717388 0.717388 0.717388
0.735888 0.735888 0.735888
0.751184 0.751184 0.751184
0.764100 0.764100 0.764100
0.691050 0.691050 0.691050
0.638222 0.638222 0.638222
0.666578 0.666578 0.666578
0.692503 0.692503 0.692503
0.713524 0.713524 0.713524
0.732201 0.732201 0.732201
0.749441 0.749441 0.749441
0.764089 0.764089 0.764089
0.776383 0.776383 0.776383
0.026433 0.026433 0.026433
0.247530 0.247530 0.247530
0.430851 0.430851 0.430851
0.521674 0.521674 0.521674
0.561235 0.561235 0.561235
0.561438 0.561438 0.561438
0.561063 0.561063 0.561063
0.560604 0.560604 0.560604
0.560603 0.560603 0.560603
0.441658 0.441658 0.441658
0.349999 0.349999 0.349999
0.428152 0.428152 0.428152
0.496900 0.496900 0.496900
0.550599 0.550599 0.550599
0.588701 0.588701 0.588701
0.607238 0.607238 0.607238
0.622266 0.622266 0.622266
0.635139 0.635139 0.635139
0.595131 0.595131 0.595131
0.476273 0.476273 0.476273
0.521524 0.521524 0.521524
0.565992 0.565992 0.565992
0.604725 0.604725 0.604725
0.637129 0.637129 0.637129
0.660704 0.660704 0.660704
0.674747 0.674747 0.674747
0.682930 0.682930 0.682930
0.675927 0.675927 0.675927
0.555844 0.555844 0.555844
0.588097 0.588097 0.588097
0.621155 0.621155 0.621155
0.650731 0.650731 0.650731
0.676184 0.676184 0.676184
0.697338 0.697338 0.697338
0.713548 0.713548 0.713548
0.722896 0.722896 0.722896
0.718904 0.718904 0.718904
0.609797 0.609797 0.609797
0.635466 0.635466 0.635466
0.662848 0.662848 0.662848
0.686957 0.686957 0.686957
0.707624 0.707624 0.707624
0.726824 0.726824 0.726824
0.741845 0.741845 0.741845
0.752513 0.752513 0.752513
0.742874 0.742874 0.742874
0.649536 0.649536 0.649536
0.671356 0.671356 0.671356
0.694757 0.694757 0.694757
0.715078 0.715078 0.715078
0.733295 0.733295 0.733295
0.749847 0.749847 0.749847
0.764247 0.764247 0.764247
0.775310 0.775310 0.775310
0.755779 0.755779 0.755779
0.679693 0.679693 0.679693
0.699600 0.699600 0.699600
0.720113 0.720113 0.720113
0.738806 0.738806 0.738806
0.755211 0.755211 0.755211
0.769739 0.769739 0.769739
0.783099 0.783099 0.783099
0.793539 0.793539 0.793539
0.760588 0.760588 0.760588
0.700911 0.700911 0.700911
0.721433 0.721433 0.721433
0.741253 0.741253 0.741253
0.758316 0.758316 0.758316
0.773562 0.773562 0.773562
0.787140 0.787140 0.787140
0.799207 0.799207 0.799207
0.808876 0.808876 0.808876
0.763291 0.763291 0.763291
0.716094 0.716094 0.716094
0.738513 0.738513 0.738513
0.758405 0.758405 0.758405
0.774859 0.774859 0.774859
0.789251 0.789251 0.789251
0.802035 0.802035 0.802035
0.812954 0.812954 0.812954
0.822216 0.822216 0.822216
0.045124 0.045124 0.045124
0.214361 0.214361 0.214361
0.395491 0.395491 0.395491
0.496979 0.496979 0.496979
0.554573 0.554573 0.554573
0.564560 0.564560 0.564560
0.564289 0.564289 0.564289
0.564164 0.564164 0.564164
0.563713 0.563713 0.563713
0.471671 0.471671 0.471671
0.371935 0.371935 0.371935
0.441815 0.441815 0.441815
0.503049 0.503049 0.503049
0.553985 0.553985 0.553985
0.591767 0.591767 0.591767
0.611687 0.611687 0.611687
0.625615 0.625615 0.625615
0.637705 0.637705 0.637705
0.617425 0.617425 0.617425
0.502368 0.502368 0.502368
0.542418 0.542418 0.542418
0.581668 0.581668 0.581668
0.616409 0.616409 0.616409
0.645431 0.645431 0.645431
0.668603 0.668603 0.668603
0.683707 0.683707 0.683707
0.690714 0.690714 0.690714
0.686653 0.686653 0.686653
0.578542 0.578542 0.578542
0.609463 0.609463 0.609463
0.639626 0.639626 0.639626
0.665750 0.665750 0.665750
0.688554 0.688554 0.688554
0.708374 0.708374 0.708374
0.723831 0.723831 0.723831
0.734063 0.734063 0.734063
0.725769 0.725769 0.725769
0.630875 0.630875 0.630875
0.655704 0.655704 0.655704
0.681027 0.681027 0.681027
0.702606 0.702606 0.702606
0.722060 0.722060 0.722060
0.738736 0.738736 0.738736
0.753310 0.753310 0.753310
0.764095 0.764095 0.764095
0.749458 0.749458 0.749458
0.668594 0.668594 0.668594
0.690293 0.690293 0.690293
0.712377 0.712377 0.712377
0.731593 0.731593 0.731593
0.748559 0.748559 0.748559
0.763654 0.763654 0.763654
0.776354 0.776354 0.776354
0.787146 0.787146 0.787146
0.763704 0.763704 0.763704
0.695530 0.695530 0.695530
0.717625 0.717625 0.717625
0.737817 0.737817 0.737817
0.755438 0.755438 0.755438
0.770678 0.770678 0.770678
0.784347 0.784347 0.784347
0.795846 0.795846 0.795846
0.805450 0.805450 0.805450
0.771015 0.771015 0.771015
0.718389 0.718389 0.718389
0.737324 0.737324 0.737324
0.757853 0.757853 0.757853
0.774638 0.774638 0.774638
0.789046 0.789046 0.789046
0.801413 0.801413 0.801413
0.812032 0.812032 0.812032
0.820467 0.820467 0.820467
0.773763 0.773763 0.773763
0.736936 0.736936 0.736936
0.751196 0.751196 0.751196
0.772815 0.772815 0.772815
0.789915 0.789915 0.789915
0.803643 0.803643 0.803643
0.815367 0.815367 0.815367
0.825350 0.825350 0.825350
0.833319 0.833319 0.833319
0.058457 0.058457 0.058457
0.188077 0.188077 0.188077
0.366043 0.366043 0.366043
0.473181 0.473181 0.473181
0.540012 0.540012 0.540012
0.564076 0.564076 0.564076
0.564688 0.564688 0.564688
0.565120 0.565120 0.565120
0.565077 0.565077 0.565077
0.484649 0.484649 0.484649
0.382888 0.382888 0.382888
0.447748 0.447748 0.447748
0.505148 0.505148 0.505148
0.554722 0.554722 0.554722
0.591364 0.591364 0.591364
0.613946 0.613946 0.613946
0.626494 0.626494 0.626494
0.637905 0.637905 0.637905
0.623892 0.623892 0.623892
0.514368 0.514368 0.514368
0.552781 0.552781 0.552781
0.590116 0.590116 0.590116
0.622544 0.622544 0.622544
0.649330 0.649330 0.649330
0.672077 0.672077 0.672077
0.687910 0.687910 0.687910
0.695645 0.695645 0.695645
0.687769 0.687769 0.687769
0.589097 0.589097 0.589097
0.619061 0.619061 0.619061
0.648365 0.648365 0.648365
0.672689 0.672689 0.672689
0.694805 0.694805 0.694805
0.713804 0.713804 0.713804
0.728952 0.728952 0.728952
0.739667 0.739667 0.739667
0.725554 0.725554 0.725554
0.640042 0.640042 0.640042
0.665031 0.665031 0.665031
0.689244 0.689244 0.689244
0.710602 0.710602 0.710602
0.729064 0.729064 0.729064
0.745758 0.745758 0.745758
0.759077 0.759077 0.759077
0.769951 0.769951 0.769951
0.748739 0.748739 0.748739
0.677095 0.677095 0.677095
0.698891 0.698891 0.698891
0.720630 0.720630 0.720630
0.739822 0.739822 0.739822
0.755967 0.755967 0.755967
0.769787 0.769787 0.769787
0.783433 0.783433 0.783433
0.793739 0.793739 0.793739
0.763325 0.763325 0.763325
0.708731 0.708731 0.708731
0.723155 0.723155 0.723155
0.745680 0.745680 0.745680
0.763107 0.763107 0.763107
0.777716 0.777716 0.777716
0.790575 0.790575 0.790575
0.801654 0.801654 0.801654
0.811269 0.811269 0.811269
0.772939 0.772939 0.772939
0.731950 0.731950 0.731950
0.740198 0.740198 0.740198
0.763923 0.763923 0.763923
0.781491 0.781491 0.781491
0.795212 0.795212 0.795212
0.807373 0.807373 0.807373
0.816823 0.816823 0.816823
0.825993 0.825993 0.825993
0.778167 0.778167 0.778167
0.749434 0.749434 0.749434
0.752429 0.752429 0.752429
0.776621 0.776621 0.776621
0.794821 0.794821 0.794821
0.808645 0.808645 0.808645
0.820158 0.820158 0.820158
0.829770 0.829770 0.829770
0.838207 0.838207 0.838207
0.068529 0.068529 0.068529
0.173421 0.173421 0.173421
0.339255 0.339255 0.339255
0.451283 0.451283 0.451283
0.520698 0.520698 0.520698
0.560404 0.560404 0.560404
0.564708 0.564708 0.564708
0.565084 0.565084 0.565084
0.565037 0.565037 0.565037
0.492878 0.492878 0.492878
0.388708 0.388708 0.388708
0.450657 0.450657 0.450657
0.505515 0.505515 0.505515
0.552773 0.552773 0.552773
0.589352 0.589352 0.589352
0.614994 0.614994 0.614994
0.627569 0.627569 0.627569
0.638382 0.638382 0.638382
0.623647 0.623647 0.623647
0.520672 0.520672 0.520672
0.558313 0.558313 0.558313
0.593653 0.593653 0.593653
0.624334 0.624334 0.624334
0.651636 0.651636 0.651636
0.674107 0.674107 0.674107
0.690225 0.690225 0.690225
0.698881 0.698881 0.698881
0.685824 0.685824 0.685824
0.595348 0.595348 0.595348
0.624387 0.624387 0.624387
0.653179 0.653179 0.653179
0.676390 0.676390 0.676390
0.698142 0.698142 0.698142
0.716034 0.716034 0.716034
0.731664 0.731664 0.731664
0.743075 0.743075 0.743075
0.722459 0.722459 0.722459
0.651655 0.651655 0.651655
0.669482 0.669482 0.669482
0.693981 0.693981 0.693981
0.715126 0.715126 0.715126
0.732812 0.732812 0.732812
0.749018 0.749018 0.749018
0.762381 0.762381 0.762381
0.772728 0.772728 0.772728
0.745594 0.745594 0.745594
0.691349 0.691349 0.691349
0.701749 0.701749 0.701749
0.724857 0.724857 0.724857
0.743874 0.743874 0.743874
0.760046 0.760046 0.760046
0.774545 0.774545 0.774545
0.786217 0.786217 0.786217
0.795179 0.795179 0.795179
0.760965 0.760965 0.760965
0.721420 0.721420 0.721420
0.723527 0.723527 0.723527
0.747875 0.747875 0.747875
0.766319 0.766319 0.766319
0.781211 0.781211 0.781211
0.793573 0.793573 0.793573
0.804433 0.804433 0.804433
0.813210 0.813210 0.813210
0.771711 0.771711 0.771711
0.743086 0.743086 0.743086
0.739025 0.739025 0.739025
0.763983 0.763983 0.763983
0.782893 0.782893 0.782893
0.797438 0.797438 0.797438
0.809067 0.809067 0.809067
0.818959 0.818959 0.818959
0.827595 0.827595 0.827595
0.779242 0.779242 0.779242
0.758720 0.758720 0.758720
0.750646 0.750646 0.750646
0.775660 0.775660 0.775660
0.794853 0.794853 0.794853
0.809841 0.809841 0.809841
0.821216 0.821216 0.821216
0.830882 0.830882 0.830882
0.839289 0.839289 0.839289
0.077343 0.077343 0.077343
0.156083 0.156083 0.156083
0.310961 0.310961 0.310961
0.430217 0.430217 0.430217
0.502298 0.502298 0.502298
0.551375 0.551375 0.551375
0.563136 0.563136 0.563136
0.563947 0.563947 0.563947
0.563941 0.563941 0.563941
0.497461 0.497461 0.497461
0.391139 0.391139 0.391139
0.450381 0.450381 0.450381
0.505020 0.505020 0.505020
0.550959 0.550959 0.550959
0.587763 0.587763 0.587763
0.613751 0.613751 0.613751
0.626387 0.626387 0.626387
0.637892 0.637892 0.637892
0.622545 0.622545 0.622545
0.526544 0.526544 0.526544
0.560883 0.560883 0.560883
0.596178 0.596178 0.596178
0.625772 0.625772 0.625772
0.652019 0.652019 0.652019
0.674107 0.674107 0.674107
0.691340 0.691340 0.691340
0.700108 0.700108 0.700108
0.683029 0.683029 0.683029
0.611844 0.611844 0.611844
0.626941 0.626941 0.626941
0.655237 0.655237 0.655237
0.679645 0.679645 0.679645
0.699651 0.699651 0.699651
0.718082 0.718082 0.718082
0.733207 0.733207 0.733207
0.744121 0.744121 0.744121
0.717903 0.717903 0.717903
0.666838 0.666838 0.666838
0.671321 0.671321 0.671321
0.696812 0.696812 0.696812
0.717656 0.717656 0.717656
0.734975 0.734975 0.734975
0.750445 0.750445 0.750445
0.763942 0.763942 0.763942
0.774176 0.774176 0.774176
0.741649 0.741649 0.741649
0.705084 0.705084 0.705084
0.701248 0.701248 0.701248
0.726446 0.726446 0.726446
0.746192 0.746192 0.746192
0.762028 0.762028 0.762028
0.775681 0.775681 0.775681
0.786981 0.786981 0.786981
0.796074 0.796074 0.796074
0.757469 0.757469 0.757469
0.732094 0.732094 0.732094
0.721423 0.721423 0.721423
0.747555 0.747555 0.747555
0.767231 0.767231 0.767231
0.782242 0.782242 0.782242
0.794473 0.794473 0.794473
0.805065 0.805065 0.805065
0.813530 0.813530 0.813530
0.769568 0.769568 0.769568
0.752408 0.752408 0.752408
0.735944 0.735944 0.735944
0.762674 0.762674 0.762674
0.782486 0.782486 0.782486
0.797290 0.797290 0.797290
0.809243 0.809243 0.809243
0.819469 0.819469 0.819469
0.827405 0.827405 0.827405
0.778751 0.778751 0.778751
0.767603 0.767603 0.767603
0.746845 0.746845 0.746845
0.773670 0.773670 0.773670
0.793812 0.793812 0.793812
0.809299 0.809299 0.809299
0.821246 0.821246 0.821246
0.831150 0.831150 0.831150
0.838995 0.838995 0.838995
0.085001 0.085001 0.085001
0.135221 0.135221 0.135221
0.288194 0.288194 0.288194
0.409991 0.409991 0.409991
0.483741 0.483741 0.483741
0.538624 0.538624 0.538624
0.560708 0.560708 0.560708
0.562691 0.562691 0.562691
0.563040 0.563040 0.563040
0.499727 0.499727 0.499727
0.397067 0.397067 0.397067
0.450298 0.450298 0.450298
0.503157 0.503157 0.503157
0.548241 0.548241 0.548241
0.584760 0.584760 0.584760
0.611633 0.611633 0.611633
0.626056 0.626056 0.626056
0.636836 0.636836 0.636836
0.619525 0.619525 0.619525
0.548682 0.548682 0.548682
0.561489 0.561489 0.561489
0.596608 0.596608 0.596608
0.625961 0.625961 0.625961
0.651417 0.651417 0.651417
0.673513 0.673513 0.673513
0.691272 0.691272 0.691272
0.700920 0.700920 0.700920
0.678573 0.678573 0.678573
0.631276 0.631276 0.631276
0.627395 0.627395 0.627395
0.656235 0.656235 0.656235
0.680074 0.680074 0.680074
0.700722 0.700722 0.700722
0.718399 0.718399 0.718399
0.733307 0.733307 0.733307
0.744585 0.744585 0.744585
0.713354 0.713354 0.713354
0.682851 0.682851 0.682851
0.670533 0.670533 0.670533
0.697422 0.697422 0.697422
0.718733 0.718733 0.718733
0.736261 0.736261 0.736261
0.751237 0.751237 0.751237
0.764643 0.764643 0.764643
0.774623 0.774623 0.774623
0.736830 0.736830 0.736830
0.719031 0.719031 0.719031
0.697875 0.697875 0.697875
0.725559 0.725559 0.725559
0.746681 0.746681 0.746681
0.762284 0.762284 0.762284
0.775763 0.775763 0.775763
0.787205 0.787205 0.787205
0.796465 0.796465 0.796465
0.753569 0.753569 0.753569
0.744222 0.744222 0.744222
0.717466 0.717466 0.717466
0.745014 0.745014 0.745014
0.766003 0.766003 0.766003
0.781544 0.781544 0.781544
0.794279 0.794279 0.794279
0.804692 0.804692 0.804692
0.813079 0.813079 0.813079
0.766384 0.766384 0.766384
0.765130 0.765130 0.765130
0.731365 0.731365 0.731365
0.759532 0.759532 0.759532
0.780335 0.780335 0.780335
0.796272 0.796272 0.796272
0.808442 0.808442 0.808442
0.818507 0.818507 0.818507
0.826775 0.826775 0.826775
0.776245 0.776245 0.776245
0.776224 0.776224 0.776224
0.742225 0.742225 0.742225
0.770590 0.770590 0.770590
0.791232 0.791232 0.791232
0.807804 0.807804 0.807804
0.819826 0.819826 0.819826
0.829951 0.829951 0.829951
0.838119 0.838119 0.838119
0.091849 0.091849 0.091849
0.111213 0.111213 0.111213
0.272853 0.272853 0.272853
0.389837 0.389837 0.389837
0.465241 0.465241 0.465241
0.524182 0.524182 0.524182
0.555700 0.555700 0.555700
0.560849 0.560849 0.560849
0.561580 0.561580 0.561580
0.498947 0.498947 0.498947
0.424250 0.424250 0.424250
0.448328 0.448328 0.448328
0.501200 0.501200 0.501200
0.545065 0.545065 0.545065
0.581842 0.581842 0.581842
0.609599 0.609599 0.609599
0.625396 0.625396 0.625396
0.635359 0.635359 0.635359
0.616124 0.616124 0.616124
0.576795 0.576795 0.576795
0.560824 0.560824 0.560824
0.595901 0.595901 0.595901
0.625107 0.625107 0.625107
0.650833 0.650833 0.650833
0.672599 0.672599 0.672599
0.690375 0.690375 0.690375
0.701078 0.701078 0.701078
0.673679 0.673679 0.673679
0.653228 0.653228 0.653228
0.627121 0.627121 0.627121
0.656491 0.656491 0.656491
0.680519 0.680519 0.680519
0.700597 0.700597 0.700597
0.718489 0.718489 0.718489
0.733321 0.733321 0.733321
0.744463 0.744463 0.744463
0.708404 0.708404 0.708404
0.702319 0.702319 0.702319
0.667374 0.667374 0.667374
0.696546 0.696546 0.696546
0.718604 0.718604 0.718604
0.736377 0.736377 0.736377
0.751301 0.751301 0.751301
0.764083 0.764083 0.764083
0.773995 0.773995 0.773995
0.731852 0.731852 0.731852
0.731813 0.731813 0.731813
0.692993 0.692993 0.692993
0.723281 0.723281 0.723281
0.745294 0.745294 0.745294
0.761666 0.761666 0.761666
0.775114 0.775114 0.775114
0.786662 0.786662 0.786662
0.795716 0.795716 0.795716
0.749481 0.749481 0.749481
0.749450 0.749450 0.749450
0.711857 0.711857 0.711857
0.741967 0.741967 0.741967
0.763908 0.763908 0.763908
0.780013 0.780013 0.780013
0.792922 0.792922 0.792922
0.803704 0.803704 0.803704
0.812540 0.812540 0.812540
0.762957 0.762957 0.762957
0.762933 0.762933 0.762933
0.726091 0.726091 0.726091
0.756045 0.756045 0.756045
0.777924 0.777924 0.777924
0.794366 0.794366 0.794366
0.807021 0.807021 0.807021
0.817406 0.817406 0.817406
0.826048 0.826048 0.826048
0.773583 0.773583 0.773583
0.773563 0.773563 0.773563
0.737032 0.737032 0.737032
0.766321 0.766321 0.766321
0.788407 0.788407 0.788407
0.805622 0.805622 0.805622
0.818437 0.818437 0.818437
0.828625 0.828625 0.828625
0.837203 0.837203 0.837203
0.097277 0.097277 0.097277
0.090705 0.090705 0.090705
0.263180 0.263180 0.263180
0.370574 0.370574 0.370574
0.447642 0.447642 0.447642
0.508094 0.508094 0.508094
0.548310 0.548310 0.548310
0.558958 0.558958 0.558958
0.559859 0.559859 0.559859
0.497066 0.497066 0.497066
0.471901 0.471901 0.471901
0.445188 0.445188 0.445188
0.498531 0.498531 0.498531
0.541900 0.541900 0.541900
0.578881 0.578881 0.578881
0.607166 0.607166 0.607166
0.624437 0.624437 0.624437
0.634379 0.634379 0.634379
0.611556 0.611556 0.611556
0.611552 0.611552 0.611552
0.559474 0.559474 0.559474
0.594755 0.594755 0.594755
0.624224 0.624224 0.624224
0.649667 0.649667 0.649667
0.671624 0.671624 0.671624
0.689243 0.689243 0.689243
0.700519 0.700519 0.700519
0.668334 0.668334 0.668334
0.668303 0.668303 0.668303
0.624524 0.624524 0.624524
0.655943 0.655943 0.655943
0.680055 0.680055 0.680055
0.700005 0.700005 0.700005
0.717762 0.717762 0.717762
0.732604 0.732604 0.732604
0.743641 0.743641 0.743641
0.702661 0.702661 0.702661
0.702624 0.702624 0.702624
0.661819 0.661819 0.661819
0.694114 0.694114 0.694114
0.717795 0.717795 0.717795
0.735542 0.735542 0.735542
0.750791 0.750791 0.750791
0.763187 0.763187 0.763187
0.773059 0.773059 0.773059
0.726760 0.726760 0.726760
0.726721 0.726721 0.726721
0.687537 0.687537 0.687537
0.720226 0.720226 0.720226
0.743067 0.743067 0.743067
0.760270 0.760270 0.760270
0.773946 0.773946 0.773946
0.785582 0.785582 0.785582
0.794670 0.794670 0.794670
0.745241 0.745241 0.745241
0.745206 0.745206 0.745206
0.706013 0.706013 0.706013
0.738309 0.738309 0.738309
0.761037 0.761037 0.761037
0.778043 0.778043 0.778043
0.791166 0.791166 0.791166
0.802372 0.802372 0.802372
0.811456 0.811456 0.811456
0.759539 0.759539 0.759539
0.759508 0.759508 0.759508
0.720122 0.720122 0.720122
0.751596 0.751596 0.751596
0.774651 0.774651 0.774651
0.791964 0.791964 0.791964
0.804853 0.804853 0.804853
0.815841 0.815841 0.815841
0.824654 0.824654 0.824654
0.770770 0.770770 0.770770
0.770745 0.770745 0.770745
0.731279 0.731279 0.731279
0.761658 0.761658 0.761658
0.784868 0.784868 0.784868
0.802761 0.802761 0.802761
0.816064 0.816064 0.816064
0.826676 0.826676 0.826676
0.835667 0.835667 0.835667
