output/AP0_display/AP0_to_ASTIA_33grid.cube
TITLE "AP0_to_ASTIA"
# Input: Linear ACES2065-1 / AP0 (D60)
# Output: BT.709 / Gamma 2.2 (display-referred)
# Use: Display/output transform in ACES pipeline (replaces ODT)
# Source: FLog2C_to_ASTIA_65grid_V.1.00.cube
# Generated from Fujifilm GFX ETERNA 55 F-Log2C LUT
LUT_3D_SIZE 5
0.000334 0.000257 0.000073
0.999685 0.002538 0.517151
0.999461 0.099723 0.540077
0.999461 0.099723 0.540077
0.999461 0.099723 0.540077
0.000042 0.849440 0.000332
0.666456 0.544483 0.000153
0.958729 0.513156 0.000002
0.999578 0.478613 0.102634
0.999352 0.458723 0.208534
0.000000 1.000000 0.000285
0.497658 0.768752 0.000200
0.828839 0.709318 0.000104
0.984715 0.695863 0.000053
0.999094 0.683388 0.002069
0.000000 1.000000 0.000285
0.319288 0.883061 0.000156
0.747860 0.809153 0.000136
0.919008 0.779000 0.000026
0.999493 0.772106 0.000101
0.000000 1.000000 0.000285
0.104696 0.971617 0.000495
0.674680 0.879762 0.000098
0.857994 0.845102 0.000023
0.974970 0.824106 0.000019
0.007436 0.000189 0.611342
0.999924 0.000222 0.653408
0.999937 0.099551 0.674153
0.999917 0.129196 0.655511
0.999825 0.125233 0.642543
0.000050 0.820992 0.920662
0.555864 0.557198 0.556957
0.881193 0.495434 0.555215
0.999292 0.462167 0.606890
0.999310 0.458968 0.646611
0.000004 0.961927 0.855405
0.284489 0.775287 0.561493
0.751891 0.717303 0.489993
0.925992 0.686173 0.506742
0.999692 0.666074 0.545618
0.000052 0.999806 0.792257
0.031182 0.893306 0.571801
0.651818 0.831739 0.453370
0.845812 0.801740 0.453377
0.969883 0.780552 0.477221
0.000070 0.999875 0.729573
0.000160 0.971564 0.536783
0.544507 0.911839 0.420248
0.780389 0.878540 0.405204
0.907010 0.852912 0.422967
0.011169 0.000340 0.874673
0.979715 0.000109 0.747722
0.999944 0.003653 0.782870
0.999793 0.094796 0.729978
0.999476 0.102395 0.715646
0.000007 0.791046 0.999720
0.456321 0.561484 0.791515
0.846603 0.488572 0.737975
0.998424 0.450980 0.749661
0.999796 0.441727 0.772812
0.000318 0.920754 0.999888
0.108570 0.778554 0.833690
0.709706 0.711814 0.710313
0.897086 0.679285 0.693905
0.999017 0.656902 0.703194
0.000449 0.971489 0.983010
0.000294 0.885082 0.841150
0.590378 0.825416 0.704113
0.812872 0.792850 0.669829
0.940459 0.767723 0.661702
0.000188 0.990809 0.943779
0.000021 0.948954 0.808430
0.444407 0.894191 0.693272
0.735457 0.861702 0.643949
0.869753 0.837071 0.631572
0.012130 0.000140 0.894957
0.897779 0.000150 0.826883
0.999831 0.000084 0.869047
0.999924 0.056958 0.790106
0.999987 0.071800 0.770346
0.000936 0.764183 0.999981
0.332537 0.569328 0.936384
0.815356 0.484831 0.844605
0.987398 0.443355 0.839772
0.999785 0.423788 0.857022
0.000121 0.893403 0.999333
0.005344 0.783012 0.981554
0.668488 0.711179 0.832712
0.873266 0.675831 0.801285
0.990213 0.649869 0.793736
0.000105 0.946143 0.999995
0.000548 0.876195 0.965258
0.522776 0.817920 0.830615
0.781007 0.783913 0.782040
0.912401 0.758518 0.763823
0.000191 0.975431 0.999990
0.000131 0.935990 0.936269
0.341158 0.881989 0.829832
0.693720 0.850174 0.762407
0.839921 0.826211 0.740376
0.013622 0.000320 0.907563
0.810820 0.000026 0.900702
0.999962 0.000223 0.943335
0.999862 0.016749 0.848693
0.999900 0.042233 0.816724
0.000468 0.741797 0.999828
0.160549 0.579308 0.999975
0.782774 0.482087 0.921969
0.972874 0.437127 0.906185
0.999551 0.411395 0.917258
0.000293 0.868290 0.999588
0.000460 0.783043 0.999862
0.622162 0.709886 0.920299
0.848273 0.671861 0.875101
0.976704 0.642807 0.859017
0.000596 0.927083 0.999999
0.000670 0.870576 0.999931
0.438505 0.810915 0.920866
0.748276 0.776438 0.857363
0.887084 0.750601 0.832388
0.000143 0.960971 0.999671
0.000160 0.926672 0.999674
0.225633 0.873207 0.926532
0.653218 0.841188 0.844424
0.814033 0.816587 0.814818
