output/AP0_display/AP0_to_CLASSIC-Neg._33grid.cube
TITLE "AP0_to_CLASSIC-Neg."
# Input: Linear ACES2065-1 / AP0 (D60)
# Output: BT.709 / Gamma 2.2 (display-referred)
# Use: Display/output transform in ACES pipeline (replaces ODT)
# Source: FLog2C_to_CLASSIC-Neg._65grid_V.1.00.cube
# Generated from Fujifilm GFX ETERNA 55 F-Log2C LUT
LUT_3D_SIZE 5
0.000129 0.000120 0.000052
0.946428 0.198785 0.199688
0.951060 0.281893 0.277250
0.951060 0.281893 0.277250
0.951060 0.281893 0.277250
0.024459 0.753124 0.125879
0.626750 0.461567 0.000535
0.913546 0.500947 0.046857
0.951595 0.519254 0.137255
0.953534 0.510232 0.188881
0.029269 0.906070 0.151513
0.289077 0.695870 0.078499
0.845021 0.706012 0.011472
0.938118 0.710954 0.081972
0.957496 0.705512 0.147105
0.028968 0.946082 0.158066
0.049364 0.801591 0.129984
0.738164 0.810768 0.035781
0.904416 0.809619 0.034254
0.951823 0.806985 0.101116
0.029136 0.945996 0.158066
0.027656 0.865043 0.143378
0.545145 0.862189 0.070926
0.862246 0.867149 0.027576
0.931637 0.863284 0.054418
0.107358 0.043793 0.362428
0.944920 0.122706 0.304289
0.956926 0.301551 0.402386
0.957171 0.318769 0.398846
0.956956 0.313777 0.384362
0.059259 0.825745 0.987515
0.607792 0.581597 0.573020
0.912229 0.563096 0.526328
0.968449 0.562856 0.550626
0.970468 0.571219 0.573862
0.061814 0.910584 0.999964
0.260678 0.780005 0.734667
0.837375 0.768342 0.608819
0.940465 0.755213 0.597130
0.975269 0.746599 0.608028
0.063648 0.938454 0.999313
0.060377 0.852229 0.808749
0.691705 0.850230 0.664578
0.902022 0.842973 0.625098
0.957043 0.834336 0.622567
0.061633 0.942602 0.978521
0.054440 0.895248 0.829249
0.452036 0.885865 0.712332
0.844317 0.891404 0.642262
0.931258 0.883708 0.628368
0.184965 0.084660 0.606018
0.925017 0.086529 0.387889
0.957084 0.239002 0.455058
0.958969 0.309467 0.460655
0.958861 0.312158 0.449173
0.073114 0.827010 0.999999
0.587018 0.624119 0.771107
0.911489 0.586077 0.686052
0.971708 0.576568 0.682172
0.974844 0.579718 0.686014
0.064835 0.901835 0.999865
0.251064 0.801594 0.908655
0.830395 0.784511 0.776252
0.940033 0.767480 0.746627
0.978826 0.756364 0.740039
0.065097 0.929009 0.999926
0.062956 0.862851 0.967753
0.670374 0.859295 0.833974
0.898158 0.851005 0.782165
0.955999 0.839170 0.765220
0.065285 0.942413 0.999803
0.060130 0.898748 0.979265
0.428656 0.889191 0.880090
0.830549 0.894345 0.803662
0.927150 0.885466 0.778341
0.265414 0.119417 0.742487
0.893252 0.059978 0.456067
0.957602 0.187541 0.515649
0.960652 0.295391 0.506600
0.960852 0.300945 0.492817
0.190277 0.828838 0.999992
0.549282 0.654376 0.866614
0.906674 0.602545 0.765954
0.970378 0.585810 0.749328
0.977073 0.581666 0.747161
0.064157 0.894290 0.999591
0.233051 0.816033 0.984476
0.820115 0.795770 0.851933
0.936988 0.775729 0.816362
0.977497 0.761631 0.801843
0.065679 0.922566 0.999996
0.063232 0.868495 0.999966
0.649449 0.863536 0.904955
0.891400 0.854319 0.849308
0.953047 0.841411 0.827795
0.065808 0.937238 0.999724
0.062955 0.900871 0.999979
0.406763 0.889290 0.948916
0.817419 0.894273 0.871692
0.922189 0.885873 0.843647
0.347503 0.152618 0.815664
0.856874 0.079488 0.530968
0.959069 0.144989 0.578526
0.961514 0.272000 0.542822
0.961386 0.291226 0.528932
0.259637 0.822701 0.999626
0.505621 0.680614 0.930180
0.900402 0.616465 0.815551
0.967866 0.594316 0.792966
0.979233 0.585229 0.786284
0.070102 0.883632 0.999962
0.209925 0.825546 0.999942
0.807065 0.803449 0.898610
0.933197 0.782142 0.858831
0.975611 0.765105 0.840367
0.065421 0.914769 0.999616
0.063173 0.873318 0.999847
0.620340 0.864268 0.947517
0.884128 0.855835 0.889688
0.949257 0.842773 0.866848
0.066226 0.932683 0.999808
0.064263 0.902829 0.999746
0.382645 0.888718 0.987027
0.806512 0.894455 0.911200
0.916955 0.885964 0.883083
