output/AP0_display/AP0_to_Velvia_33grid.cube
TITLE "AP0_to_Velvia"
# Input: Linear ACES2065-1 / AP0 (D60)
# Output: BT.709 / Gamma 2.2 (display-referred)
# Use: Display/output transform in ACES pipeline (replaces ODT)
# Source: FLog2C_to_Velvia_65grid_V.1.00.cube
# Generated from Fujifilm GFX ETERNA 55 F-Log2C LUT
LUT_3D_SIZE 33
0.000000 0.000000 0.000000
0.362449 0.000063 0.000358
0.711447 0.000084 0.034288
0.955121 0.000241 0.123698
0.999976 0.021639 0.249576
0.999786 0.058966 0.367674
0.999497 0.091119 0.451568
0.999967 0.130600 0.484174
0.999872 0.170707 0.486996
0.999814 0.209487 0.489774
0.999696 0.244882 0.492489
0.999801 0.268542 0.492919
0.999856 0.285124 0.492419
0.999870 0.286625 0.492366
0.999897 0.286783 0.492294
0.999899 0.286792 0.492290
0.999899 0.286792 0.492290
0.999899 0.286792 0.492290
0.999899 0.286792 0.492290
0.999899 0.286792 0.492290
0.999899 0.286792 0.492290
0.999899 0.286792 0.492290
0.999899 0.286792 0.492290
0.999899 0.286792 0.492290
0.999899 0.286792 0.492290
0.999899 0.286792 0.492290
0.999899 0.286792 0.492290
0.999899 0.286792 0.492290
0.999899 0.286792 0.492290
0.999899 0.286792 0.492290
0.999899 0.286792 0.492290
0.999899 0.286792 0.492290
0.999899 0.286792 0.492290
0.000041 0.118251 0.000131
0.080361 0.054710 0.000360
0.378776 0.041577 0.000397
0.606890 0.030223 0.000000
0.770324 0.026231 0.001163
0.897376 0.033291 0.022716
0.987114 0.043767 0.092376
0.999601 0.066235 0.167013
0.999568 0.090758 0.242735
0.999913 0.105116 0.316666
0.999682 0.124387 0.378842
0.999599 0.142216 0.421225
0.999400 0.159297 0.449115
0.999562 0.176473 0.457543
0.999790 0.192535 0.462766
0.999722 0.210624 0.468758
0.999701 0.227459 0.474540
0.999677 0.244193 0.479016
0.999651 0.260830 0.482580
0.999657 0.276679 0.485817
0.999687 0.280621 0.488012
0.999658 0.284420 0.490420
0.999554 0.288190 0.492917
0.999625 0.288026 0.492632
0.999720 0.287622 0.492398
0.999831 0.287115 0.492295
0.999899 0.286792 0.492290
0.999899 0.286792 0.492290
0.999899 0.286792 0.492290
0.999899 0.286792 0.492290
0.999899 0.286792 0.492290
0.999899 0.286792 0.492290
0.999899 0.286792 0.492290
0.000016 0.341983 0.000351
0.002276 0.180360 0.000062
0.227253 0.156391 0.000219
0.473651 0.142969 0.000052
0.635912 0.146209 0.000002
0.755241 0.155046 0.000268
0.857881 0.167610 0.000229
0.946151 0.178697 0.000159
0.998700 0.189810 0.006946
0.999392 0.202463 0.033343
0.999595 0.217209 0.093264
0.999757 0.232724 0.153723
0.999929 0.248679 0.215163
0.999813 0.260832 0.264924
0.999656 0.271735 0.309826
0.999637 0.277429 0.329826
0.999634 0.282028 0.345265
0.999492 0.288059 0.357882
0.999277 0.294771 0.368727
0.999091 0.300980 0.379284
0.999377 0.310196 0.388459
0.999669 0.319170 0.397234
0.999924 0.327545 0.405383
0.999873 0.333668 0.411730
0.999826 0.339464 0.417745
0.999803 0.345100 0.423569
0.999804 0.347986 0.427752
0.999787 0.347028 0.429779
0.999741 0.346179 0.431917
0.999668 0.345433 0.434158
0.999568 0.344551 0.436117
0.999477 0.343252 0.437160
0.999396 0.342018 0.438128
0.000371 0.519757 0.000458
0.000035 0.325978 0.000622
0.095096 0.281725 0.000350
0.361595 0.262079 0.000052
0.540688 0.254691 0.000327
0.664173 0.258494 0.000009
0.762399 0.269766 0.000118
0.850513 0.277744 0.000059
0.932531 0.285766 0.000159
0.995391 0.292461 0.000095
0.999507 0.301509 0.000126
0.999272 0.310455 0.003600
0.998819 0.319490 0.009299
0.998852 0.328764 0.058094
0.998954 0.338094 0.113963
0.999148 0.346384 0.160910
0.999272 0.353809 0.204497
0.999407 0.357192 0.233306
0.999574 0.357731 0.250654
0.999704 0.358360 0.267278
0.999690 0.360273 0.280851
0.999696 0.362006 0.293685
0.999737 0.363834 0.306115
0.999820 0.369057 0.317255
0.999891 0.374255 0.327917
0.999943 0.378976 0.338258
0.999920 0.382838 0.347735
0.999832 0.385685 0.356018
0.999809 0.388360 0.364196
0.999847 0.390876 0.372273
0.999912 0.392342 0.378585
0.999740 0.391900 0.379797
0.999595 0.391392 0.381164
0.000068 0.633207 0.000480
0.000068 0.458055 0.000273
0.007247 0.397928 0.000198
0.244718 0.368475 0.000157
0.453962 0.352084 0.000366
0.594445 0.348455 0.000000
0.693797 0.350070 0.000103
0.779246 0.355174 0.000142
0.857660 0.361375 0.000009
0.933753 0.366024 0.000025
0.977389 0.372449 0.000175
0.999385 0.378365 0.000254
0.999481 0.382854 0.000119
0.999514 0.388873 0.001988
0.999552 0.395157 0.003890
0.999433 0.401328 0.025709
0.999289 0.407307 0.050875
0.999244 0.411496 0.081521
0.999250 0.414067 0.118191
0.999223 0.416586 0.153333
0.999270 0.416025 0.172921
0.999363 0.414790 0.190301
0.999487 0.413538 0.206350
0.999524 0.414299 0.221067
0.999548 0.415366 0.235132
0.999578 0.416339 0.248660
0.999613 0.417808 0.261145
0.999641 0.420564 0.272016
0.999664 0.423370 0.282530
0.999682 0.426224 0.292716
0.999667 0.428609 0.301966
0.999583 0.429439 0.309275
0.999504 0.430273 0.316421
0.000415 0.717359 0.000649
0.000084 0.554587 0.000433
0.000063 0.494151 0.000080
0.125747 0.458954 0.000219
0.370365 0.433356 0.000234
0.527072 0.423553 0.000431
0.635413 0.420228 0.000008
0.721881 0.420065 0.000123
0.797337 0.422225 0.000213
0.869471 0.425244 0.000022
0.939129 0.429510 0.000012
0.983995 0.433857 0.000017
0.995986 0.437091 0.000004
0.999476 0.440984 0.000165
0.999265 0.444735 0.000326
0.999452 0.448509 0.000304
0.999718 0.452340 0.000289
0.999682 0.456558 0.008987
0.999338 0.461369 0.026095
0.998985 0.466277 0.041069
0.999209 0.464895 0.064729
0.999547 0.462446 0.089692
0.999872 0.460480 0.112787
0.999874 0.459170 0.131152
0.999776 0.458103 0.147084
0.999662 0.457182 0.161507
0.999552 0.456767 0.174928
0.999495 0.457339 0.188588
0.999454 0.457806 0.201744
0.999429 0.458174 0.214430
0.999448 0.458657 0.227290
0.999383 0.459633 0.238233
0.999301 0.460543 0.248460
0.000002 0.785761 0.000141
0.000151 0.632068 0.000034
0.000009 0.565287 0.000414
0.036116 0.531425 0.000069
0.274975 0.502970 0.000469
0.461114 0.486073 0.000135
0.581511 0.478793 0.000004
0.672832 0.475758 0.000033
0.749506 0.473773 0.000068
0.819874 0.475439 0.000054
0.888516 0.477163 0.000179
0.945333 0.478828 0.000243
0.984842 0.480183 0.000056
0.998426 0.482429 0.000000
0.999003 0.484838 0.000000
0.999396 0.488295 0.000016
0.999585 0.492161 0.000037
0.999667 0.495364 0.000042
0.999692 0.497541 0.000025
0.999761 0.499336 0.000012
0.999547 0.500388 0.009347
0.999352 0.501226 0.022229
0.999221 0.502050 0.036191
0.999322 0.500069 0.053940
0.999493 0.497351 0.071506
0.999669 0.494855 0.087748
0.999809 0.492967 0.102825
0.999794 0.492591 0.117025
0.999750 0.492272 0.130295
0.999661 0.491821 0.143705
0.999537 0.491185 0.157705
0.999410 0.490723 0.171589
0.999329 0.490402 0.184565
0.000013 0.843409 0.000379
0.000103 0.696544 0.000072
0.000054 0.625919 0.000509
0.003308 0.593185 0.000253
0.174783 0.563573 0.000197
0.390442 0.541305 0.000535
0.527730 0.528524 0.000010
0.626685 0.523106 0.000174
0.707099 0.518877 0.000301
0.775024 0.518473 0.000074
0.841958 0.516172 0.000052
0.904665 0.513797 0.000078
0.962128 0.511950 0.000021
0.988429 0.512465 0.000000
0.996387 0.514598 0.000000
0.999264 0.518255 0.000000
0.999216 0.522210 0.000000
0.999144 0.525729 0.000003
0.999134 0.528976 0.000011
0.999159 0.531799 0.000023
0.999274 0.533385 0.000348
0.999395 0.534501 0.001204
0.999494 0.535519 0.002504
0.999490 0.533580 0.009999
0.999473 0.530584 0.020379
0.999481 0.527772 0.031165
0.999521 0.525270 0.043071
0.999594 0.523571 0.058290
0.999658 0.522007 0.073080
0.999621 0.520541 0.088152
0.999534 0.519287 0.102718
0.999387 0.519128 0.116009
0.999290 0.518939 0.128907
0.000018 0.887370 0.000109
0.000000 0.754259 0.000390
0.000048 0.678570 0.000204
0.000000 0.642967 0.000425
0.074966 0.616946 0.000366
0.312375 0.590653 0.000778
0.474123 0.573488 0.000022
0.582177 0.565833 0.000351
0.664945 0.559476 0.000105
0.735691 0.554787 0.000031
0.801354 0.549704 0.000213
0.862889 0.544931 0.000357
0.922640 0.540888 0.000105
0.962679 0.538402 0.000010
0.988939 0.537337 0.000020
0.999200 0.539195 0.000013
0.999118 0.542887 0.000003
0.999049 0.547331 0.000000
0.999308 0.552720 0.000003
0.999542 0.557279 0.000032
0.999497 0.560259 0.000057
0.999395 0.562507 0.000055
0.999318 0.564520 0.000033
0.999254 0.563405 0.000048
0.999255 0.560804 0.000080
0.999333 0.558272 0.000099
0.999469 0.555753 0.001417
0.999553 0.553055 0.011764
0.999562 0.550656 0.023707
0.999536 0.548491 0.036433
0.999523 0.546518 0.049362
0.999399 0.545830 0.064436
0.999300 0.545114 0.079070
0.000002 0.926861 0.000200
0.000000 0.805045 0.000195
0.000001 0.724165 0.000034
0.000000 0.687282 0.000561
0.021153 0.664377 0.000271
0.225088 0.635117 0.000158
0.413184 0.615627 0.000238
0.535434 0.604792 0.000652
0.627643 0.593203 0.000070
0.698296 0.586172 0.000000
0.763692 0.579361 0.000034
0.824730 0.573157 0.000063
0.884346 0.567901 0.000020
0.935560 0.563924 0.000087
0.980250 0.561120 0.000188
0.999345 0.560188 0.000123
0.999354 0.560506 0.000028
0.999441 0.562181 0.000000
0.999496 0.567171 0.000002
0.999484 0.571674 0.000008
0.999491 0.577303 0.000077
0.999519 0.583188 0.000148
0.999537 0.588519 0.000183
0.999508 0.589668 0.000154
0.999503 0.588486 0.000105
0.999557 0.587390 0.000066
0.999661 0.586135 0.000188
0.999761 0.582626 0.001960
0.999737 0.579270 0.004429
0.999690 0.576113 0.007222
0.999621 0.573155 0.010395
0.999496 0.571613 0.021355
0.999447 0.570118 0.032866
0.000000 0.963224 0.000358
0.000002 0.849703 0.000282
0.000026 0.765168 0.000480
0.000000 0.726251 0.000321
0.002626 0.703836 0.000241
0.137989 0.677707 0.000174
0.345150 0.654098 0.000132
0.486969 0.638134 0.000424
0.586429 0.624540 0.000179
0.663036 0.614506 0.000043
0.729366 0.606246 0.000004
0.789401 0.599362 0.000000
0.847872 0.593815 0.000000
0.901949 0.588823 0.000038
0.952832 0.584314 0.000084
0.981854 0.581368 0.000059
0.991814 0.579671 0.000025
0.999114 0.579092 0.000021
0.999099 0.581988 0.000027
0.999092 0.584739 0.000057
0.999145 0.589791 0.000103
0.999197 0.595952 0.000121
0.999207 0.601652 0.000106
0.999265 0.605666 0.000084
0.999408 0.608514 0.000086
0.999583 0.611217 0.000100
0.999779 0.613496 0.000124
0.999724 0.609681 0.000174
0.999604 0.605936 0.000414
0.999473 0.602359 0.000832
0.999331 0.598940 0.001416
0.999302 0.596636 0.006074
0.999335 0.594468 0.011187
0.000000 0.990259 0.000400
0.000000 0.889402 0.000313
0.000074 0.802888 0.000745
0.000025 0.761897 0.000117
0.000066 0.738426 0.000185
0.064406 0.716779 0.000313
0.271636 0.690273 0.000029
0.435783 0.668692 0.000086
0.544970 0.653498 0.000204
0.628394 0.640889 0.000087
0.697067 0.631253 0.000020
0.757114 0.623605 0.000000
0.814444 0.617696 0.000000
0.868825 0.611965 0.000000
0.921705 0.606206 0.000000
0.959261 0.601806 0.000024
0.981559 0.598738 0.000080
0.998823 0.596432 0.000108
0.998822 0.597015 0.000096
0.998890 0.597783 0.000126
0.998979 0.601350 0.000140
0.999010 0.606727 0.000101
0.998995 0.611835 0.000038
0.999102 0.617476 0.000023
0.999359 0.623514 0.000071
0.999630 0.629249 0.000128
0.999899 0.634650 0.000190
0.999670 0.631551 0.000146
0.999451 0.628550 0.000109
0.999241 0.625640 0.000078
0.999040 0.622817 0.000053
0.999073 0.620063 0.000052
0.999159 0.617410 0.000050
0.000000 0.996981 0.000312
0.000000 0.925435 0.000474
0.000028 0.837911 0.000386
0.000016 0.795405 0.000117
0.000023 0.770940 0.000327
0.018337 0.751500 0.000250
0.187101 0.725788 0.000028
0.375636 0.698825 0.000023
0.502467 0.680271 0.000067
0.592673 0.666099 0.000102
0.665276 0.655113 0.000069
0.727462 0.646265 0.000000
0.784384 0.639356 0.000000
0.838339 0.633086 0.000000
0.890846 0.627212 0.000000
0.934941 0.622287 0.000074
0.970259 0.618445 0.000259
0.998824 0.614979 0.000334
0.998849 0.613528 0.000205
0.998998 0.612351 0.000120
0.999111 0.613911 0.000079
0.999126 0.617744 0.000051
0.999152 0.621519 0.000021
0.999273 0.626443 0.000011
0.999500 0.632549 0.000026
0.999746 0.638525 0.000043
0.999921 0.644129 0.000056
0.999633 0.644580 0.000045
0.999346 0.644746 0.000037
0.999080 0.644847 0.000033
0.998831 0.644887 0.000033
0.998855 0.642391 0.000032
0.998944 0.639545 0.000029
0.000000 1.000000 0.000285
0.000000 0.959118 0.000371
0.000024 0.868544 0.000377
0.000000 0.825866 0.000288
0.000036 0.800809 0.000365
0.000247 0.782309 0.000141
0.110546 0.758818 0.000047
0.309394 0.728200 0.000002
0.455471 0.706022 0.000020
0.555787 0.689746 0.000088
0.633485 0.677429 0.000077
0.698170 0.667813 0.000000
0.755500 0.660231 0.000000
0.809337 0.653440 0.000017
0.861481 0.647237 0.000078
0.908806 0.641775 0.000172
0.951442 0.637171 0.000290
0.987957 0.632803 0.000334
0.992396 0.629975 0.000247
0.996857 0.627474 0.000185
0.999199 0.627296 0.000138
0.999221 0.629442 0.000089
0.999245 0.631641 0.000040
0.999304 0.635405 0.000011
0.999413 0.641092 0.000005
0.999523 0.646670 0.000002
0.999597 0.651862 0.000001
0.999430 0.654364 0.000023
0.999234 0.656516 0.000045
0.999035 0.658568 0.000062
0.998831 0.660525 0.000076
0.998804 0.659102 0.000059
0.998846 0.656978 0.000040
0.000000 1.000000 0.000285
0.000000 0.987006 0.000216
0.000045 0.895944 0.000329
0.000000 0.853381 0.000585
0.000105 0.828426 0.000217
0.000250 0.809978 0.000090
0.047696 0.789496 0.000063
0.237818 0.756809 0.000039
0.404188 0.730910 0.000032
0.517391 0.712129 0.000046
0.601566 0.698447 0.000042
0.669271 0.688479 0.000001
0.727577 0.680440 0.000000
0.781544 0.673170 0.000047
0.833456 0.666478 0.000230
0.881708 0.660451 0.000326
0.926661 0.655138 0.000231
0.967208 0.650100 0.000189
0.979913 0.646448 0.000269
0.992377 0.643139 0.000340
0.999347 0.641492 0.000332
0.999350 0.641760 0.000222
0.999294 0.642118 0.000099
0.999199 0.644275 0.000015
0.999104 0.649064 0.000004
0.999048 0.653600 0.000002
0.999047 0.657941 0.000000
0.999105 0.661327 0.000054
0.999112 0.664544 0.000101
0.999062 0.667727 0.000133
0.998959 0.670877 0.000150
0.998865 0.671092 0.000107
0.998824 0.670504 0.000063
0.000000 1.000000 0.000285
0.000000 1.000000 0.000285
0.000027 0.922111 0.000198
0.000009 0.878268 0.000616
0.000145 0.852765 0.000202
0.000201 0.834389 0.000078
0.014363 0.816792 0.000198
0.166331 0.785152 0.000253
0.345919 0.756039 0.000092
0.474890 0.734745 0.000046
0.567872 0.719321 0.000057
0.640172 0.708299 0.000003
0.699924 0.699679 0.000000
0.754490 0.691923 0.000046
0.806523 0.684647 0.000247
0.855224 0.678024 0.000306
0.901575 0.672133 0.000169
0.944747 0.666564 0.000113
0.966106 0.662452 0.000240
0.986806 0.658658 0.000345
0.999176 0.655982 0.000361
0.999256 0.654756 0.000248
0.999286 0.653617 0.000117
0.999236 0.654179 0.000028
0.999111 0.657747 0.000054
0.999041 0.661127 0.000084
0.999004 0.664419 0.000105
0.999082 0.668232 0.000129
0.999134 0.672149 0.000147
0.999140 0.676048 0.000158
0.999101 0.679930 0.000163
0.999006 0.681075 0.000127
0.998945 0.681281 0.000090
0.000000 1.000000 0.000285
0.000000 1.000000 0.000285
0.000005 0.946936 0.000176
0.000026 0.900850 0.000515
0.000169 0.874033 0.000370
0.000099 0.855697 0.000044
0.005967 0.840730 0.000450
0.100554 0.813079 0.000598
0.279599 0.781712 0.000204
0.427658 0.757800 0.000109
0.531876 0.740338 0.000148
0.610222 0.727515 0.000016
0.672194 0.718175 0.000000
0.727967 0.709940 0.000020
0.780437 0.701919 0.000108
0.829425 0.694659 0.000134
0.876258 0.688305 0.000080
0.920191 0.682328 0.000060
0.950875 0.678061 0.000126
0.980022 0.674081 0.000180
0.998578 0.670769 0.000195
0.998887 0.668400 0.000145
0.999222 0.666074 0.000076
0.999469 0.665118 0.000045
0.999437 0.667279 0.000149
0.999387 0.669375 0.000232
0.999332 0.671385 0.000289
0.999294 0.675144 0.000245
0.999282 0.679368 0.000196
0.999291 0.683547 0.000166
0.999318 0.687684 0.000155
0.999283 0.689105 0.000149
0.999253 0.689397 0.000145
0.000000 1.000000 0.000285
0.000000 1.000000 0.000285
0.000000 0.969741 0.000282
0.000041 0.922166 0.000510
0.000198 0.894273 0.000561
0.000000 0.875780 0.000016
0.000195 0.862600 0.000591
0.047222 0.839182 0.000838
0.214695 0.806538 0.000323
0.379813 0.779954 0.000200
0.496055 0.760461 0.000257
0.580389 0.745990 0.000049
0.645236 0.735837 0.000007
0.702559 0.727124 0.000000
0.755485 0.718432 0.000000
0.804724 0.710615 0.000001
0.851967 0.703863 0.000002
0.896246 0.697558 0.000002
0.934667 0.693021 0.000021
0.971048 0.688792 0.000033
0.995877 0.684918 0.000039
0.997183 0.681534 0.000041
0.998564 0.678173 0.000024
0.999640 0.675958 0.000047
0.999638 0.676915 0.000201
0.999595 0.677794 0.000315
0.999514 0.678601 0.000393
0.999405 0.682033 0.000314
0.999363 0.686366 0.000224
0.999393 0.690638 0.000173
0.999489 0.694853 0.000159
0.999522 0.696552 0.000181
0.999530 0.696990 0.000209
0.000000 1.000000 0.000285
0.000000 1.000000 0.000285
0.000000 0.983699 0.000341
0.000055 0.943255 0.000675
0.000127 0.914272 0.000425
0.000000 0.894822 0.000153
0.000097 0.880572 0.000472
0.026040 0.862382 0.000567
0.154179 0.832216 0.000445
0.317346 0.803064 0.000405
0.452602 0.780870 0.000309
0.545337 0.765097 0.000166
0.615803 0.753602 0.000078
0.676795 0.743845 0.000000
0.729880 0.735073 0.000004
0.779203 0.727055 0.000011
0.826669 0.720102 0.000015
0.871267 0.713673 0.000013
0.911677 0.708563 0.000032
0.949684 0.703803 0.000041
0.978589 0.699460 0.000038
0.986149 0.695885 0.000024
0.993644 0.692413 0.000005
0.999455 0.689747 0.000022
0.999463 0.689562 0.000110
0.999438 0.689399 0.000174
0.999382 0.689255 0.000216
0.999275 0.691461 0.000177
0.999202 0.694709 0.000128
0.999185 0.697957 0.000103
0.999218 0.701205 0.000100
0.999301 0.703006 0.000151
0.999416 0.703929 0.000237
0.000000 1.000000 0.000285
0.000000 1.000000 0.000285
0.000000 0.994657 0.000333
0.000032 0.963456 0.000968
0.000047 0.933488 0.000213
0.000000 0.912746 0.000280
0.000029 0.897672 0.000371
0.008819 0.883584 0.000300
0.099245 0.856683 0.000495
0.255372 0.825330 0.000581
0.410221 0.800423 0.000330
0.511192 0.783340 0.000279
0.587432 0.770501 0.000161
0.652234 0.759717 0.000000
0.705473 0.750831 0.000009
0.754918 0.742584 0.000024
0.802660 0.735472 0.000029
0.847620 0.728955 0.000023
0.889666 0.723343 0.000038
0.929098 0.718073 0.000045
0.961429 0.713268 0.000034
0.975024 0.709542 0.000011
0.988417 0.705940 0.000000
0.999309 0.702771 0.000006
0.999330 0.701530 0.000037
0.999324 0.700402 0.000058
0.999295 0.699378 0.000072
0.999186 0.700452 0.000060
0.999077 0.702683 0.000045
0.999006 0.704970 0.000037
0.998971 0.707310 0.000038
0.999080 0.709104 0.000114
0.999296 0.710498 0.000260
0.000000 1.000000 0.000285
0.000000 1.000000 0.000285
0.000000 1.000000 0.000285
0.000007 0.979322 0.000984
0.000000 0.951865 0.000141
0.000000 0.929941 0.000438
0.000000 0.914384 0.000339
0.000000 0.902110 0.000143
0.057201 0.879555 0.000481
0.195056 0.848242 0.000660
0.361139 0.820725 0.000324
0.473437 0.801905 0.000316
0.557083 0.787604 0.000192
0.626589 0.775672 0.000029
0.681074 0.766479 0.000028
0.731615 0.757863 0.000042
0.779676 0.750522 0.000041
0.824960 0.743818 0.000025
0.868072 0.737784 0.000039
0.908556 0.732093 0.000050
0.943656 0.726876 0.000043
0.963154 0.722932 0.000015
0.982226 0.718994 0.000006
0.998387 0.715404 0.000002
0.998621 0.713450 0.000014
0.998870 0.711661 0.000023
0.999132 0.710022 0.000029
0.999157 0.710187 0.000023
0.999050 0.711538 0.000013
0.998977 0.712964 0.000006
0.998934 0.714458 0.000001
0.999040 0.715995 0.000075
0.999263 0.717570 0.000236
0.000000 1.000000 0.000285
0.000000 1.000000 0.000285
0.000000 1.000000 0.000285
0.000000 0.988121 0.000658
0.000000 0.969168 0.000216
0.000000 0.946858 0.000660
0.000000 0.930969 0.000411
0.000000 0.918229 0.000179
0.032494 0.900201 0.000465
0.139621 0.872583 0.000624
0.300727 0.842739 0.000337
0.429132 0.821560 0.000242
0.522930 0.805466 0.000154
0.598223 0.792264 0.000096
0.655854 0.782475 0.000066
0.709105 0.773314 0.000067
0.757461 0.765587 0.000052
0.802941 0.758503 0.000021
0.846579 0.752106 0.000038
0.887786 0.746124 0.000067
0.925062 0.740595 0.000079
0.950324 0.736209 0.000044
0.974627 0.731901 0.000019
0.996119 0.727921 0.000004
0.996902 0.725688 0.000044
0.997783 0.723611 0.000072
0.998754 0.721679 0.000088
0.999170 0.721189 0.000070
0.999134 0.721794 0.000039
0.999140 0.722437 0.000017
0.999185 0.723115 0.000004
0.999277 0.724105 0.000045
0.999367 0.725460 0.000147
0.000000 1.000000 0.000285
0.000000 1.000000 0.000285
0.000000 1.000000 0.000285
0.000000 0.995384 0.000411
0.000000 0.985714 0.000196
0.000000 0.963160 0.000885
0.000000 0.946825 0.000502
0.000000 0.933687 0.000232
0.012570 0.919326 0.000476
0.087914 0.896130 0.000596
0.240988 0.864127 0.000380
0.385109 0.840601 0.000161
0.489534 0.822662 0.000111
0.570161 0.808290 0.000145
0.631356 0.797817 0.000101
0.687395 0.788133 0.000097
0.736099 0.780004 0.000067
0.781746 0.772548 0.000020
0.825868 0.765815 0.000041
0.867808 0.759569 0.000087
0.906776 0.753765 0.000121
0.937455 0.748937 0.000072
0.966715 0.744307 0.000031
0.993694 0.739944 0.000003
0.995060 0.737433 0.000066
0.996600 0.735073 0.000109
0.998300 0.732851 0.000133
0.999179 0.731744 0.000106
0.999217 0.731606 0.000057
0.999304 0.731474 0.000024
0.999438 0.731347 0.000005
0.999530 0.731749 0.000018
0.999456 0.732941 0.000072
0.000000 1.000000 0.000285
0.000000 1.000000 0.000285
0.000000 1.000000 0.000285
0.000000 1.000000 0.000285
0.000000 0.998137 0.000145
0.000000 0.977235 0.001012
0.000000 0.961496 0.000560
0.000000 0.948492 0.000292
0.000126 0.936523 0.000484
0.045487 0.918010 0.000545
0.180963 0.885623 0.000412
0.338416 0.859744 0.000119
0.453835 0.839855 0.000080
0.540970 0.824235 0.000167
0.606220 0.812987 0.000134
0.665163 0.802763 0.000133
0.714722 0.794191 0.000093
0.760816 0.786340 0.000034
0.805349 0.779289 0.000048
0.847831 0.772823 0.000104
0.887843 0.766732 0.000147
0.922762 0.761556 0.000087
0.955982 0.756614 0.000038
0.987660 0.751887 0.000000
0.990829 0.749071 0.000076
0.993989 0.746418 0.000130
0.997315 0.743902 0.000163
0.999171 0.742257 0.000139
0.999276 0.741475 0.000079
0.999432 0.740679 0.000036
0.999637 0.739871 0.000009
0.999715 0.739734 0.000008
0.999509 0.740781 0.000033
0.000000 1.000000 0.000285
0.000000 1.000000 0.000285
0.000000 1.000000 0.000285
0.000000 1.000000 0.000285
0.000000 0.998939 0.000205
0.000000 0.984847 0.000795
0.000000 0.973618 0.000471
0.000000 0.962544 0.000296
0.000081 0.951018 0.000380
0.026937 0.935529 0.000385
0.119875 0.908744 0.000287
0.282816 0.880611 0.000132
0.408550 0.858542 0.000100
0.506567 0.841291 0.000162
0.577388 0.829029 0.000168
0.639785 0.818118 0.000171
0.691344 0.809007 0.000131
0.738904 0.800654 0.000075
0.783835 0.793274 0.000067
0.826204 0.786663 0.000097
0.866402 0.780364 0.000121
0.902758 0.774853 0.000073
0.937328 0.769606 0.000033
0.970292 0.764592 0.000001
0.979296 0.761359 0.000072
0.987013 0.758376 0.000141
0.994691 0.755545 0.000205
0.999131 0.753509 0.000210
0.999271 0.752393 0.000147
0.999449 0.751272 0.000088
0.999663 0.750147 0.000033
0.999695 0.749665 0.000017
0.999472 0.750480 0.000035
0.000000 1.000000 0.000285
0.000000 1.000000 0.000285
0.000000 1.000000 0.000285
0.000000 1.000000 0.000285
0.000000 0.999508 0.000248
0.000000 0.991626 0.000583
0.000000 0.984972 0.000384
0.000000 0.976058 0.000262
0.000042 0.964898 0.000249
0.012902 0.951741 0.000208
0.066553 0.930690 0.000163
0.228737 0.900921 0.000131
0.363649 0.876722 0.000124
0.472315 0.857888 0.000180
0.549134 0.844559 0.000207
0.614869 0.832973 0.000198
0.668544 0.823289 0.000156
0.717548 0.814420 0.000107
0.763006 0.806690 0.000083
0.805372 0.799941 0.000090
0.845693 0.793507 0.000097
0.883438 0.787667 0.000062
0.919311 0.782126 0.000030
0.953517 0.776839 0.000002
0.967864 0.773207 0.000075
0.979963 0.769907 0.000166
0.991827 0.766773 0.000266
0.999113 0.764360 0.000304
0.999280 0.762919 0.000231
0.999474 0.761483 0.000150
0.999669 0.760035 0.000066
0.999689 0.759164 0.000017
0.999454 0.759739 0.000030
0.000000 1.000000 0.000285
0.000000 1.000000 0.000285
0.000000 1.000000 0.000285
0.000000 1.000000 0.000285
0.000000 0.999885 0.000276
0.000000 0.997620 0.000375
0.000000 0.995598 0.000311
0.000000 0.989069 0.000191
0.000011 0.978235 0.000092
0.003049 0.966860 0.000063
0.018948 0.951378 0.000048
0.176125 0.920719 0.000117
0.319062 0.894439 0.000150
0.438166 0.874066 0.000215
0.521407 0.859619 0.000253
0.590372 0.847367 0.000216
0.646269 0.837083 0.000169
0.696698 0.827684 0.000128
0.742807 0.819579 0.000095
0.785303 0.812755 0.000088
