output/AP0_display/AP0_to_REALA-ACE_33grid.cube
TITLE "AP0_to_REALA-ACE"
# Input: Linear ACES2065-1 / AP0 (D60)
# Output: BT.709 / Gamma 2.2 (display-referred)
# Use: Display/output transform in ACES pipeline (replaces ODT)
# Source: FLog2C_to_REALA-ACE_65grid_V.1.00.cube
# Generated from Fujifilm GFX ETERNA 55 F-Log2C LUT
LUT_3D_SIZE 33
0.000200 0.000111 0.000001
0.356730 0.000113 0.015423
0.617488 0.000306 0.047503
0.776981 0.000316 0.109060
0.873972 0.122908 0.223533
0.906747 0.175126 0.319498
0.911918 0.193640 0.390187
0.917348 0.215838 0.420239
0.922656 0.241858 0.432412
0.927996 0.268456 0.445236
0.934918 0.296744 0.459970
0.938735 0.314572 0.468610
0.940754 0.326062 0.473533
0.940894 0.327079 0.473874
0.940828 0.327144 0.473709
0.940825 0.327148 0.473700
0.940825 0.327148 0.473700
0.940825 0.327148 0.473700
0.940825 0.327148 0.473700
0.940825 0.327148 0.473700
0.940825 0.327148 0.473700
0.940825 0.327148 0.473700
0.940825 0.327148 0.473700
0.940825 0.327148 0.473700
0.940825 0.327148 0.473700
0.940825 0.327148 0.473700
0.940825 0.327148 0.473700
0.940825 0.327148 0.473700
0.940825 0.327148 0.473700
0.940825 0.327148 0.473700
0.940825 0.327148 0.473700
0.940825 0.327148 0.473700
0.940825 0.327148 0.473700
0.000299 0.180536 0.000487
0.158148 0.109343 0.000167
0.390880 0.084524 0.000089
0.548073 0.057478 0.000205
0.666246 0.040314 0.014915
0.754137 0.044319 0.055519
0.820827 0.076169 0.110928
0.870918 0.138322 0.180294
0.904310 0.183481 0.244334
0.909442 0.193531 0.296437
0.913528 0.205266 0.349339
0.916555 0.216088 0.381515
0.918997 0.226346 0.399133
0.921367 0.239137 0.409810
0.923602 0.251496 0.418979
0.927321 0.265868 0.428624
0.930771 0.279378 0.437674
0.933644 0.292768 0.446512
0.936280 0.306116 0.454871
0.938824 0.318937 0.462512
0.939719 0.322189 0.465876
0.940672 0.325254 0.469331
0.941601 0.328235 0.472994
0.941372 0.328099 0.473343
0.941137 0.327782 0.473524
0.940929 0.327393 0.473651
0.940825 0.327148 0.473700
0.940825 0.327148 0.473700
0.940825 0.327148 0.473700
0.940825 0.327148 0.473700
0.940825 0.327148 0.473700
0.940825 0.327148 0.473700
0.940825 0.327148 0.473700
0.035664 0.331244 0.015689
0.046183 0.228421 0.000348
0.286630 0.202712 0.000135
0.448252 0.178479 0.000117
0.574729 0.167369 0.000000
0.672069 0.161322 0.000027
0.744268 0.166806 0.005572
0.802561 0.174779 0.032203
0.851461 0.189218 0.076209
0.893500 0.219866 0.129770
0.913584 0.243691 0.180286
0.923992 0.259766 0.225601
0.926356 0.269394 0.266497
0.929065 0.277742 0.298121
0.931781 0.285387 0.326602
0.933123 0.292788 0.340359
0.934289 0.299693 0.350801
0.936044 0.307391 0.360951
0.937971 0.315366 0.371159
0.939647 0.322771 0.381078
0.941669 0.332359 0.390464
0.943627 0.341713 0.399200
0.945619 0.350569 0.407755
0.947239 0.356735 0.415153
0.948755 0.362501 0.422252
0.950198 0.368072 0.429142
0.950866 0.370944 0.433925
0.950485 0.370067 0.435665
0.950142 0.369279 0.437236
0.949831 0.368575 0.438649
0.949588 0.367806 0.439807
0.949441 0.366844 0.440764
0.949299 0.365969 0.441715
0.126291 0.447518 0.088368
0.026528 0.320450 0.010642
0.194100 0.287318 0.000268
0.371439 0.270202 0.000096
0.498972 0.253818 0.000280
0.603242 0.245847 0.000016
0.687067 0.241780 0.000338
0.752865 0.242181 0.000735
0.803957 0.251954 0.006073
0.850203 0.263765 0.027930
0.890984 0.281472 0.068168
0.917976 0.298222 0.108436
0.932432 0.314851 0.148328
0.937902 0.325575 0.185331
0.940849 0.334360 0.219180
0.943225 0.341174 0.244255
0.945337 0.347203 0.266619
0.946457 0.351468 0.282873
0.946794 0.354408 0.293960
0.947060 0.357202 0.304050
0.948398 0.362237 0.315664
0.949745 0.367096 0.327434
0.951112 0.371831 0.338624
0.952708 0.378916 0.348323
0.954223 0.385689 0.357642
0.955627 0.391832 0.366731
0.956778 0.396740 0.375105
0.957620 0.400317 0.382219
0.958454 0.403933 0.388936
0.959282 0.407586 0.395285
0.959795 0.409870 0.400078
0.959553 0.408771 0.401600
0.959331 0.407721 0.403151
0.191079 0.540841 0.142545
0.094537 0.402961 0.061304
0.130515 0.356105 0.015341
0.304243 0.340116 0.000022
0.442214 0.326883 0.000067
0.546529 0.314472 0.000001
0.633599 0.306936 0.000203
0.704677 0.303805 0.000003
0.764082 0.304183 0.000436
0.812692 0.310245 0.002936
0.855739 0.322109 0.018512
0.893160 0.337189 0.043063
0.925394 0.354961 0.077188
0.939372 0.367378 0.107103
0.946979 0.377672 0.133373
0.950798 0.386649 0.161212
0.953544 0.395089 0.187900
0.955265 0.400206 0.207933
0.955833 0.402162 0.222686
0.956191 0.403991 0.237041
0.957046 0.406366 0.249347
0.958053 0.408543 0.261028
0.958964 0.410519 0.271814
0.959842 0.413960 0.281968
0.960698 0.417523 0.291706
0.961526 0.420897 0.301054
0.962350 0.424316 0.310129
0.963153 0.428068 0.318947
0.963872 0.431682 0.327292
0.964513 0.435168 0.335198
0.965079 0.438143 0.342683
0.965487 0.439525 0.349630
0.965875 0.440836 0.356307
0.245747 0.617299 0.189597
0.146004 0.475327 0.103836
0.126125 0.421149 0.067903
0.243025 0.396245 0.006114
0.389952 0.384844 0.000610
0.501125 0.373404 0.000442
0.588482 0.364601 0.000016
0.662228 0.357973 0.000104
0.725404 0.354832 0.000314
0.779102 0.355254 0.000064
0.825500 0.363001 0.002120
0.866432 0.374164 0.013154
0.902493 0.387663 0.037071
0.927233 0.400905 0.060152
0.946612 0.413781 0.083027
0.953940 0.423547 0.103125
0.956851 0.431912 0.120474
0.959116 0.438684 0.137963
0.960900 0.443959 0.156329
0.962743 0.449199 0.173441
0.963684 0.450305 0.186714
0.964344 0.450489 0.198934
0.964915 0.450711 0.210024
0.965640 0.451971 0.221885
0.966443 0.453619 0.233087
0.967270 0.455391 0.243226
0.968099 0.457535 0.252875
0.968840 0.460262 0.263231
0.969524 0.462751 0.273160
0.970153 0.465019 0.282690
0.970670 0.466955 0.292362
0.971029 0.468057 0.300565
0.971425 0.469166 0.308173
0.317085 0.689192 0.253851
0.190307 0.540384 0.142106
0.151329 0.478237 0.105030
0.211933 0.449576 0.054573
0.334904 0.433483 0.005214
0.456561 0.426122 0.000182
0.548878 0.416238 0.000073
0.624795 0.408096 0.000182
0.692359 0.403876 0.000011
0.748006 0.402892 0.000217
0.797842 0.405641 0.000394
0.841669 0.411310 0.003892
0.878802 0.420576 0.013278
0.911984 0.433641 0.036313
0.942227 0.447911 0.065531
0.953991 0.457092 0.078087
0.957971 0.464194 0.084052
0.961355 0.471376 0.094710
0.963735 0.478513 0.110906
0.965995 0.485197 0.126522
0.966714 0.486419 0.138107
0.967108 0.486243 0.148592
0.967521 0.486052 0.158997
0.968153 0.486053 0.170366
0.968906 0.486244 0.181504
0.969711 0.486563 0.192034
0.970569 0.487280 0.202171
0.971407 0.488913 0.212200
0.972163 0.490388 0.221490
0.972848 0.491828 0.230521
0.973531 0.493414 0.239742
0.974184 0.495237 0.249475
0.974797 0.497013 0.258758
0.402754 0.752615 0.333719
0.230568 0.598380 0.176207
0.184133 0.531508 0.137231
0.204387 0.498126 0.104117
0.299490 0.479402 0.039019
0.410446 0.468856 0.002462
0.511964 0.462007 0.000037
0.592543 0.454921 0.000583
0.660427 0.448725 0.000001
0.719219 0.447714 0.000062
0.770421 0.449285 0.000041
0.816085 0.452888 0.000041
0.856053 0.458395 0.000148
0.891380 0.467121 0.013128
0.923188 0.477510 0.033265
0.943039 0.486940 0.049656
0.956416 0.495903 0.063844
0.964941 0.503502 0.073760
0.966298 0.508857 0.078076
0.967661 0.513774 0.082964
0.968662 0.516155 0.092696
0.969459 0.517555 0.104151
0.970165 0.518803 0.115758
0.970615 0.518582 0.126571
0.971113 0.517947 0.136704
0.971753 0.517494 0.146503
0.972533 0.517417 0.156267
0.973394 0.518319 0.166906
0.974241 0.519155 0.177123
0.974889 0.519989 0.187165
0.975530 0.520867 0.196887
0.976012 0.522021 0.206182
0.976524 0.523146 0.215345
0.477258 0.806928 0.405969
0.275087 0.654082 0.215055
0.216408 0.577748 0.164221
0.209573 0.542636 0.139059
0.278878 0.521167 0.092233
0.372802 0.508742 0.019920
0.472034 0.501491 0.000151
0.561958 0.496966 0.000456
0.632270 0.492997 0.000009
0.692665 0.489406 0.000290
0.745689 0.489368 0.000197
0.793536 0.492124 0.000025
0.836256 0.497196 0.000037
0.873394 0.502832 0.002764
0.906225 0.509104 0.007123
0.932211 0.516859 0.023082
0.953751 0.525370 0.046079
0.967970 0.532525 0.060121
0.969105 0.537605 0.058027
0.970223 0.542224 0.056139
0.970984 0.545082 0.060429
0.971564 0.547401 0.067918
0.972108 0.549832 0.076065
0.972711 0.549907 0.085686
0.973453 0.548757 0.095808
0.974300 0.547645 0.105873
0.975190 0.546698 0.115986
0.975751 0.546625 0.126621
0.976184 0.546586 0.136888
0.976510 0.546503 0.146838
0.976833 0.546431 0.156623
0.977341 0.547001 0.166079
0.977876 0.547491 0.175450
0.538889 0.848965 0.466260
0.341797 0.707148 0.275934
0.247310 0.621185 0.190067
0.224868 0.583333 0.166289
0.268559 0.561522 0.134698
0.351786 0.548235 0.078960
0.438440 0.539800 0.005043
0.527971 0.534547 0.000169
0.604831 0.530124 0.000006
0.668518 0.527763 0.000051
0.724253 0.527798 0.000177
0.773477 0.529214 0.000195
0.815681 0.532339 0.000056
0.854064 0.536344 0.000424
0.889407 0.541176 0.001149
0.919872 0.547586 0.011151
0.946410 0.554877 0.027621
0.965339 0.560908 0.038764
0.968660 0.564808 0.039406
0.971870 0.568469 0.040228
0.973217 0.572175 0.040259
0.973623 0.575764 0.039931
0.974028 0.579129 0.039717
0.974259 0.579155 0.043839
0.974498 0.577315 0.051168
0.974868 0.575638 0.059101
0.975368 0.574153 0.067806
0.976010 0.573207 0.078810
0.976633 0.572219 0.089996
0.977200 0.571197 0.100956
0.977716 0.570156 0.111703
0.978155 0.570185 0.122074
0.978511 0.570204 0.132096
0.589639 0.882702 0.517639
0.409634 0.757554 0.340178
0.289131 0.663397 0.228584
0.248766 0.622961 0.191516
0.267680 0.598264 0.165975
0.338420 0.584582 0.124340
0.417422 0.575320 0.058206
0.499856 0.569182 0.014789
0.579161 0.564807 0.001865
0.645710 0.563593 0.000162
0.703842 0.563027 0.000100
0.754960 0.563299 0.000129
0.798431 0.565994 0.000218
0.837426 0.569237 0.000203
0.872661 0.573449 0.000064
0.904593 0.578368 0.003924
0.933322 0.583693 0.010990
0.955915 0.588473 0.016789
0.964441 0.592338 0.020702
0.972702 0.596001 0.024510
0.975925 0.599448 0.024658
0.976066 0.602663 0.022587
0.976211 0.605675 0.020580
0.976242 0.605829 0.021656
0.976263 0.604064 0.025273
0.976379 0.602462 0.029177
0.976589 0.600985 0.033502
0.977022 0.599088 0.041600
0.977476 0.597231 0.050093
0.977912 0.595415 0.058714
0.978331 0.593635 0.067454
0.979007 0.593480 0.077728
0.979612 0.593330 0.087879
0.629564 0.908725 0.558612
0.474165 0.803999 0.402815
0.336225 0.703488 0.272260
0.280621 0.660308 0.220410
0.275784 0.632884 0.194751
0.330361 0.618471 0.161572
0.402131 0.608671 0.113812
0.477631 0.601913 0.045718
0.555588 0.597562 0.012474
0.623846 0.596396 0.002636
0.684134 0.595664 0.000131
0.737269 0.595378 0.000036
0.782543 0.597588 0.000325
0.822405 0.599806 0.000361
0.857249 0.602807 0.000118
0.889577 0.606084 0.000128
0.919182 0.609489 0.000197
0.944263 0.612670 0.001259
0.958508 0.616558 0.006454
0.972281 0.620242 0.011372
0.978086 0.623652 0.012328
0.978068 0.626800 0.010486
0.978060 0.629765 0.008737
0.978014 0.630387 0.008263
0.977959 0.629091 0.008835
0.977944 0.627901 0.009348
0.977972 0.626802 0.009861
0.978132 0.624118 0.014621
0.978320 0.621556 0.019774
0.978535 0.619108 0.025289
0.978773 0.616765 0.031138
0.979549 0.616200 0.039943
0.980342 0.615740 0.049133
0.652812 0.922703 0.582426
0.531111 0.843977 0.458768
0.388104 0.741754 0.320241
0.326314 0.695911 0.262382
0.301037 0.667622 0.229020
0.330590 0.651454 0.192881
0.392200 0.641169 0.152951
0.462571 0.635077 0.100947
0.534467 0.629804 0.044027
0.602386 0.626943 0.012294
0.663971 0.626362 0.000438
0.719677 0.626824 0.000019
0.766813 0.627965 0.000231
0.807943 0.628220 0.000234
0.843226 0.627724 0.000066
0.875621 0.628265 0.000115
0.904848 0.629914 0.000347
0.931059 0.631616 0.000727
0.950746 0.634950 0.002265
0.969686 0.638256 0.003730
0.978543 0.642433 0.004038
0.978706 0.647100 0.003383
0.978901 0.651379 0.002781
0.979058 0.653330 0.002580
0.979127 0.653050 0.002754
0.979169 0.652750 0.002909
0.979158 0.652372 0.003143
0.979007 0.649301 0.004621
0.978896 0.646275 0.006265
0.978829 0.643401 0.008015
0.978801 0.640672 0.009864
0.979262 0.639201 0.014554
0.979876 0.638034 0.020263
0.663656 0.929187 0.593484
0.580805 0.877267 0.508462
0.436075 0.776833 0.365732
0.370915 0.729365 0.303939
0.334017 0.699953 0.265912
0.343052 0.682212 0.229605
0.390980 0.671198 0.192277
0.453658 0.665293 0.148109
0.520033 0.660009 0.085549
0.585273 0.656569 0.037080
0.646026 0.654994 0.010314
0.702236 0.654249 0.000008
0.750727 0.653872 0.000119
0.793159 0.652801 0.000105
0.829250 0.650901 0.000021
0.862131 0.649941 0.000091
0.891374 0.650191 0.000297
0.918293 0.650638 0.000412
0.941304 0.652921 0.000305
0.963306 0.655201 0.000217
0.975279 0.658785 0.000134
0.977118 0.663528 0.000063
0.978964 0.667943 0.000016
0.980056 0.671148 0.000000
0.980123 0.673014 0.000000
0.980111 0.674744 0.000001
0.979964 0.676156 0.000000
0.979812 0.673210 0.000035
0.979697 0.670018 0.000073
0.979617 0.666981 0.000109
0.979569 0.664090 0.000144
0.979634 0.662025 0.002270
0.979845 0.660287 0.005413
0.663656 0.929187 0.593484
0.622930 0.903773 0.551554
0.480591 0.808831 0.408844
0.413876 0.760887 0.344671
0.372817 0.730188 0.304694
0.366621 0.711248 0.270862
0.398145 0.699258 0.232988
0.450726 0.692911 0.189029
0.510946 0.688198 0.133614
0.572070 0.685021 0.075132
0.630302 0.681983 0.030109
0.684807 0.678450 0.000499
0.734359 0.676071 0.000034
0.778122 0.673879 0.000027
0.815286 0.672421 0.000004
0.849018 0.671247 0.000026
0.878636 0.670375 0.000090
0.906207 0.669771 0.000128
0.930656 0.670461 0.000094
0.953861 0.671056 0.000066
0.968589 0.672992 0.000040
0.973400 0.676726 0.000018
0.978145 0.680416 0.000005
0.981007 0.684655 0.000000
0.980980 0.689676 0.000000
0.980819 0.694314 0.000008
0.980552 0.698453 0.000002
0.980605 0.696132 0.000095
0.980718 0.693000 0.000201
0.980835 0.689995 0.000303
0.980956 0.687108 0.000402
0.980563 0.684629 0.001066
0.980141 0.682355 0.002070
0.663656 0.929187 0.593484
0.650421 0.920944 0.579905
0.521317 0.837316 0.448778
0.453498 0.789623 0.382864
0.410796 0.758649 0.341648
0.393624 0.738519 0.309636
0.411823 0.725633 0.273461
0.454190 0.718812 0.231706
0.507191 0.714214 0.181311
0.562887 0.710334 0.120067
0.617334 0.706153 0.063555
0.669445 0.701145 0.018100
0.718776 0.697340 0.006726
0.762989 0.694104 0.000006
0.801364 0.692357 0.000000
0.836282 0.690873 0.000007
0.866407 0.689630 0.000028
0.894575 0.688651 0.000041
0.919798 0.688217 0.000021
0.943668 0.687687 0.000006
0.960785 0.688313 0.000000
0.968797 0.690914 0.000000
0.976668 0.693589 0.000000
0.981725 0.697463 0.000002
0.981626 0.703355 0.000012
0.981373 0.708770 0.000029
0.981048 0.713733 0.000017
0.981114 0.712676 0.000102
0.981259 0.710490 0.000207
0.981393 0.708405 0.000310
0.981516 0.706414 0.000409
0.981096 0.704319 0.000369
0.980576 0.702214 0.000286
0.663656 0.929187 0.593484
0.660807 0.927379 0.590582
0.558374 0.862575 0.485596
0.490539 0.815812 0.419176
0.447621 0.785237 0.376886
0.423901 0.763956 0.346284
0.431955 0.750628 0.313649
0.464399 0.743183 0.276195
0.509296 0.738376 0.229368
0.558085 0.733075 0.171245
0.607174 0.727699 0.110879
0.656304 0.722302 0.052970
0.704028 0.717766 0.021760
0.747584 0.713795 0.000011
0.787498 0.711060 0.000008
0.823739 0.708949 0.000018
0.854468 0.708022 0.000076
0.883179 0.707278 0.000113
0.908633 0.706275 0.000058
0.932706 0.705243 0.000018
0.951819 0.704963 0.000000
0.963295 0.706166 0.000000
0.974550 0.707413 0.000000
0.982263 0.709712 0.000005
0.982057 0.714205 0.000036
0.981787 0.718477 0.000051
0.981508 0.722569 0.000040
0.981449 0.723129 0.000065
0.981442 0.722790 0.000104
0.981424 0.722522 0.000143
0.981394 0.722320 0.000184
0.981274 0.721417 0.000188
0.981166 0.720165 0.000183
0.663656 0.929187 0.593484
0.663656 0.929187 0.593484
0.593444 0.886100 0.520824
0.525544 0.840190 0.453604
0.481797 0.809750 0.409686
0.453595 0.787877 0.380656
0.452081 0.774134 0.350882
0.475312 0.765845 0.317265
0.512473 0.760594 0.273898
0.554724 0.754344 0.219288
0.598517 0.747981 0.157647
0.644684 0.742148 0.089570
0.690599 0.736998 0.040802
0.733147 0.732431 0.003441
0.774329 0.728809 0.001544
0.811603 0.726021 0.000087
0.842889 0.725244 0.000145
0.872090 0.724589 0.000160
0.897851 0.723167 0.000085
0.922150 0.721718 0.000028
0.942916 0.720709 0.000000
0.957627 0.720673 0.000000
0.971997 0.720668 0.000000
0.982386 0.721509 0.000014
0.982201 0.724719 0.000051
0.982054 0.727972 0.000064
0.981942 0.731264 0.000055
0.981844 0.733006 0.000036
0.981738 0.734231 0.000022
0.981626 0.735506 0.000010
0.981508 0.736828 0.000002
0.981579 0.736995 0.000034
0.981767 0.736454 0.000091
0.663656 0.929187 0.593484
0.663656 0.929187 0.593484
0.621279 0.903362 0.549728
0.555235 0.860126 0.483555
0.512503 0.831143 0.440052
0.484217 0.810224 0.412039
0.474831 0.794951 0.382844
0.490515 0.785032 0.351809
0.520247 0.777696 0.311600
0.556796 0.771313 0.262107
0.596293 0.765957 0.205747
0.638274 0.760300 0.139724
0.681453 0.754874 0.082154
0.722252 0.750024 0.033152
0.762402 0.745924 0.015174
0.799101 0.742503 0.000721
0.830930 0.740936 0.000523
0.860697 0.739471 0.000197
0.886904 0.737937 0.000097
0.911532 0.736379 0.000040
0.933572 0.735114 0.000000
0.950704 0.734776 0.000000
0.967125 0.734529 0.000000
0.979742 0.734723 0.000018
0.980502 0.736683 0.000040
0.981248 0.738668 0.000050
0.981982 0.740674 0.000049
0.982277 0.742234 0.000039
0.982411 0.743684 0.000027
0.982579 0.745240 0.000016
0.982779 0.746894 0.000005
0.982818 0.747451 0.000021
0.982728 0.747218 0.000057
0.663656 0.929187 0.593484
0.663656 0.929187 0.593484
0.645938 0.918556 0.575202
0.582842 0.878835 0.511715
0.541905 0.851639 0.469280
0.513663 0.831386 0.441636
0.496967 0.814697 0.412957
0.505364 0.803284 0.384268
0.528017 0.794021 0.347085
0.558985 0.787164 0.302128
0.594527 0.782859 0.250960
0.632443 0.777403 0.186884
0.672869 0.771784 0.122332
0.711944 0.766842 0.063174
0.751076 0.762257 0.029725
0.787121 0.758231 0.001500
0.819501 0.755877 0.001001
0.849838 0.753607 0.000300
0.876507 0.751877 0.000125
0.901456 0.750192 0.000059
0.924498 0.748685 0.000000
0.943816 0.748086 0.000000
0.962134 0.747620 0.000002
0.977152 0.747335 0.000011
0.978805 0.748076 0.000023
0.980395 0.748826 0.000035
0.981928 0.749585 0.000048
0.982666 0.750865 0.000047
0.983051 0.752563 0.000037
0.983508 0.754418 0.000024
0.984030 0.756416 0.000008
0.984084 0.757381 0.000009
0.983708 0.757462 0.000023
0.663656 0.929187 0.593484
0.663656 0.929187 0.593484
0.661031 0.927730 0.590744
0.607913 0.895210 0.537187
0.568880 0.869818 0.496378
0.540406 0.850088 0.468169
0.519293 0.833017 0.440778
0.520787 0.820374 0.413644
0.536766 0.809491 0.378769
0.562806 0.801864 0.337839
0.594981 0.798028 0.291867
0.629419 0.792690 0.231317
0.666935 0.787454 0.165277
0.703749 0.782718 0.101151
0.741436 0.777848 0.055553
0.776291 0.773464 0.015083
0.808730 0.770367 0.008370
0.839116 0.767335 0.001595
0.866298 0.765325 0.000156
0.891724 0.763560 0.000077
0.915523 0.761908 0.000000
0.936131 0.760934 0.000000
0.955717 0.760122 0.000000
0.972667 0.759363 0.000002
0.975770 0.759226 0.000023
0.978763 0.759092 0.000045
0.981656 0.758961 0.000070
0.983024 0.759865 0.000070
0.983517 0.761572 0.000052
0.984112 0.763422 0.000032
0.984801 0.765403 0.000011
0.984941 0.766452 0.000007
0.984464 0.766596 0.000019
0.663656 0.929187 0.593484
0.663656 0.929187 0.593484
0.663377 0.929034 0.593190
0.629020 0.908047 0.558396
0.592612 0.884740 0.520491
0.563536 0.865689 0.491283
0.542069 0.849729 0.466154
0.537419 0.836313 0.439822
0.547004 0.824101 0.406044
0.569045 0.815649 0.368711
0.598423 0.811247 0.327689
0.630226 0.805905 0.273245
0.664668 0.801420 0.212131
0.698598 0.797399 0.150298
0.734064 0.792615 0.097324
0.766965 0.788296 0.048825
0.798677 0.784518 0.026919
0.828301 0.780782 0.005480
0.855942 0.778477 0.000163
0.882077 0.776779 0.000076
0.906579 0.775210 0.000000
0.927385 0.773637 0.000000
0.947231 0.772169 0.000000
0.965223 0.770847 0.000004
0.970638 0.770326 0.000047
0.975891 0.769808 0.000083
0.980994 0.769292 0.000111
0.983359 0.769770 0.000099
0.983743 0.771070 0.000063
0.984254 0.772418 0.000034
0.984882 0.773808 0.000010
0.985139 0.774438 0.000019
0.984815 0.774328 0.000061
0.663656 0.929187 0.593484
0.663656 0.929187 0.593484
0.663656 0.929187 0.593484
0.647820 0.919486 0.577336
0.615105 0.898782 0.543343
0.585865 0.880619 0.513698
0.564069 0.865639 0.490190
0.553938 0.851737 0.465050
0.557164 0.838185 0.432046
0.575215 0.828922 0.397936
0.601887 0.823850 0.361306
0.631265 0.818611 0.313171
0.662731 0.814605 0.256821
0.693926 0.811229 0.197524
0.727113 0.806633 0.138188
0.758096 0.802472 0.083322
0.789024 0.798020 0.046231
0.817887 0.793577 0.010502
0.845829 0.790988 0.000157
0.872649 0.789431 0.000070
0.897882 0.788076 0.000000
0.918899 0.785805 0.000000
0.938967 0.783741 0.000000
0.957769 0.781914 0.000003
0.965426 0.781016 0.000064
0.972867 0.780120 0.000108
0.980110 0.779227 0.000135
0.983650 0.779254 0.000113
0.983943 0.780114 0.000065
0.984385 0.780934 0.000030
0.984965 0.781715 0.000008
0.985322 0.781919 0.000030
0.985070 0.781704 0.000097
0.663656 0.929187 0.593484
0.663656 0.929187 0.593484
0.663656 0.929187 0.593484
0.661185 0.927635 0.590875
0.634162 0.910663 0.562813
0.606653 0.894193 0.534741
0.584878 0.880150 0.512360
0.570596 0.866219 0.488813
0.567787 0.851521 0.456412
0.581690 0.841496 0.424807
0.605560 0.835676 0.391749
0.632766 0.830449 0.349318
0.661597 0.826707 0.298252
0.690382 0.823790 0.242387
0.721450 0.819581 0.180159
0.750710 0.815726 0.121965
0.780535 0.810850 0.071611
0.808452 0.805910 0.023229
0.836209 0.802978 0.005383
0.863258 0.801403 0.002604
0.888812 0.800023 0.000001
0.910200 0.797240 0.000003
0.930568 0.794775 0.000005
0.950008 0.792600 0.000007
0.959986 0.791357 0.000072
0.969613 0.790129 0.000115
0.978973 0.788910 0.000137
0.983882 0.788513 0.000110
0.984112 0.788958 0.000059
0.984503 0.789306 0.000024
0.985044 0.789564 0.000005
0.985407 0.789489 0.000034
0.985245 0.789187 0.000110
0.663656 0.929187 0.593484
0.663656 0.929187 0.593484
0.663656 0.929187 0.593484
0.662481 0.928442 0.592245
0.644119 0.916967 0.573245
0.623613 0.904505 0.552221
0.603259 0.891716 0.531289
0.587890 0.878675 0.509711
0.580119 0.863465 0.478092
0.589348 0.852818 0.447448
0.609814 0.846286 0.416761
0.635343 0.840925 0.378064
0.662271 0.837049 0.333305
0.689684 0.834149 0.284214
0.719109 0.830701 0.227036
0.746994 0.827488 0.172588
0.775066 0.822877 0.114538
0.801454 0.818164 0.058162
0.827834 0.814763 0.028239
0.853653 0.812441 0.013970
0.878245 0.810227 0.000124
0.900366 0.807502 0.000018
0.921363 0.805058 0.000029
0.941349 0.802877 0.000041
0.954063 0.801388 0.000082
0.965988 0.799964 0.000108
0.977515 0.798572 0.000117
0.984010 0.797897 0.000095
0.984223 0.798100 0.000056
0.984578 0.798228 0.000028
0.985067 0.798285 0.000008
0.985382 0.798174 0.000025
0.985364 0.797623 0.000077
0.663656 0.929187 0.593484
0.663656 0.929187 0.593484
0.663656 0.929187 0.593484
0.663260 0.928933 0.593067
0.652912 0.922496 0.582402
0.639372 0.914132 0.568442
0.620940 0.902797 0.549369
0.604931 0.890746 0.529784
0.592354 0.874957 0.498835
0.596986 0.863754 0.468983
0.614400 0.856499 0.439972
0.637897 0.850993 0.405222
0.663007 0.847026 0.366315
0.689158 0.844183 0.323947
0.717002 0.841367 0.271868
0.743539 0.838725 0.220996
0.769958 0.834435 0.156760
0.794885 0.829976 0.092809
0.819868 0.826198 0.051538
0.844607 0.823069 0.026052
0.868179 0.820066 0.001312
0.890933 0.817367 0.000041
0.912510 0.814932 0.000060
0.932996 0.812733 0.000081
0.948166 0.811031 0.000105
0.962290 0.809425 0.000115
0.975886 0.807872 0.000112
0.984089 0.806942 0.000092
0.984279 0.806917 0.000063
0.984595 0.806837 0.000037
0.985029 0.806726 0.000017
0.985396 0.806425 0.000021
0.985503 0.805633 0.000051
0.663656 0.929187 0.593484
0.663656 0.929187 0.593484
0.663656 0.929187 0.593484
0.663613 0.929159 0.593439
0.660615 0.927302 0.590362
0.653986 0.923096 0.583464
0.637967 0.913424 0.566647
0.621755 0.902475 0.549112
0.604513 0.886036 0.518721
0.604623 0.874335 0.489494
0.619046 0.866345 0.462102
0.640436 0.860679 0.430920
0.663793 0.856661 0.397396
0.688786 0.853912 0.361709
0.715119 0.851621 0.314810
0.740332 0.849484 0.267358
0.765186 0.845554 0.198327
0.788712 0.841375 0.127192
0.812294 0.837316 0.075291
0.836048 0.833331 0.038834
