output/AP0_display/AP0_to_ETERNA_33grid.cube
TITLE "AP0_to_ETERNA"
# Input: Linear ACES2065-1 / AP0 (D60)
# Output: BT.709 / Gamma 2.2 (display-referred)
# Use: Display/output transform in ACES pipeline (replaces ODT)
# Source: FLog2C_to_ETERNA_65grid_V.1.00.cube
# Generated from Fujifilm GFX ETERNA 55 F-Log2C LUT
LUT_3D_SIZE 33
0.006510 0.006095 0.006119
0.311200 0.031948 0.046593
0.544816 0.073959 0.074890
0.710966 0.110575 0.092245
0.829381 0.147499 0.106082
0.912910 0.181196 0.116362
0.936249 0.210217 0.122209
0.938737 0.234359 0.150270
0.941555 0.257700 0.195390
0.943031 0.281129 0.223198
0.944684 0.301394 0.244672
0.944759 0.316020 0.259223
0.943997 0.327214 0.269591
0.943955 0.328247 0.270503
0.943983 0.328389 0.270513
0.943984 0.328397 0.270514
0.943984 0.328397 0.270514
0.943984 0.328397 0.270514
0.943984 0.328397 0.270514
0.943984 0.328397 0.270514
0.943984 0.328397 0.270514
0.943984 0.328397 0.270514
0.943984 0.328397 0.270514
0.943984 0.328397 0.270514
0.943984 0.328397 0.270514
0.943984 0.328397 0.270514
0.943984 0.328397 0.270514
0.943984 0.328397 0.270514
0.943984 0.328397 0.270514
0.943984 0.328397 0.270514
0.943984 0.328397 0.270514
0.943984 0.328397 0.270514
0.943984 0.328397 0.270514
0.007457 0.194631 0.000937
0.170259 0.143849 0.005373
0.325276 0.139350 0.029110
0.467595 0.144080 0.049080
0.586710 0.152778 0.065528
0.680085 0.163393 0.077242
0.758357 0.175719 0.087266
0.823332 0.188919 0.093542
0.878014 0.202497 0.099610
0.923084 0.215497 0.104326
0.931595 0.228961 0.103738
0.935850 0.240614 0.110750
0.936834 0.251216 0.121672
0.938755 0.260551 0.149650
0.940728 0.268980 0.178474
0.941995 0.280274 0.198686
0.943029 0.290947 0.216686
0.943780 0.301111 0.231448
0.944480 0.310978 0.244450
0.945218 0.320388 0.256859
0.944802 0.323227 0.260898
0.944395 0.325966 0.264894
0.943979 0.328687 0.268897
0.943946 0.328795 0.269403
0.943946 0.328714 0.269820
0.943965 0.328535 0.270260
0.943984 0.328397 0.270514
0.943984 0.328397 0.270514
0.943984 0.328397 0.270514
0.943984 0.328397 0.270514
0.943984 0.328397 0.270514
0.943984 0.328397 0.270514
0.943984 0.328397 0.270514
0.007755 0.311780 0.000795
0.107525 0.228098 0.000195
0.258411 0.214653 0.007107
0.384489 0.213145 0.026125
0.495880 0.218428 0.040775
0.588373 0.224636 0.052752
0.666392 0.233810 0.063581
0.731586 0.243022 0.071664
0.788221 0.253323 0.078373
0.836654 0.265076 0.083387
0.878842 0.275903 0.087458
0.909693 0.286656 0.089960
0.931350 0.297081 0.091375
0.935656 0.305830 0.091276
0.936233 0.313840 0.090745
0.936410 0.318988 0.092092
0.936777 0.323293 0.093334
0.937688 0.327644 0.105822
0.938714 0.332059 0.125194
0.939561 0.336286 0.143430
0.939719 0.342555 0.162420
0.939835 0.348653 0.180586
0.940016 0.354478 0.198049
0.940333 0.359093 0.209551
0.940661 0.363519 0.220203
0.940986 0.367843 0.230485
0.941203 0.370211 0.237083
0.941182 0.369765 0.238591
0.941050 0.369315 0.240101
0.940817 0.368862 0.241614
0.940597 0.368234 0.242940
0.940659 0.367295 0.243894
0.940808 0.366445 0.244773
0.006828 0.419121 0.000134
0.035549 0.302689 0.000509
0.216949 0.277357 0.000120
0.334460 0.271742 0.008226
0.440462 0.272796 0.024273
0.531382 0.275399 0.036427
0.609147 0.282240 0.047155
0.673932 0.290435 0.055009
0.730269 0.299553 0.061545
0.779379 0.308395 0.068421
0.822633 0.317877 0.073225
0.860739 0.327081 0.077022
0.894444 0.336063 0.079832
0.915771 0.344538 0.081611
0.933391 0.352551 0.083063
0.935661 0.360282 0.081963
0.934568 0.367645 0.080279
0.934129 0.371939 0.079429
0.934275 0.373737 0.079329
0.934439 0.375301 0.079286
0.934378 0.377869 0.080857
0.934335 0.380455 0.082168
0.934348 0.383133 0.083374
0.935520 0.386784 0.105382
0.936718 0.390267 0.128969
0.937789 0.393454 0.151303
0.938399 0.396328 0.169090
0.938389 0.398950 0.180194
0.938435 0.401431 0.190996
0.938535 0.403782 0.201518
0.938681 0.405166 0.209303
0.938807 0.404571 0.210734
0.938969 0.403978 0.212278
0.007849 0.514079 0.000538
0.006926 0.375988 0.000474
0.179969 0.337462 0.000094
0.297861 0.325911 0.000924
0.401326 0.323011 0.009489
0.493251 0.325292 0.022455
0.568853 0.328334 0.033697
0.634489 0.334136 0.041908
0.690432 0.341930 0.048289
0.739034 0.349362 0.054579
0.782978 0.358015 0.059788
0.821607 0.366366 0.064104
0.855069 0.374427 0.066993
0.883901 0.382939 0.070912
0.909713 0.391274 0.074540
0.921188 0.399354 0.075704
0.928836 0.406993 0.076552
0.932573 0.412174 0.077174
0.932487 0.415252 0.077406
0.932385 0.418273 0.077686
0.932124 0.419049 0.077482
0.931800 0.419417 0.077017
0.931593 0.419659 0.076668
0.931818 0.421075 0.078463
0.932077 0.422729 0.080341
0.932299 0.424376 0.081890
0.932629 0.426162 0.087031
0.933295 0.428156 0.100080
0.934009 0.429989 0.112325
0.934768 0.431673 0.123821
0.935354 0.433161 0.135014
0.935450 0.434215 0.146861
0.935609 0.435224 0.158484
0.007810 0.595330 0.000604
0.007276 0.444780 0.000425
0.146802 0.396519 0.000102
0.266985 0.378418 0.000505
0.370481 0.371382 0.001022
0.460942 0.371098 0.010243
0.536687 0.372819 0.021326
0.602653 0.376551 0.029715
0.660271 0.381561 0.037897
0.708189 0.388858 0.044329
0.751317 0.396460 0.049250
0.789690 0.404290 0.053453
0.824138 0.412125 0.057477
0.853473 0.419172 0.062271
0.879317 0.425752 0.067235
0.900695 0.432719 0.070225
0.920119 0.439486 0.072513
0.930217 0.445978 0.073546
0.930320 0.452414 0.073197
0.930585 0.458688 0.072880
0.930204 0.458672 0.072895
0.929779 0.457477 0.073111
0.929506 0.456472 0.073447
0.929604 0.456044 0.073717
0.929757 0.455862 0.073905
0.929889 0.455805 0.074042
0.929961 0.456214 0.074004
0.929885 0.457548 0.073631
0.929765 0.458773 0.073310
0.929604 0.459898 0.073038
0.929706 0.460845 0.075152
0.930624 0.461504 0.087738
0.931481 0.462124 0.099850
0.008350 0.660892 0.000719
0.008044 0.510505 0.000264
0.106657 0.452941 0.000255
0.239790 0.428780 0.000524
0.341512 0.418356 0.000281
0.433324 0.415542 0.001220
0.511590 0.415926 0.009649
0.578003 0.418339 0.019585
0.634541 0.421704 0.026964
0.683102 0.426684 0.033587
0.726609 0.432505 0.039214
0.764970 0.438677 0.043955
0.798290 0.445251 0.048259
0.828498 0.451760 0.053132
0.856067 0.457715 0.058023
0.879731 0.463913 0.062152
0.901081 0.470215 0.065771
0.915488 0.476061 0.068315
0.921411 0.481280 0.069627
0.927162 0.486150 0.070871
0.928441 0.488082 0.070980
0.928572 0.489294 0.070824
0.928731 0.490523 0.070702
0.928753 0.489850 0.070792
0.928760 0.488656 0.070924
0.928806 0.487596 0.071031
0.928932 0.486878 0.071103
0.929203 0.486925 0.071168
0.929446 0.486910 0.071299
0.929569 0.486811 0.071414
0.929514 0.486725 0.071489
0.929346 0.487150 0.072063
0.929239 0.487605 0.073133
0.008927 0.714912 0.000246
0.008643 0.571851 0.000424
0.057128 0.504489 0.000364
0.212760 0.476231 0.000028
0.317352 0.463262 0.000112
0.409054 0.458336 0.000006
0.488024 0.455326 0.002678
0.556004 0.456504 0.009858
0.613279 0.458653 0.018940
0.661872 0.461943 0.024966
0.705362 0.466229 0.031120
0.743722 0.471253 0.036509
0.776629 0.476679 0.041322
0.806573 0.482077 0.046227
0.833982 0.487090 0.050954
0.858429 0.492369 0.055682
0.880797 0.497837 0.060177
0.899115 0.503009 0.063649
0.912030 0.507737 0.065798
0.924482 0.512141 0.067863
0.928173 0.515386 0.068355
0.928884 0.518228 0.068178
0.929524 0.521007 0.067906
0.929259 0.520632 0.067898
0.928648 0.519083 0.068069
0.928056 0.517691 0.068288
0.927651 0.516477 0.068555
0.928040 0.515476 0.068918
0.928452 0.514477 0.069384
0.928796 0.513358 0.069658
0.928993 0.512365 0.069821
0.928804 0.512161 0.069735
0.928651 0.512003 0.069641
0.009434 0.759436 0.000461
0.008681 0.627664 0.000531
0.026308 0.552679 0.000025
0.186859 0.520882 0.000101
0.294859 0.504779 0.000004
0.386500 0.497913 0.000020
0.466312 0.492153 0.000029
0.535789 0.491714 0.001123
0.593258 0.492578 0.010492
0.642594 0.494129 0.017546
0.685571 0.498030 0.022974
0.723781 0.502716 0.028329
0.758529 0.507293 0.034618
0.788717 0.511480 0.040286
0.815259 0.515396 0.045961
0.839802 0.519725 0.050412
0.862647 0.524254 0.053721
0.883431 0.528585 0.056999
0.901714 0.532793 0.060650
0.919037 0.536601 0.064204
0.924993 0.540154 0.065323
0.926436 0.543573 0.065399
0.927975 0.546862 0.065426
0.928403 0.546994 0.065451
0.928274 0.545636 0.065538
0.928199 0.544396 0.065677
0.928199 0.543164 0.065904
0.928332 0.541407 0.066340
0.928402 0.539761 0.066675
0.928412 0.538200 0.067029
0.928377 0.536761 0.067396
0.928522 0.536101 0.067135
0.928656 0.535450 0.066965
0.008805 0.797323 0.000146
0.009956 0.677310 0.000553
0.009735 0.596325 0.000072
0.161045 0.562913 0.000109
0.271949 0.543447 0.000055
0.365724 0.534236 0.000087
0.444923 0.527621 0.000256
0.516566 0.525604 0.000373
0.574989 0.524158 0.002241
0.625967 0.525390 0.010349
0.669526 0.528100 0.016889
0.707742 0.531086 0.022773
0.741880 0.534511 0.028889
0.772235 0.537800 0.034793
0.799208 0.541272 0.040888
0.823830 0.545137 0.045351
0.846528 0.548954 0.048337
0.867418 0.552410 0.051314
0.886303 0.555764 0.055220
0.904124 0.558979 0.058916
0.913946 0.562147 0.061040
0.919861 0.565142 0.062385
0.925681 0.567926 0.063662
0.927850 0.568967 0.064234
0.927756 0.569073 0.064434
0.927655 0.569268 0.064681
0.927550 0.569303 0.064983
0.927455 0.567007 0.065344
0.927367 0.564787 0.065445
0.927257 0.562729 0.065520
0.927131 0.560827 0.065563
0.927320 0.559633 0.064969
0.927457 0.558467 0.064577
0.008853 0.830026 0.000472
0.009925 0.720656 0.000346
0.007999 0.636395 0.000259
0.130511 0.600209 0.000057
0.250694 0.579461 0.000298
0.344863 0.568029 0.000154
0.426795 0.559919 0.000304
0.498087 0.556888 0.000163
0.557919 0.554806 0.000435
0.609631 0.555065 0.004652
0.653697 0.556349 0.011058
0.692284 0.558072 0.017904
0.726395 0.560579 0.023317
0.756934 0.562891 0.029033
0.784272 0.565510 0.035425
0.809243 0.568457 0.040653
0.832134 0.571358 0.044645
0.853346 0.574138 0.048225
0.872691 0.577370 0.051523
0.890920 0.580440 0.054727
0.903960 0.583324 0.057520
0.913912 0.585976 0.059937
0.923582 0.588425 0.062182
0.927546 0.590002 0.063018
0.927328 0.591084 0.062839
0.927096 0.592239 0.062616
0.926860 0.593277 0.062390
0.926826 0.590523 0.062925
0.926822 0.587879 0.063358
0.926811 0.585391 0.063672
0.926794 0.583045 0.063876
0.926923 0.581516 0.063413
0.926999 0.580066 0.063070
0.009336 0.858285 0.000856
0.009150 0.758856 0.000038
0.008411 0.673108 0.000412
0.093109 0.634443 0.000042
0.229767 0.612602 0.000407
0.324443 0.599357 0.000165
0.409379 0.589767 0.000382
0.480516 0.585732 0.000111
0.541684 0.583402 0.000369
0.593860 0.582381 0.001117
0.638666 0.582382 0.006249
0.678044 0.583105 0.013416
0.712252 0.584730 0.018445
0.743001 0.586165 0.023928
0.770633 0.587989 0.030288
0.795937 0.590102 0.036067
0.819034 0.592221 0.041122
0.840529 0.594387 0.045398
0.860265 0.597407 0.048389
0.878895 0.600222 0.051497
0.894277 0.602799 0.054675
0.907355 0.605152 0.057634
0.919983 0.607334 0.060340
0.925928 0.609150 0.061445
0.926099 0.610773 0.061170
0.926259 0.612435 0.060790
0.926422 0.614114 0.060342
0.926461 0.611336 0.061002
0.926489 0.608697 0.061499
0.926508 0.606186 0.061846
0.926517 0.603795 0.062053
0.926603 0.601972 0.061905
0.926652 0.600263 0.061778
0.010877 0.880907 0.000551
0.009071 0.793447 0.000027
0.008182 0.706341 0.000362
0.052532 0.666786 0.000199
0.206038 0.643541 0.000114
0.303670 0.628676 0.000133
0.389824 0.618413 0.000320
0.463438 0.612884 0.000386
0.525765 0.609622 0.000606
0.578194 0.607236 0.000574
0.624221 0.606165 0.003752
0.665365 0.606262 0.009093
0.699730 0.607084 0.014637
0.730709 0.607956 0.020005
0.758294 0.609337 0.025415
0.783607 0.610941 0.030784
0.806813 0.612473 0.036293
0.828624 0.613936 0.041252
0.848812 0.616182 0.045278
0.867806 0.618297 0.049362
0.884309 0.620403 0.052711
0.898805 0.622472 0.055166
0.912729 0.624411 0.057394
0.920692 0.626067 0.058846
0.922631 0.627477 0.059580
0.924541 0.628835 0.060249
0.926488 0.630183 0.060878
0.926409 0.628557 0.060671
0.926198 0.626899 0.060394
0.925950 0.625335 0.060083
0.925668 0.623859 0.059742
0.925765 0.621796 0.060105
0.925901 0.619725 0.060523
0.012164 0.901200 0.000348
0.009435 0.824626 0.000268
0.008353 0.736262 0.000312
0.027458 0.695915 0.000307
0.181142 0.671641 0.000008
0.283648 0.655680 0.000173
0.371341 0.644840 0.000253
0.447185 0.637939 0.000380
0.510739 0.633835 0.000509
0.564240 0.630297 0.000324
0.611108 0.628187 0.001907
0.653065 0.627609 0.005086
0.687832 0.627778 0.011007
0.719150 0.628139 0.016482
0.746833 0.629205 0.021505
0.772353 0.630393 0.026621
0.795946 0.631256 0.032352
0.817978 0.632180 0.037633
0.838100 0.634029 0.042262
0.857026 0.635800 0.046765
0.874076 0.637565 0.050234
0.889477 0.639268 0.052554
0.904241 0.640824 0.054726
0.914107 0.642165 0.056561
0.918195 0.643318 0.058113
0.922219 0.644425 0.059658
0.926220 0.645596 0.061008
0.926376 0.644827 0.060401
0.926114 0.643938 0.059680
0.925799 0.643108 0.059024
0.925436 0.642333 0.058430
0.925468 0.640192 0.058908
0.925603 0.637861 0.059519
0.013125 0.919589 0.000377
0.010007 0.853060 0.000527
0.008822 0.763528 0.000309
0.014393 0.722391 0.000366
0.154757 0.697354 0.000018
0.264494 0.680726 0.000268
0.353803 0.669258 0.000246
0.431576 0.661195 0.000122
0.496283 0.656234 0.000195
0.551526 0.651788 0.000300
0.599276 0.648744 0.000730
0.641112 0.647402 0.001598
0.676432 0.646959 0.007690
0.708136 0.646803 0.013420
0.736115 0.647693 0.018583
0.762126 0.648515 0.023665
0.786089 0.648856 0.029258
0.808288 0.649350 0.034570
0.827942 0.651122 0.039325
0.846473 0.652847 0.043672
0.863626 0.654405 0.047086
0.879520 0.655626 0.049643
0.894763 0.656638 0.052170
0.906342 0.657519 0.054532
0.912904 0.658422 0.056770
0.919302 0.659415 0.058913
0.925564 0.660459 0.060807
0.926297 0.660308 0.060146
0.926148 0.660002 0.059261
0.925943 0.659721 0.058523
0.925684 0.659463 0.057920
0.925630 0.657359 0.058280
0.925697 0.654855 0.058826
0.014709 0.935753 0.000368
0.010979 0.878280 0.000523
0.009080 0.788693 0.000396
0.009196 0.746810 0.000348
0.125349 0.720857 0.000070
0.244877 0.703796 0.000245
0.335670 0.691651 0.000228
0.415334 0.682498 0.000056
0.481678 0.676848 0.000070
0.538494 0.671845 0.000254
0.587212 0.668075 0.000240
0.629060 0.666040 0.000012
0.664979 0.665201 0.005101
0.697226 0.664634 0.010363
0.725869 0.664876 0.015877
0.752459 0.665131 0.021062
0.776435 0.665335 0.026591
0.798669 0.665609 0.031906
0.818230 0.667100 0.036533
0.836712 0.668583 0.040671
0.854019 0.669875 0.044064
0.870193 0.670717 0.046866
0.885667 0.671348 0.049691
0.898544 0.671939 0.052431
0.907421 0.672777 0.055015
0.916030 0.673706 0.057392
0.924407 0.674629 0.059590
0.925867 0.674820 0.059285
0.925850 0.674853 0.058608
0.925798 0.674884 0.058074
0.925713 0.674912 0.057673
0.925663 0.672985 0.057855
0.925690 0.670499 0.058162
0.017066 0.949921 0.000240
0.012349 0.900583 0.000571
0.009397 0.811752 0.000688
0.008883 0.769232 0.000316
0.092291 0.742129 0.000172
0.224406 0.724984 0.000172
0.317009 0.712245 0.000130
0.398400 0.702113 0.000141
0.466859 0.696001 0.000079
0.525130 0.690777 0.000226
0.574817 0.686420 0.000320
0.616932 0.683668 0.000032
0.653485 0.682692 0.003195
0.686414 0.681936 0.007059
0.716087 0.680979 0.013163
0.743241 0.680479 0.018764
0.766986 0.680823 0.024259
0.789092 0.681116 0.029504
0.808950 0.682099 0.033905
0.827721 0.683142 0.037906
0.845280 0.684094 0.041371
0.861487 0.684704 0.044375
0.876915 0.685154 0.047392
0.890648 0.685649 0.050300
0.901712 0.686521 0.052819
0.912420 0.687352 0.055224
0.922788 0.688137 0.057543
0.925133 0.688427 0.057874
0.925285 0.688566 0.057716
0.925447 0.688683 0.057618
0.925620 0.688780 0.057574
0.925647 0.687123 0.057534
0.925628 0.684846 0.057423
0.019220 0.963233 0.000120
0.013655 0.922405 0.000659
0.009833 0.833523 0.000958
0.008788 0.790317 0.000363
0.059728 0.762031 0.000265
0.204095 0.744922 0.000194
0.298948 0.731618 0.000063
0.382001 0.720745 0.000204
0.452447 0.714064 0.000086
0.512119 0.708626 0.000224
0.562905 0.703728 0.000434
0.605420 0.700302 0.000071
0.642587 0.699131 0.001583
0.676126 0.698278 0.003957
0.706693 0.696307 0.010494
0.734377 0.695129 0.016437
0.757985 0.695506 0.021883
0.780025 0.695757 0.027052
0.800172 0.696296 0.031344
0.819220 0.696939 0.035301
0.837029 0.697578 0.038879
0.853246 0.697989 0.042089
0.868617 0.698293 0.045295
0.882945 0.698668 0.048308
0.895900 0.699436 0.050767
0.908378 0.700125 0.053209
0.920416 0.700741 0.055635
0.923854 0.701086 0.056484
0.924344 0.701317 0.056763
0.924879 0.701513 0.057034
0.925454 0.701677 0.057299
0.925617 0.700288 0.057149
0.925540 0.698226 0.056726
0.020328 0.974926 0.000287
0.015785 0.941861 0.000410
0.010389 0.853402 0.000744
0.009416 0.809518 0.000323
0.035634 0.780834 0.000215
0.180651 0.763338 0.000432
0.279815 0.749254 0.000379
0.365171 0.738282 0.000261
0.437221 0.730596 0.000158
0.498238 0.724732 0.000244
0.550629 0.719609 0.000329
0.594115 0.716051 0.000132
0.632100 0.714314 0.000928
0.666429 0.713026 0.002357
0.697302 0.711067 0.008152
0.725406 0.709687 0.013479
0.749255 0.709706 0.018889
0.771598 0.709630 0.024060
0.791979 0.709824 0.028583
0.811206 0.710131 0.032856
0.829207 0.710487 0.036825
0.845504 0.710778 0.040308
0.860941 0.711024 0.043717
0.875508 0.711201 0.046668
0.888817 0.711587 0.048972
0.901575 0.711944 0.051229
0.913826 0.712273 0.053441
0.918798 0.712601 0.054495
0.920672 0.712915 0.055042
0.922556 0.713207 0.055586
0.924448 0.713480 0.056127
0.925130 0.712396 0.056295
0.925048 0.710559 0.056221
0.021354 0.985848 0.000428
0.017837 0.960521 0.000211
0.011087 0.872288 0.000638
0.010095 0.827916 0.000256
0.018346 0.798862 0.000164
0.157708 0.780804 0.000633
0.261195 0.765965 0.000650
0.348886 0.754826 0.000334
0.422475 0.746261 0.000248
0.484773 0.739969 0.000280
0.538795 0.734615 0.000178
0.583147 0.730952 0.000176
0.621940 0.728703 0.000400
0.657050 0.727030 0.000963
0.688231 0.725046 0.006031
0.716791 0.723456 0.010699
0.740913 0.723139 0.016094
0.763584 0.722754 0.021282
0.784210 0.722615 0.026057
0.803609 0.722596 0.030675
0.821803 0.722670 0.035050
0.838171 0.722875 0.038762
0.853691 0.723030 0.042224
0.868405 0.723045 0.045073
0.882024 0.723084 0.047216
0.895025 0.723141 0.049282
0.907458 0.723214 0.051277
0.913801 0.723508 0.052490
0.917001 0.723909 0.053301
0.920175 0.724300 0.054113
0.923327 0.724683 0.054926
0.924627 0.723877 0.055421
0.924549 0.722243 0.055713
0.022064 0.993248 0.000464
0.019117 0.977567 0.000329
0.011903 0.889574 0.000762
0.010435 0.844774 0.000213
0.010575 0.815762 0.000205
0.130129 0.796982 0.000649
0.242299 0.781686 0.000714
0.332107 0.770302 0.000339
0.407379 0.761144 0.000307
0.471227 0.754478 0.000315
0.526813 0.748989 0.000054
0.572382 0.744947 0.000201
0.612108 0.742310 0.000143
0.647805 0.740360 0.000108
0.679352 0.738260 0.004216
0.708409 0.736438 0.008004
0.732807 0.735827 0.013469
0.755766 0.735165 0.018709
0.776666 0.734701 0.023591
0.796271 0.734372 0.028329
0.814683 0.734162 0.032876
0.831102 0.734223 0.036763
0.846690 0.734169 0.040154
0.861459 0.734066 0.043093
0.875204 0.733940 0.045236
0.888314 0.733846 0.047296
0.900839 0.733780 0.049279
0.908530 0.733968 0.050792
0.913237 0.734309 0.052024
0.917882 0.734646 0.053251
0.922468 0.734982 0.054472
0.924591 0.734391 0.055244
0.924527 0.733007 0.055654
0.022347 0.995716 0.000362
0.020900 0.989795 0.000379
0.012779 0.904803 0.000966
0.010752 0.859862 0.000276
0.009920 0.831398 0.000374
0.097044 0.811845 0.000470
0.222693 0.796412 0.000504
0.314252 0.784727 0.000227
0.391356 0.775387 0.000280
0.457345 0.768368 0.000319
0.514223 0.763051 0.000036
0.561724 0.758158 0.000215
0.602493 0.755141 0.000160
0.638645 0.753047 0.000003
0.670638 0.750757 0.002764
0.700209 0.748682 0.005351
0.724839 0.747823 0.010965
0.747981 0.746909 0.016265
0.769171 0.746138 0.021000
0.789033 0.745528 0.025456
0.807715 0.745052 0.029743
0.824176 0.744809 0.033724
0.839780 0.744538 0.037322
0.854554 0.744304 0.040559
0.868215 0.744235 0.042965
0.881289 0.744168 0.045306
0.893824 0.744101 0.047589
0.902880 0.744106 0.049637
0.909386 0.744166 0.051508
0.915783 0.744224 0.053353
0.922080 0.744279 0.055172
0.925295 0.743791 0.056169
0.925253 0.742745 0.056291
0.022616 0.998071 0.000268
0.022413 0.997164 0.000291
0.013793 0.919127 0.001007
0.011212 0.874292 0.000339
0.009635 0.846500 0.000522
0.068235 0.826184 0.000377
0.203518 0.810494 0.000310
0.296879 0.798465 0.000114
0.375596 0.789072 0.000235
0.443818 0.781611 0.000325
0.501826 0.776675 0.000021
0.551305 0.770916 0.000220
0.593140 0.767439 0.000177
0.629755 0.765170 0.000010
0.662222 0.762701 0.001507
0.692230 0.760408 0.002962
0.717149 0.759274 0.008574
0.740457 0.758110 0.013896
0.761916 0.757054 0.018469
0.782027 0.756182 0.022618
0.800994 0.755459 0.026583
0.817484 0.754954 0.030756
0.833094 0.754513 0.034611
0.847883 0.754148 0.038144
0.861488 0.754119 0.040815
0.874551 0.754063 0.043439
0.887117 0.753982 0.046022
0.897352 0.753824 0.048559
0.905589 0.753610 0.051041
0.913675 0.753395 0.053476
0.921618 0.753179 0.055867
0.926028 0.752730 0.057137
0.925986 0.752029 0.056902
0.022818 0.999838 0.000199
0.022818 0.999838 0.000199
0.015254 0.932418 0.000937
0.011797 0.887897 0.000381
0.009705 0.860743 0.000587
0.045400 0.839939 0.000357
0.183559 0.823882 0.000179
0.279692 0.811454 0.000052
0.359957 0.802100 0.000192
0.430322 0.794176 0.000363
0.489510 0.789510 0.000010
0.540658 0.783125 0.000213
0.583643 0.779212 0.000183
0.620871 0.776703 0.000017
0.653813 0.774076 0.000609
0.684201 0.771603 0.001246
0.709538 0.770172 0.006558
0.733055 0.768774 0.011797
0.754759 0.767477 0.016252
0.775082 0.766378 0.020188
0.794310 0.765427 0.023938
0.810847 0.764777 0.028226
0.826495 0.764218 0.032209
0.841335 0.763743 0.035914
0.854978 0.763683 0.038825
0.868102 0.763578 0.041687
0.880752 0.763429 0.044508
0.891868 0.763128 0.047387
0.901474 0.762697 0.050311
0.910873 0.762270 0.053162
0.920080 0.761847 0.055948
0.925669 0.761412 0.057445
0.925808 0.760981 0.057012
0.022818 0.999838 0.000199
0.022818 0.999838 0.000199
0.016881 0.944490 0.000806
0.012359 0.900269 0.000360
0.010167 0.873164 0.000435
0.032304 0.852802 0.000351
0.159650 0.836403 0.000229
0.261973 0.823600 0.000166
0.344364 0.814065 0.000219
0.416176 0.806033 0.000529
0.477281 0.800464 0.000015
0.529019 0.794530 0.000175
0.573124 0.790383 0.000151
0.611324 0.787509 0.000019
0.644808 0.784764 0.000403
0.675666 0.782142 0.000846
0.701622 0.780435 0.005545
0.725503 0.778880 0.010468
0.747430 0.777443 0.014965
0.767842 0.776166 0.019041
0.787232 0.775059 0.022902
0.803935 0.774425 0.026857
0.819731 0.773845 0.030568
0.834719 0.773310 0.034057
0.848623 0.773041 0.037094
0.861964 0.772737 0.040025
0.874807 0.772387 0.042875
0.886304 0.771954 0.045739
0.896265 0.771471 0.048626
0.905942 0.771012 0.051409
0.915356 0.770575 0.054095
0.921786 0.770181 0.055735
0.922862 0.769799 0.055733
0.022818 0.999838 0.000199
0.022818 0.999838 0.000199
0.018117 0.956437 0.000668
0.012910 0.912254 0.000345
0.010769 0.884973 0.000315
0.021934 0.865085 0.000312
0.135800 0.848505 0.000250
0.244491 0.835383 0.000316
0.329248 0.825531 0.000240
0.402421 0.817548 0.000705
0.465158 0.811043 0.000071
0.517698 0.805447 0.000147
0.562858 0.801119 0.000115
0.601977 0.797930 0.000017
0.636081 0.795036 0.000220
0.667454 0.792239 0.000477
0.693990 0.790298 0.004629
0.718188 0.788621 0.009277
0.740318 0.787053 0.013777
0.760837 0.785650 0.017935
0.780321 0.784390 0.021894
0.797247 0.783726 0.025562
0.813190 0.783106 0.029032
0.828323 0.782496 0.032331
0.842467 0.782029 0.035446
0.856011 0.781528 0.038426
0.869035 0.780981 0.041286
0.880868 0.780409 0.044119
0.891143 0.779886 0.046957
0.901062 0.779404 0.049660
0.910681 0.778971 0.052242
0.917891 0.778589 0.054113
0.919895 0.778252 0.054513
0.022818 0.999838 0.000199
0.022818 0.999838 0.000199
0.018834 0.968168 0.000489
0.013467 0.923901 0.000347
0.011464 0.896236 0.000228
0.014056 0.876821 0.000241
0.111993 0.860208 0.000234
0.227197 0.846853 0.000504
0.314563 0.836525 0.000253
0.388884 0.828783 0.000826
0.453208 0.821371 0.000148
0.506665 0.815923 0.000130
0.552827 0.811448 0.000074
0.592815 0.807992 0.000012
0.627601 0.804927 0.000062
0.659530 0.801933 0.000137
0.686624 0.799786 0.003798
0.711094 0.798022 0.008211
0.733408 0.796338 0.012683
0.754042 0.794826 0.016813
