output/AP0_display/AP0_to_ASTIA_33grid.cube
TITLE "AP0_to_ASTIA"
# Input: Linear ACES2065-1 / AP0 (D60)
# Output: BT.709 / Gamma 2.2 (display-referred)
# Use: Display/output transform in ACES pipeline (replaces ODT)
# Source: FLog2C_to_ASTIA_65grid_V.1.00.cube
# Generated from Fujifilm GFX ETERNA 55 F-Log2C LUT
LUT_3D_SIZE 9
0.000334 0.000257 0.000073
0.959874 0.000240 0.240765
0.999685 0.002538 0.517151
0.999492 0.097384 0.539838
0.999461 0.099723 0.540077
0.999461 0.099723 0.540077
0.999461 0.099723 0.540077
0.999461 0.099723 0.540077
0.999461 0.099723 0.540077
0.000006 0.608810 0.000241
0.459980 0.339658 0.000001
0.786215 0.318054 0.000038
0.961356 0.300995 0.013973
0.999669 0.276790 0.172042
0.999279 0.260334 0.287268
0.999347 0.266743 0.329942
0.999493 0.283939 0.363760
0.999661 0.297996 0.390124
0.000042 0.849440 0.000332
0.293843 0.584942 0.000087
0.666456 0.544483 0.000153
0.838011 0.530955 0.000061
0.958729 0.513156 0.000002
0.999307 0.496773 0.015430
0.999578 0.478613 0.102634
0.999328 0.464304 0.164674
0.999352 0.458723 0.208534
0.000006 0.967888 0.000360
0.133445 0.733652 0.000332
0.580939 0.683984 0.000076
0.765808 0.655671 0.000008
0.882605 0.640325 0.000000
0.971583 0.633367 0.000070
0.999612 0.619797 0.002548
0.999631 0.603937 0.019921
0.999298 0.589902 0.062182
0.000000 1.000000 0.000285
0.014509 0.830295 0.000147
0.497658 0.768752 0.000200
0.708617 0.731033 0.000030
0.828839 0.709318 0.000104
0.920233 0.698297 0.000051
0.984715 0.695863 0.000053
0.999541 0.693155 0.000215
0.999094 0.683388 0.002069
0.000000 1.000000 0.000285
0.000137 0.900935 0.000962
0.412099 0.831329 0.000200
0.657364 0.788034 0.000207
0.785290 0.764812 0.000196
0.878942 0.747547 0.000090
0.955292 0.738392 0.000017
0.996128 0.739670 0.000078
0.999359 0.741920 0.000083
0.000000 1.000000 0.000285
0.000044 0.959411 0.000699
0.319288 0.883061 0.000156
0.606957 0.835619 0.000000
0.747860 0.809153 0.000136
0.842105 0.791661 0.000017
0.919008 0.779000 0.000026
0.975803 0.771731 0.000073
0.999493 0.772106 0.000101
0.000000 1.000000 0.000285
0.000000 0.995565 0.000515
0.216748 0.930203 0.000221
0.554732 0.875358 0.000089
0.711539 0.846584 0.000190
0.810456 0.828486 0.000095
0.886159 0.814061 0.000024
0.951732 0.803018 0.000002
0.992745 0.797785 0.000000
0.000000 1.000000 0.000285
0.000000 1.000000 0.000285
0.104696 0.971617 0.000495
0.499429 0.911607 0.000319
0.674680 0.879762 0.000098
0.780297 0.860178 0.000146
0.857994 0.845102 0.000023
0.924609 0.833102 0.000098
0.974970 0.824106 0.000019
0.003832 0.000123 0.372684
0.821445 0.000003 0.343833
0.999819 0.000177 0.593123
0.999938 0.031536 0.614970
0.999634 0.108563 0.602744
0.999924 0.107535 0.592574
0.999557 0.104886 0.585677
0.999006 0.103542 0.579258
0.999100 0.101971 0.574081
0.000110 0.629129 0.690825
0.365720 0.368196 0.366855
0.729331 0.314638 0.363648
0.900486 0.286858 0.424254
0.993752 0.263866 0.492554
0.999918 0.245870 0.569020
0.999704 0.258956 0.595031
0.999776 0.291094 0.597870
0.999606 0.318411 0.599256
0.000224 0.829962 0.691074
0.129574 0.626392 0.370911
0.598973 0.559936 0.300842
0.784339 0.525749 0.322184
0.902925 0.503165 0.365736
0.993596 0.486621 0.414417
0.999802 0.469990 0.471786
0.999476 0.460863 0.512711
0.999003 0.462114 0.530475
0.000314 0.938536 0.667744
0.000690 0.757196 0.369974
0.484804 0.693355 0.266482
0.706845 0.659984 0.264267
0.831062 0.638352 0.291438
0.922718 0.622736 0.327999
0.987366 0.607383 0.371622
0.999730 0.594883 0.417245
0.999661 0.585221 0.457280
0.000008 0.993133 0.619334
0.000153 0.845259 0.345624
0.371322 0.781621 0.240023
0.640598 0.747984 0.216523
0.776883 0.725487 0.236792
0.870149 0.707710 0.266891
0.946205 0.694059 0.303200
0.992453 0.681869 0.342343
0.999298 0.671798 0.384205
0.000006 0.999789 0.570829
0.000006 0.913150 0.314274
0.249622 0.849008 0.213778
0.576064 0.814576 0.176749
0.728547 0.791405 0.187100
0.826397 0.773939 0.211749
0.903085 0.759163 0.247150
0.966461 0.746895 0.282625
0.998265 0.736764 0.320681
0.000029 0.999621 0.523856
0.000051 0.971285 0.277606
0.114387 0.903779 0.187403
0.506318 0.867428 0.138044
0.681958 0.843052 0.142576
0.788038 0.826055 0.163471
0.867769 0.811286 0.195165
0.934265 0.799309 0.228251
0.984214 0.788714 0.264832
0.000009 0.999329 0.471311
0.000032 0.999622 0.234900
0.026690 0.951436 0.157973
0.431664 0.913279 0.099769
0.638748 0.887971 0.096865
0.752924 0.869529 0.116526
0.835839 0.855102 0.145266
0.901741 0.842683 0.179852
0.959178 0.831240 0.214749
0.000021 0.999510 0.419156
0.000007 0.999824 0.186643
0.000239 0.986453 0.115828
0.349897 0.954864 0.057634
0.593573 0.928126 0.050952
0.718905 0.909134 0.068792
0.806095 0.893641 0.097712
0.872546 0.880245 0.132381
0.932067 0.867937 0.167205
0.007436 0.000189 0.611342
0.738575 0.000021 0.472975
0.999924 0.000222 0.653408
0.999959 0.002643 0.702935
0.999937 0.099551 0.674153
0.999947 0.129938 0.662286
0.999917 0.129196 0.655511
0.999891 0.126532 0.648304
0.999825 0.125233 0.642543
0.000159 0.624017 0.914175
0.279537 0.377006 0.634377
0.700077 0.308438 0.573298
0.875531 0.275163 0.597026
0.985147 0.250760 0.635662
0.999695 0.229203 0.683090
0.999688 0.238653 0.705354
0.999763 0.284679 0.692349
0.999899 0.323220 0.684484
0.000050 0.820992 0.920662
0.026683 0.631819 0.675463
0.555864 0.557198 0.556957
0.760054 0.520295 0.539757
0.881193 0.495434 0.555215
0.976122 0.477447 0.575890
0.999292 0.462167 0.606890
0.999596 0.453495 0.636205
0.999310 0.458968 0.646611
0.000582 0.908705 0.892255
0.000139 0.759664 0.685434
0.422824 0.688479 0.556571
0.677007 0.654869 0.516079
0.808878 0.631690 0.514394
0.901418 0.613714 0.528067
0.975879 0.600162 0.544806
0.999161 0.587855 0.567172
0.999456 0.579734 0.594661
0.000004 0.961927 0.855405
0.000444 0.844779 0.680861
0.284489 0.775287 0.561493
0.604999 0.740722 0.502122
0.751891 0.717303 0.489993
0.848759 0.699497 0.495275
0.925992 0.686173 0.506742
0.984726 0.675740 0.522699
0.999692 0.666074 0.545618
0.000193 0.989618 0.821739
0.000111 0.911630 0.674812
0.138833 0.840083 0.566905
0.527744 0.804255 0.491480
0.699368 0.780887 0.469834
0.804438 0.763976 0.469366
0.882772 0.750016 0.478217
0.950379 0.739239 0.491120
0.996193 0.729980 0.506414
0.000052 0.999806 0.792257
0.000155 0.959476 0.656120
0.031182 0.893306 0.571801
0.445147 0.855813 0.483626
0.651818 0.831739 0.453370
0.764833 0.815553 0.447025
0.845812 0.801740 0.453377
0.913402 0.790087 0.464100
0.969883 0.780552 0.477221
0.000056 0.999951 0.763567
0.000177 0.990689 0.634875
0.001686 0.937055 0.560051
0.354856 0.899939 0.476089
0.600937 0.875495 0.437953
0.727295 0.857902 0.426239
0.813149 0.843967 0.429237
0.879821 0.831415 0.438199
0.939050 0.819607 0.449476
0.000070 0.999875 0.729573
0.000269 0.999889 0.614056
0.000160 0.971564 0.536783
0.253653 0.936616 0.466367
0.544507 0.911839 0.420248
0.687924 0.893426 0.405510
0.780389 0.878540 0.405204
0.848668 0.865916 0.413046
0.907010 0.852912 0.422967
0.009979 0.000356 0.778922
0.658432 0.000172 0.571575
0.999778 0.000114 0.702942
0.999917 0.000122 0.767408
0.999903 0.040608 0.729564
0.999797 0.107101 0.706172
0.999883 0.113207 0.696190
0.999822 0.118264 0.687724
0.999945 0.121575 0.681199
0.000141 0.618184 0.999715
0.170346 0.387860 0.799771
0.667640 0.305819 0.702738
0.854369 0.267262 0.701129
0.974793 0.241983 0.722515
0.999837 0.219081 0.755782
0.999896 0.213066 0.781284
0.999806 0.261878 0.753839
0.999865 0.303381 0.737548
0.000346 0.806039 0.999163
0.000225 0.642106 0.833457
0.507368 0.559129 0.695741
0.737800 0.517002 0.664296
0.863714 0.491994 0.661565
0.959575 0.472294 0.672357
0.999761 0.455830 0.688631
0.999842 0.445137 0.713328
0.999560 0.453760 0.717504
0.000136 0.888459 0.992887
0.000346 0.767840 0.837591
0.357611 0.689440 0.707369
0.649875 0.651410 0.650892
0.790442 0.628007 0.636829
0.884724 0.609987 0.636788
0.963794 0.595691 0.643214
0.999496 0.583485 0.655735
0.999441 0.575092 0.676172
0.000661 0.939800 0.967354
0.000227 0.853151 0.842184
0.196380 0.775451 0.722024
0.566774 0.737680 0.647150
0.729789 0.713459 0.622482
0.831947 0.695333 0.615280
0.910639 0.682768 0.617764
0.975882 0.671577 0.624608
0.999757 0.661606 0.635732
0.000201 0.968361 0.937082
0.000414 0.909201 0.831907
0.044727 0.841008 0.737881
0.481941 0.801823 0.648308
0.675521 0.778369 0.613227
0.786728 0.760964 0.601164
0.868210 0.746900 0.598902
0.936030 0.735388 0.603437
0.991098 0.726076 0.609707
0.000017 0.987910 0.909199
0.000604 0.951059 0.815592
0.000149 0.889706 0.742675
0.386265 0.853469 0.649549
0.620953 0.828501 0.606826
0.745224 0.810901 0.590444
0.830750 0.797219 0.584798
0.896912 0.784919 0.584763
0.955848 0.773590 0.587252
0.000263 0.996499 0.886432
0.000157 0.978238 0.797707
0.000279 0.927764 0.726373
0.278366 0.893565 0.649011
0.562667 0.869082 0.599471
0.702875 0.850839 0.577768
0.792887 0.836891 0.569531
0.862043 0.823645 0.567770
0.919428 0.812659 0.567604
0.000515 0.998398 0.864116
0.000061 0.994676 0.781763
0.000298 0.959301 0.705906
0.160407 0.925694 0.647837
0.495280 0.901996 0.590241
0.659201 0.883584 0.564385
0.757575 0.868703 0.554072
0.828599 0.855827 0.549471
0.885980 0.844856 0.549492
0.011169 0.000340 0.874673
0.569434 0.000173 0.668571
0.979715 0.000109 0.747722
0.999864 0.000309 0.822665
0.999944 0.003653 0.782870
0.999901 0.078694 0.743670
0.999793 0.094796 0.729978
0.999665 0.099718 0.723119
0.999476 0.102395 0.715646
0.000277 0.610052 0.999730
0.057391 0.402795 0.919094
0.634390 0.305569 0.789765
0.835190 0.261783 0.775179
0.963584 0.233681 0.787294
0.999564 0.210475 0.811613
0.999978 0.191818 0.843177
0.999818 0.240944 0.808048
0.999904 0.282789 0.782445
0.000007 0.791046 0.999720
0.000702 0.654896 0.939042
0.456321 0.561484 0.791515
0.713607 0.516777 0.746541
0.846603 0.488572 0.737975
0.944909 0.467396 0.739503
0.998424 0.450980 0.749661
0.999920 0.437737 0.768240
0.999796 0.441727 0.772812
0.000820 0.871733 0.999944
0.000843 0.781046 0.948726
0.288046 0.692259 0.810437
0.619877 0.651580 0.741156
0.772316 0.626049 0.717253
0.870540 0.607228 0.711124
0.952643 0.592395 0.712296
0.999345 0.580419 0.719504
0.999710 0.569307 0.735214
0.000318 0.920754 0.999888
0.000326 0.857275 0.944394
0.108570 0.778554 0.833690
0.529588 0.737605 0.743293
0.709706 0.711814 0.710313
0.817233 0.693051 0.699275
0.897086 0.679285 0.693905
0.968280 0.668612 0.696386
0.999017 0.656902 0.703194
0.000289 0.950568 0.995342
0.000454 0.906967 0.931931
0.006700 0.840606 0.848406
0.432790 0.801675 0.750885
0.651306 0.776749 0.707153
0.770983 0.758704 0.688791
0.854367 0.744525 0.681048
0.922759 0.731631 0.679480
0.980250 0.720459 0.680151
0.000449 0.971489 0.983010
0.000316 0.945755 0.916729
0.000294 0.885082 0.841150
0.324125 0.850023 0.755005
0.590378 0.825416 0.704113
0.725103 0.807229 0.681450
0.812872 0.792850 0.669829
0.881277 0.779313 0.663693
0.940459 0.767723 0.661702
0.000145 0.985242 0.963853
0.000253 0.969294 0.902296
0.000313 0.919706 0.825455
0.201334 0.887243 0.757075
0.521700 0.863182 0.699075
0.677700 0.845332 0.671036
0.773534 0.830521 0.657172
0.845086 0.816756 0.648071
0.903750 0.805167 0.646573
0.000188 0.990809 0.943779
0.000305 0.987117 0.888505
0.000021 0.948954 0.808430
0.083359 0.917762 0.759033
0.444407 0.894191 0.693272
0.629926 0.876333 0.661150
0.735457 0.861702 0.643949
0.810961 0.847898 0.635262
0.869753 0.837071 0.631572
0.011505 0.000038 0.887562
0.460765 0.000202 0.760248
0.941020 0.000026 0.787965
0.999898 0.000207 0.860851
0.999870 0.000271 0.830290
0.999907 0.043213 0.782666
0.999951 0.077517 0.760365
1.000000 0.082120 0.752066
0.999996 0.086492 0.743796
0.000553 0.603633 0.999948
0.000758 0.422490 0.999654
0.595536 0.304628 0.859181
0.815375 0.258319 0.834336
0.946716 0.227989 0.837098
0.999790 0.205017 0.853601
0.999966 0.182488 0.883481
0.999936 0.220816 0.852949
0.999888 0.266165 0.822074
0.000229 0.777516 0.999994
0.000438 0.670615 0.999811
0.397840 0.564960 0.870667
0.690786 0.516981 0.811773
0.830982 0.486406 0.796372
0.930375 0.464034 0.793622
0.993230 0.446983 0.798763
0.999932 0.433167 0.814855
0.999945 0.431735 0.819196
0.000384 0.855411 0.999865
0.000355 0.792205 0.999858
0.202503 0.695415 0.893638
0.591192 0.651912 0.811548
0.754496 0.625048 0.780794
0.857177 0.605133 0.771152
0.940018 0.590370 0.768006
0.995910 0.577233 0.770832
0.999939 0.566050 0.782807
0.000156 0.905761 0.999843
0.000525 0.857877 0.999611
0.036718 0.781523 0.920272
0.490284 0.738271 0.819687
0.689401 0.711364 0.778112
0.803646 0.691799 0.762291
0.885597 0.677282 0.755023
0.955708 0.665236 0.751660
0.995096 0.654105 0.752975
0.000056 0.936111 0.999711
0.000175 0.907453 0.998051
0.000462 0.839570 0.924332
0.380580 0.801469 0.828450
0.626419 0.775611 0.777288
0.754965 0.756331 0.755870
0.841073 0.741026 0.744238
0.908936 0.728051 0.736859
0.966848 0.716545 0.734682
0.000028 0.956983 0.999766
0.000182 0.940668 0.991037
0.000270 0.880191 0.910247
0.253857 0.845542 0.834665
0.557027 0.821958 0.775641
0.704593 0.803518 0.747499
0.797088 0.787756 0.733061
0.866394 0.775189 0.724481
0.925663 0.763021 0.719387
0.000357 0.974704 0.999674
0.000151 0.962782 0.980700
0.000195 0.914170 0.895250
0.127568 0.880720 0.839626
0.478271 0.858266 0.772571
0.653786 0.840158 0.739524
0.754907 0.824924 0.722559
0.828319 0.812345 0.711695
0.888058 0.800374 0.705429
0.000549 0.984133 0.996058
0.000276 0.980041 0.972739
0.000093 0.942018 0.879715
0.037231 0.910823 0.840117
0.394320 0.887968 0.769983
0.601129 0.870216 0.731830
0.714570 0.854972 0.712221
0.793381 0.842592 0.699763
0.854309 0.831394 0.692381
0.012130 0.000140 0.894957
0.329806 0.000021 0.851458
0.897779 0.000150 0.826883
0.999886 0.000069 0.885605
0.999831 0.000084 0.869047
0.999905 0.016321 0.822327
0.999924 0.056958 0.790106
0.999998 0.065715 0.779070
0.999987 0.071800 0.770346
0.000655 0.596780 0.999697
0.000264 0.448456 0.999393
0.551166 0.307102 0.923014
0.795671 0.255270 0.884123
0.930876 0.223515 0.882282
0.999415 0.197385 0.892076
0.999853 0.175990 0.915660
0.999652 0.202288 0.894637
0.999713 0.247751 0.858092
0.000936 0.764183 0.999981
0.000380 0.693759 0.999686
0.332537 0.569328 0.936384
0.665979 0.516897 0.866877
0.815356 0.484831 0.844605
0.917602 0.460812 0.838572
0.987398 0.443355 0.839772
0.999694 0.428262 0.853194
0.999785 0.423788 0.857022
0.000140 0.843125 0.999990
0.000428 0.800089 0.999981
0.114660 0.700112 0.965397
0.558394 0.651617 0.868939
0.736102 0.623791 0.833413
0.844145 0.603252 0.818423
0.927615 0.587794 0.814088
0.989765 0.574737 0.812803
0.999841 0.562430 0.821050
0.000121 0.893403 0.999333
0.000732 0.863941 0.999961
0.005344 0.783012 0.981554
0.445056 0.740004 0.880146
0.668488 0.711179 0.832712
0.789596 0.691509 0.811755
0.873266 0.675831 0.801285
0.943886 0.662554 0.796409
0.990213 0.649869 0.793736
0.000267 0.924056 0.999980
0.000304 0.910534 0.999857
0.000319 0.836822 0.977375
0.318121 0.799749 0.889701
0.600357 0.773071 0.833214
0.736107 0.754180 0.805561
0.826519 0.737793 0.791393
0.895425 0.724445 0.782385
0.954028 0.711957 0.776600
0.000105 0.946143 0.999995
0.000319 0.938663 0.999921
0.000548 0.876195 0.965258
0.178715 0.842185 0.898122
0.522776 0.817920 0.830615
0.683246 0.799332 0.800093
0.781007 0.783913 0.782040
0.852702 0.770876 0.770767
0.912401 0.758518 0.763823
0.000087 0.964097 1.000000
0.000180 0.963143 0.999968
0.000492 0.909601 0.950694
0.063687 0.876476 0.904524
0.435312 0.853141 0.829433
0.628052 0.834741 0.793619
0.736920 0.820270 0.771991
0.813976 0.807145 0.760175
0.874239 0.795494 0.752005
0.000191 0.975431 0.999990
0.000190 0.975349 0.999991
0.000131 0.935990 0.936269
0.008708 0.905582 0.903792
0.341158 0.881989 0.829832
0.569699 0.864268 0.788118
0.693720 0.850174 0.762407
0.777225 0.837375 0.750017
0.839921 0.826211 0.740376
0.012584 0.000516 0.902113
0.159507 0.000056 0.935175
0.854217 0.000008 0.862921
0.999906 0.000187 0.904598
0.999839 0.000069 0.906747
0.999836 0.003175 0.861705
0.999822 0.034195 0.818302
0.999955 0.051145 0.802650
0.999981 0.056466 0.794291
0.000773 0.586864 0.999926
0.000470 0.485859 0.999924
0.498079 0.310644 0.975439
0.773606 0.253882 0.928415
0.914490 0.219380 0.919696
0.998631 0.192642 0.925698
0.999921 0.170015 0.943559
0.999821 0.188500 0.929587
0.999858 0.231154 0.892095
0.000722 0.752879 0.999939
0.000666 0.714272 0.999876
0.251217 0.573723 0.987273
0.638360 0.518266 0.912593
0.799513 0.482909 0.885629
0.903368 0.458805 0.875930
0.980504 0.440154 0.875104
0.999584 0.424635 0.883744
0.999679 0.416915 0.889585
0.000317 0.830408 0.999984
0.000467 0.810875 0.999931
0.030920 0.705379 0.998877
0.520272 0.653587 0.919301
0.717960 0.623757 0.877361
0.832039 0.602881 0.858147
0.916148 0.586417 0.852331
0.982727 0.572511 0.848484
0.999760 0.559230 0.851993
0.000215 0.880693 0.999404
0.000252 0.874967 1.000000
0.000441 0.783099 0.999929
0.394972 0.740644 0.932125
0.647925 0.710435 0.878838
0.774346 0.690769 0.853450
0.860902 0.673700 0.841074
0.932627 0.659254 0.833730
0.984392 0.646319 0.828565
0.000145 0.913657 0.999960
0.000147 0.913569 0.999961
0.000262 0.834529 0.999607
0.253166 0.797301 0.943969
0.569938 0.770798 0.879843
0.717529 0.751247 0.848118
0.811560 0.734621 0.831477
0.882532 0.720744 0.820411
0.941939 0.708202 0.812303
0.000300 0.936076 0.999991
0.000307 0.935993 0.999991
0.000495 0.873329 0.995487
0.102890 0.839245 0.953337
0.482101 0.814393 0.878664
0.660068 0.795735 0.843406
0.764585 0.780157 0.822645
0.839344 0.766512 0.810337
0.899343 0.754270 0.800665
0.000144 0.954232 0.999886
0.000147 0.954150 0.999883
0.000403 0.906068 0.987980
0.016389 0.872593 0.956632
0.386130 0.848571 0.879220
0.600622 0.830558 0.838065
0.718817 0.815518 0.813702
0.799802 0.802222 0.800692
0.861416 0.790599 0.790483
0.000065 0.967588 0.999839
0.000065 0.967529 0.999836
0.000183 0.931095 0.979561
0.000494 0.900751 0.950360
0.284311 0.877024 0.881485
0.537388 0.859675 0.833540
0.673508 0.845506 0.805652
0.761928 0.832403 0.791373
0.826567 0.820997 0.780310
0.013622 0.000320 0.907563
0.012176 0.000576 0.895035
0.810820 0.000026 0.900702
0.999926 0.000159 0.925878
0.999962 0.000223 0.943335
0.999713 0.000267 0.896495
0.999862 0.016749 0.848693
0.999917 0.037014 0.827305
0.999900 0.042233 0.816724
0.000866 0.577077 0.999999
0.000621 0.545647 0.999956
0.435565 0.315041 0.999549
0.750642 0.254186 0.966325
0.898369 0.216234 0.952345
0.995001 0.189780 0.953211
0.999964 0.165107 0.967697
0.999883 0.175540 0.959912
0.999686 0.215980 0.922877
0.000468 0.741797 0.999828
0.000462 0.741732 0.999826
0.160549 0.579308 0.999975
0.608477 0.519394 0.955326
0.782774 0.482087 0.921969
0.891064 0.457003 0.909651
0.972874 0.437127 0.906185
0.999578 0.421872 0.911472
0.999551 0.411395 0.917258
0.000735 0.817949 0.999959
0.000739 0.817881 0.999959
0.002246 0.710134 0.999872
0.480313 0.655547 0.965364
0.698493 0.624663 0.916351
0.818985 0.601631 0.895272
0.904855 0.585006 0.885404
0.974886 0.570404 0.879375
0.999770 0.556357 0.879766
0.000293 0.868290 0.999588
0.000291 0.868210 0.999592
0.000460 0.783043 0.999862
0.339654 0.740398 0.977171
0.622162 0.709886 0.920299
0.757591 0.689187 0.890316
0.848273 0.671861 0.875101
0.920227 0.656446 0.865831
0.976704 0.642807 0.859017
0.000224 0.903823 0.999978
0.000224 0.903751 0.999978
0.000403 0.832039 0.999977
0.183168 0.794820 0.985352
0.534760 0.767948 0.921051
0.697834 0.748053 0.886278
0.797377 0.731453 0.866109
0.869837 0.717217 0.853340
0.930477 0.704558 0.843497
0.000596 0.927083 0.999999
0.000592 0.927018 0.999999
0.000670 0.870576 0.999931
0.051591 0.835836 0.990080
0.438505 0.810915 0.920866
0.636255 0.791938 0.880811
0.748276 0.776438 0.857363
0.825616 0.762898 0.843276
0.887084 0.750601 0.832388
0.000256 0.945641 0.999755
0.000254 0.945577 0.999756
0.000452 0.902309 0.999900
0.005502 0.868691 0.989518
0.335297 0.844906 0.922725
0.572779 0.826446 0.876685
0.700761 0.811257 0.850504
0.784989 0.798549 0.833935
0.849202 0.786447 0.823553
0.000143 0.960971 0.999671
0.000147 0.960914 0.999673
0.000160 0.926672 0.999674
0.000355 0.896520 0.983155
0.225633 0.873207 0.926532
0.504644 0.855378 0.873473
0.653218 0.841188 0.844424
0.746626 0.828299 0.826390
0.814033 0.816587 0.814818
