output/AP0_display/AP0_to_REALA-ACE_33grid.cube
TITLE "AP0_to_REALA-ACE"
# Input: Linear ACES2065-1 / AP0 (D60)
# Output: BT.709 / Gamma 2.2 (display-referred)
# Use: Display/output transform in ACES pipeline (replaces ODT)
# Source: FLog2C_to_REALA-ACE_65grid_V.1.00.cube
# Generated from Fujifilm GFX ETERNA 55 F-Log2C LUT
LUT_3D_SIZE 5
0.000200 0.000111 0.000001
0.922656 0.241858 0.432412
0.940825 0.327148 0.473700
0.940825 0.327148 0.473700
0.940825 0.327148 0.473700
0.477258 0.806928 0.405969
0.632270 0.492997 0.000009
0.953751 0.525370 0.046079
0.973453 0.548757 0.095808
0.977876 0.547491 0.175450
0.663656 0.929187 0.593484
0.509296 0.738376 0.229368
0.854468 0.708022 0.000076
0.982057 0.714205 0.000036
0.981166 0.720165 0.000183
0.663656 0.929187 0.593484
0.580119 0.863465 0.478092
0.775066 0.822877 0.114538
0.954063 0.801388 0.000082
0.985364 0.797623 0.000077
0.663656 0.929187 0.593484
0.663656 0.929187 0.593484
0.754442 0.890048 0.403078
0.898638 0.869099 0.041240
0.987747 0.856943 0.000341
0.000077 0.000098 0.559259
0.890617 0.238615 0.604939
0.938609 0.348385 0.609511
0.946011 0.358783 0.597167
0.945185 0.353744 0.582993
0.467685 0.816159 0.806470
0.562209 0.563668 0.562442
0.929386 0.532755 0.583800
0.984915 0.547001 0.641491
0.988277 0.567540 0.661614
0.637310 0.926906 0.837261
0.467043 0.799617 0.608078
0.798204 0.757996 0.517275
0.980573 0.736005 0.544296
0.998773 0.730243 0.585192
0.650736 0.936540 0.809819
0.600931 0.903607 0.691678
0.715469 0.868905 0.562641
0.901054 0.851599 0.484052
0.998469 0.834371 0.511185
0.651602 0.936771 0.778325
0.653688 0.932944 0.706218
0.711760 0.921247 0.648340
0.845077 0.915558 0.532134
0.956649 0.901310 0.445181
0.088221 0.003225 0.670515
0.857586 0.281841 0.682192
0.893233 0.339983 0.682834
0.920678 0.370285 0.659105
0.926052 0.367276 0.647334
0.397056 0.770181 0.862928
0.439589 0.543601 0.769532
0.882093 0.549846 0.775342
0.945287 0.567811 0.787767
0.957252 0.583549 0.781516
0.570790 0.880577 0.889355
0.409746 0.776978 0.757184
0.756435 0.758642 0.757897
0.958924 0.732616 0.755749
0.997828 0.722513 0.768688
0.642524 0.927182 0.890172
0.566449 0.884704 0.802439
0.660268 0.865197 0.755494
0.866285 0.843217 0.719733
0.985637 0.819671 0.717138
0.651044 0.933461 0.870622
0.628406 0.922870 0.812981
0.647560 0.907442 0.771531
0.791748 0.901245 0.714840
0.918981 0.883437 0.679270
0.108222 0.011025 0.680061
0.791453 0.279479 0.724436
0.862968 0.344645 0.746532
0.900371 0.378762 0.703807
0.906339 0.377777 0.691472
0.340972 0.738469 0.860402
0.348581 0.539292 0.843863
0.835358 0.566730 0.850430
0.920771 0.582651 0.849586
0.929335 0.592050 0.839589
0.524366 0.849302 0.884077
0.395092 0.768490 0.826733
0.698703 0.747287 0.864429
0.929104 0.733864 0.860860
0.977976 0.722901 0.854336
0.610110 0.903980 0.911842
0.534114 0.858916 0.846216
0.591887 0.839499 0.827796
0.830783 0.833629 0.832528
0.965597 0.810396 0.822322
0.648600 0.929208 0.913928
0.600349 0.902698 0.856506
0.600137 0.888475 0.825201
0.745634 0.890138 0.810489
0.888924 0.871923 0.790348
0.120991 0.018461 0.686712
0.716563 0.267014 0.758049
0.845849 0.363509 0.805268
0.882244 0.379015 0.738769
0.892264 0.382728 0.721983
0.297958 0.708330 0.858570
0.279502 0.545541 0.853911
0.800360 0.568913 0.888871
0.907468 0.590236 0.884713
0.913353 0.594735 0.875268
0.490719 0.827381 0.874444
0.384275 0.762906 0.861272
0.638425 0.731691 0.915573
0.893750 0.735484 0.913788
0.957199 0.726044 0.897561
0.578390 0.884369 0.901800
0.507188 0.838169 0.872555
0.527473 0.809100 0.858110
0.790694 0.820962 0.897742
0.938764 0.802492 0.888434
0.634368 0.919607 0.918677
0.579006 0.886377 0.884567
0.563467 0.870805 0.853465
0.696050 0.874091 0.865799
0.861076 0.863267 0.862981
