output/AP0_display/AP0_to_CLASSIC-CHROME_33grid.cube
TITLE "AP0_to_CLASSIC-CHROME"
# Input: Linear ACES2065-1 / AP0 (D60)
# Output: BT.709 / Gamma 2.2 (display-referred)
# Use: Display/output transform in ACES pipeline (replaces ODT)
# Source: FLog2C_to_CLASSIC-CHROME_65grid_V.1.00.cube
# Generated from Fujifilm GFX ETERNA 55 F-Log2C LUT
LUT_3D_SIZE 5
0.000178 0.000085 0.000052
0.960953 0.284034 0.394546
0.958776 0.374451 0.448598
0.958776 0.374451 0.448598
0.958776 0.374451 0.448598
0.021994 0.756172 0.011103
0.659867 0.505467 0.027693
0.913735 0.552439 0.095732
0.954212 0.587055 0.235002
0.954013 0.583132 0.306097
0.041322 0.914417 0.027422
0.502034 0.704754 0.038778
0.826933 0.698954 0.074801
0.938020 0.712457 0.109254
0.950805 0.719891 0.193079
0.047866 0.967222 0.033919
0.314751 0.805037 0.035178
0.763004 0.783798 0.088481
0.897301 0.785299 0.114802
0.951284 0.790240 0.129547
0.047866 0.967222 0.033919
0.100895 0.868870 0.026447
0.699395 0.839229 0.095914
0.859358 0.834952 0.124115
0.937909 0.836978 0.141433
0.003234 0.000015 0.431414
0.965216 0.139034 0.501646
0.959384 0.379803 0.553352
0.959491 0.398011 0.546347
0.959660 0.394578 0.535500
0.052175 0.799296 0.804939
0.558136 0.559662 0.558240
0.858779 0.560589 0.576527
0.953243 0.586975 0.619630
0.953701 0.607508 0.645485
0.071608 0.905269 0.793523
0.293248 0.753739 0.584015
0.766221 0.729312 0.584188
0.901528 0.731203 0.610551
0.956394 0.738488 0.641867
0.083849 0.947983 0.765685
0.071077 0.845306 0.584343
0.681207 0.814134 0.579055
0.854107 0.809853 0.602510
0.937915 0.810769 0.627316
0.084799 0.959616 0.726590
0.058230 0.898064 0.569594
0.572855 0.865550 0.561128
0.806968 0.858815 0.583255
0.903187 0.854497 0.605635
0.003201 0.000220 0.665406
0.922891 0.053462 0.575779
0.960924 0.298861 0.607740
0.959816 0.379480 0.597937
0.960912 0.383464 0.588965
0.052402 0.782241 0.904907
0.460370 0.569739 0.718722
0.832212 0.556471 0.704241
0.950263 0.577607 0.720981
0.954995 0.600802 0.731997
0.071799 0.884775 0.893224
0.133982 0.765350 0.756711
0.731887 0.734666 0.732827
0.883743 0.733524 0.737685
0.957696 0.738746 0.750034
0.084064 0.927781 0.874241
0.057592 0.849711 0.766300
0.623100 0.818902 0.741746
0.831217 0.812496 0.744056
0.920204 0.809516 0.749563
0.092362 0.953376 0.854385
0.065119 0.894163 0.758469
0.472317 0.861670 0.730944
0.770276 0.856108 0.736207
0.879990 0.851742 0.742082
0.004963 0.000283 0.784230
0.854710 0.008593 0.632304
0.964314 0.215099 0.663980
0.959488 0.357351 0.637558
0.959290 0.366894 0.624959
0.051037 0.763425 0.949451
0.339728 0.577115 0.800647
0.806769 0.551455 0.771822
0.937455 0.569393 0.775456
0.954973 0.591393 0.782368
0.069400 0.868308 0.939335
0.053646 0.773136 0.836746
0.693668 0.737093 0.802038
0.867561 0.732657 0.800082
0.948200 0.734205 0.802429
0.083199 0.912641 0.921934
0.060240 0.847866 0.841176
0.553333 0.814819 0.808033
0.805601 0.808565 0.806334
0.902944 0.804335 0.805409
0.090623 0.942793 0.907834
0.070429 0.889637 0.835650
0.365086 0.855624 0.799909
0.733165 0.850544 0.800842
0.857715 0.846563 0.800880
0.004968 0.000271 0.859926
0.778837 0.005621 0.684506
0.965793 0.138834 0.719930
0.960135 0.322878 0.668193
0.959516 0.348717 0.654580
0.048652 0.743126 0.958908
0.180401 0.585804 0.859139
0.779195 0.546711 0.816800
0.923376 0.560852 0.813908
0.954775 0.581613 0.817497
0.066075 0.852702 0.955044
0.050694 0.775425 0.889142
0.648017 0.736622 0.846305
0.848686 0.729631 0.838427
0.935400 0.728225 0.836479
0.080772 0.899578 0.946502
0.061309 0.847194 0.888573
0.467237 0.808969 0.847883
0.777743 0.802563 0.843009
0.885324 0.798819 0.840372
0.089528 0.929670 0.938169
0.071927 0.887850 0.883984
0.248336 0.851049 0.841913
0.695411 0.844360 0.839040
0.837853 0.840739 0.838693
