output/AP0_display/AP0_to_Velvia_33grid.cube
TITLE "AP0_to_Velvia"
# Input: Linear ACES2065-1 / AP0 (D60)
# Output: BT.709 / Gamma 2.2 (display-referred)
# Use: Display/output transform in ACES pipeline (replaces ODT)
# Source: FLog2C_to_Velvia_65grid_V.1.00.cube
# Generated from Fujifilm GFX ETERNA 55 F-Log2C LUT
LUT_3D_SIZE 5
0.000000 0.000000 0.000000
0.999872 0.170707 0.486996
0.999899 0.286792 0.492290
0.999899 0.286792 0.492290
0.999899 0.286792 0.492290
0.000018 0.887370 0.000109
0.664945 0.559476 0.000105
0.999118 0.542887 0.000003
0.999255 0.560804 0.000080
0.999300 0.545114 0.079070
0.000000 1.000000 0.000285
0.279599 0.781712 0.000204
0.876258 0.688305 0.000080
0.999437 0.667279 0.000149
0.999253 0.689397 0.000145
0.000000 1.000000 0.000285
0.000081 0.951018 0.000380
0.691344 0.809007 0.000131
0.979296 0.761359 0.000072
0.999472 0.750480 0.000035
0.000000 1.000000 0.000285
0.000000 1.000000 0.000285
0.493058 0.916726 0.000337
0.865990 0.851750 0.000109
0.998936 0.822603 0.000106
0.026489 0.000022 0.624207
0.999889 0.000123 0.764302
0.999739 0.274571 0.646751
0.999779 0.300737 0.623675
0.999716 0.298443 0.608210
0.000350 0.855268 0.876411
0.543778 0.545654 0.544430
0.965952 0.498279 0.543064
0.999908 0.501037 0.588466
0.999529 0.516505 0.618717
0.000086 0.991557 0.734595
0.037708 0.813368 0.482730
0.739209 0.709686 0.437613
0.992679 0.677581 0.455690
0.999264 0.671033 0.496127
0.000252 0.999958 0.637808
0.000040 0.968488 0.403479
0.536081 0.865214 0.350538
0.864948 0.814324 0.360505
0.999772 0.789054 0.388594
0.000081 0.999816 0.550588
0.000047 0.999743 0.326172
0.238360 0.981494 0.280871
0.712514 0.925874 0.274079
0.940909 0.887089 0.293449
0.103262 0.000192 0.871546
0.999924 0.000039 0.907694
0.999725 0.146930 0.796086
0.999592 0.266085 0.713903
0.999994 0.274475 0.695066
0.000455 0.797809 0.999929
0.473826 0.536148 0.807102
0.935093 0.475620 0.759625
0.999723 0.472860 0.770939
0.999802 0.492614 0.778383
0.000665 0.935651 0.995030
0.001605 0.813630 0.787747
0.694836 0.696578 0.695200
0.972034 0.660337 0.683017
0.999802 0.649488 0.696363
0.000044 0.986837 0.939666
0.000323 0.933547 0.725794
0.470628 0.854523 0.641652
0.818342 0.797988 0.619549
0.989007 0.765786 0.619217
0.000383 0.999431 0.878299
0.000295 0.987632 0.664280
0.141228 0.964864 0.596046
0.657137 0.901329 0.558406
0.891943 0.861847 0.550524
0.190476 0.000122 0.949253
0.999787 0.000031 0.983955
0.999909 0.025497 0.952535
0.999820 0.226334 0.791892
0.999945 0.241282 0.766884
0.000362 0.760511 0.999933
0.394729 0.531335 0.980022
0.898627 0.458016 0.904208
0.999883 0.450346 0.895997
0.999761 0.467744 0.901624
0.000339 0.901312 1.000000
0.000238 0.808008 0.980519
0.656684 0.687754 0.863755
0.947107 0.647040 0.831760
0.999968 0.631177 0.827782
0.000729 0.959931 0.999996
0.000408 0.905921 0.924435
0.414269 0.839476 0.820497
0.778302 0.780531 0.778202
0.969633 0.746305 0.762898
0.000035 0.986317 0.996560
0.000008 0.960731 0.866821
0.078633 0.941649 0.781657
0.614374 0.881874 0.724278
0.853770 0.841419 0.703801
0.274982 0.000381 0.999412
0.940165 0.000110 0.999611
1.000000 0.000010 0.999657
0.999931 0.167636 0.871935
0.999784 0.209330 0.826679
0.000354 0.729875 0.999833
0.293168 0.532540 0.999813
0.863222 0.443270 0.999533
0.999874 0.430800 0.988797
0.999810 0.445774 0.988516
0.000530 0.876850 0.999864
0.000385 0.794197 0.999813
0.620134 0.678155 0.983992
0.921932 0.634287 0.949687
0.999883 0.614963 0.933246
0.000690 0.940906 0.999984
0.000277 0.887447 0.999959
0.345611 0.825701 0.950193
0.741097 0.764128 0.900241
0.948553 0.729663 0.875152
0.000373 0.972443 0.999941
0.000383 0.941693 0.987360
0.037280 0.924812 0.917472
0.576828 0.865246 0.850331
0.821066 0.824140 0.822982
