output/AP0_display/AP0_to_PRO-Neg.Std_33grid.cube
TITLE "AP0_to_PRO-Neg.Std"
# Input: Linear ACES2065-1 / AP0 (D60)
# Output: BT.709 / Gamma 2.2 (display-referred)
# Use: Display/output transform in ACES pipeline (replaces ODT)
# Source: FLog2C_to_PRO-Neg.Std_65grid_V.1.00.cube
# Generated from Fujifilm GFX ETERNA 55 F-Log2C LUT
LUT_3D_SIZE 9
0.000438 0.000379 0.000085
0.839233 0.072199 0.285252
0.953854 0.156974 0.451755
0.966000 0.255580 0.484560
0.966102 0.257228 0.484735
0.966102 0.257228 0.484735
0.966102 0.257228 0.484735
0.966102 0.257228 0.484735
0.966102 0.257228 0.484735
0.014682 0.533519 0.000267
0.398313 0.326369 0.000382
0.708758 0.339134 0.009879
0.876373 0.350841 0.100007
0.956547 0.359562 0.203432
0.963049 0.359863 0.274222
0.965134 0.364659 0.315333
0.968471 0.375613 0.348045
0.970658 0.384655 0.373172
0.004566 0.798489 0.000183
0.276053 0.527622 0.000206
0.601839 0.511786 0.000147
0.780855 0.516375 0.000152
0.891994 0.517341 0.006750
0.962351 0.517443 0.072731
0.966985 0.513705 0.139280
0.968413 0.504941 0.185926
0.970425 0.501243 0.223110
0.000137 0.923871 0.000233
0.147742 0.673842 0.000208
0.523417 0.639695 0.000038
0.717761 0.630934 0.000160
0.833768 0.628517 0.000384
0.914544 0.624157 0.000725
0.960482 0.622049 0.015600
0.968402 0.614065 0.058259
0.970174 0.603677 0.104266
0.000000 0.990886 0.000240
0.022326 0.777000 0.000501
0.446710 0.736466 0.000135
0.661424 0.718718 0.000239
0.787569 0.711197 0.000195
0.871119 0.706574 0.000000
0.934659 0.702050 0.000013
0.964692 0.695992 0.002693
0.967636 0.687046 0.015682
0.000000 1.000000 0.000285
0.000909 0.854758 0.000057
0.365900 0.808197 0.000127
0.607247 0.787624 0.000068
0.745132 0.774851 0.000245
0.835443 0.765401 0.000004
0.901557 0.759536 0.000042
0.946192 0.757803 0.000031
0.964293 0.752592 0.000043
0.000000 1.000000 0.000285
0.000469 0.913909 0.000429
0.277368 0.863170 0.000207
0.550943 0.837634 0.000267
0.705171 0.819750 0.000364
0.804044 0.809172 0.000105
0.872845 0.800929 0.000186
0.925905 0.795563 0.000202
0.958140 0.794681 0.000186
0.000000 1.000000 0.000285
0.000000 0.960653 0.000400
0.180403 0.907059 0.000431
0.493390 0.877179 0.000161
0.664687 0.856752 0.000118
0.771670 0.845164 0.000177
0.845198 0.835180 0.000162
0.901773 0.828334 0.000201
0.941987 0.824044 0.000000
0.000000 1.000000 0.000285
0.000000 0.990825 0.000309
0.075362 0.941590 0.001122
0.434096 0.910314 0.000144
0.622972 0.889877 0.000012
0.740065 0.875679 0.000023
0.819855 0.864815 0.000258
0.878039 0.856958 0.000087
0.924163 0.851551 0.000006
0.026320 0.003341 0.248431
0.713921 0.023538 0.377450
0.951014 0.075665 0.541298
0.964454 0.204591 0.545474
0.970345 0.265359 0.544239
0.970456 0.265288 0.534430
0.969932 0.262821 0.526930
0.970046 0.261114 0.520605
0.969687 0.259619 0.515936
0.036530 0.599751 0.564355
0.363410 0.365353 0.363118
0.677937 0.343863 0.396476
0.845260 0.343686 0.447431
0.948694 0.344314 0.497866
0.977623 0.348900 0.540464
0.978797 0.362630 0.558713
0.980389 0.383782 0.567362
0.981575 0.402299 0.573232
0.025516 0.816945 0.576624
0.200880 0.589266 0.348453
0.570021 0.540536 0.352412
0.756299 0.522358 0.378507
0.868770 0.513146 0.411485
0.945914 0.509401 0.446705
0.983469 0.506359 0.480049
0.984781 0.506056 0.504717
0.984909 0.507740 0.520927
0.016378 0.919415 0.567289
0.037307 0.724335 0.326252
0.471377 0.671525 0.313734
0.683739 0.645390 0.329358
0.809511 0.629936 0.352799
0.891918 0.620083 0.381786
0.955178 0.614707 0.408220
0.985252 0.610532 0.437129
0.986069 0.606022 0.462680
0.010405 0.973670 0.534268
0.019501 0.818338 0.311160
0.371966 0.762501 0.281640
0.615015 0.734650 0.289436
0.757184 0.717083 0.307308
0.849306 0.704619 0.328604
0.915894 0.695280 0.354849
0.963675 0.689682 0.382569
0.984348 0.684885 0.408615
0.007247 0.999441 0.496963
0.013866 0.888067 0.296337
0.267137 0.829873 0.250944
0.548795 0.802516 0.253315
0.708303 0.784092 0.266422
0.809926 0.769290 0.287662
0.880158 0.759252 0.313309
0.936155 0.751861 0.337773
0.973452 0.746163 0.363393
0.003654 0.999782 0.462766
0.008784 0.940894 0.280173
0.149907 0.880108 0.221753
0.479481 0.854021 0.221264
0.658713 0.835406 0.233976
0.771860 0.820685 0.250919
0.847621 0.809171 0.273978
0.906515 0.801158 0.298272
0.951438 0.794761 0.322133
0.003688 0.999652 0.426340
0.004687 0.979383 0.260373
0.048136 0.921711 0.195782
0.407794 0.897306 0.190621
0.608078 0.878827 0.200816
0.733944 0.863240 0.219025
0.818226 0.851435 0.239078
0.878680 0.842544 0.262526
0.928412 0.834770 0.285838
0.004055 0.999397 0.390628
0.002128 0.999443 0.236609
0.006239 0.956091 0.170498
0.330335 0.933426 0.160108
0.556621 0.915020 0.168158
0.695993 0.899795 0.187678
0.787961 0.888036 0.205961
0.852500 0.878017 0.228049
0.903842 0.868797 0.251880
0.044871 0.005607 0.408835
0.637408 0.001570 0.467555
0.942620 0.036725 0.618509
0.963941 0.148873 0.623405
0.973100 0.261116 0.610303
0.974688 0.281531 0.602105
0.974756 0.281706 0.595517
0.974233 0.278992 0.588845
0.974154 0.277693 0.583659
0.042045 0.607679 0.759062
0.321915 0.382620 0.550589
0.661199 0.346029 0.559751
0.831594 0.338098 0.591386
0.935687 0.335983 0.625873
0.981652 0.337348 0.659346
0.982862 0.352139 0.669196
0.985330 0.382144 0.663347
0.986824 0.407914 0.661154
0.029856 0.815584 0.773993
0.129766 0.606658 0.563406
0.545535 0.547065 0.545397
0.741512 0.522668 0.553412
0.856920 0.510481 0.570823
0.936189 0.503591 0.591813
0.987409 0.500705 0.615098
0.990714 0.500221 0.634129
0.990389 0.506038 0.642040
0.021859 0.900604 0.753784
0.030864 0.741227 0.562241
0.436981 0.676457 0.528057
0.664191 0.647175 0.526851
0.795681 0.629967 0.536937
0.881752 0.618185 0.550719
0.947602 0.609924 0.569396
0.987321 0.604514 0.587603
0.992118 0.601414 0.604489
0.017185 0.948687 0.728805
0.023826 0.831594 0.568541
0.324253 0.767889 0.511780
0.592559 0.735643 0.504558
0.742715 0.715815 0.510399
0.837601 0.702252 0.520108
0.906408 0.691856 0.534427
0.958926 0.685146 0.550600
0.989987 0.680307 0.568003
0.012384 0.984027 0.705198
0.017601 0.896569 0.569000
0.206619 0.831106 0.499125
0.519166 0.801881 0.487909
0.689742 0.782062 0.488865
0.797116 0.766577 0.496213
0.870294 0.755653 0.508503
0.927332 0.747645 0.521584
0.970341 0.741791 0.535918
0.010241 0.999617 0.679688
0.014794 0.938987 0.559381
0.087398 0.880276 0.485593
0.443387 0.852729 0.473731
0.637873 0.832785 0.471620
0.756894 0.816862 0.476576
0.837898 0.805935 0.486322
0.896681 0.796880 0.497300
0.944569 0.789453 0.509851
0.008304 0.999817 0.657468
0.011623 0.970257 0.546936
0.025155 0.917601 0.471453
0.362726 0.894199 0.457576
0.583790 0.874117 0.454956
0.716981 0.858185 0.458155
0.805243 0.846029 0.466295
0.868491 0.836376 0.474924
0.917097 0.827237 0.485465
0.007239 0.999787 0.630884
0.008860 0.992197 0.532558
0.012521 0.946843 0.456955
0.274851 0.925891 0.439089
0.525411 0.906819 0.437466
0.674574 0.891494 0.439271
0.771912 0.878920 0.445647
0.840668 0.867697 0.452718
0.890236 0.858769 0.460620
0.060637 0.008729 0.536489
0.563465 0.000572 0.527483
0.918357 0.003247 0.673080
0.961042 0.090745 0.694682
0.972602 0.217709 0.657473
0.976748 0.266597 0.642529
0.975754 0.271217 0.634837
0.975738 0.273040 0.627673
0.975610 0.275528 0.621226
0.043768 0.609198 0.858563
0.268985 0.398054 0.675439
0.638587 0.347785 0.663927
0.818584 0.334506 0.684894
0.925394 0.330020 0.709342
0.981859 0.329496 0.736786
0.987834 0.337781 0.747337
0.986699 0.368354 0.726843
0.988352 0.394453 0.715265
0.030902 0.807754 0.862833
0.058249 0.623397 0.688544
0.515835 0.552454 0.661250
0.726164 0.523881 0.663145
0.845262 0.509559 0.671384
0.926868 0.501845 0.686476
0.987451 0.495622 0.703478
0.992844 0.494978 0.717831
0.993697 0.503963 0.717608
0.023768 0.886242 0.841727
0.031566 0.757890 0.700450
0.400094 0.682692 0.653871
0.646737 0.648798 0.647255
0.784775 0.628729 0.649639
0.874014 0.616350 0.658494
0.939871 0.607140 0.668039
0.987499 0.601239 0.681617
0.996117 0.599170 0.695371
0.020924 0.932524 0.818760
0.025212 0.845971 0.707742
0.278843 0.770839 0.643431
0.567579 0.737989 0.632900
0.728667 0.716333 0.630935
0.828063 0.700779 0.636366
0.898211 0.690147 0.643345
0.953230 0.683948 0.653776
0.990619 0.677417 0.665035
0.015660 0.966615 0.797796
0.021034 0.898432 0.703016
0.148059 0.834286 0.634182
0.490069 0.803090 0.621523
0.673740 0.781191 0.617232
0.785857 0.765601 0.620008
0.861252 0.755054 0.624984
0.919437 0.746351 0.633134
0.965124 0.738698 0.642013
0.013157 0.990254 0.776343
0.017111 0.936218 0.693243
0.039841 0.879937 0.623141
0.408539 0.853195 0.610996
0.616886 0.831624 0.605263
0.743771 0.814963 0.606874
0.827445 0.803597 0.609775
0.888471 0.793161 0.615260
0.935335 0.784894 0.620103
0.011234 0.999950 0.758496
0.014640 0.965187 0.683041
0.018329 0.913254 0.610872
0.319189 0.889991 0.597310
0.557524 0.870495 0.592274
0.699184 0.854352 0.591856
0.791684 0.841668 0.593906
0.857449 0.830434 0.596146
0.906881 0.821100 0.599916
0.010583 0.999906 0.740437
0.011574 0.988456 0.672233
0.015967 0.939606 0.599381
0.223697 0.916983 0.579339
0.492810 0.900348 0.576417
0.651901 0.884632 0.575355
0.754859 0.871757 0.576963
0.826674 0.860512 0.577817
0.879168 0.850961 0.581490
0.073157 0.010401 0.636744
0.491933 0.000401 0.582486
0.882063 0.000000 0.713925
0.960015 0.042153 0.761902
0.969587 0.170198 0.704073
0.977085 0.248307 0.678699
0.977475 0.259733 0.667531
0.977348 0.262447 0.660322
0.977192 0.264031 0.654313
0.047182 0.609916 0.923896
0.201257 0.413277 0.765834
0.615776 0.349925 0.742926
0.804087 0.330696 0.752302
0.915014 0.324504 0.771983
0.980235 0.323646 0.793235
0.989769 0.326156 0.809630
0.989162 0.355806 0.781192
0.988765 0.383103 0.760260
0.033044 0.796641 0.918333
0.039512 0.643167 0.779697
0.484612 0.557806 0.743990
0.708473 0.525133 0.740303
0.834967 0.507086 0.745367
0.918434 0.498337 0.755245
0.983303 0.491739 0.768344
0.996176 0.489579 0.777954
0.996665 0.495554 0.777503
0.026268 0.873881 0.897357
0.033167 0.776491 0.794625
0.359672 0.688856 0.736853
0.624489 0.651895 0.727775
0.771900 0.629066 0.726889
0.864816 0.615493 0.731264
0.933313 0.605101 0.739889
0.985731 0.600080 0.750286
0.997061 0.595124 0.759422
0.022314 0.919718 0.876551
0.026341 0.853134 0.794990
0.227405 0.776977 0.727828
0.543361 0.740830 0.717406
0.714113 0.716505 0.714624
0.818117 0.700588 0.715858
0.890594 0.689868 0.720498
0.947035 0.681256 0.725753
0.989901 0.674447 0.734721
0.018562 0.953003 0.855548
0.023583 0.899784 0.786419
0.087373 0.836992 0.717333
0.461010 0.804924 0.708631
0.655729 0.781740 0.704660
0.774842 0.765755 0.701771
0.854344 0.752780 0.705736
0.911106 0.743319 0.708885
0.958812 0.733621 0.713768
0.015980 0.978036 0.837101
0.019234 0.935062 0.777304
0.028601 0.877647 0.706046
0.371890 0.852206 0.697190
0.594130 0.830347 0.692373
0.729533 0.813000 0.690512
0.816497 0.800354 0.690654
0.878618 0.788788 0.692465
0.926434 0.779511 0.693493
0.012165 0.994707 0.820642
0.016653 0.963138 0.768094
0.019705 0.909153 0.695798
0.275818 0.885141 0.681801
0.529291 0.866425 0.678456
0.680783 0.849692 0.676007
0.777845 0.836928 0.674976
0.846172 0.825060 0.675120
0.896537 0.815441 0.676583
0.010009 0.999905 0.804525
0.013042 0.986510 0.760029
0.016325 0.935287 0.684177
0.174230 0.910657 0.665011
0.460259 0.894259 0.663620
0.629332 0.879055 0.660733
0.737775 0.866074 0.660405
0.813689 0.854806 0.659724
0.867906 0.845386 0.660085
0.084985 0.012055 0.717121
0.414903 0.000228 0.631330
0.845794 0.000018 0.745614
0.957657 0.008748 0.814649
0.969071 0.126138 0.752918
0.975568 0.221880 0.714897
0.977908 0.247442 0.697785
0.977958 0.251430 0.687869
0.978047 0.254160 0.681168
0.047791 0.610965 0.972237
0.119390 0.433124 0.831634
0.588791 0.351566 0.802722
0.790605 0.329670 0.808115
0.904938 0.320606 0.823842
0.976604 0.319906 0.838757
0.992132 0.318970 0.854897
0.989209 0.345930 0.826385
0.989209 0.373962 0.799748
0.036169 0.785746 0.960960
0.040611 0.666397 0.854275
0.450355 0.564011 0.804203
0.692597 0.526393 0.799299
0.823801 0.507974 0.800657
0.910471 0.496215 0.808133
0.975297 0.489610 0.817856
0.998555 0.486121 0.827215
0.997869 0.488974 0.826273
0.028685 0.862903 0.936049
0.032991 0.792709 0.863300
0.315605 0.694990 0.796432
0.603513 0.654622 0.787722
0.758448 0.630195 0.787537
0.856049 0.614798 0.788147
0.925419 0.604098 0.794124
0.980430 0.597510 0.801351
0.997567 0.592308 0.809804
0.023913 0.907561 0.916419
0.027013 0.858766 0.858529
0.172079 0.781260 0.788398
0.517264 0.743483 0.779427
0.697772 0.718528 0.773918
0.808155 0.701131 0.774764
0.882603 0.689522 0.776557
0.940339 0.679551 0.781486
0.984510 0.671674 0.786074
0.019637 0.941846 0.897473
0.022917 0.903691 0.849499
0.027385 0.835878 0.775156
0.429063 0.806594 0.769833
0.636815 0.781550 0.766354
0.763313 0.764711 0.764051
0.844426 0.751529 0.763001
0.903838 0.740947 0.764678
0.950672 0.730628 0.766831
0.017180 0.966805 0.880259
0.019309 0.938449 0.839917
0.023824 0.875120 0.765493
0.331828 0.849601 0.756137
0.570212 0.827887 0.752976
0.713233 0.810772 0.749705
0.804300 0.796673 0.748676
0.868962 0.785867 0.748076
0.917507 0.775679 0.748554
0.013875 0.987745 0.865434
0.016315 0.966055 0.834260
0.021454 0.905128 0.756305
0.228684 0.880853 0.740084
0.500490 0.862363 0.737628
0.661269 0.845810 0.735157
0.763656 0.832144 0.733826
0.834455 0.820870 0.732820
0.886924 0.810488 0.732780
0.011985 0.998923 0.852258
0.013193 0.989350 0.827401
0.018218 0.930449 0.746638
0.128163 0.905556 0.722671
0.427685 0.889607 0.722981
0.607030 0.874376 0.722503
0.721135 0.861374 0.719179
0.799682 0.849955 0.718856
0.857518 0.839794 0.718233
0.094027 0.014966 0.783774
0.331835 0.000509 0.682274
0.809324 0.000262 0.775453
0.956453 0.000677 0.852107
0.967647 0.083059 0.801567
0.974646 0.189464 0.750240
0.977667 0.234232 0.725730
0.977657 0.240482 0.715141
0.977485 0.244130 0.707266
0.046802 0.608310 0.999872
0.052154 0.458330 0.892148
0.557513 0.356723 0.850800
0.775394 0.328803 0.853535
0.893215 0.319056 0.862578
0.971192 0.315677 0.877069
0.993335 0.315083 0.890418
0.992054 0.335060 0.868349
0.992088 0.362289 0.836465
0.036973 0.776399 0.988582
0.041057 0.696369 0.919928
0.411561 0.570613 0.852146
0.672969 0.528865 0.844529
0.812656 0.507482 0.845838
0.902162 0.494766 0.849909
0.968760 0.487446 0.858996
0.997050 0.482837 0.866276
0.999624 0.484543 0.864652
0.030971 0.852079 0.968164
0.032982 0.805690 0.918560
0.268551 0.701496 0.844144
0.580665 0.657393 0.835755
0.745399 0.631874 0.832101
0.847006 0.614796 0.833195
0.918412 0.603568 0.837527
0.974232 0.595874 0.843017
0.996724 0.589935 0.847447
0.025309 0.898396 0.948414
0.027491 0.866573 0.910846
0.113199 0.784394 0.832044
0.489759 0.746455 0.826965
0.682669 0.720546 0.821746
0.798134 0.701719 0.820234
0.874820 0.688657 0.820460
0.932594 0.678200 0.823004
0.977443 0.669367 0.825683
0.021449 0.931286 0.929513
0.023029 0.910522 0.903795
0.028968 0.836094 0.819060
0.393789 0.805966 0.814593
0.617161 0.781672 0.811712
0.749367 0.763574 0.808054
0.833755 0.750035 0.807252
0.894856 0.738212 0.806218
0.942612 0.727330 0.806064
0.018863 0.957368 0.913240
0.019590 0.945436 0.897989
0.025534 0.873073 0.810676
0.289619 0.846461 0.799265
0.544733 0.825607 0.798231
0.696302 0.807370 0.794634
0.791865 0.793721 0.792410
0.858488 0.782023 0.791048
0.908517 0.771924 0.789670
0.015731 0.978866 0.900076
0.016096 0.977443 0.897747
0.022711 0.902549 0.801445
0.181851 0.876908 0.782523
0.471433 0.859046 0.782622
0.640677 0.842241 0.781162
0.748895 0.828622 0.778410
0.822915 0.816802 0.776791
0.877456 0.806535 0.775147
0.013614 0.993514 0.887091
0.013640 0.993453 0.887390
0.020002 0.927051 0.792052
0.084303 0.900634 0.765860
0.395328 0.885364 0.768508
0.583068 0.869794 0.767609
0.704572 0.856912 0.765104
0.787234 0.845561 0.763322
0.847107 0.835382 0.761763
0.103769 0.021241 0.820279
0.237972 0.005574 0.735208
0.773071 0.000201 0.802699
0.955129 0.000077 0.877090
0.964909 0.042416 0.850851
0.974080 0.154907 0.786012
0.977252 0.217099 0.751801
0.977419 0.231582 0.738231
0.977529 0.234586 0.730381
0.048342 0.602895 0.999744
0.051991 0.497317 0.959416
0.522826 0.361805 0.891740
0.757920 0.329573 0.888623
0.882417 0.317072 0.896369
0.965104 0.312866 0.908110
0.993517 0.311715 0.920337
0.993410 0.328016 0.902320
0.993134 0.353141 0.869070
0.037918 0.767054 0.999817
0.040217 0.724375 0.977314
0.368010 0.578027 0.890964
0.651255 0.531916 0.883496
0.800467 0.507935 0.882317
0.893486 0.494001 0.885283
0.961513 0.485947 0.892186
0.995607 0.480968 0.898385
0.999891 0.481243 0.897225
0.031031 0.843119 0.986130
0.032850 0.821866 0.971529
0.212159 0.709135 0.882700
0.555011 0.661035 0.874359
0.731786 0.633178 0.869642
0.838237 0.615761 0.869202
0.911362 0.603597 0.872988
0.967791 0.594521 0.876411
0.994651 0.587703 0.878900
0.025332 0.889444 0.970947
0.027194 0.881506 0.964904
0.050361 0.785068 0.864353
0.460176 0.748979 0.864952
0.666715 0.721039 0.860353
0.787141 0.701575 0.858004
0.866432 0.687825 0.856546
0.924611 0.676377 0.856494
0.970908 0.666389 0.857572
0.023612 0.921779 0.952792
0.023623 0.921709 0.952965
0.029311 0.835985 0.855536
0.356353 0.804857 0.849690
0.593888 0.780853 0.847792
0.733568 0.762104 0.843122
0.822649 0.747478 0.841984
0.885771 0.735259 0.840837
0.934685 0.724030 0.840370
0.019577 0.948726 0.939361
0.019585 0.948656 0.939567
0.025712 0.872470 0.847222
0.247449 0.843694 0.832525
0.517731 0.823130 0.833040
0.677467 0.804858 0.830291
0.778671 0.791029 0.827825
0.848139 0.779021 0.825481
0.900033 0.768702 0.824124
0.017620 0.970301 0.927617
0.017622 0.970238 0.927835
0.023071 0.901235 0.838769
0.136804 0.873869 0.815658
0.440535 0.855728 0.817975
0.619115 0.838773 0.816819
0.734037 0.825274 0.814182
0.811318 0.813264 0.811862
0.867962 0.803333 0.810076
0.015525 0.986979 0.915038
0.015531 0.986925 0.915265
0.021467 0.924807 0.829870
0.056466 0.897276 0.800408
0.361366 0.881853 0.803519
0.559926 0.866076 0.803846
0.688037 0.853159 0.801480
0.774027 0.841660 0.798838
0.836711 0.831655 0.797368
0.112741 0.029545 0.837523
0.121113 0.014395 0.795069
0.734081 0.000195 0.832911
0.943567 0.000114 0.899417
0.963264 0.010872 0.900052
0.972120 0.120577 0.822067
0.977144 0.196913 0.779692
0.978599 0.221099 0.761321
0.977925 0.224596 0.752412
0.049720 0.596224 0.999868
0.051708 0.562396 0.999991
0.485087 0.367204 0.926315
0.739045 0.330955 0.920923
0.871206 0.315481 0.925044
0.957789 0.310839 0.934679
0.994291 0.309028 0.945066
0.995003 0.321629 0.932032
0.994520 0.345177 0.898552
0.038120 0.756968 0.999899
0.038138 0.756915 0.999900
0.320713 0.585726 0.923117
0.629148 0.534384 0.915927
0.788400 0.507919 0.913828
0.884605 0.493662 0.915120
0.954102 0.484997 0.920019
0.993520 0.479190 0.925807
0.999938 0.477442 0.925060
0.031156 0.833436 0.990097
0.031179 0.833359 0.990123
0.151513 0.715795 0.912369
0.529402 0.666291 0.906758
0.716180 0.635629 0.901261
0.827770 0.616571 0.899867
0.903598 0.603213 0.902220
0.961328 0.593790 0.905200
0.992439 0.585129 0.907498
0.026383 0.879773 0.980280
0.026399 0.879691 0.980301
0.037400 0.787487 0.896132
0.427384 0.749587 0.895747
0.645937 0.721621 0.891340
0.773694 0.701554 0.888352
0.857503 0.686875 0.886636
0.916400 0.674870 0.885105
0.963716 0.664048 0.884579
0.024807 0.912470 0.966274
0.024812 0.912388 0.966310
0.029356 0.836117 0.887607
0.316591 0.803787 0.877779
0.568830 0.779696 0.876021
0.717446 0.760497 0.873493
0.811173 0.745688 0.870982
0.876626 0.732371 0.869462
0.926428 0.721348 0.868667
0.020695 0.939674 0.954561
0.020706 0.939591 0.954594
0.025793 0.872392 0.878360
0.202144 0.841391 0.859646
0.490258 0.820818 0.861578
0.658154 0.802671 0.859546
0.765334 0.788495 0.856616
0.837687 0.776105 0.854548
0.891522 0.765652 0.853062
0.018455 0.961922 0.943646
0.018474 0.961835 0.943681
0.023236 0.900510 0.870096
0.098804 0.870230 0.842215
0.409720 0.852936 0.846814
0.597646 0.836139 0.845335
0.718815 0.822557 0.842811
0.799434 0.810097 0.841448
0.858522 0.799957 0.839811
0.016349 0.980025 0.932732
0.016353 0.979956 0.932799
0.021822 0.923657 0.862059
0.038873 0.893944 0.828635
0.327408 0.878791 0.832907
0.536674 0.863099 0.832473
0.671070 0.850222 0.830333
0.761310 0.838176 0.829372
0.826117 0.827986 0.827643
