output/AppleLog_display/AppleLog_to_PROVIA_33grid.cube
TITLE "AppleLog_to_PROVIA"
# Input: Apple Log (BT.2020 primaries, D65)
# Output: BT.709 / Gamma 2.2 (display-referred)
# Use: Display LUT for iPhone 15/16 Pro Apple Log footage
# Source: FLog2C_to_PROVIA_65grid_V.1.00.cube
# Generated from Fujifilm GFX ETERNA 55 F-Log2C LUT
LUT_3D_SIZE 5
0.000459 0.000290 0.000061
0.029907 0.003138 0.000558
0.989757 0.044155 0.264213
1.000000 0.257130 0.480656
0.999571 0.509318 0.235445
0.000536 0.036415 0.000130
0.072518 0.035615 0.000435
0.833369 0.039808 0.143513
0.999522 0.325235 0.421391
0.999265 0.534401 0.203883
0.000000 0.672918 0.000754
0.000177 0.475458 0.000383
0.519048 0.415868 0.000045
0.999227 0.490044 0.210851
0.999279 0.588130 0.127324
0.000000 1.000000 0.000285
0.000000 1.000000 0.000285
0.014134 0.998118 0.000300
0.999216 0.870762 0.000160
0.999381 0.776400 0.000158
0.000000 1.000000 0.000285
0.000000 1.000000 0.000285
0.000000 1.000000 0.000285
0.301720 0.999881 0.000643
0.985376 0.985469 0.016687
0.003510 0.000386 0.063208
0.053070 0.000572 0.052352
0.976792 0.041802 0.243084
1.000000 0.257130 0.480656
0.999149 0.524494 0.216002
0.000431 0.075674 0.089513
0.059841 0.062614 0.059552
0.767767 0.068035 0.121172
0.999817 0.345496 0.405062
0.999233 0.551105 0.182721
0.000053 0.724736 0.004623
0.000096 0.528325 0.000061
0.493503 0.445615 0.000126
0.999709 0.506011 0.264250
0.999354 0.606209 0.137666
0.000000 1.000000 0.000285
0.000000 1.000000 0.000285
0.000000 1.000000 0.000285
0.988834 0.891915 0.000463
0.999279 0.823018 0.002920
0.000000 1.000000 0.000285
0.000000 1.000000 0.000285
0.000000 1.000000 0.000285
0.281477 0.999774 0.000132
0.985219 0.987864 0.019942
0.045641 0.000256 0.441461
0.141125 0.000018 0.376142
0.949911 0.000085 0.482495
0.999238 0.308953 0.618149
0.999540 0.553092 0.489374
0.000645 0.184946 0.685285
0.073573 0.119073 0.526705
0.712242 0.092629 0.494625
0.999859 0.403479 0.623524
0.999563 0.575054 0.481835
0.000054 0.762552 0.794132
0.000119 0.585715 0.588111
0.482218 0.485785 0.482555
0.999634 0.527068 0.583424
0.999394 0.620878 0.464318
0.000182 0.999562 0.291137
0.000000 0.999758 0.274540
0.000139 0.999833 0.254558
0.947265 0.920461 0.275303
0.999232 0.809733 0.351989
0.000000 0.999829 0.023309
0.000000 0.999899 0.016868
0.000016 0.999992 0.007005
0.256656 0.999848 0.000169
0.983157 0.999727 0.051426
0.176319 0.412789 0.999714
0.318385 0.285838 0.999443
0.719179 0.225868 0.999704
0.999986 0.382286 0.962081
0.999858 0.607322 0.793483
0.025760 0.554756 1.000000
0.219656 0.459636 0.999878
0.650699 0.382323 0.999443
0.999998 0.442722 0.973015
0.999868 0.625176 0.793101
0.000159 0.718098 0.999485
0.024212 0.677148 0.999997
0.515027 0.610194 0.999914
0.999713 0.556154 0.981549
0.999829 0.664036 0.792215
0.000461 0.945078 0.979335
0.000552 0.941789 0.973661
0.000588 0.935257 0.957427
0.867716 0.871916 0.869137
0.999675 0.799390 0.775167
0.000148 0.999628 0.684576
0.000145 0.999609 0.680506
0.000136 0.999563 0.672060
0.253640 0.999866 0.635919
0.982248 0.999502 0.566053
0.333625 0.688208 0.999946
0.404777 0.678861 0.999928
0.527840 0.671384 0.999831
0.889425 0.664430 0.999752
0.999977 0.671286 0.999104
0.315085 0.705861 0.999902
0.388889 0.693926 0.999887
0.515512 0.684491 0.999766
0.880552 0.676536 0.999960
0.999976 0.679291 0.999148
0.266965 0.741739 0.999945
0.345580 0.729231 0.999967
0.481306 0.714198 0.999679
0.860079 0.704149 0.999763
0.999978 0.697930 0.999417
0.023346 0.890392 1.000000
0.052608 0.887179 0.999992
0.224888 0.866765 0.999806
0.746872 0.819293 0.998847
0.999888 0.788939 0.999724
0.003503 0.990025 1.000000
0.003494 0.990016 0.999999
0.003466 0.989988 0.999995
0.111806 0.999741 0.999807
0.982962 0.990272 0.987781
