output/AppleLog_display/AppleLog_to_PRO-Neg.Std_33grid.cube
TITLE "AppleLog_to_PRO-Neg.Std"
# Input: Apple Log (BT.2020 primaries, D65)
# Output: BT.709 / Gamma 2.2 (display-referred)
# Use: Display LUT for iPhone 15/16 Pro Apple Log footage
# Source: FLog2C_to_PRO-Neg.Std_65grid_V.1.00.cube
# Generated from Fujifilm GFX ETERNA 55 F-Log2C LUT
LUT_3D_SIZE 5
0.000438 0.000379 0.000085
0.025128 0.006355 0.004752
0.846302 0.071375 0.293230
0.966102 0.257228 0.484735
0.973690 0.498831 0.281542
0.006138 0.039452 0.001040
0.065098 0.042815 0.005395
0.693644 0.070278 0.192628
0.968840 0.322302 0.439648
0.972927 0.523917 0.253595
0.011977 0.634840 0.000647
0.015877 0.445665 0.000284
0.482407 0.412059 0.000275
0.970024 0.481762 0.258593
0.973249 0.577529 0.189802
0.000000 1.000000 0.000285
0.016893 0.993188 0.000262
0.342646 0.973083 0.000358
0.957120 0.896527 0.000000
0.960958 0.799070 0.000003
0.231924 0.999903 0.000577
0.256588 0.999918 0.000400
0.312868 0.999826 0.000215
0.608978 0.999926 0.000255
0.951574 0.999622 0.008590
0.002311 0.001344 0.052391
0.043564 0.004803 0.050440
0.825930 0.071056 0.275734
0.966102 0.257228 0.484735
0.973338 0.515465 0.263643
0.018079 0.079216 0.084937
0.068936 0.070940 0.068521
0.636198 0.099693 0.175412
0.969732 0.342505 0.424124
0.973544 0.541621 0.234518
0.018970 0.684386 0.069526
0.019485 0.495459 0.001813
0.469925 0.439064 0.016546
0.973296 0.496776 0.305053
0.974490 0.595369 0.198881
0.000000 1.000000 0.000285
0.000000 1.000000 0.000285
0.229222 0.991678 0.000113
0.941522 0.929396 0.000129
0.972161 0.816216 0.083120
0.244066 0.999278 0.000274
0.265275 0.999286 0.000246
0.315870 0.999402 0.000250
0.604051 0.999972 0.000372
0.955804 0.999802 0.031489
0.032520 0.004903 0.323892
0.108016 0.006440 0.287262
0.809296 0.020327 0.479159
0.977474 0.311656 0.615626
0.986524 0.545381 0.510791
0.046072 0.205831 0.568686
0.095293 0.145241 0.438045
0.607785 0.135674 0.478419
0.984562 0.402262 0.626268
0.987070 0.567173 0.504203
0.033535 0.733686 0.712340
0.037219 0.563608 0.529040
0.484998 0.487720 0.484339
0.988875 0.521612 0.595634
0.988045 0.613950 0.490290
0.004448 0.998491 0.361687
0.005566 0.992760 0.347727
0.172009 0.983240 0.330778
0.925047 0.916014 0.363515
0.982523 0.805108 0.404802
0.271897 0.999651 0.168075
0.289705 0.999514 0.160135
0.333552 0.999471 0.147729
0.598005 0.999518 0.128402
0.963708 0.999518 0.133086
0.059030 0.460744 0.999943
0.230255 0.344601 0.999598
0.629943 0.293626 0.999727
0.999525 0.393882 0.943184
0.999121 0.604244 0.797218
0.051188 0.571374 0.999965
0.176570 0.490389 1.000000
0.583152 0.427683 0.999649
0.999829 0.450782 0.961278
0.998933 0.622541 0.798931
0.042050 0.709778 0.999634
0.083681 0.672742 0.999757
0.499439 0.626594 0.999251
0.999867 0.562394 0.973791
0.997916 0.660662 0.800272
0.020690 0.936729 0.883641
0.021394 0.930145 0.876504
0.157600 0.921273 0.872767
0.868307 0.870161 0.869261
0.994616 0.796864 0.788843
0.221109 0.999608 0.661967
0.246152 0.999524 0.660191
0.300618 0.999608 0.655786
0.582103 0.999647 0.649586
0.981103 0.999679 0.625669
0.329609 0.698713 0.999781
0.385937 0.692968 0.999985
0.495201 0.689481 0.999931
0.844666 0.689368 0.999335
0.999362 0.681523 0.999640
0.321034 0.713329 0.999919
0.378135 0.704976 0.999939
0.487744 0.701117 0.999881
0.837409 0.700069 0.999440
0.999385 0.688642 0.999531
0.301898 0.742584 0.999956
0.359311 0.734556 0.999907
0.469780 0.726265 0.999833
0.823400 0.723013 0.999702
0.999474 0.704813 0.999169
0.189514 0.873546 0.991787
0.246456 0.868058 0.996860
0.359706 0.853723 0.999696
0.742432 0.824144 0.999923
0.999538 0.791892 0.999994
0.133310 0.999751 0.933244
0.154034 0.999731 0.934757
0.202134 0.999638 0.938021
0.465727 0.999829 0.954011
0.982589 0.988086 0.985451
