output/AppleLog_display/AppleLog_to_CLASSIC-CHROME_33grid.cube
TITLE "AppleLog_to_CLASSIC-CHROME"
# Input: Apple Log (BT.2020 primaries, D65)
# Output: BT.709 / Gamma 2.2 (display-referred)
# Use: Display LUT for iPhone 15/16 Pro Apple Log footage
# Source: FLog2C_to_CLASSIC-CHROME_65grid_V.1.00.cube
# Generated from Fujifilm GFX ETERNA 55 F-Log2C LUT
LUT_3D_SIZE 9
0.000178 0.000085 0.000052
0.000178 0.000085 0.000052
0.010954 0.001430 0.000088
0.357035 0.011969 0.021866
0.908621 0.119225 0.205460
0.958727 0.373350 0.447845
0.958776 0.374451 0.448598
0.958385 0.455123 0.417603
0.953652 0.585111 0.355125
0.000178 0.000085 0.000052
0.000178 0.000085 0.000052
0.067386 0.002134 0.002336
0.431600 0.015795 0.029845
0.925406 0.130908 0.222570
0.960042 0.304481 0.404577
0.957647 0.407559 0.434673
0.957957 0.488870 0.404011
0.953980 0.598687 0.345624
0.000430 0.015897 0.000108
0.000027 0.022057 0.000007
0.044746 0.014684 0.000156
0.307193 0.018324 0.013355
0.779164 0.075502 0.109478
0.961576 0.284959 0.365335
0.957259 0.432308 0.426457
0.957642 0.503191 0.396897
0.953778 0.604899 0.340787
0.000108 0.197006 0.000038
0.000298 0.180635 0.000077
0.007934 0.132434 0.000005
0.200725 0.123328 0.000573
0.641962 0.167567 0.022097
0.959451 0.345281 0.252978
0.957885 0.478947 0.409226
0.955902 0.529103 0.383289
0.953371 0.617333 0.331107
0.010405 0.617390 0.001593
0.000997 0.471217 0.000560
0.000375 0.431286 0.000362
0.134227 0.398324 0.000822
0.533238 0.394668 0.011695
0.894989 0.480710 0.075442
0.954176 0.567284 0.329333
0.954029 0.589775 0.351794
0.952481 0.646769 0.306461
0.025822 0.796120 0.015066
0.022115 0.753773 0.011443
0.020349 0.742054 0.009540
0.099341 0.722526 0.013013
0.467499 0.699244 0.034495
0.821718 0.698878 0.074162
0.951591 0.721169 0.127478
0.950553 0.691195 0.255893
0.950872 0.705737 0.235990
0.043738 0.933889 0.029643
0.043654 0.924777 0.029380
0.058371 0.921323 0.030709
0.121367 0.914893 0.035068
0.416269 0.900383 0.064133
0.767901 0.886540 0.125251
0.956508 0.881039 0.162838
0.951935 0.814840 0.136242
0.951876 0.800126 0.130971
0.061957 0.967207 0.035423
0.080674 0.967188 0.037421
0.088562 0.967180 0.038263
0.137334 0.966584 0.043886
0.284579 0.964582 0.062393
0.588845 0.961711 0.116992
0.862116 0.969066 0.176993
0.962626 0.951970 0.193709
0.958169 0.913545 0.175271
0.276754 0.964199 0.061719
0.299157 0.963622 0.065194
0.308948 0.963370 0.066713
0.329308 0.962846 0.069871
0.380225 0.961964 0.078187
0.498751 0.961170 0.098800
0.702231 0.964009 0.140901
0.908322 0.970874 0.190410
0.964568 0.973038 0.212368
0.000178 0.000085 0.000052
0.000178 0.000085 0.000052
0.021641 0.001838 0.000021
0.374967 0.013141 0.023596
0.913095 0.121506 0.208988
0.958748 0.373815 0.448163
0.958776 0.374451 0.448598
0.957901 0.459438 0.416138
0.953698 0.586765 0.353976
0.000178 0.000085 0.000052
0.000178 0.000085 0.000052
0.081919 0.002552 0.002280
0.448980 0.016279 0.032010
0.883929 0.106401 0.185683
0.961197 0.285844 0.394027
0.958548 0.414529 0.432993
0.957871 0.492803 0.402055
0.953926 0.600357 0.344324
0.000008 0.034298 0.000575
0.000080 0.043410 0.000723
0.040536 0.026980 0.000460
0.287428 0.030575 0.007898
0.755121 0.086934 0.092835
0.961955 0.293403 0.354085
0.957578 0.439171 0.424575
0.957563 0.506774 0.395121
0.953725 0.606511 0.339532
0.000419 0.224953 0.000022
0.000488 0.192647 0.000060
0.007724 0.145891 0.000000
0.199958 0.137143 0.000603
0.634492 0.178881 0.016627
0.959083 0.352374 0.240239
0.957594 0.483875 0.406836
0.955658 0.532240 0.381848
0.953322 0.618835 0.329938
0.010784 0.629574 0.002193
0.001335 0.477965 0.000361
0.000331 0.440976 0.000343
0.137100 0.407957 0.000670
0.532679 0.402725 0.012534
0.892789 0.486483 0.071524
0.954041 0.570726 0.325262
0.954035 0.592441 0.349979
0.952439 0.648301 0.305272
0.027629 0.806978 0.016257
0.023785 0.766413 0.012523
0.022314 0.754222 0.011322
0.077594 0.735938 0.011977
0.441155 0.710134 0.034719
0.807369 0.705533 0.073390
0.950811 0.731207 0.185938
0.951505 0.699597 0.274098
0.950979 0.713806 0.225816
0.046983 0.947726 0.032616
0.044467 0.940252 0.031321
0.043980 0.937111 0.030546
0.061539 0.930630 0.030742
0.303666 0.916465 0.053307
0.724370 0.897880 0.120727
0.955393 0.890298 0.167473
0.954412 0.826464 0.260420
0.953717 0.811729 0.224652
0.051839 0.967318 0.034721
0.056785 0.967436 0.035720
0.058869 0.967486 0.036141
0.099594 0.966982 0.040053
0.228593 0.964993 0.054388
0.540699 0.961919 0.106552
0.842575 0.968080 0.173926
0.963160 0.954001 0.196457
0.958558 0.914755 0.204574
0.275079 0.964462 0.061789
0.295711 0.963835 0.064885
0.304729 0.963562 0.066237
0.323483 0.962992 0.069047
0.372039 0.962067 0.076839
0.489273 0.961204 0.097185
0.693253 0.963640 0.137578
0.902586 0.971066 0.187857
0.964568 0.973038 0.212368
0.000155 0.000112 0.025352
0.000155 0.000112 0.025352
0.021528 0.000423 0.020655
0.351853 0.010513 0.024210
0.891031 0.111301 0.187842
0.958802 0.373543 0.448014
0.958776 0.374451 0.448598
0.957597 0.469368 0.412518
0.953520 0.597366 0.345822
0.000158 0.000069 0.028163
0.000158 0.000069 0.028163
0.078361 0.000853 0.019780
0.411518 0.013533 0.032739
0.837863 0.084661 0.147934
0.963254 0.267398 0.380949
0.957688 0.423569 0.431487
0.957210 0.504071 0.397117
0.953108 0.612032 0.335101
0.000138 0.044871 0.056695
0.000003 0.055922 0.059474
0.033267 0.034724 0.032210
0.266611 0.037381 0.035113
0.719620 0.089950 0.098370
0.961361 0.292597 0.328203
0.957154 0.449407 0.420689
0.956437 0.518117 0.390882
0.952967 0.618451 0.331172
0.000053 0.274289 0.096662
0.000076 0.229284 0.067814
0.002521 0.175993 0.038452
0.188744 0.154714 0.033686
0.613867 0.187504 0.071517
0.950834 0.349658 0.252384
0.956968 0.496211 0.411076
0.955654 0.545225 0.381641
0.952668 0.631113 0.324834
0.017054 0.669424 0.130116
0.004745 0.525085 0.033433
0.001825 0.485157 0.019941
0.110629 0.445349 0.015072
0.509450 0.425456 0.044267
0.875359 0.491543 0.163921
0.953384 0.583744 0.374716
0.953238 0.606693 0.379738
0.952084 0.660839 0.321266
0.028897 0.820852 0.016850
0.025340 0.781294 0.014135
0.023339 0.769827 0.013106
0.052399 0.751142 0.012919
0.411401 0.724855 0.033530
0.793486 0.715045 0.086294
0.952687 0.741591 0.300565
0.952322 0.708386 0.377489
0.951599 0.722451 0.315655
0.047990 0.949158 0.032507
0.044386 0.943366 0.031193
0.044142 0.940116 0.030786
0.055119 0.933756 0.031290
0.266383 0.920275 0.050352
0.711138 0.900864 0.119252
0.950391 0.890894 0.178880
0.956675 0.831576 0.338648
0.955367 0.814986 0.299752
0.050109 0.967342 0.034255
0.052824 0.967486 0.034663
0.053969 0.967548 0.034834
0.092493 0.966940 0.038811
0.214567 0.964782 0.052907
0.525441 0.962075 0.104633
0.836548 0.967999 0.171876
0.962876 0.954794 0.203855
0.959454 0.915327 0.245016
0.274992 0.964607 0.061714
0.295057 0.963951 0.064627
0.303828 0.963664 0.065899
0.322068 0.963067 0.068542
0.369496 0.962206 0.076028
0.484873 0.961579 0.096114
0.689724 0.963472 0.137178
0.899816 0.970954 0.187756
0.964568 0.973038 0.212368
0.000159 0.000168 0.121036
0.000159 0.000168 0.121036
0.028426 0.000099 0.099196
0.356780 0.003859 0.099379
0.871644 0.091981 0.232730
0.958764 0.361386 0.443194
0.960037 0.378010 0.469851
0.958210 0.490119 0.466512
0.952989 0.614043 0.432576
0.000115 0.000170 0.123366
0.000104 0.000471 0.138424
0.072152 0.000523 0.105603
0.350540 0.003268 0.116749
0.783379 0.052666 0.218923
0.962992 0.254040 0.438201
0.958365 0.448405 0.492859
0.956244 0.525156 0.472099
0.952817 0.628372 0.432748
0.000471 0.074031 0.230663
0.000466 0.081366 0.227724
0.025379 0.050988 0.156114
0.258778 0.048692 0.143569
0.692358 0.094789 0.205843
0.961900 0.280399 0.403218
0.958948 0.474628 0.499503
0.956148 0.539069 0.473326
0.952424 0.634135 0.432403
0.001644 0.332463 0.356429
0.001309 0.275174 0.285393
0.001792 0.213677 0.216208
0.183152 0.183902 0.182967
0.599900 0.206748 0.206207
0.935067 0.346324 0.361419
0.956961 0.513452 0.498055
0.954526 0.565264 0.476811
0.951484 0.645589 0.432000
0.028912 0.697162 0.465810
0.011571 0.562204 0.297395
0.008132 0.522790 0.260325
0.094779 0.480573 0.222273
0.498082 0.452039 0.221037
0.862113 0.502003 0.315039
0.954363 0.597640 0.481849
0.953839 0.623195 0.482965
0.952340 0.674448 0.432713
0.039105 0.829900 0.286118
0.032458 0.794334 0.230388
0.030818 0.783059 0.215520
0.041107 0.764846 0.198022
0.384351 0.738380 0.199619
0.782602 0.725554 0.268810
0.954287 0.751886 0.442272
0.953233 0.718767 0.486864
0.952938 0.731689 0.430043
0.047927 0.948919 0.057652
0.046030 0.942773 0.055421
0.045829 0.939881 0.054517
0.046823 0.934573 0.053433
0.215202 0.923537 0.067840
0.688753 0.904054 0.155894
0.945753 0.893401 0.306304
0.959015 0.837402 0.453460
0.956020 0.819445 0.409610
0.047929 0.967230 0.033945
0.048002 0.967238 0.033976
0.048032 0.967242 0.033988
0.081872 0.967341 0.036776
0.189787 0.966453 0.048375
0.499732 0.961321 0.099504
0.824086 0.967745 0.168337
0.964611 0.956728 0.267785
0.962489 0.916885 0.334559
0.277072 0.963369 0.094002
0.295694 0.963034 0.092919
0.303835 0.962887 0.092445
0.320768 0.962581 0.091454
0.366269 0.962132 0.093908
0.479949 0.961641 0.109712
0.683516 0.963291 0.148806
0.896626 0.970589 0.216585
0.965145 0.975320 0.232226
0.002198 0.000215 0.333608
0.002198 0.000215 0.333608
0.063761 0.000059 0.266935
0.404979 0.000639 0.249629
0.867379 0.068059 0.367977
0.960226 0.361883 0.523618
0.958585 0.426492 0.570536
0.955783 0.526789 0.576610
0.953088 0.635818 0.559625
0.001322 0.024175 0.464455
0.001361 0.031351 0.451094
0.045531 0.015273 0.355848
0.304460 0.018083 0.329157
0.716639 0.062684 0.381260
0.963602 0.240827 0.534643
0.957347 0.494939 0.598656
0.954979 0.557940 0.585663
0.953262 0.648501 0.561410
0.003195 0.158925 0.576928
0.002570 0.138235 0.521388
0.014372 0.098547 0.430744
0.248731 0.086752 0.383699
0.659362 0.119866 0.398496
0.955326 0.278062 0.523602
0.956567 0.510628 0.602940
0.954355 0.570762 0.588093
0.953407 0.653731 0.562125
0.009259 0.418361 0.672345
0.003651 0.334067 0.578681
0.002697 0.279086 0.510699
0.175841 0.240824 0.453496
0.585953 0.245447 0.430417
0.914164 0.355061 0.515327
0.954845 0.541267 0.609176
0.953554 0.594703 0.592642
0.953673 0.664208 0.563675
0.039370 0.727592 0.748036
0.022409 0.598085 0.606567
0.017610 0.566611 0.570759
0.077921 0.526185 0.526945
0.488799 0.491549 0.488884
0.847464 0.518040 0.517034
0.953367 0.618781 0.616151
0.953370 0.645961 0.604461
0.953311 0.689970 0.567072
0.051461 0.839897 0.643105
0.045430 0.807084 0.592139
0.044298 0.795690 0.575505
0.041636 0.779026 0.552637
0.352013 0.755218 0.525548
0.770637 0.741204 0.535485
0.956708 0.763456 0.615564
0.955417 0.732105 0.618278
0.955860 0.742774 0.569547
0.061680 0.941970 0.479329
0.059818 0.936368 0.467771
0.059664 0.934127 0.464179
0.058238 0.929938 0.456746
0.167027 0.918854 0.449072
0.659430 0.904450 0.485058
0.935143 0.896393 0.546157
0.962340 0.845307 0.604662
0.960040 0.825808 0.561023
0.058667 0.965378 0.279213
0.058719 0.965245 0.280101
0.059431 0.965181 0.280507
0.084307 0.964837 0.282232
0.167699 0.963573 0.286203
0.461922 0.960377 0.300686
0.806647 0.968275 0.341287
0.971319 0.960435 0.463790
0.967117 0.919490 0.498596
0.294754 0.961179 0.284864
0.311476 0.960798 0.280625
0.318787 0.960631 0.278772
0.333992 0.960285 0.274918
0.375181 0.959913 0.271414
0.478786 0.960047 0.274001
0.675391 0.964039 0.293246
0.890256 0.972892 0.346971
0.968809 0.977420 0.343674
0.002798 0.000288 0.699467
0.002926 0.000249 0.648034
0.119732 0.000026 0.586200
0.406629 0.000139 0.555379
0.765095 0.013775 0.583700
0.964787 0.182212 0.677136
0.958004 0.465423 0.669879
0.954242 0.574164 0.679021
0.954828 0.665575 0.681829
0.004502 0.245476 0.857904
0.004455 0.175064 0.780419
0.016370 0.143075 0.732501
0.257222 0.125166 0.685510
0.647257 0.149983 0.650002
0.932753 0.276327 0.683894
0.957002 0.505102 0.693110
0.954574 0.604465 0.690764
0.955095 0.676346 0.684477
0.010266 0.368237 0.873165
0.004737 0.273633 0.797092
0.005192 0.234790 0.757340
0.215434 0.206442 0.710174
0.614510 0.214644 0.669265
0.914463 0.317108 0.689172
0.956193 0.523135 0.700319
0.954429 0.616108 0.694923
0.955202 0.680873 0.685606
0.025183 0.547883 0.895232
0.012013 0.420691 0.808439
0.009337 0.385196 0.779415
0.150355 0.349897 0.740065
0.562990 0.334908 0.696925
0.882271 0.393815 0.699202
0.955167 0.559421 0.715913
0.954456 0.637412 0.702150
0.955270 0.689823 0.688086
0.045300 0.729476 0.898512
0.032417 0.632683 0.818636
0.028434 0.611392 0.800422
0.059988 0.580548 0.773425
0.467666 0.546867 0.737127
0.828758 0.553631 0.722752
0.954877 0.640826 0.743443
0.955482 0.678990 0.716235
0.955805 0.711529 0.693800
0.058525 0.832662 0.838166
0.054412 0.814819 0.816432
0.053099 0.808047 0.809406
0.050409 0.795355 0.794400
0.308706 0.774209 0.772239
0.757121 0.761203 0.758626
0.960232 0.770701 0.770113
0.957600 0.749538 0.737240
0.959102 0.757880 0.703411
0.074970 0.924859 0.760860
0.073095 0.920768 0.753432
0.072208 0.918934 0.750547
0.070730 0.915524 0.745851
0.110676 0.907176 0.733882
0.602844 0.897836 0.739398
0.914644 0.892824 0.751370
0.966781 0.851850 0.748769
0.964155 0.831192 0.710921
0.077220 0.961306 0.604829
0.077152 0.961416 0.603781
0.076960 0.961447 0.603257
0.076489 0.961502 0.602149
0.109188 0.961085 0.602210
0.388470 0.959500 0.618039
0.779764 0.970441 0.646581
0.978912 0.963997 0.684513
0.973395 0.921909 0.682742
0.290730 0.959296 0.548686
0.312419 0.959219 0.548905
0.321902 0.959185 0.549000
0.341631 0.959114 0.549197
0.386190 0.959242 0.549313
0.487855 0.960094 0.549995
0.667616 0.965189 0.557592
0.880159 0.976677 0.575901
0.976736 0.982833 0.555050
0.014803 0.402896 0.980010
0.008602 0.299590 0.955767
0.019322 0.283282 0.939609
0.232594 0.264713 0.909259
0.604335 0.266022 0.870057
0.887848 0.335091 0.849148
0.955809 0.504985 0.810955
0.953890 0.610654 0.769402
0.956200 0.694799 0.772730
0.022064 0.509463 0.970374
0.016630 0.432282 0.958022
0.015711 0.413820 0.943856
0.166865 0.390821 0.918323
0.555480 0.376419 0.882837
0.861880 0.414860 0.859716
0.955130 0.543389 0.827624
0.954666 0.633147 0.776939
0.956539 0.705034 0.776024
0.025262 0.544997 0.968774
0.019577 0.478896 0.958273
0.018630 0.460518 0.947211
0.142779 0.435771 0.921809
0.536458 0.416977 0.888375
0.853148 0.446502 0.863883
0.954695 0.559554 0.834022
0.954950 0.642209 0.779391
0.956729 0.709342 0.777435
0.032098 0.602630 0.965645
0.026354 0.555717 0.958427
0.025259 0.540149 0.948908
0.104776 0.516257 0.929323
0.499381 0.492860 0.896706
0.834882 0.507159 0.870555
0.954495 0.591216 0.845765
0.955425 0.659622 0.784859
0.957378 0.717845 0.780376
0.042585 0.697536 0.960021
0.039302 0.673887 0.954395
0.038419 0.665865 0.949445
0.052324 0.651054 0.936210
0.419963 0.632349 0.912222
0.797828 0.628305 0.886659
0.955669 0.659640 0.865246
0.956712 0.699663 0.796751
0.958712 0.738594 0.788041
0.056864 0.806276 0.947865
0.055894 0.795928 0.938710
0.054758 0.792653 0.935267
0.053064 0.786208 0.928852
0.235183 0.774538 0.913057
0.712290 0.769161 0.894149
0.954982 0.769532 0.880798
0.960577 0.767791 0.820564
0.961048 0.779957 0.803981
0.076094 0.899162 0.901197
0.075384 0.895787 0.896910
0.074852 0.894514 0.895416
0.073615 0.891735 0.892314
0.088574 0.886189 0.884020
0.512964 0.878129 0.877262
0.876984 0.880213 0.877965
0.970735 0.858771 0.853936
0.966839 0.839530 0.819733
0.090081 0.959281 0.815965
0.090083 0.959189 0.814970
0.090091 0.959129 0.814537
0.090109 0.959007 0.813656
0.089398 0.958863 0.811652
0.232820 0.955629 0.809748
0.723018 0.960664 0.828473
0.973915 0.958657 0.839918
0.977216 0.921327 0.820858
0.180339 0.958574 0.747574
0.198062 0.958526 0.746430
0.205805 0.958505 0.745930
0.223079 0.958494 0.745092
0.277888 0.958715 0.744409
0.408834 0.959832 0.743653
0.640464 0.966679 0.757475
0.860695 0.980529 0.775175
0.985402 0.990225 0.760866
0.029506 0.575209 0.965116
0.028142 0.570746 0.968357
0.063125 0.569287 0.967125
0.171307 0.567674 0.965037
0.438700 0.569231 0.963491
0.762758 0.573423 0.961390
0.955310 0.608687 0.958172
0.957109 0.671845 0.864814
0.958229 0.716353 0.852101
0.031903 0.606662 0.965060
0.035521 0.601764 0.966214
0.050715 0.600696 0.964691
0.152815 0.598572 0.963254
0.415773 0.599541 0.962988
0.745985 0.603894 0.959716
0.953391 0.631441 0.959357
0.957884 0.683936 0.868228
0.958543 0.723632 0.853917
0.033078 0.619218 0.964725
0.036500 0.614246 0.964997
0.043023 0.613048 0.963651
0.145399 0.610727 0.962870
0.405745 0.611161 0.962634
0.738801 0.615661 0.959399
0.952695 0.640819 0.959878
0.958039 0.688927 0.869956
0.958609 0.726668 0.854423
0.035924 0.641278 0.962609
0.038642 0.636475 0.962235
0.051846 0.635165 0.961840
0.130501 0.633255 0.961870
0.386556 0.633564 0.961765
0.725152 0.638955 0.958719
0.949945 0.658369 0.960690
0.958357 0.698986 0.873418
0.958739 0.732887 0.855459
0.041406 0.689718 0.960925
0.041134 0.685892 0.960792
0.040847 0.684490 0.960674
0.093477 0.681712 0.959735
0.337242 0.681353 0.960402
0.689819 0.685768 0.957364
0.935560 0.698357 0.962041
0.959968 0.723280 0.882586
0.959831 0.748576 0.859061
0.051144 0.766690 0.957756
0.051459 0.764414 0.958246
0.052140 0.763652 0.957937
0.063641 0.762023 0.957778
0.229192 0.759448 0.958025
0.610992 0.762674 0.954835
0.894403 0.769217 0.963207
0.963243 0.773426 0.903549
0.963479 0.783739 0.869080
0.067103 0.859143 0.954238
0.067557 0.857348 0.954463
0.067431 0.856528 0.954393
0.066815 0.855083 0.954453
0.095388 0.852223 0.954789
0.419340 0.848414 0.952287
0.811086 0.855981 0.960133
0.972344 0.852421 0.938469
0.970338 0.843865 0.890129
0.093262 0.942423 0.938910
0.092858 0.941677 0.938408
0.092559 0.941318 0.937842
0.091949 0.940584 0.936685
0.091168 0.938674 0.934265
0.126940 0.934246 0.932232
0.631731 0.934747 0.932428
0.937088 0.939688 0.937808
0.980089 0.918522 0.911190
0.098128 0.958522 0.893817
0.105550 0.958435 0.892749
0.108789 0.958397 0.892281
0.115515 0.958319 0.891307
0.133285 0.958112 0.888711
0.239528 0.958209 0.883590
0.524223 0.963349 0.879360
0.826961 0.980630 0.890770
0.992665 0.994139 0.896247
0.114362 0.687019 0.960866
0.174239 0.684282 0.959009
0.199455 0.683299 0.958447
0.253846 0.683450 0.959381
0.378112 0.686250 0.960333
0.597619 0.697950 0.957441
0.819972 0.721390 0.959535
0.961227 0.731210 0.965468
0.963613 0.756627 0.939522
0.109471 0.697470 0.959767
0.168053 0.692672 0.958320
0.193902 0.691783 0.958353
0.247354 0.691550 0.959259
0.372274 0.693846 0.959924
0.592302 0.704598 0.957199
0.815952 0.728134 0.959497
0.961627 0.736579 0.965948
0.963803 0.760587 0.940278
0.107395 0.701719 0.959338
0.165419 0.696056 0.958063
0.191561 0.695405 0.958311
0.244607 0.695010 0.959205
0.369740 0.697159 0.959661
0.590107 0.707468 0.957126
0.814331 0.730768 0.959690
0.961798 0.738895 0.966151
0.963818 0.762274 0.940638
0.103192 0.709947 0.958543
0.160624 0.703133 0.957787
0.186858 0.702773 0.958224
0.239065 0.702053 0.959093
0.364433 0.703946 0.959164
0.584884 0.713356 0.956909
0.811012 0.736206 0.960074
0.962145 0.743654 0.966564
0.963853 0.765776 0.941385
0.097773 0.731057 0.957418
0.145820 0.725931 0.957972
0.170346 0.724306 0.958404
0.219915 0.721620 0.959064
0.344099 0.720868 0.958467
0.570165 0.728465 0.955814
0.802532 0.750394 0.960985
0.963197 0.759874 0.966576
0.963970 0.775040 0.943355
0.080311 0.776340 0.957618
0.109484 0.771446 0.958502
0.133007 0.769399 0.958403
0.180197 0.765272 0.958201
0.302853 0.757250 0.957886
0.533821 0.761872 0.956024
0.782119 0.779804 0.959296
0.963477 0.794698 0.968455
0.966689 0.797680 0.948052
0.072348 0.847849 0.955736
0.077102 0.844875 0.956755
0.082040 0.843535 0.957007
0.113160 0.840270 0.956232
0.203447 0.832215 0.954650
0.445781 0.821376 0.953551
0.737713 0.830749 0.958823
0.939205 0.846694 0.972268
0.971284 0.841804 0.958475
0.090165 0.929085 0.942037
0.089669 0.927222 0.942698
0.089355 0.926455 0.943095
0.088712 0.924877 0.943913
0.094437 0.920785 0.945766
0.247677 0.911981 0.947442
0.612228 0.903181 0.958972
0.880352 0.911618 0.975093
0.980609 0.909963 0.972628
0.099927 0.956979 0.935240
0.101050 0.956985 0.935355
0.101856 0.957001 0.935383
0.103524 0.957034 0.935441
0.107898 0.957122 0.935594
0.158337 0.956900 0.936568
0.421770 0.959962 0.943245
0.757980 0.976390 0.965449
0.983921 0.988952 0.986552
