output/AppleLog_display/AppleLog_to_Velvia_33grid.cube
TITLE "AppleLog_to_Velvia"
# Input: Apple Log (BT.2020 primaries, D65)
# Output: BT.709 / Gamma 2.2 (display-referred)
# Use: Display LUT for iPhone 15/16 Pro Apple Log footage
# Source: FLog2C_to_Velvia_65grid_V.1.00.cube
# Generated from Fujifilm GFX ETERNA 55 F-Log2C LUT
LUT_3D_SIZE 9
0.000000 0.000000 0.000000
0.000000 0.000000 0.000000
0.002774 0.000053 0.000017
0.424372 0.000095 0.000688
0.999971 0.023548 0.259860
0.999873 0.285442 0.492244
0.999899 0.286792 0.492290
0.999921 0.390240 0.385153
0.999826 0.537819 0.169134
0.000000 0.000000 0.000000
0.000000 0.000000 0.000000
0.055009 0.001003 0.000153
0.510452 0.000348 0.004445
0.999958 0.032787 0.286567
0.999384 0.197397 0.488106
0.999432 0.330375 0.448661
0.999917 0.431188 0.332318
0.999949 0.553808 0.138956
0.000152 0.006147 0.000021
0.000010 0.011325 0.000001
0.024068 0.005918 0.000000
0.360467 0.000121 0.000021
0.916901 0.000061 0.091470
0.999597 0.177782 0.440016
0.999119 0.362427 0.418193
0.999797 0.447213 0.310635
0.999793 0.561433 0.124024
0.000186 0.239863 0.000085
0.000250 0.217227 0.000030
0.000129 0.145982 0.000407
0.187973 0.126674 0.000124
0.726762 0.142619 0.000032
0.999586 0.287550 0.165478
0.999336 0.418948 0.348484
0.999625 0.477150 0.269093
0.999483 0.576695 0.094158
0.000231 0.732124 0.000579
0.000273 0.586985 0.000435
0.000124 0.545183 0.000142
0.005130 0.506870 0.000351
0.540925 0.457759 0.000115
0.999543 0.484456 0.000115
0.999268 0.524854 0.135306
0.999600 0.543725 0.156573
0.999463 0.612561 0.016333
0.000000 0.939925 0.000354
0.000006 0.887374 0.000163
0.000037 0.873231 0.000449
0.000046 0.851416 0.000235
0.213309 0.785489 0.000011
0.862012 0.689879 0.000000
0.999418 0.676761 0.000003
0.999268 0.671646 0.000256
0.999327 0.686008 0.000019
0.000000 1.000000 0.000285
0.000000 1.000000 0.000285
0.000000 1.000000 0.000285
0.000000 1.000000 0.000285
0.000000 1.000000 0.000285
0.579312 0.966578 0.000208
0.999342 0.882493 0.000277
0.999501 0.783445 0.000153
0.999486 0.762258 0.000108
0.000000 1.000000 0.000285
0.000000 1.000000 0.000285
0.000000 1.000000 0.000285
0.000000 1.000000 0.000285
0.000000 1.000000 0.000285
0.004017 0.999963 0.000242
0.697671 0.999684 0.000069
0.998698 0.960939 0.000032
0.998833 0.923428 0.000389
0.000000 1.000000 0.000285
0.000000 1.000000 0.000285
0.000000 1.000000 0.000285
0.000000 1.000000 0.000285
0.000000 1.000000 0.000285
0.000000 1.000000 0.000285
0.176888 0.999538 0.000420
0.858027 0.990736 0.000313
0.998626 0.968609 0.000223
0.000000 0.000000 0.000000
0.000000 0.000000 0.000000
0.010204 0.000196 0.000012
0.446202 0.000151 0.001037
0.999969 0.025767 0.265914
0.999884 0.286012 0.492263
0.999899 0.286792 0.492290
0.999894 0.395191 0.378941
0.999845 0.539762 0.165478
0.000000 0.000000 0.000000
0.000000 0.000000 0.000000
0.072271 0.001301 0.000178
0.528695 0.000414 0.006217
0.999884 0.008503 0.224134
0.999628 0.174165 0.486845
0.999097 0.339491 0.439523
0.999884 0.435588 0.326361
0.999907 0.555857 0.134942
0.000292 0.019883 0.000456
0.000221 0.027816 0.000304
0.018100 0.014966 0.000557
0.335341 0.006483 0.000155
0.882826 0.004532 0.049753
0.999676 0.192037 0.413255
0.999415 0.370975 0.408371
0.999766 0.451224 0.305203
0.999753 0.563411 0.120152
0.000069 0.280901 0.000322
0.000093 0.236555 0.000373
0.000553 0.166624 0.000084
0.181723 0.146595 0.000267
0.715627 0.160841 0.000097
0.999429 0.299852 0.134033
0.999294 0.425159 0.340932
0.999638 0.480467 0.263835
0.999446 0.578539 0.090557
0.000175 0.744525 0.000384
0.000347 0.593991 0.000320
0.000241 0.555126 0.000131
0.005141 0.517451 0.000234
0.537580 0.467502 0.000145
0.999489 0.489171 0.000086
0.999259 0.529078 0.124438
0.999580 0.546708 0.150889
0.999374 0.614372 0.012295
0.000002 0.955233 0.000472
0.000022 0.901619 0.000217
0.000019 0.886859 0.000484
0.000027 0.865335 0.000158
0.147461 0.804569 0.000872
0.831240 0.701536 0.000023
0.999213 0.698348 0.000053
0.999040 0.680236 0.000004
0.999650 0.691470 0.000090
0.000000 1.000000 0.000285
0.000000 1.000000 0.000285
0.000000 1.000000 0.000285
0.000000 1.000000 0.000285
0.000000 1.000000 0.000285
0.455406 0.986809 0.000216
0.999213 0.895672 0.000257
0.999180 0.826661 0.000065
0.999264 0.798112 0.000000
0.000000 1.000000 0.000285
0.000000 1.000000 0.000285
0.000000 1.000000 0.000285
0.000000 1.000000 0.000285
0.000000 1.000000 0.000285
0.000000 1.000000 0.000285
0.651424 0.999682 0.000286
0.998668 0.961293 0.000067
0.998737 0.928335 0.000083
0.000000 1.000000 0.000285
0.000000 1.000000 0.000285
0.000000 1.000000 0.000285
0.000000 1.000000 0.000285
0.000000 1.000000 0.000285
0.000000 1.000000 0.000285
0.160408 0.999857 0.000408
0.844415 0.992116 0.000422
0.998626 0.968609 0.000223
0.000100 0.000647 0.014737
0.000100 0.000647 0.014737
0.012872 0.000544 0.009754
0.418555 0.000026 0.005117
0.999762 0.014069 0.230359
0.999896 0.285626 0.492239
0.999899 0.286792 0.492290
0.999699 0.407828 0.363028
0.999527 0.553173 0.139827
0.000024 0.000512 0.017027
0.000024 0.000512 0.017027
0.073578 0.000953 0.009901
0.486272 0.000098 0.010354
0.989698 0.001198 0.162034
0.999607 0.149892 0.478318
0.999179 0.349682 0.430650
0.999564 0.448052 0.311516
0.999443 0.570649 0.106335
0.000482 0.027020 0.041274
0.000510 0.037149 0.041316
0.017528 0.018440 0.015828
0.310903 0.011103 0.013286
0.832805 0.007644 0.060047
0.999488 0.198632 0.361891
0.999670 0.383484 0.393413
0.999744 0.462717 0.291768
0.999447 0.578044 0.092083
0.000155 0.336374 0.001109
0.000086 0.277300 0.000328
0.000197 0.203343 0.000431
0.175327 0.168127 0.000171
0.689340 0.168865 0.000000
0.999689 0.296364 0.155787
0.999006 0.437861 0.340482
0.999700 0.493540 0.253491
0.999615 0.592442 0.067868
0.000000 0.773827 0.000568
0.000037 0.634824 0.000436
0.000088 0.595089 0.000121
0.002739 0.553471 0.000595
0.511367 0.488651 0.000156
0.990116 0.490837 0.000000
0.999676 0.534050 0.205530
0.999550 0.557492 0.194176
0.998887 0.626398 0.028244
0.000000 0.970685 0.000447
0.000041 0.919063 0.000163
0.000047 0.903537 0.000193
0.000011 0.881308 0.000400
0.100160 0.824654 0.000592
0.807212 0.713311 0.000194
0.998892 0.725380 0.000122
0.999546 0.675056 0.081698
0.999031 0.701335 0.000000
0.000000 1.000000 0.000285
0.000000 1.000000 0.000285
0.000000 1.000000 0.000285
0.000000 1.000000 0.000285
0.000000 1.000000 0.000285
0.427821 0.990992 0.000857
0.999299 0.899953 0.000045
0.998825 0.851706 0.000051
0.999278 0.819736 0.000022
0.000000 1.000000 0.000285
0.000000 1.000000 0.000285
0.000000 1.000000 0.000285
0.000000 1.000000 0.000285
0.000000 1.000000 0.000285
0.000000 1.000000 0.000285
0.636073 0.999967 0.000045
0.999081 0.963844 0.000040
0.998764 0.939248 0.000000
0.000000 1.000000 0.000285
0.000000 1.000000 0.000285
0.000000 1.000000 0.000285
0.000000 1.000000 0.000285
0.000000 1.000000 0.000285
0.000000 1.000000 0.000285
0.153195 0.999935 0.000179
0.838691 0.992720 0.000090
0.998626 0.968609 0.000223
0.000351 0.000050 0.143692
0.000351 0.000050 0.143692
0.030908 0.000178 0.112290
0.441194 0.000083 0.121113
0.999287 0.000356 0.332871
0.999727 0.270251 0.497126
0.999919 0.288244 0.525738
0.999963 0.422671 0.432574
0.999560 0.557073 0.278406
0.000248 0.000039 0.147392
0.000101 0.000082 0.172827
0.082215 0.000013 0.127336
0.434817 0.000028 0.149275
0.926171 0.000054 0.332369
0.999560 0.118216 0.579323
0.999455 0.370065 0.505638
0.999467 0.459046 0.415118
0.999718 0.572638 0.266853
0.000238 0.039521 0.313851
0.000269 0.049049 0.310238
0.020296 0.020871 0.197436
0.319698 0.007551 0.188229
0.797915 0.001845 0.277866
0.999674 0.168046 0.495965
0.999450 0.399580 0.496161
0.999362 0.473213 0.407896
0.999600 0.579259 0.261265
0.000837 0.375907 0.413637
0.000121 0.310778 0.322679
0.000108 0.233779 0.231504
0.183945 0.185349 0.183729
0.673292 0.169537 0.188249
0.999797 0.274809 0.358654
0.999332 0.441995 0.463994
0.999729 0.499538 0.394045
0.999304 0.592428 0.250200
0.000044 0.762374 0.363183
0.000120 0.634477 0.168433
0.000063 0.601168 0.121288
0.000134 0.561875 0.071445
0.492908 0.490396 0.038398
0.977252 0.477464 0.153227
0.999563 0.533276 0.374195
0.999762 0.558840 0.353474
0.999018 0.622587 0.223151
0.000000 0.980373 0.000371
0.000005 0.934351 0.000342
0.000000 0.916519 0.000339
0.000016 0.889751 0.000443
0.081823 0.837499 0.000159
0.772949 0.749188 0.000344
0.999045 0.719958 0.151075
0.999698 0.668257 0.267559
0.999436 0.694707 0.155206
0.000000 1.000000 0.000285
0.000000 1.000000 0.000285
0.000000 1.000000 0.000285
0.000000 1.000000 0.000285
0.000000 1.000000 0.000285
0.384425 0.997906 0.000002
0.998861 0.934053 0.000012
0.999032 0.861187 0.057097
0.999194 0.836912 0.014354
0.000000 1.000000 0.000285
0.000000 1.000000 0.000285
0.000000 1.000000 0.000285
0.000000 1.000000 0.000285
0.000000 1.000000 0.000285
0.000000 1.000000 0.000285
0.610862 0.999542 0.000165
0.999535 0.978021 0.005063
0.999234 0.964343 0.000035
0.000000 1.000000 0.000285
0.000000 1.000000 0.000285
0.000000 1.000000 0.000285
0.000000 1.000000 0.000285
0.000000 1.000000 0.000285
0.000000 1.000000 0.000285
0.144377 0.999923 0.000084
0.826698 0.997547 0.000004
0.999163 0.972849 0.000385
0.010371 0.000098 0.482982
0.010371 0.000098 0.482982
0.102896 0.000375 0.395175
0.512745 0.000377 0.400397
0.999663 0.000058 0.594855
0.999781 0.257130 0.618996
0.999648 0.331714 0.635489
0.999718 0.443694 0.569989
0.999615 0.561321 0.462824
0.011433 0.000038 0.664553
0.005034 0.000069 0.646569
0.088260 0.000472 0.533891
0.410305 0.000143 0.530503
0.835009 0.000077 0.624100
0.999949 0.083863 0.732108
0.999792 0.405647 0.625836
0.999583 0.475947 0.560049
0.999663 0.574904 0.455285
0.000207 0.097465 0.809046
0.000492 0.080185 0.736497
0.033837 0.039609 0.627572
0.343604 0.008944 0.599923
0.758739 0.006590 0.613098
0.999675 0.144240 0.677152
0.999401 0.422199 0.623002
0.999428 0.488015 0.555747
0.999700 0.580500 0.451989
0.000606 0.430328 0.843544
0.000271 0.341941 0.752843
0.000431 0.281184 0.686859
0.209998 0.214963 0.624761
0.657765 0.182746 0.567295
0.999784 0.261956 0.597998
0.999501 0.453823 0.609674
0.999600 0.511627 0.546626
0.999788 0.591767 0.445365
0.000063 0.763508 0.801660
0.000134 0.633763 0.639952
0.000521 0.605289 0.604443
0.000425 0.566451 0.562111
0.487485 0.491187 0.489794
0.962397 0.466762 0.485347
0.999736 0.532943 0.564663
0.999416 0.565088 0.523431
0.999794 0.621769 0.425656
0.000025 0.950694 0.502279
0.000128 0.913271 0.457602
0.000016 0.897132 0.443401
0.000004 0.870998 0.424624
0.074910 0.817775 0.388659
0.739934 0.731485 0.346749
0.999743 0.708712 0.428537
0.999197 0.664134 0.468058
0.999251 0.687677 0.377998
0.000003 0.999455 0.148151
0.000039 0.999579 0.133957
0.000028 0.999770 0.129316
0.000009 0.999821 0.121554
0.000093 0.999736 0.110549
0.310842 0.999942 0.086604
0.973361 0.967157 0.125090
0.999489 0.849588 0.302018
0.999512 0.821257 0.258642
0.000000 1.000000 0.000285
0.000000 1.000000 0.000285
0.000000 1.000000 0.000285
0.000000 1.000000 0.000285
0.000000 1.000000 0.000285
0.000000 1.000000 0.000285
0.553080 0.999832 0.000409
0.999282 0.999300 0.034769
0.999529 0.996993 0.031469
0.000000 1.000000 0.000285
0.000000 1.000000 0.000285
0.000000 1.000000 0.000285
0.000000 1.000000 0.000285
0.000000 1.000000 0.000285
0.000000 1.000000 0.000285
0.122295 0.999757 0.000712
0.791791 0.999681 0.000190
0.999190 0.997297 0.015221
0.123917 0.000023 0.891961
0.107089 0.000092 0.871172
0.288211 0.000035 0.888178
0.561732 0.000081 0.888082
0.911271 0.000037 0.926618
0.999879 0.000277 0.990656
0.999998 0.357509 0.761706
0.999806 0.474054 0.701700
0.999703 0.574381 0.634189
0.048687 0.159918 0.999966
0.027171 0.087627 0.984794
0.155951 0.035042 0.997078
0.435362 0.000236 0.999667
0.758584 0.005949 0.969229
0.999853 0.104512 0.928806
0.999971 0.397629 0.772026
0.999807 0.504771 0.696701
0.999742 0.585726 0.629980
0.001996 0.317308 0.999984
0.000315 0.205981 0.999734
0.085922 0.147377 0.999616
0.381277 0.092785 0.999615
0.716259 0.077044 0.954957
0.999734 0.167925 0.901841
0.999929 0.415789 0.774481
0.999710 0.516574 0.696954
0.999762 0.590500 0.628227
0.000014 0.514577 1.000000
0.000836 0.397008 0.999926
0.000798 0.357590 0.999621
0.269481 0.298853 0.980064
0.644222 0.250267 0.913042
0.998699 0.279369 0.858627
0.999920 0.450544 0.779753
0.999671 0.538320 0.694954
0.999814 0.600774 0.624480
0.000368 0.728862 0.999661
0.000430 0.631633 0.999283
0.000628 0.610672 0.983697
0.029777 0.575493 0.944776
0.498484 0.505940 0.856425
0.930112 0.468952 0.796765
0.999632 0.532994 0.771831
0.999642 0.582638 0.688501
0.999536 0.626259 0.614747
0.000200 0.887178 0.933962
0.000330 0.870477 0.896101
0.000247 0.864283 0.882843
0.000337 0.852784 0.858354
0.123618 0.804451 0.799071
0.722561 0.723757 0.722381
0.999699 0.688634 0.706267
0.999836 0.666412 0.660502
0.999494 0.684619 0.586345
0.000168 0.999524 0.639227
0.000385 0.999663 0.627666
0.000569 0.999905 0.623958
0.000326 0.999664 0.614718
0.000334 0.998106 0.598708
0.273416 0.994927 0.548669
0.933998 0.931571 0.504080
0.999794 0.835461 0.552431
0.999948 0.803597 0.509767
0.000110 0.999629 0.338507
0.000135 0.999749 0.336712
0.000120 0.999759 0.336182
0.000077 0.999757 0.335227
0.000026 0.999675 0.332993
0.000103 0.999798 0.328824
0.472592 0.999309 0.265775
0.999227 0.999792 0.270220
0.999373 0.978868 0.319370
0.000206 0.999640 0.228780
0.000224 0.999691 0.226658
0.000232 0.999713 0.225730
0.000248 0.999760 0.223799
0.000196 0.999840 0.216718
0.000084 0.999973 0.199306
0.108827 0.999494 0.162506
0.734288 0.999718 0.103050
0.998975 0.999819 0.059087
0.246817 0.288071 0.999941
0.281896 0.178803 0.999989
0.378819 0.148206 0.999689
0.522166 0.108591 0.999594
0.748647 0.072727 0.999098
0.999988 0.127710 0.999882
0.999743 0.359966 0.996534
0.999495 0.492098 0.854844
0.999617 0.587772 0.789166
0.104061 0.429370 0.999925
0.185840 0.352307 0.999987
0.290804 0.320244 0.999959
0.451521 0.272672 0.999928
0.687625 0.227385 0.999525
0.997625 0.246424 0.999979
0.999750 0.398477 0.999027
0.999646 0.515295 0.853077
0.999558 0.599014 0.788532
0.042013 0.473682 0.999915
0.140901 0.405705 0.999996
0.255376 0.374115 0.999988
0.422989 0.327304 0.999677
0.665284 0.285175 0.999636
0.996992 0.287568 0.999822
0.999759 0.414369 0.999848
0.999537 0.524441 0.852430
0.999535 0.603803 0.788312
0.000581 0.545055 0.999964
0.065791 0.489334 1.000000
0.178931 0.461736 0.999939
0.364837 0.424475 0.999600
0.622814 0.379848 0.999346
0.973499 0.362793 0.998839
0.999807 0.443944 0.999332
0.999652 0.543308 0.850663
0.999515 0.613635 0.788172
0.001194 0.666420 0.999962
0.001328 0.636550 0.999771
0.013534 0.621994 0.999639
0.202314 0.591024 0.999695
0.525020 0.543736 0.999523
0.889053 0.502675 0.999400
0.999548 0.515771 0.999567
0.999503 0.585250 0.848021
0.999463 0.638217 0.788136
0.000490 0.814749 0.999807
0.000075 0.804700 0.999869
0.000215 0.801230 0.999833
0.000316 0.795793 0.999946
0.233260 0.760011 0.999670
0.694641 0.699280 0.999729
0.999696 0.654633 0.998712
0.999931 0.667763 0.845767
0.999594 0.691001 0.783432
0.000270 0.949811 0.998620
0.000224 0.947766 0.997956
0.000136 0.946807 0.997870
0.000248 0.944670 0.995928
0.000581 0.939488 0.987842
0.298417 0.952412 0.948201
0.873499 0.879280 0.878152
0.999871 0.817918 0.819563
0.999556 0.789799 0.745300
0.000165 0.999649 0.769031
0.000208 0.999658 0.767241
0.000226 0.999665 0.766551
0.000262 0.999680 0.765139
0.000261 0.999809 0.758360
0.000002 0.999727 0.742701
0.412019 0.999608 0.675130
0.992355 0.997170 0.617416
0.999612 0.948210 0.616293
0.000199 0.999767 0.590972
0.000193 0.999735 0.587551
0.000190 0.999721 0.586055
0.000186 0.999697 0.582981
0.000187 0.999684 0.575116
0.000168 0.999711 0.556553
0.112480 0.999788 0.528766
0.676540 0.999503 0.478807
0.999628 0.999332 0.396263
0.240616 0.483306 0.999847
0.370130 0.467903 0.999688
0.413912 0.462554 0.999769
0.489595 0.452898 0.999683
0.638351 0.434047 0.999484
0.910144 0.400492 0.999821
0.999796 0.418383 0.999017
0.999980 0.530709 0.999904
0.999553 0.589226 0.987213
0.198066 0.524417 0.999962
0.336670 0.507856 0.999834
0.382546 0.502657 0.999517
0.463129 0.492041 0.999276
0.612561 0.474412 0.999731
0.881262 0.440822 0.999873
0.999534 0.445510 0.998804
0.999989 0.543728 0.999615
0.999585 0.597698 0.985969
0.182080 0.540705 0.999976
0.322412 0.524035 0.999800
0.369345 0.518750 0.999403
0.450534 0.507870 0.999327
0.600969 0.490307 0.999675
0.867126 0.456938 0.999877
0.999456 0.456720 0.998761
0.999992 0.548738 0.999409
0.999639 0.601459 0.985539
0.145416 0.570323 0.999798
0.289370 0.554366 0.999806
0.338580 0.548662 0.999692
0.422828 0.537968 0.999793
0.578032 0.520955 0.999346
0.840095 0.488563 0.999890
0.999720 0.478360 0.999163
0.999998 0.558882 0.999012
0.999753 0.609167 0.984657
0.062449 0.639114 0.999742
0.207863 0.622159 0.999899
0.263304 0.615531 0.999719
0.354472 0.607497 0.999429
0.520818 0.586717 0.999746
0.778919 0.556564 0.999713
0.999876 0.530010 0.999644
0.999980 0.586761 0.999501
0.999854 0.629273 0.982147
0.001981 0.760399 0.999571
0.027638 0.750998 0.999962
0.067630 0.745189 0.999743
0.160470 0.734243 0.999607
0.376419 0.710751 0.999627
0.653989 0.677903 0.999754
0.993107 0.633723 0.999658
0.999856 0.648288 0.999925
0.999960 0.675720 0.974298
0.000444 0.884930 0.999939
0.000556 0.882871 0.999971
0.000392 0.881864 0.999978
0.000172 0.883316 0.999939
0.038737 0.896495 0.999883
0.387045 0.873526 0.999471
0.809013 0.817851 0.999729
0.999554 0.773971 0.999423
0.999432 0.775049 0.952588
0.000312 0.980307 0.999995
0.000295 0.980007 0.999877
0.000276 0.979847 0.999789
0.000237 0.979524 0.999609
0.000314 0.978740 0.999630
0.000443 0.978087 0.999906
0.412245 0.999478 0.997661
0.947552 0.956119 0.954661
0.999884 0.915486 0.900675
0.000206 0.995319 0.975956
0.000181 0.995570 0.973527
0.000170 0.995681 0.972464
0.000147 0.995911 0.970254
0.000085 0.996525 0.964384
0.000048 0.997797 0.947158
0.068098 0.999848 0.896670
0.623085 0.999903 0.818743
0.999581 0.999399 0.750196
0.365459 0.612537 0.999966
0.413666 0.604221 0.999749
0.433298 0.600920 0.999661
0.467502 0.596476 0.999469
0.543579 0.590710 0.999730
0.684972 0.584982 0.999833
0.933992 0.577911 0.999267
0.999921 0.562621 0.999617
0.999725 0.609766 0.999116
0.349470 0.627604 0.999953
0.401549 0.616801 0.999829
0.421138 0.613368 0.999738
0.457353 0.607985 0.999498
0.534825 0.601661 0.999641
0.676728 0.594639 0.999871
0.925329 0.588096 0.999357
0.999895 0.569718 0.999723
0.999651 0.615176 0.999079
0.343213 0.633777 0.999958
0.396911 0.621931 0.999873
0.416266 0.618614 0.999763
0.453324 0.612837 0.999503
0.531066 0.606367 0.999601
0.673195 0.598785 0.999885
0.921285 0.592198 0.999301
0.999884 0.572772 0.999771
0.999612 0.617588 0.999051
0.331602 0.645827 0.999991
0.387596 0.632436 0.999952
0.406987 0.629154 0.999803
0.445727 0.622586 0.999501
0.523257 0.616016 0.999538
0.665656 0.607461 0.999853
0.913004 0.600669 0.999197
0.999864 0.579032 0.999874
0.999532 0.622595 0.998996
0.285515 0.678912 0.999605
0.346621 0.665518 0.999581
0.369687 0.660564 0.999643
0.413404 0.651740 0.999697
0.496815 0.641247 0.999434
0.646013 0.630391 0.999539
0.891864 0.622780 0.999011
0.999695 0.601358 0.999952
0.999328 0.635826 0.998859
0.172233 0.756803 0.999970
0.250324 0.741447 0.999972
0.276717 0.735553 0.999920
0.329900 0.723674 0.999818
0.434585 0.701565 0.999828
0.594605 0.687012 0.999602
0.841916 0.673673 0.999293
0.999793 0.652959 0.999478
0.999738 0.669608 0.999708
0.019580 0.881530 0.999962
0.036364 0.879408 0.999991
0.046331 0.878244 0.999973
0.087936 0.873651 0.999724
0.205424 0.857481 0.999229
0.459990 0.810374 0.999521
0.729738 0.779497 0.999900
0.999875 0.753297 0.999905
0.999761 0.743339 0.999548
0.000060 0.970484 0.999922
0.000054 0.968994 0.999883
0.000051 0.968351 0.999860
0.000043 0.967031 0.999814
0.000088 0.964818 0.999734
0.060844 0.982913 0.999734
0.487006 0.958452 0.999657
0.888568 0.908315 0.999660
0.999671 0.877453 0.999487
0.000573 0.986422 1.000000
0.000573 0.986447 0.999974
0.000573 0.986465 0.999956
0.000573 0.986502 0.999917
0.000573 0.986603 0.999814
0.000604 0.986794 0.999658
0.043562 0.999706 0.999984
0.554035 0.999759 0.999435
0.989724 0.995681 0.994543
