output/AppleLog_display/AppleLog_to_REALA-ACE_33grid.cube
TITLE "AppleLog_to_REALA-ACE"
# Input: Apple Log (BT.2020 primaries, D65)
# Output: BT.709 / Gamma 2.2 (display-referred)
# Use: Display LUT for iPhone 15/16 Pro Apple Log footage
# Source: FLog2C_to_REALA-ACE_65grid_V.1.00.cube
# Generated from Fujifilm GFX ETERNA 55 F-Log2C LUT
LUT_3D_SIZE 5
0.000200 0.000111 0.000001
0.015327 0.000533 0.000134
0.880258 0.131353 0.235493
0.940825 0.327148 0.473700
0.981492 0.546872 0.239149
0.000046 0.024567 0.000031
0.053488 0.023913 0.000129
0.756362 0.004526 0.088132
0.953234 0.381081 0.428342
0.982314 0.569296 0.200391
0.259382 0.632369 0.201560
0.139198 0.466080 0.098535
0.515524 0.402103 0.000035
0.977128 0.530912 0.218749
0.983433 0.616120 0.104396
0.663656 0.929187 0.593484
0.663656 0.929187 0.593484
0.694962 0.934151 0.591382
0.987969 0.898750 0.000128
0.986215 0.795846 0.000062
0.673404 0.930745 0.593420
0.676977 0.931319 0.593186
0.687594 0.932937 0.592768
0.802044 0.952092 0.583671
0.997001 0.986936 0.427390
0.000335 0.000181 0.046239
0.032519 0.000036 0.036793
0.863460 0.108484 0.207882
0.940825 0.327148 0.473700
0.982252 0.561592 0.215606
0.000353 0.074081 0.090133
0.067852 0.070551 0.067307
0.703648 0.015278 0.075523
0.957646 0.401531 0.411990
0.983772 0.584832 0.174986
0.323214 0.692901 0.260592
0.162267 0.499681 0.117945
0.483467 0.423903 0.000279
0.983107 0.548063 0.270970
0.983696 0.633777 0.115394
0.663656 0.929187 0.593484
0.663656 0.929187 0.593484
0.673071 0.930831 0.593557
0.987870 0.921970 0.002764
0.987130 0.845028 0.001797
0.674335 0.930607 0.592806
0.677633 0.931231 0.592720
0.687420 0.932930 0.592669
0.795713 0.951302 0.584291
0.997158 0.988377 0.440643
0.000035 0.000014 0.470529
0.092773 0.000330 0.396293
0.847209 0.063487 0.427154
0.948589 0.388621 0.618554
0.995117 0.594761 0.513218
0.000701 0.114525 0.601742
0.005528 0.069507 0.483008
0.641027 0.059036 0.456844
0.967379 0.469263 0.635862
0.997301 0.615051 0.504747
0.330270 0.730121 0.738124
0.025004 0.521318 0.511952
0.483107 0.486395 0.483983
0.991439 0.578991 0.613853
0.998857 0.659584 0.487114
0.657462 0.931086 0.653872
0.658214 0.930828 0.649779
0.660922 0.931041 0.641917
0.984193 0.953295 0.397895
0.998580 0.837487 0.371756
0.676904 0.931463 0.602148
0.679742 0.931842 0.600635
0.688685 0.933183 0.598089
0.787799 0.949857 0.588024
0.994934 0.988119 0.449180
0.160669 0.376881 0.822361
0.199182 0.272318 0.800729
0.622108 0.340245 0.829950
0.894525 0.536803 0.862625
0.978097 0.657523 0.804832
0.188266 0.503264 0.835604
0.175778 0.430719 0.828993
0.575309 0.431839 0.856971
0.904307 0.579127 0.882080
0.983433 0.671618 0.807319
0.244249 0.657237 0.854282
0.228595 0.630733 0.851331
0.458924 0.604298 0.891044
0.923974 0.660972 0.911107
0.991624 0.702351 0.810712
0.589013 0.891598 0.897585
0.583644 0.888610 0.894246
0.581746 0.887690 0.886642
0.895806 0.897242 0.895528
0.998785 0.823529 0.802552
0.656504 0.937742 0.794896
0.658110 0.938062 0.793467
0.666825 0.939357 0.790812
0.760704 0.955072 0.788830
0.994399 0.992979 0.685528
0.292633 0.634412 0.861663
0.334562 0.633734 0.870052
0.444137 0.641651 0.890105
0.840037 0.717083 0.944812
0.943297 0.741780 0.939806
0.292534 0.650786 0.862892
0.331130 0.646626 0.870301
0.436751 0.653237 0.889449
0.834762 0.725232 0.948200
0.944803 0.747300 0.941458
0.303705 0.683626 0.863430
0.330169 0.676144 0.869633
0.420684 0.676312 0.887840
0.820412 0.742287 0.953999
0.948292 0.759927 0.945485
0.488164 0.824290 0.874366
0.490291 0.824317 0.875786
0.478956 0.806260 0.878500
0.739517 0.826695 0.969512
0.967781 0.831362 0.967546
0.645303 0.926734 0.923326
0.646135 0.927183 0.923669
0.649073 0.928679 0.924644
0.693380 0.941739 0.935566
0.988743 0.993988 0.991786
