output/AppleLog_display/AppleLog_to_Velvia_33grid.cube
TITLE "AppleLog_to_Velvia"
# Input: Apple Log (BT.2020 primaries, D65)
# Output: BT.709 / Gamma 2.2 (display-referred)
# Use: Display LUT for iPhone 15/16 Pro Apple Log footage
# Source: FLog2C_to_Velvia_65grid_V.1.00.cube
# Generated from Fujifilm GFX ETERNA 55 F-Log2C LUT
LUT_3D_SIZE 5
0.000000 0.000000 0.000000
0.002774 0.000053 0.000017
0.999971 0.023548 0.259860
0.999899 0.286792 0.492290
0.999826 0.537819 0.169134
0.000152 0.006147 0.000021
0.024068 0.005918 0.000000
0.916901 0.000061 0.091470
0.999119 0.362427 0.418193
0.999793 0.561433 0.124024
0.000231 0.732124 0.000579
0.000124 0.545183 0.000142
0.540925 0.457759 0.000115
0.999268 0.524854 0.135306
0.999463 0.612561 0.016333
0.000000 1.000000 0.000285
0.000000 1.000000 0.000285
0.000000 1.000000 0.000285
0.999342 0.882493 0.000277
0.999486 0.762258 0.000108
0.000000 1.000000 0.000285
0.000000 1.000000 0.000285
0.000000 1.000000 0.000285
0.176888 0.999538 0.000420
0.998626 0.968609 0.000223
0.000100 0.000647 0.014737
0.012872 0.000544 0.009754
0.999762 0.014069 0.230359
0.999899 0.286792 0.492290
0.999527 0.553173 0.139827
0.000482 0.027020 0.041274
0.017528 0.018440 0.015828
0.832805 0.007644 0.060047
0.999670 0.383484 0.393413
0.999447 0.578044 0.092083
0.000000 0.773827 0.000568
0.000088 0.595089 0.000121
0.511367 0.488651 0.000156
0.999676 0.534050 0.205530
0.998887 0.626398 0.028244
0.000000 1.000000 0.000285
0.000000 1.000000 0.000285
0.000000 1.000000 0.000285
0.999299 0.899953 0.000045
0.999278 0.819736 0.000022
0.000000 1.000000 0.000285
0.000000 1.000000 0.000285
0.000000 1.000000 0.000285
0.153195 0.999935 0.000179
0.998626 0.968609 0.000223
0.010371 0.000098 0.482982
0.102896 0.000375 0.395175
0.999663 0.000058 0.594855
0.999648 0.331714 0.635489
0.999615 0.561321 0.462824
0.000207 0.097465 0.809046
0.033837 0.039609 0.627572
0.758739 0.006590 0.613098
0.999401 0.422199 0.623002
0.999700 0.580500 0.451989
0.000063 0.763508 0.801660
0.000521 0.605289 0.604443
0.487485 0.491187 0.489794
0.999736 0.532943 0.564663
0.999794 0.621769 0.425656
0.000003 0.999455 0.148151
0.000028 0.999770 0.129316
0.000093 0.999736 0.110549
0.973361 0.967157 0.125090
0.999512 0.821257 0.258642
0.000000 1.000000 0.000285
0.000000 1.000000 0.000285
0.000000 1.000000 0.000285
0.122295 0.999757 0.000712
0.999190 0.997297 0.015221
0.246817 0.288071 0.999941
0.378819 0.148206 0.999689
0.748647 0.072727 0.999098
0.999743 0.359966 0.996534
0.999617 0.587772 0.789166
0.042013 0.473682 0.999915
0.255376 0.374115 0.999988
0.665284 0.285175 0.999636
0.999759 0.414369 0.999848
0.999535 0.603803 0.788312
0.001194 0.666420 0.999962
0.013534 0.621994 0.999639
0.525020 0.543736 0.999523
0.999548 0.515771 0.999567
0.999463 0.638217 0.788136
0.000270 0.949811 0.998620
0.000136 0.946807 0.997870
0.000581 0.939488 0.987842
0.873499 0.879280 0.878152
0.999556 0.789799 0.745300
0.000199 0.999767 0.590972
0.000190 0.999721 0.586055
0.000187 0.999684 0.575116
0.112480 0.999788 0.528766
0.999628 0.999332 0.396263
0.365459 0.612537 0.999966
0.433298 0.600920 0.999661
0.543579 0.590710 0.999730
0.933992 0.577911 0.999267
0.999725 0.609766 0.999116
0.343213 0.633777 0.999958
0.416266 0.618614 0.999763
0.531066 0.606367 0.999601
0.921285 0.592198 0.999301
0.999612 0.617588 0.999051
0.285515 0.678912 0.999605
0.369687 0.660564 0.999643
0.496815 0.641247 0.999434
0.891864 0.622780 0.999011
0.999328 0.635826 0.998859
0.019580 0.881530 0.999962
0.046331 0.878244 0.999973
0.205424 0.857481 0.999229
0.729738 0.779497 0.999900
0.999761 0.743339 0.999548
0.000573 0.986422 1.000000
0.000573 0.986465 0.999956
0.000573 0.986603 0.999814
0.043562 0.999706 0.999984
0.989724 0.995681 0.994543
