output/AppleLog_display/AppleLog_to_REALA-ACE_33grid.cube
TITLE "AppleLog_to_REALA-ACE"
# Input: Apple Log (BT.2020 primaries, D65)
# Output: BT.709 / Gamma 2.2 (display-referred)
# Use: Display LUT for iPhone 15/16 Pro Apple Log footage
# Source: FLog2C_to_REALA-ACE_65grid_V.1.00.cube
# Generated from Fujifilm GFX ETERNA 55 F-Log2C LUT
LUT_3D_SIZE 9
0.000200 0.000111 0.000001
0.000200 0.000111 0.000001
0.015327 0.000533 0.000134
0.408937 0.000101 0.020336
0.880258 0.131353 0.235493
0.940647 0.326260 0.473314
0.940825 0.327148 0.473700
0.958515 0.406684 0.404720
0.981492 0.546872 0.239149
0.000200 0.000111 0.000001
0.000200 0.000111 0.000001
0.067148 0.000017 0.001289
0.475727 0.000018 0.025700
0.891662 0.149044 0.257951
0.925626 0.259416 0.441219
0.947697 0.357330 0.448203
0.966451 0.442677 0.372751
0.982162 0.562259 0.213158
0.000046 0.024567 0.000031
0.000011 0.034605 0.000002
0.053488 0.023913 0.000129
0.364446 0.002510 0.004007
0.756362 0.004526 0.088132
0.920590 0.235336 0.394387
0.953234 0.381081 0.428342
0.969980 0.459254 0.355796
0.982314 0.569296 0.200391
0.001293 0.272720 0.000113
0.000458 0.258363 0.000832
0.006060 0.203655 0.000311
0.260390 0.181907 0.000273
0.646129 0.154459 0.000362
0.932327 0.295718 0.240679
0.964488 0.432632 0.381936
0.974775 0.486325 0.323391
0.982619 0.583379 0.174876
0.259382 0.632369 0.201560
0.165111 0.503596 0.120085
0.139198 0.466080 0.098535
0.165905 0.429269 0.058334
0.515524 0.402103 0.000035
0.925201 0.441950 0.046929
0.977128 0.530912 0.218749
0.981152 0.552528 0.229351
0.983433 0.616120 0.104396
0.547469 0.854649 0.475156
0.465351 0.797606 0.393732
0.443801 0.782515 0.373936
0.412728 0.758355 0.341128
0.480214 0.729702 0.236600
0.845362 0.708126 0.000095
0.981683 0.713879 0.000003
0.979365 0.676983 0.010715
0.980901 0.699618 0.000055
0.663656 0.929187 0.593484
0.663656 0.929187 0.593484
0.663656 0.929187 0.593484
0.664132 0.929308 0.593350
0.694962 0.934151 0.591382
0.834194 0.933677 0.477600
0.987969 0.898750 0.000128
0.986655 0.813215 0.000220
0.986215 0.795846 0.000062
0.663656 0.929187 0.593484
0.663656 0.929187 0.593484
0.663656 0.929187 0.593484
0.664927 0.929235 0.593531
0.673062 0.930216 0.593328
0.745682 0.942486 0.589875
0.919452 0.973798 0.543176
0.998317 0.973525 0.313082
0.989091 0.928022 0.018579
0.673404 0.930745 0.593420
0.675891 0.931144 0.593257
0.676977 0.931319 0.593186
0.679234 0.931682 0.593039
0.687594 0.932937 0.592768
0.715140 0.937090 0.592089
0.802044 0.952092 0.583671
0.958822 0.980692 0.503509
0.997001 0.986936 0.427390
0.000200 0.000111 0.000001
0.000200 0.000111 0.000001
0.027004 0.000114 0.000240
0.426534 0.000065 0.021616
0.884451 0.137656 0.241279
0.940722 0.326635 0.473477
0.940825 0.327148 0.473700
0.959378 0.411067 0.400661
0.981576 0.548745 0.235997
0.000200 0.000111 0.000001
0.000200 0.000111 0.000001
0.081072 0.000009 0.000325
0.488818 0.000025 0.026967
0.856003 0.097268 0.200103
0.922339 0.243083 0.432274
0.949687 0.364920 0.443648
0.967421 0.447236 0.368091
0.982203 0.564150 0.209723
0.000138 0.048952 0.000657
0.000106 0.064709 0.000508
0.053044 0.043386 0.000138
0.351020 0.028973 0.000027
0.736978 0.011036 0.063005
0.920767 0.240988 0.377399
0.954959 0.388320 0.422977
0.970862 0.463401 0.351564
0.982353 0.571121 0.197081
0.008899 0.296028 0.000566
0.000044 0.269720 0.000149
0.003175 0.220215 0.000539
0.255803 0.197809 0.000048
0.639320 0.169372 0.000137
0.933949 0.304682 0.224864
0.965774 0.437966 0.377718
0.975358 0.489973 0.319343
0.982656 0.585079 0.171801
0.271214 0.645635 0.212103
0.168704 0.509173 0.123339
0.144300 0.473245 0.102651
0.170247 0.437509 0.063682
0.514034 0.410159 0.000005
0.923898 0.448506 0.044000
0.977041 0.534710 0.210246
0.981449 0.555415 0.224625
0.983453 0.617849 0.100808
0.578058 0.875247 0.506622
0.497355 0.820295 0.425660
0.473989 0.804123 0.402584
0.440833 0.779658 0.369195
0.481113 0.745401 0.268506
0.827727 0.718839 0.000000
0.982038 0.736793 0.000057
0.983104 0.686551 0.013717
0.981340 0.711128 0.000012
0.663656 0.929187 0.593484
0.663656 0.929187 0.593484
0.663656 0.929187 0.593484
0.663656 0.929187 0.593484
0.676170 0.931379 0.593145
0.817065 0.944490 0.543202
0.987972 0.913504 0.000097
0.988022 0.856846 0.000289
0.986248 0.833065 0.000114
0.663656 0.929187 0.593484
0.663656 0.929187 0.593484
0.663656 0.929187 0.593484
0.664246 0.929288 0.593317
0.669546 0.930175 0.592962
0.730238 0.940018 0.590476
0.902364 0.971001 0.553286
0.997798 0.975642 0.333461
0.992459 0.941891 0.084882
0.673925 0.930718 0.592830
0.676331 0.931111 0.592802
0.677381 0.931283 0.592790
0.679564 0.931639 0.592764
0.687541 0.932947 0.592720
0.713364 0.937210 0.592317
0.797220 0.951353 0.583950
0.953620 0.980124 0.511350
0.997113 0.988064 0.436310
0.000335 0.000181 0.046239
0.000335 0.000181 0.046239
0.032519 0.000036 0.036793
0.405102 0.000122 0.028195
0.863460 0.108484 0.207882
0.940662 0.326327 0.473346
0.940825 0.327148 0.473700
0.962343 0.422055 0.393069
0.982252 0.561592 0.215606
0.000359 0.000219 0.050089
0.000359 0.000219 0.050089
0.084476 0.000046 0.036353
0.458271 0.000034 0.033650
0.811691 0.028051 0.144153
0.919319 0.226474 0.420304
0.950006 0.373597 0.435119
0.970469 0.459932 0.354366
0.983340 0.577439 0.188026
0.000353 0.074081 0.090133
0.000721 0.090436 0.090731
0.067852 0.070551 0.067307
0.330829 0.038763 0.050540
0.703648 0.015278 0.075523
0.920833 0.241768 0.353978
0.957646 0.401531 0.411990
0.973375 0.475296 0.337884
0.983772 0.584832 0.174986
0.006290 0.319985 0.072375
0.002138 0.287061 0.034427
0.000156 0.238686 0.011984
0.233447 0.207574 0.010613
0.614793 0.178787 0.020263
0.934576 0.304743 0.235367
0.968675 0.449773 0.379330
0.977804 0.504681 0.311161
0.984808 0.599114 0.151988
0.323214 0.692901 0.260592
0.188321 0.536989 0.140424
0.162267 0.499681 0.117945
0.165777 0.460055 0.085383
0.483467 0.423903 0.000279
0.907798 0.449331 0.046504
0.983107 0.548063 0.270970
0.984962 0.569829 0.259577
0.983696 0.633777 0.115394
0.611210 0.896304 0.539513
0.538396 0.849057 0.465798
0.517432 0.834658 0.445299
0.479908 0.808612 0.408073
0.499311 0.773375 0.317313
0.816010 0.744482 0.000033
0.985908 0.746073 0.031537
0.989677 0.694971 0.165053
0.985140 0.715056 0.056127
0.663656 0.929187 0.593484
0.663656 0.929187 0.593484
0.663656 0.929187 0.593484
0.663656 0.929187 0.593484
0.673071 0.930831 0.593557
0.810923 0.945804 0.553243
0.987870 0.921970 0.002764
0.988649 0.862558 0.021516
0.987130 0.845028 0.001797
0.663656 0.929187 0.593484
0.663656 0.929187 0.593484
0.663656 0.929187 0.593484
0.664187 0.929255 0.593682
0.668957 0.929935 0.594001
0.726422 0.939210 0.591725
0.896221 0.969458 0.555914
0.997695 0.980408 0.373018
0.995268 0.953998 0.167007
0.674335 0.930607 0.592806
0.676631 0.931042 0.592747
0.677633 0.931231 0.592720
0.679716 0.931625 0.592665
0.687420 0.932930 0.592669
0.712539 0.936986 0.592596
0.795713 0.951302 0.584291
0.950930 0.979684 0.515262
0.997158 0.988377 0.440643
0.000406 0.000006 0.217594
0.000406 0.000006 0.217594
0.052969 0.000180 0.178844
0.409189 0.000092 0.167762
0.847163 0.073920 0.261670
0.938404 0.316698 0.473986
0.941827 0.332844 0.503152
0.965742 0.441645 0.460024
0.989587 0.577072 0.334274
0.000382 0.000004 0.222248
0.000008 0.000028 0.244731
0.116471 0.000302 0.200905
0.402114 0.000149 0.198263
0.758478 0.000296 0.245602
0.918226 0.221839 0.496706
0.956863 0.400533 0.510532
0.974453 0.478435 0.449849
0.990810 0.592690 0.323349
0.000550 0.074644 0.299290
0.000729 0.082545 0.292187
0.036443 0.061268 0.234880
0.313010 0.051042 0.221468
0.676418 0.022871 0.229462
0.922025 0.239068 0.446500
0.962177 0.426063 0.509888
0.977358 0.492978 0.445152
0.991513 0.599526 0.318176
0.000131 0.306537 0.320331
0.000373 0.270238 0.268076
0.000255 0.228353 0.219943
0.225391 0.226891 0.225541
0.592004 0.182819 0.204379
0.934330 0.300488 0.364334
0.971158 0.467569 0.490734
0.983015 0.521071 0.434917
0.992896 0.613108 0.307749
0.351184 0.735915 0.486987
0.153824 0.569060 0.257578
0.133732 0.527435 0.218529
0.134754 0.482245 0.178932
0.474119 0.443119 0.139613
0.910079 0.462979 0.230041
0.989885 0.560400 0.425242
0.992738 0.584607 0.405003
0.992909 0.647048 0.287128
0.609697 0.896794 0.553624
0.549421 0.856968 0.484425
0.529623 0.843711 0.464069
0.498493 0.821819 0.431463
0.505807 0.785178 0.343922
0.804599 0.762127 0.044034
0.994248 0.753604 0.250605
0.996073 0.700411 0.338817
0.992485 0.721016 0.236286
0.663656 0.929187 0.593484
0.663656 0.929187 0.593484
0.663656 0.929187 0.593484
0.663656 0.929187 0.593484
0.668980 0.930087 0.593230
0.806661 0.952696 0.580990
0.996815 0.960565 0.215096
0.995477 0.863341 0.185107
0.992790 0.842021 0.129312
0.663656 0.929187 0.593484
0.663656 0.929187 0.593484
0.663656 0.929187 0.593484
0.664208 0.929253 0.593714
0.668636 0.929934 0.593891
0.720351 0.938088 0.591262
0.887762 0.967957 0.559719
0.997191 0.988429 0.441011
0.997347 0.973022 0.310119
0.674975 0.930945 0.593190
0.677192 0.931296 0.593046
0.678161 0.931449 0.592983
0.680174 0.931767 0.592851
0.687782 0.933009 0.592744
0.712434 0.937105 0.592472
0.793346 0.950787 0.584835
0.946185 0.978841 0.522079
0.997168 0.988185 0.442924
0.000035 0.000014 0.470529
0.000035 0.000014 0.470529
0.092773 0.000330 0.396293
0.438139 0.000144 0.366538
0.847209 0.063487 0.427154
0.938847 0.328273 0.578264
0.948589 0.388621 0.618554
0.972511 0.480910 0.592419
0.995117 0.594761 0.513218
0.000520 0.004594 0.561867
0.000351 0.012923 0.546671
0.058509 0.000161 0.461529
0.339115 0.000736 0.445341
0.693075 0.000865 0.444638
0.897387 0.275364 0.622092
0.963092 0.453615 0.633532
0.977942 0.510717 0.590208
0.996702 0.609145 0.507566
0.000701 0.114525 0.601742
0.000305 0.102775 0.556816
0.005528 0.069507 0.483008
0.278275 0.077585 0.477649
0.641027 0.059036 0.456844
0.912187 0.278197 0.594938
0.967379 0.469263 0.635862
0.980905 0.523302 0.589201
0.997301 0.615051 0.504747
0.000774 0.334723 0.653444
0.000207 0.259931 0.550627
0.000369 0.221168 0.488251
0.166927 0.215057 0.476332
0.575895 0.211129 0.467957
0.931839 0.317437 0.558671
0.974759 0.499794 0.635620
0.986077 0.547310 0.586301
0.998436 0.627085 0.499231
0.330270 0.730121 0.738124
0.057356 0.562717 0.556612
0.025004 0.521318 0.511952
0.019647 0.483098 0.470628
0.483107 0.486395 0.483983
0.908159 0.482879 0.510605
0.991439 0.578991 0.613853
0.995866 0.602371 0.574778
0.998857 0.659584 0.487114
0.585978 0.897493 0.725302
0.534516 0.864934 0.667231
0.517462 0.853138 0.647692
0.491572 0.835826 0.618189
0.493074 0.801134 0.552980
0.801076 0.775969 0.436471
0.998552 0.756968 0.522622
0.999419 0.706593 0.538482
0.998980 0.726217 0.453054
0.657462 0.931086 0.653872
0.658018 0.931002 0.650819
0.658214 0.930828 0.649779
0.658359 0.930597 0.647056
0.660922 0.931041 0.641917
0.781305 0.949762 0.629114
0.984193 0.953295 0.397895
0.998408 0.858395 0.427236
0.998580 0.837487 0.371756
0.662467 0.929613 0.604488
0.662378 0.929517 0.605181
0.662345 0.929483 0.605464
0.662508 0.929637 0.605649
0.666047 0.930320 0.605355
0.710921 0.936801 0.599855
0.869236 0.964770 0.572241
0.996294 0.988700 0.465141
0.997969 0.969647 0.380055
0.676904 0.931463 0.602148
0.678879 0.931727 0.601096
0.679742 0.931842 0.600635
0.681536 0.932082 0.599677
0.688685 0.933183 0.598089
0.711773 0.936916 0.595506
0.787799 0.949857 0.588024
0.936444 0.976755 0.534121
0.994934 0.988119 0.449180
0.100757 0.007194 0.676947
0.084060 0.001422 0.666262
0.160689 0.002088 0.637606
0.408528 0.083683 0.634580
0.708266 0.204251 0.670713
0.853392 0.350423 0.772631
0.925476 0.457713 0.725524
0.968920 0.536761 0.717125
0.996229 0.621490 0.682570
0.173188 0.227181 0.783533
0.155859 0.156014 0.741347
0.135365 0.116125 0.704564
0.283036 0.123397 0.691655
0.608142 0.212741 0.702939
0.868129 0.377044 0.765563
0.932860 0.496244 0.747619
0.978460 0.564676 0.721249
0.997435 0.633296 0.680563
0.156928 0.333753 0.816159
0.150674 0.235422 0.775726
0.126138 0.192010 0.738114
0.251160 0.178302 0.715148
0.587938 0.244618 0.719728
0.874502 0.396764 0.767376
0.936747 0.512522 0.755601
0.981108 0.575776 0.725439
0.997929 0.638267 0.679711
0.190037 0.511507 0.835559
0.139987 0.371058 0.809700
0.102450 0.326731 0.783985
0.179038 0.291400 0.761777
0.560655 0.330158 0.757919
0.876308 0.437149 0.773242
0.946096 0.544520 0.768258
0.986329 0.595337 0.729864
0.997799 0.648488 0.677314
0.298464 0.708020 0.858121
0.171299 0.593682 0.820650
0.125862 0.565309 0.802742
0.090568 0.525177 0.779562
0.450406 0.516524 0.801239
0.870640 0.553819 0.797869
0.968982 0.616296 0.787466
0.995134 0.634810 0.732164
0.998330 0.674101 0.671292
0.513484 0.845346 0.841961
0.491963 0.831223 0.822030
0.481274 0.824895 0.814654
0.460776 0.812193 0.799647
0.450246 0.783347 0.773651
0.784274 0.786930 0.785547
0.998054 0.754270 0.772714
0.998389 0.717451 0.719099
0.998613 0.731198 0.657525
0.650737 0.936114 0.815077
0.649796 0.936118 0.810928
0.648928 0.935637 0.809545
0.648758 0.934825 0.806466
0.650166 0.935510 0.800952
0.730022 0.940810 0.782966
0.948304 0.928065 0.654001
0.998699 0.850131 0.665361
0.998194 0.826300 0.611536
0.653596 0.933191 0.711295
0.653599 0.933189 0.711225
0.653524 0.933220 0.711229
0.653333 0.933300 0.711255
0.654532 0.933636 0.711565
0.689919 0.938817 0.714108
0.835434 0.963781 0.701287
0.994901 0.989967 0.618225
0.998069 0.952398 0.539993
0.671752 0.934444 0.681202
0.674596 0.934934 0.680836
0.675839 0.935148 0.680675
0.678423 0.935593 0.680342
0.687281 0.936992 0.678828
0.711668 0.940712 0.674676
0.775630 0.951117 0.664904
0.915808 0.976308 0.631728
0.995980 0.989267 0.520226
0.160669 0.376881 0.822361
0.159152 0.292436 0.807385
0.199182 0.272318 0.800729
0.347643 0.274806 0.804004
0.622108 0.340245 0.829950
0.857867 0.448817 0.850285
0.894525 0.536803 0.862625
0.939592 0.589877 0.817981
0.978097 0.657523 0.804832
0.179629 0.471500 0.832644
0.165601 0.409679 0.826040
0.170404 0.386333 0.825275
0.289633 0.369456 0.835159
0.592452 0.405248 0.849797
0.857137 0.493563 0.866430
0.901304 0.566746 0.877054
0.945436 0.608880 0.822695
0.981880 0.667428 0.806627
0.188266 0.503264 0.835604
0.175103 0.452958 0.830447
0.175778 0.430719 0.828993
0.268699 0.408873 0.841722
0.575309 0.431839 0.856971
0.854408 0.512931 0.873536
0.904307 0.579127 0.882080
0.947469 0.616530 0.824768
0.983433 0.671618 0.807319
0.204480 0.559106 0.842354
0.193162 0.522598 0.837360
0.190510 0.506949 0.836559
0.247380 0.483056 0.844529
0.540760 0.486001 0.874549
0.848998 0.552363 0.887484
0.909458 0.603508 0.891274
0.952498 0.631396 0.827871
0.986238 0.680042 0.808327
0.244249 0.657237 0.854282
0.231744 0.638068 0.852049
0.228595 0.630733 0.851331
0.234479 0.613717 0.851024
0.458924 0.604298 0.891044
0.828850 0.642122 0.919673
0.923974 0.660972 0.911107
0.965882 0.667277 0.834611
0.991624 0.702351 0.810712
0.424847 0.786289 0.863628
0.411194 0.777931 0.863099
0.405507 0.774804 0.862821
0.393574 0.768315 0.861749
0.389187 0.749091 0.874109
0.717226 0.766163 0.956084
0.954740 0.765767 0.937217
0.987102 0.738564 0.845759
0.997171 0.750410 0.814418
0.589013 0.891598 0.897585
0.585326 0.889575 0.895322
0.583644 0.888610 0.894246
0.580416 0.886905 0.891444
0.581746 0.887690 0.886642
0.645526 0.897834 0.890991
0.895806 0.897242 0.895528
0.999021 0.849585 0.852504
0.998785 0.823529 0.802552
0.651044 0.935796 0.841300
0.651043 0.935605 0.840845
0.651033 0.935499 0.840659
0.651010 0.935283 0.840277
0.651328 0.935675 0.839458
0.663293 0.938531 0.837070
0.795358 0.964056 0.842947
0.995213 0.987293 0.777196
0.998447 0.935151 0.751401
0.656504 0.937742 0.794896
0.657622 0.937965 0.793902
0.658110 0.938062 0.793467
0.659570 0.938314 0.792620
0.666825 0.939357 0.790812
0.688355 0.942705 0.786810
0.760704 0.955072 0.788830
0.888425 0.977948 0.785230
0.994399 0.992979 0.685528
0.193506 0.524396 0.837642
0.221624 0.520039 0.842514
0.250974 0.520716 0.847606
0.320039 0.525130 0.859740
0.503091 0.543994 0.890479
0.783164 0.595839 0.907158
0.908907 0.614418 0.902935
0.925043 0.660318 0.908204
0.946150 0.696429 0.892582
0.203400 0.553852 0.841951
0.222419 0.548873 0.845009
0.245524 0.548107 0.848638
0.308191 0.550730 0.859927
0.482479 0.566921 0.892702
0.769907 0.615225 0.913696
0.913886 0.632535 0.908032
0.928026 0.671071 0.910985
0.948434 0.703304 0.893940
0.206411 0.565560 0.843459
0.223331 0.560405 0.845942
0.242708 0.559167 0.848848
0.303786 0.561472 0.859882
0.474185 0.576236 0.892318
0.761577 0.621922 0.915846
0.915944 0.640080 0.910192
0.929246 0.675569 0.912246
0.949540 0.706140 0.894598
0.213776 0.587998 0.846330
0.226949 0.582821 0.847723
0.243408 0.581741 0.850309
0.295916 0.582982 0.859559
0.458222 0.594492 0.890461
0.746264 0.635715 0.920502
0.919921 0.655479 0.914949
0.931711 0.684648 0.914760
0.951807 0.711950 0.895944
0.232842 0.640294 0.852693
0.235931 0.633998 0.853037
0.243999 0.631322 0.854521
0.279477 0.630557 0.859773
0.420098 0.638366 0.885572
0.707421 0.669494 0.931611
0.929312 0.693724 0.926007
0.938605 0.708595 0.923417
0.957613 0.727362 0.898956
0.330790 0.731264 0.859380
0.324112 0.727487 0.859217
0.321465 0.725114 0.859500
0.321363 0.720770 0.861697
0.367579 0.717174 0.878618
0.619357 0.737133 0.932779
0.919219 0.763345 0.950616
0.951426 0.759507 0.940553
0.969593 0.763162 0.905098
0.497309 0.830774 0.875987
0.494723 0.828948 0.875435
0.494173 0.828723 0.875342
0.495559 0.829837 0.875879
0.508751 0.835496 0.880927
0.561877 0.838350 0.908385
0.816000 0.861256 0.984526
0.975488 0.846337 0.966397
0.990527 0.832289 0.912140
0.644686 0.925787 0.921901
0.644179 0.925560 0.922031
0.643914 0.925444 0.922136
0.643376 0.925208 0.922350
0.642063 0.924475 0.922308
0.654743 0.930955 0.926339
0.755686 0.956362 0.949308
0.957277 0.957239 0.956963
0.998769 0.922122 0.913338
0.651670 0.932226 0.897113
0.652051 0.932384 0.896198
0.652217 0.932452 0.895797
0.652562 0.932594 0.894963
0.653467 0.932968 0.892741
0.664438 0.936244 0.888715
0.721616 0.950649 0.887367
0.861444 0.979076 0.892814
0.995409 0.997421 0.834531
0.292633 0.634412 0.861663
0.321978 0.633876 0.867608
0.334562 0.633734 0.870052
0.364676 0.634799 0.874794
0.444137 0.641651 0.890105
0.610281 0.663501 0.922492
0.840037 0.717083 0.944812
0.937021 0.717494 0.933053
0.943297 0.741780 0.939806
0.292754 0.646040 0.862551
0.319186 0.643283 0.868000
0.332225 0.642826 0.870243
0.360945 0.642858 0.874676
0.438952 0.649712 0.889658
0.604342 0.669902 0.922140
0.836839 0.722958 0.947467
0.938513 0.723553 0.934702
0.944343 0.745630 0.940926
0.292534 0.650786 0.862892
0.317734 0.647095 0.868132
0.331130 0.646626 0.870301
0.359256 0.646222 0.874602
0.436751 0.653237 0.889449
0.601799 0.672641 0.922041
0.834762 0.725232 0.948200
0.939153 0.726159 0.935410
0.944803 0.747300 0.941458
0.291550 0.660011 0.863512
0.315152 0.654817 0.868336
0.328708 0.654196 0.870370
0.355628 0.652915 0.874404
0.432287 0.660367 0.889004
0.596599 0.678350 0.921600
0.830585 0.729939 0.949746
0.940460 0.731496 0.936856
0.945759 0.750766 0.942561
0.303705 0.683626 0.863430
0.320875 0.677897 0.867534
0.330169 0.676144 0.869633
0.350723 0.673512 0.874132
0.420684 0.676312 0.887840
0.583713 0.693369 0.919659
0.820412 0.742287 0.953999
0.945053 0.747244 0.941637
0.948292 0.759927 0.945485
0.348748 0.737078 0.863848
0.343534 0.729175 0.867102
0.345785 0.726258 0.869487
0.350052 0.720362 0.874275
0.395685 0.715716 0.885659
0.552094 0.727658 0.915505
0.796027 0.770266 0.963954
0.955492 0.786614 0.953599
0.954536 0.782605 0.952516
0.488164 0.824290 0.874366
0.490121 0.824741 0.875397
0.490291 0.824317 0.875786
0.485600 0.818857 0.876192
0.478956 0.806260 0.878500
0.519974 0.796175 0.901894
0.739517 0.826695 0.969512
0.958410 0.847826 0.973874
0.967781 0.831362 0.967546
0.624601 0.912853 0.916361
0.627642 0.914771 0.917480
0.630494 0.916570 0.918508
0.636334 0.920252 0.920615
0.649449 0.928343 0.925342
0.654401 0.924560 0.926483
0.703788 0.914015 0.945858
0.890185 0.923694 0.997084
0.988403 0.906638 0.988530
0.645303 0.926734 0.923326
0.645753 0.926989 0.923543
0.646135 0.927183 0.923669
0.646933 0.927589 0.923933
0.649073 0.928679 0.924644
0.656435 0.931647 0.926361
0.693380 0.941739 0.935566
0.814953 0.972646 0.964757
0.988743 0.993988 0.991786
