output/AppleLog_display/AppleLog_to_ACROS_33grid.cube
TITLE "AppleLog_to_ACROS"
# Input: Apple Log (BT.2020 primaries, D65)
# Output: BT.709 / Gamma 2.2 (display-referred)
# Use: Display LUT for iPhone 15/16 Pro Apple Log footage
# Source: FLog2C_to_ACROS_65grid_V.1.00.cube
# Generated from Fujifilm GFX ETERNA 55 F-Log2C LUT
LUT_3D_SIZE 33
0.000105 0.000105 0.000105
0.000105 0.000105 0.000105
0.000105 0.000105 0.000105
0.000105 0.000105 0.000105
0.000105 0.000105 0.000105
0.000105 0.000105 0.000105
0.000105 0.000105 0.000105
0.000105 0.000105 0.000105
0.005810 0.005810 0.005810
0.017683 0.017683 0.017683
0.035265 0.035265 0.035265
0.060834 0.060834 0.060834
0.099641 0.099641 0.099641
0.142886 0.142886 0.142886
0.193794 0.193794 0.193794
0.251853 0.251853 0.251853
0.318155 0.318155 0.318155
0.396152 0.396152 0.396152
0.463644 0.463644 0.463644
0.520743 0.520743 0.520743
0.557730 0.557730 0.557730
0.558594 0.558594 0.558594
0.558594 0.558594 0.558594
0.558594 0.558594 0.558594
0.558594 0.558594 0.558594
0.558594 0.558594 0.558594
0.572098 0.572098 0.572098
0.591651 0.591651 0.591651
0.610487 0.610487 0.610487
0.628721 0.628721 0.628721
0.646077 0.646077 0.646077
0.664022 0.664022 0.664022
0.680805 0.680805 0.680805
0.000105 0.000105 0.000105
0.000105 0.000105 0.000105
0.000105 0.000105 0.000105
0.000105 0.000105 0.000105
0.000105 0.000105 0.000105
0.000105 0.000105 0.000105
0.000105 0.000105 0.000105
0.004109 0.004109 0.004109
0.013416 0.013416 0.013416
0.026764 0.026764 0.026764
0.043750 0.043750 0.043750
0.071836 0.071836 0.071836
0.110175 0.110175 0.110175
0.152039 0.152039 0.152039
0.202508 0.202508 0.202508
0.259551 0.259551 0.259551
0.324638 0.324638 0.324638
0.401866 0.401866 0.401866
0.466972 0.466972 0.466972
0.523100 0.523100 0.523100
0.558498 0.558498 0.558498
0.558594 0.558594 0.558594
0.558594 0.558594 0.558594
0.558594 0.558594 0.558594
0.558762 0.558762 0.558762
0.573188 0.573188 0.573188
0.589489 0.589489 0.589489
0.605106 0.605106 0.605106
0.620712 0.620712 0.620712
0.636434 0.636434 0.636434
0.652476 0.652476 0.652476
0.668970 0.668970 0.668970
0.684364 0.684364 0.684364
0.000105 0.000105 0.000105
0.000105 0.000105 0.000105
0.000105 0.000105 0.000105
0.000105 0.000105 0.000105
0.000105 0.000105 0.000105
0.000105 0.000105 0.000105
0.000085 0.000085 0.000085
0.007142 0.007142 0.007142
0.016298 0.016298 0.016298
0.030166 0.030166 0.030166
0.047988 0.047988 0.047988
0.077008 0.077008 0.077008
0.114400 0.114400 0.114400
0.155688 0.155688 0.155688
0.206014 0.206014 0.206014
0.262669 0.262669 0.262669
0.327664 0.327664 0.327664
0.404202 0.404202 0.404202
0.468336 0.468336 0.468336
0.524069 0.524069 0.524069
0.557142 0.557142 0.557142
0.557236 0.557236 0.557236
0.558594 0.558594 0.558594
0.558594 0.558594 0.558594
0.567317 0.567317 0.567317
0.581261 0.581261 0.581261
0.595498 0.595498 0.595498
0.610124 0.610124 0.610124
0.624787 0.624787 0.624787
0.639636 0.639636 0.639636
0.655043 0.655043 0.655043
0.670932 0.670932 0.670932
0.685794 0.685794 0.685794
0.000105 0.000105 0.000105
0.000105 0.000105 0.000105
0.000105 0.000105 0.000105
0.000105 0.000105 0.000105
0.000105 0.000105 0.000105
0.000105 0.000105 0.000105
0.002071 0.002071 0.002071
0.009704 0.009704 0.009704
0.019133 0.019133 0.019133
0.032664 0.032664 0.032664
0.051108 0.051108 0.051108
0.080850 0.080850 0.080850
0.117663 0.117663 0.117663
0.158435 0.158435 0.158435
0.208664 0.208664 0.208664
0.265034 0.265034 0.265034
0.329965 0.329965 0.329965
0.405982 0.405982 0.405982
0.469378 0.469378 0.469378
0.500219 0.500219 0.500219
0.525585 0.525585 0.525585
0.551512 0.551512 0.551512
0.558594 0.558594 0.558594
0.562463 0.562463 0.562463
0.574056 0.574056 0.574056
0.587222 0.587222 0.587222
0.600119 0.600119 0.600119
0.613857 0.613857 0.613857
0.627778 0.627778 0.627778
0.642011 0.642011 0.642011
0.656962 0.656962 0.656962
0.672403 0.672403 0.672403
0.686874 0.686874 0.686874
0.000105 0.000105 0.000105
0.000105 0.000105 0.000105
0.000105 0.000105 0.000105
0.000105 0.000105 0.000105
0.000105 0.000105 0.000105
0.000105 0.000105 0.000105
0.003912 0.003912 0.003912
0.011720 0.011720 0.011720
0.021642 0.021642 0.021642
0.034939 0.034939 0.034939
0.053654 0.053654 0.053654
0.084009 0.084009 0.084009
0.120362 0.120362 0.120362
0.160854 0.160854 0.160854
0.210872 0.210872 0.210872
0.267009 0.267009 0.267009
0.331891 0.331891 0.331891
0.392135 0.392135 0.392135
0.434713 0.434713 0.434713
0.470616 0.470616 0.470616
0.503133 0.503133 0.503133
0.536225 0.536225 0.536225
0.556312 0.556312 0.556312
0.568996 0.568996 0.568996
0.579774 0.579774 0.579774
0.591884 0.591884 0.591884
0.603839 0.603839 0.603839
0.616947 0.616947 0.616947
0.630215 0.630215 0.630215
0.643960 0.643960 0.643960
0.658547 0.658547 0.658547
0.673623 0.673623 0.673623
0.687796 0.687796 0.687796
0.000105 0.000105 0.000105
0.000105 0.000105 0.000105
0.000105 0.000105 0.000105
0.000105 0.000105 0.000105
0.000105 0.000105 0.000105
0.000105 0.000105 0.000105
0.005679 0.005679 0.005679
0.013469 0.013469 0.013469
0.023757 0.023757 0.023757
0.036874 0.036874 0.036874
0.056300 0.056300 0.056300
0.086735 0.086735 0.086735
0.122701 0.122701 0.122701
0.163153 0.163153 0.163153
0.209922 0.209922 0.209922
0.252526 0.252526 0.252526
0.298835 0.298835 0.298835
0.350346 0.350346 0.350346
0.404266 0.404266 0.404266
0.450969 0.450969 0.450969
0.487193 0.487193 0.487193
0.525247 0.525247 0.525247
0.558676 0.558676 0.558676
0.574781 0.574781 0.574781
0.584824 0.584824 0.584824
0.595653 0.595653 0.595653
0.606967 0.606967 0.606967
0.619569 0.619569 0.619569
0.632301 0.632301 0.632301
0.645640 0.645640 0.645640
0.659920 0.659920 0.659920
0.674685 0.674685 0.674685
0.688627 0.688627 0.688627
0.000105 0.000105 0.000105
0.000105 0.000105 0.000105
0.000105 0.000105 0.000105
0.000105 0.000105 0.000105
0.000105 0.000105 0.000105
0.000105 0.000105 0.000105
0.007105 0.007105 0.007105
0.014271 0.014271 0.014271
0.024376 0.024376 0.024376
0.036047 0.036047 0.036047
0.054322 0.054322 0.054322
0.079670 0.079670 0.079670
0.110216 0.110216 0.110216
0.144494 0.144494 0.144494
0.182739 0.182739 0.182739
0.227312 0.227312 0.227312
0.273457 0.273457 0.273457
0.323859 0.323859 0.323859
0.381163 0.381163 0.381163
0.434006 0.434006 0.434006
0.476865 0.476865 0.476865
0.520853 0.520853 0.520853
0.560698 0.560698 0.560698
0.579684 0.579684 0.579684
0.588931 0.588931 0.588931
0.598889 0.598889 0.598889
0.609694 0.609694 0.609694
0.621866 0.621866 0.621866
0.634142 0.634142 0.634142
0.647151 0.647151 0.647151
0.661143 0.661143 0.661143
0.675633 0.675633 0.675633
0.689372 0.689372 0.689372
0.004507 0.004507 0.004507
0.007225 0.007225 0.007225
0.008289 0.008289 0.008289
0.009082 0.009082 0.009082
0.009737 0.009737 0.009737
0.009755 0.009755 0.009755
0.012685 0.012685 0.012685
0.016456 0.016456 0.016456
0.024288 0.024288 0.024288
0.032525 0.032525 0.032525
0.046204 0.046204 0.046204
0.067765 0.067765 0.067765
0.096749 0.096749 0.096749
0.128462 0.128462 0.128462
0.165928 0.165928 0.165928
0.208872 0.208872 0.208872
0.254961 0.254961 0.254961
0.304443 0.304443 0.304443
0.364570 0.364570 0.364570
0.424230 0.424230 0.424230
0.474829 0.474829 0.474829
0.520595 0.520595 0.520595
0.562310 0.562310 0.562310
0.583971 0.583971 0.583971
0.592406 0.592406 0.592406
0.601786 0.601786 0.601786
0.612156 0.612156 0.612156
0.623929 0.623929 0.623929
0.635826 0.635826 0.635826
0.648540 0.648540 0.648540
0.662272 0.662272 0.662272
0.676510 0.676510 0.676510
0.690062 0.690062 0.690062
0.016933 0.016933 0.016933
0.020095 0.020095 0.020095
0.021351 0.021351 0.021351
0.022296 0.022296 0.022296
0.023079 0.023079 0.023079
0.021307 0.021307 0.021307
0.021508 0.021508 0.021508
0.024644 0.024644 0.024644
0.030940 0.030940 0.030940
0.038888 0.038888 0.038888
0.049585 0.049585 0.049585
0.068034 0.068034 0.068034
0.092571 0.092571 0.092571
0.123806 0.123806 0.123806
0.158278 0.158278 0.158278
0.199908 0.199908 0.199908
0.244433 0.244433 0.244433
0.294263 0.294263 0.294263
0.356286 0.356286 0.356286
0.420273 0.420273 0.420273
0.475771 0.475771 0.475771
0.520657 0.520657 0.520657
0.562621 0.562621 0.562621
0.588778 0.588778 0.588778
0.596343 0.596343 0.596343
0.605515 0.605515 0.605515
0.615000 0.615000 0.615000
0.626250 0.626250 0.626250
0.637797 0.637797 0.637797
0.650175 0.650175 0.650175
0.663604 0.663604 0.663604
0.677549 0.677549 0.677549
0.690883 0.690883 0.690883
0.034748 0.034748 0.034748
0.037396 0.037396 0.037396
0.038459 0.038459 0.038459
0.039263 0.039263 0.039263
0.039932 0.039932 0.039932
0.036602 0.036602 0.036602
0.035086 0.035086 0.035086
0.038063 0.038063 0.038063
0.041498 0.041498 0.041498
0.048790 0.048790 0.048790
0.057997 0.057997 0.057997
0.074111 0.074111 0.074111
0.096959 0.096959 0.096959
0.125809 0.125809 0.125809
0.158573 0.158573 0.158573
0.197418 0.197418 0.197418
0.240578 0.240578 0.240578
0.291454 0.291454 0.291454
0.352385 0.352385 0.352385
0.418988 0.418988 0.418988
0.477322 0.477322 0.477322
0.521169 0.521169 0.521169
0.562733 0.562733 0.562733
0.593211 0.593211 0.593211
0.601530 0.601530 0.601530
0.610071 0.610071 0.610071
0.618598 0.618598 0.618598
0.629138 0.629138 0.629138
0.640267 0.640267 0.640267
0.652235 0.652235 0.652235
0.665256 0.665256 0.665256
0.678870 0.678870 0.678870
0.691929 0.691929 0.691929
0.057021 0.057021 0.057021
0.059686 0.059686 0.059686
0.060765 0.060765 0.060765
0.061583 0.061583 0.061583
0.062266 0.062266 0.062266
0.053465 0.053465 0.053465
0.051284 0.051284 0.051284
0.053283 0.053283 0.053283
0.056622 0.056622 0.056622
0.062389 0.062389 0.062389
0.069829 0.069829 0.069829
0.083415 0.083415 0.083415
0.102868 0.102868 0.102868
0.130531 0.130531 0.130531
0.161396 0.161396 0.161396
0.197386 0.197386 0.197386
0.239928 0.239928 0.239928
0.290256 0.290256 0.290256
0.350625 0.350625 0.350625
0.417917 0.417917 0.417917
0.479339 0.479339 0.479339
0.522220 0.522220 0.522220
0.563820 0.563820 0.563820
0.596516 0.596516 0.596516
0.607778 0.607778 0.607778
0.615445 0.615445 0.615445
0.623253 0.623253 0.623253
0.632703 0.632703 0.632703
0.643340 0.643340 0.643340
0.654817 0.654817 0.654817
0.667333 0.667333 0.667333
0.680541 0.680541 0.680541
0.693257 0.693257 0.693257
0.087565 0.087565 0.087565
0.091051 0.091051 0.091051
0.092470 0.092470 0.092470
0.093549 0.093549 0.093549
0.088142 0.088142 0.088142
0.075146 0.075146 0.075146
0.069991 0.069991 0.069991
0.070713 0.070713 0.070713
0.074006 0.074006 0.074006
0.078247 0.078247 0.078247
0.084827 0.084827 0.084827
0.096022 0.096022 0.096022
0.114285 0.114285 0.114285
0.138834 0.138834 0.138834
0.168286 0.168286 0.168286
0.203313 0.203313 0.203313
0.244268 0.244268 0.244268
0.294063 0.294063 0.294063
0.351751 0.351751 0.351751
0.418094 0.418094 0.418094
0.481127 0.481127 0.481127
0.526298 0.526298 0.526298
0.565031 0.565031 0.565031
0.600122 0.600122 0.600122
0.615736 0.615736 0.615736
0.621660 0.621660 0.621660
0.628872 0.628872 0.628872
0.637231 0.637231 0.637231
0.647131 0.647131 0.647131
0.658039 0.658039 0.658039
0.669934 0.669934 0.669934
0.682625 0.682625 0.682625
0.694939 0.694939 0.694939
0.131092 0.131092 0.131092
0.134737 0.134737 0.134737
0.136227 0.136227 0.136227
0.137363 0.137363 0.137363
0.120001 0.120001 0.120001
0.105930 0.105930 0.105930
0.099257 0.099257 0.099257
0.098845 0.098845 0.098845
0.099345 0.099345 0.099345
0.102415 0.102415 0.102415
0.107152 0.107152 0.107152
0.117261 0.117261 0.117261
0.133090 0.133090 0.133090
0.155957 0.155957 0.155957
0.182460 0.182460 0.182460
0.213949 0.213949 0.213949
0.255017 0.255017 0.255017
0.302213 0.302213 0.302213
0.358114 0.358114 0.358114
0.421478 0.421478 0.421478
0.484422 0.484422 0.484422
0.532417 0.532417 0.532417
0.568910 0.568910 0.568910
0.604340 0.604340 0.604340
0.624454 0.624454 0.624454
0.629390 0.629390 0.629390
0.635580 0.635580 0.635580
0.642823 0.642823 0.642823
0.651762 0.651762 0.651762
0.662137 0.662137 0.662137
0.673169 0.673169 0.673169
0.685097 0.685097 0.685097
0.697059 0.697059 0.697059
0.186085 0.186085 0.186085
0.189161 0.189161 0.189161
0.190424 0.190424 0.190424
0.180139 0.180139 0.180139
0.156800 0.156800 0.156800
0.143405 0.143405 0.143405
0.135643 0.135643 0.135643
0.134900 0.134900 0.134900
0.135926 0.135926 0.135926
0.136232 0.136232 0.136232
0.139589 0.139589 0.139589
0.147483 0.147483 0.147483
0.161457 0.161457 0.161457
0.180815 0.180815 0.180815
0.206158 0.206158 0.206158
0.235380 0.235380 0.235380
0.271869 0.271869 0.271869
0.316000 0.316000 0.316000
0.368619 0.368619 0.368619
0.427956 0.427956 0.427956
0.488575 0.488575 0.488575
0.540587 0.540587 0.540587
0.574816 0.574816 0.574816
0.608887 0.608887 0.608887
0.634088 0.634088 0.634088
0.638613 0.638613 0.638613
0.643590 0.643590 0.643590
0.649766 0.649766 0.649766
0.657820 0.657820 0.657820
0.667143 0.667143 0.667143
0.677153 0.677153 0.677153
0.688174 0.688174 0.688174
0.699714 0.699714 0.699714
0.242976 0.242976 0.242976
0.245342 0.245342 0.245342
0.246315 0.246315 0.246315
0.214391 0.214391 0.214391
0.195846 0.195846 0.195846
0.183189 0.183189 0.183189
0.179068 0.179068 0.179068
0.177903 0.177903 0.177903
0.178015 0.178015 0.178015
0.177991 0.177991 0.177991
0.179888 0.179888 0.179888
0.186596 0.186596 0.186596
0.197832 0.197832 0.197832
0.215891 0.215891 0.215891
0.238120 0.238120 0.238120
0.264610 0.264610 0.264610
0.296874 0.296874 0.296874
0.335687 0.335687 0.335687
0.382459 0.382459 0.382459
0.437310 0.437310 0.437310
0.495683 0.495683 0.495683
0.548617 0.548617 0.548617
0.582816 0.582816 0.582816
0.615001 0.615001 0.615001
0.643037 0.643037 0.643037
0.649360 0.649360 0.649360
0.653132 0.653132 0.653132
0.658202 0.658202 0.658202
0.665046 0.665046 0.665046
0.673067 0.673067 0.673067
0.682008 0.682008 0.682008
0.691972 0.691972 0.691972
0.703019 0.703019 0.703019
0.304352 0.304352 0.304352
0.306402 0.306402 0.306402
0.275088 0.275088 0.275088
0.250536 0.250536 0.250536
0.236168 0.236168 0.236168
0.227239 0.227239 0.227239
0.224929 0.224929 0.224929
0.224593 0.224593 0.224593
0.223487 0.223487 0.223487
0.223057 0.223057 0.223057
0.225297 0.225297 0.225297
0.231066 0.231066 0.231066
0.240944 0.240944 0.240944
0.255854 0.255854 0.255854
0.275021 0.275021 0.275021
0.298288 0.298288 0.298288
0.327367 0.327367 0.327367
0.362570 0.362570 0.362570
0.404068 0.404068 0.404068
0.452122 0.452122 0.452122
0.505040 0.505040 0.505040
0.556897 0.556897 0.556897
0.594036 0.594036 0.594036
0.622625 0.622625 0.622625
0.650584 0.650584 0.650584
0.661684 0.661684 0.661684
0.663914 0.663914 0.663914
0.668581 0.668581 0.668581
0.673538 0.673538 0.673538
0.679949 0.679949 0.679949
0.687884 0.687884 0.687884
0.696806 0.696806 0.696806
0.707097 0.707097 0.707097
0.370168 0.370168 0.370168
0.344225 0.344225 0.344225
0.308446 0.308446 0.308446
0.289675 0.289675 0.289675
0.278049 0.278049 0.278049
0.274077 0.274077 0.274077
0.272405 0.272405 0.272405
0.271008 0.271008 0.271008
0.270283 0.270283 0.270283
0.270740 0.270740 0.270740
0.273671 0.273671 0.273671
0.279210 0.279210 0.279210
0.288241 0.288241 0.288241
0.301387 0.301387 0.301387
0.317326 0.317326 0.317326
0.337412 0.337412 0.337412
0.362711 0.362711 0.362711
0.393527 0.393527 0.393527
0.430310 0.430310 0.430310
0.471367 0.471367 0.471367
0.519165 0.519165 0.519165
0.568169 0.568169 0.568169
0.606654 0.606654 0.606654
0.634330 0.634330 0.634330
0.659556 0.659556 0.659556
0.674003 0.674003 0.674003
0.676466 0.676466 0.676466
0.679481 0.679481 0.679481
0.683367 0.683367 0.683367
0.688397 0.688397 0.688397
0.695235 0.695235 0.695235
0.702834 0.702834 0.702834
0.712081 0.712081 0.712081
0.436777 0.436777 0.436777
0.368836 0.368836 0.368836
0.343684 0.343684 0.343684
0.331667 0.331667 0.331667
0.326326 0.326326 0.326326
0.323323 0.323323 0.323323
0.321829 0.321829 0.321829
0.320811 0.320811 0.320811
0.321592 0.321592 0.321592
0.323062 0.323062 0.323062
0.325748 0.325748 0.325748
0.331050 0.331050 0.331050
0.339092 0.339092 0.339092
0.349999 0.349999 0.349999
0.363289 0.363289 0.363289
0.380953 0.380953 0.380953
0.402445 0.402445 0.402445
0.428924 0.428924 0.428924
0.461521 0.461521 0.461521
0.497811 0.497811 0.497811
0.538576 0.538576 0.538576
0.582453 0.582453 0.582453
0.623260 0.623260 0.623260
0.647813 0.647813 0.647813
0.670766 0.670766 0.670766
0.687642 0.687642 0.687642
0.690331 0.690331 0.690331
0.691796 0.691796 0.691796
0.694544 0.694544 0.694544
0.698192 0.698192 0.698192
0.703706 0.703706 0.703706
0.710023 0.710023 0.710023
0.717790 0.717790 0.717790
0.467585 0.467585 0.467585
0.399262 0.399262 0.399262
0.384458 0.384458 0.384458
0.379985 0.379985 0.379985
0.377573 0.377573 0.377573
0.377514 0.377514 0.377514
0.377756 0.377756 0.377756
0.378015 0.378015 0.378015
0.378315 0.378315 0.378315
0.380201 0.380201 0.380201
0.383625 0.383625 0.383625
0.388353 0.388353 0.388353
0.395015 0.395015 0.395015
0.404283 0.404283 0.404283
0.415577 0.415577 0.415577
0.429518 0.429518 0.429518
0.447390 0.447390 0.447390
0.469765 0.469765 0.469765
0.497789 0.497789 0.497789
0.529399 0.529399 0.529399
0.565120 0.565120 0.565120
0.602647 0.602647 0.602647
0.640189 0.640189 0.640189
0.664493 0.664493 0.664493
0.684400 0.684400 0.684400
0.700340 0.700340 0.700340
0.705422 0.705422 0.705422
0.705156 0.705156 0.705156
0.707067 0.707067 0.707067
0.708892 0.708892 0.708892
0.713018 0.713018 0.713018
0.718477 0.718477 0.718477
0.724550 0.724550 0.724550
0.474460 0.474460 0.474460
0.437929 0.437929 0.437929
0.434887 0.434887 0.434887
0.434654 0.434654 0.434654
0.435497 0.435497 0.435497
0.436196 0.436196 0.436196
0.437385 0.437385 0.437385
0.438489 0.438489 0.438489
0.439870 0.439870 0.439870
0.442450 0.442450 0.442450
0.445585 0.445585 0.445585
0.449704 0.449704 0.449704
0.455191 0.455191 0.455191
0.462249 0.462249 0.462249
0.471052 0.471052 0.471052
0.482584 0.482584 0.482584
0.497508 0.497508 0.497508
0.516003 0.516003 0.516003
0.538667 0.538667 0.538667
0.565142 0.565142 0.565142
0.594652 0.594652 0.594652
0.627543 0.627543 0.627543
0.660256 0.660256 0.660256
0.683322 0.683322 0.683322
0.699817 0.699817 0.699817
0.714764 0.714764 0.714764
0.721037 0.721037 0.721037
0.719824 0.719824 0.719824
0.720511 0.720511 0.720511
0.721459 0.721459 0.721459
0.724168 0.724168 0.724168
0.728266 0.728266 0.728266
0.733480 0.733480 0.733480
0.498587 0.498587 0.498587
0.492341 0.492341 0.492341
0.493220 0.493220 0.493220
0.494595 0.494595 0.494595
0.495985 0.495985 0.495985
0.497470 0.497470 0.497470
0.498755 0.498755 0.498755
0.499960 0.499960 0.499960
0.501453 0.501453 0.501453
0.503288 0.503288 0.503288
0.505878 0.505878 0.505878
0.509408 0.509408 0.509408
0.514149 0.514149 0.514149
0.519956 0.519956 0.519956
0.526397 0.526397 0.526397
0.536018 0.536018 0.536018
0.548260 0.548260 0.548260
0.563391 0.563391 0.563391
0.582032 0.582032 0.582032
0.603168 0.603168 0.603168
0.627999 0.627999 0.627999
0.655951 0.655951 0.655951
0.683870 0.683870 0.683870
0.706009 0.706009 0.706009
0.717840 0.717840 0.717840
0.729729 0.729729 0.729729
0.736945 0.736945 0.736945
0.736034 0.736034 0.736034
0.735103 0.735103 0.735103
0.735460 0.735460 0.735460
0.736688 0.736688 0.736688
0.739422 0.739422 0.739422
0.743507 0.743507 0.743507
0.547108 0.547108 0.547108
0.550682 0.550682 0.550682
0.552947 0.552947 0.552947
0.554588 0.554588 0.554588
0.555902 0.555902 0.555902
0.557039 0.557039 0.557039
0.558062 0.558062 0.558062
0.558990 0.558990 0.558990
0.560067 0.560067 0.560067
0.561610 0.561610 0.561610
0.563896 0.563896 0.563896
0.566671 0.566671 0.566671
0.570158 0.570158 0.570158
0.574534 0.574534 0.574534
0.580497 0.580497 0.580497
0.588707 0.588707 0.588707
0.597927 0.597927 0.597927
0.610181 0.610181 0.610181
0.625090 0.625090 0.625090
0.642588 0.642588 0.642588
0.663739 0.663739 0.663739
0.686430 0.686430 0.686430
0.709879 0.709879 0.709879
0.731933 0.731933 0.731933
0.739644 0.739644 0.739644
0.746257 0.746257 0.746257
0.752730 0.752730 0.752730
0.753191 0.753191 0.753191
0.751161 0.751161 0.751161
0.750288 0.750288 0.750288
0.750506 0.750506 0.750506
0.751928 0.751928 0.751928
0.754387 0.754387 0.754387
0.602392 0.602392 0.602392
0.606590 0.606590 0.606590
0.608365 0.608365 0.608365
0.609933 0.609933 0.609933
0.611240 0.611240 0.611240
0.612355 0.612355 0.612355
0.613336 0.613336 0.613336
0.614320 0.614320 0.614320
0.615561 0.615561 0.615561
0.617110 0.617110 0.617110
0.619028 0.619028 0.619028
0.621374 0.621374 0.621374
0.624219 0.624219 0.624219
0.627886 0.627886 0.627886
0.632651 0.632651 0.632651
0.638781 0.638781 0.638781
0.646889 0.646889 0.646889
0.656894 0.656894 0.656894
0.668531 0.668531 0.668531
0.682520 0.682520 0.682520
0.699002 0.699002 0.699002
0.717935 0.717935 0.717935
0.737577 0.737577 0.737577
0.756862 0.756862 0.756862
0.765387 0.765387 0.765387
0.767880 0.767880 0.767880
0.769718 0.769718 0.769718
0.770338 0.770338 0.770338
0.768218 0.768218 0.768218
0.766400 0.766400 0.766400
0.765011 0.765011 0.765011
0.765217 0.765217 0.765217
0.766236 0.766236 0.766236
0.653048 0.653048 0.653048
0.657375 0.657375 0.657375
0.658858 0.658858 0.658858
0.659966 0.659966 0.659966
0.661161 0.661161 0.661161
0.662186 0.662186 0.662186
0.663093 0.663093 0.663093
0.663925 0.663925 0.663925
0.664901 0.664901 0.664901
0.666145 0.666145 0.666145
0.667990 0.667990 0.667990
0.670273 0.670273 0.670273
0.673073 0.673073 0.673073
0.676367 0.676367 0.676367
0.680306 0.680306 0.680306
0.685725 0.685725 0.685725
0.692125 0.692125 0.692125
0.699923 0.699923 0.699923
0.710230 0.710230 0.710230
0.721180 0.721180 0.721180
0.734948 0.734948 0.734948
0.750817 0.750817 0.750817
0.767556 0.767556 0.767556
0.783676 0.783676 0.783676
0.791637 0.791637 0.791637
0.791258 0.791258 0.791258
0.788851 0.788851 0.788851
0.787757 0.787757 0.787757
0.784781 0.784781 0.784781
0.782416 0.782416 0.782416
0.780251 0.780251 0.780251
0.779640 0.779640 0.779640
0.779489 0.779489 0.779489
0.697648 0.697648 0.697648
0.701700 0.701700 0.701700
0.703268 0.703268 0.703268
0.704436 0.704436 0.704436
0.705397 0.705397 0.705397
0.706268 0.706268 0.706268
0.707158 0.707158 0.707158
0.707976 0.707976 0.707976
0.708940 0.708940 0.708940
0.710157 0.710157 0.710157
0.711684 0.711684 0.711684
0.713588 0.713588 0.713588
0.716154 0.716154 0.716154
0.719315 0.719315 0.719315
0.723188 0.723188 0.723188
0.727927 0.727927 0.727927
0.733648 0.733648 0.733648
0.740465 0.740465 0.740465
0.748326 0.748326 0.748326
0.757716 0.757716 0.757716
0.769108 0.769108 0.769108
0.782192 0.782192 0.782192
0.796228 0.796228 0.796228
0.809976 0.809976 0.809976
0.817806 0.817806 0.817806
0.815300 0.815300 0.815300
0.811166 0.811166 0.811166
0.806371 0.806371 0.806371
0.802337 0.802337 0.802337
0.798860 0.798860 0.798860
0.795946 0.795946 0.795946
0.793849 0.793849 0.793849
0.793401 0.793401 0.793401
0.733568 0.733568 0.733568
0.737862 0.737862 0.737862
0.739573 0.739573 0.739573
0.740855 0.740855 0.740855
0.741916 0.741916 0.741916
0.742836 0.742836 0.742836
0.743657 0.743657 0.743657
0.744415 0.744415 0.744415
0.745312 0.745312 0.745312
0.746536 0.746536 0.746536
0.748102 0.748102 0.748102
0.750070 0.750070 0.750070
0.752526 0.752526 0.752526
0.755550 0.755550 0.755550
0.758943 0.758943 0.758943
0.763063 0.763063 0.763063
0.768357 0.768357 0.768357
0.774739 0.774739 0.774739
0.781575 0.781575 0.781575
0.789931 0.789931 0.789931
0.799608 0.799608 0.799608
0.810380 0.810380 0.810380
0.821337 0.821337 0.821337
0.832602 0.832602 0.832602
0.839437 0.839437 0.839437
0.837970 0.837970 0.837970
0.832591 0.832591 0.832591
0.826580 0.826580 0.826580
0.820619 0.820619 0.820619
0.816844 0.816844 0.816844
0.813438 0.813438 0.813438
0.810632 0.810632 0.810632
0.809126 0.809126 0.809126
0.751357 0.751357 0.751357
0.755394 0.755394 0.755394
0.757056 0.757056 0.757056
0.758320 0.758320 0.758320
0.759371 0.759371 0.759371
0.760285 0.760285 0.760285
0.761103 0.761103 0.761103
0.761860 0.761860 0.761860
0.762758 0.762758 0.762758
0.763899 0.763899 0.763899
0.765347 0.765347 0.765347
0.767173 0.767173 0.767173
0.769610 0.769610 0.769610
0.772660 0.772660 0.772660
0.776436 0.776436 0.776436
0.781048 0.781048 0.781048
0.786599 0.786599 0.786599
0.793166 0.793166 0.793166
0.800554 0.800554 0.800554
0.808743 0.808743 0.808743
