output/AppleLog_display/AppleLog_to_REALA-ACE_33grid.cube
TITLE "AppleLog_to_REALA-ACE"
# Input: Apple Log (BT.2020 primaries, D65)
# Output: BT.709 / Gamma 2.2 (display-referred)
# Use: Display LUT for iPhone 15/16 Pro Apple Log footage
# Source: FLog2C_to_REALA-ACE_65grid_V.1.00.cube
# Generated from Fujifilm GFX ETERNA 55 F-Log2C LUT
LUT_3D_SIZE 33
0.000200 0.000111 0.000001
0.000200 0.000111 0.000001
0.000200 0.000111 0.000001
0.000200 0.000111 0.000001
0.000200 0.000111 0.000001
0.000200 0.000111 0.000001
0.000200 0.000111 0.000001
0.000200 0.000111 0.000001
0.015327 0.000533 0.000134
0.054486 0.000037 0.002995
0.120445 0.000048 0.002721
0.256899 0.000367 0.006937
0.408937 0.000101 0.020336
0.538525 0.000078 0.034349
0.659977 0.000344 0.057306
0.781909 0.002086 0.112993
0.880258 0.131353 0.235493
0.908330 0.181989 0.355136
0.917852 0.221868 0.422183
0.930334 0.279235 0.451629
0.940647 0.326260 0.473314
0.940825 0.327148 0.473700
0.940825 0.327148 0.473700
0.940825 0.327148 0.473700
0.940825 0.327148 0.473700
0.940825 0.327148 0.473700
0.944499 0.345304 0.459890
0.950317 0.374754 0.434178
0.958515 0.406684 0.404720
0.966122 0.440708 0.373773
0.972966 0.475551 0.338889
0.979198 0.512018 0.295576
0.981492 0.546872 0.239149
0.000200 0.000111 0.000001
0.000200 0.000111 0.000001
0.000200 0.000111 0.000001
0.000200 0.000111 0.000001
0.000200 0.000111 0.000001
0.000200 0.000111 0.000001
0.000200 0.000111 0.000001
0.011771 0.001256 0.000325
0.040822 0.000148 0.001371
0.084440 0.000014 0.000549
0.167013 0.000150 0.004668
0.309603 0.000015 0.009460
0.445370 0.000026 0.022985
0.563664 0.000125 0.039915
0.679236 0.000224 0.064143
0.794198 0.016394 0.126987
0.888862 0.144302 0.247574
0.908855 0.183853 0.364393
0.918442 0.224680 0.423461
0.931074 0.282505 0.453168
0.940805 0.327050 0.473657
0.940825 0.327148 0.473700
0.940825 0.327148 0.473700
0.940825 0.327148 0.473700
0.940916 0.327419 0.473568
0.945288 0.346911 0.458821
0.950806 0.370942 0.438749
0.956854 0.397906 0.415004
0.962381 0.424955 0.388397
0.968874 0.455734 0.357912
0.975155 0.488220 0.324985
0.981129 0.523138 0.282972
0.981843 0.554688 0.226008
0.000200 0.000111 0.000001
0.000200 0.000111 0.000001
0.000200 0.000111 0.000001
0.000200 0.000111 0.000001
0.000200 0.000111 0.000001
0.000200 0.000111 0.000001
0.000205 0.000066 0.000000
0.018342 0.000032 0.000014
0.050054 0.000059 0.003010
0.096739 0.000034 0.001369
0.190280 0.000332 0.005029
0.328326 0.000053 0.011786
0.458980 0.000009 0.024079
0.573686 0.000143 0.042134
0.686983 0.000175 0.066893
0.799175 0.022188 0.132654
0.890030 0.146280 0.251903
0.909070 0.184614 0.368176
0.918684 0.225833 0.423984
0.931378 0.283848 0.453800
0.940383 0.325579 0.473147
0.940511 0.325434 0.473850
0.940825 0.327148 0.473700
0.940825 0.327148 0.473700
0.943471 0.338294 0.468313
0.946987 0.358678 0.448784
0.953172 0.380478 0.430700
0.959233 0.406542 0.407896
0.964092 0.432255 0.382239
0.970230 0.462020 0.351195
0.976056 0.493716 0.318426
0.981364 0.527151 0.276794
0.981984 0.557828 0.220729
0.000200 0.000111 0.000001
0.000200 0.000111 0.000001
0.000200 0.000111 0.000001
0.000200 0.000111 0.000001
0.000200 0.000111 0.000001
0.000200 0.000111 0.000001
0.006509 0.001155 0.000300
0.027853 0.000122 0.000262
0.059124 0.000030 0.002370
0.106173 0.000048 0.001980
0.207401 0.000465 0.005294
0.342237 0.000081 0.013514
0.468147 0.000014 0.024967
0.581230 0.000157 0.043804
0.692840 0.000139 0.068972
0.802950 0.026583 0.136953
0.890919 0.147784 0.255195
0.909234 0.185195 0.371059
0.918868 0.226713 0.424384
0.925515 0.257003 0.442045
0.931228 0.284195 0.456561
0.938768 0.319735 0.471204
0.940825 0.327148 0.473700
0.942167 0.331692 0.469479
0.945619 0.348641 0.455734
0.949269 0.367072 0.440250
0.954951 0.388515 0.422861
0.960872 0.413140 0.402021
0.965348 0.437613 0.377720
0.971236 0.466680 0.346215
0.976730 0.497824 0.313523
0.981287 0.529975 0.271592
0.982091 0.560201 0.216741
0.000200 0.000111 0.000001
0.000200 0.000111 0.000001
0.000200 0.000111 0.000001
0.000200 0.000111 0.000001
0.000200 0.000111 0.000001
0.000200 0.000111 0.000001
0.011359 0.001339 0.000347
0.035333 0.000193 0.000458
0.067148 0.000017 0.001289
0.118654 0.000048 0.002628
0.221376 0.000574 0.005510
0.353674 0.000104 0.014935
0.475727 0.000018 0.025700
0.587330 0.000173 0.044958
0.697721 0.000108 0.070705
0.806104 0.030255 0.140544
0.891662 0.149044 0.257951
0.908208 0.180127 0.346875
0.913171 0.200151 0.400386
0.919281 0.228433 0.425172
0.925626 0.259416 0.441219
0.934651 0.299923 0.461930
0.940299 0.324519 0.472651
0.943870 0.340698 0.463254
0.947697 0.357330 0.448203
0.951078 0.373711 0.433608
0.956376 0.395073 0.416352
0.962127 0.418732 0.396698
0.966451 0.442677 0.372751
0.972061 0.470505 0.342126
0.977288 0.501217 0.309474
0.981224 0.532318 0.267276
0.982162 0.562259 0.213158
0.000200 0.000111 0.000001
0.000200 0.000111 0.000001
0.000200 0.000111 0.000001
0.000200 0.000111 0.000001
0.000200 0.000111 0.000001
0.000200 0.000111 0.000001
0.015052 0.000588 0.000148
0.040994 0.000146 0.001401
0.073912 0.000006 0.000378
0.129277 0.000048 0.003180
0.234698 0.000528 0.005988
0.363541 0.000125 0.016160
0.482296 0.000021 0.026336
0.592400 0.000194 0.045629
0.696089 0.000082 0.069907
0.781093 0.011746 0.119014
0.854086 0.094473 0.197456
0.902172 0.164459 0.283443
0.909785 0.185352 0.368175
0.915440 0.209406 0.418158
0.922234 0.242598 0.432018
0.930944 0.286546 0.451689
0.940143 0.327007 0.463308
0.945570 0.348747 0.457194
0.949685 0.364915 0.443640
0.952881 0.380594 0.428764
0.957566 0.400590 0.410860
0.963191 0.423477 0.392173
0.967422 0.447239 0.368084
0.972765 0.473819 0.338566
0.977771 0.504156 0.305968
0.981170 0.534356 0.263525
0.982203 0.564153 0.209720
0.000200 0.000111 0.000001
0.000200 0.000111 0.000001
0.000200 0.000111 0.000001
0.000200 0.000111 0.000001
0.000200 0.000111 0.000001
0.000200 0.000111 0.000001
0.018046 0.000200 0.000048
0.044083 0.000076 0.002059
0.075814 0.000064 0.000411
0.127748 0.000027 0.003919
0.222958 0.000217 0.007458
0.339019 0.000049 0.012123
0.445783 0.000170 0.024266
0.543995 0.000123 0.033831
0.636929 0.000050 0.050625
0.731466 0.000006 0.084104
0.815392 0.032969 0.150894
0.886832 0.142679 0.242744
0.907640 0.177328 0.331330
0.913094 0.199353 0.403014
0.920653 0.232827 0.425698
0.929209 0.279382 0.439341
0.940777 0.330248 0.453414
0.947318 0.355523 0.451216
0.951102 0.370863 0.438911
0.954432 0.386506 0.424599
0.958503 0.405389 0.405900
0.964122 0.427631 0.388207
0.968278 0.451262 0.363969
0.973288 0.477048 0.334880
0.978201 0.506772 0.302847
0.981121 0.536177 0.260174
0.982239 0.565851 0.206641
0.000000 0.006196 0.000383
0.000000 0.010057 0.000227
0.000000 0.011579 0.000137
0.000000 0.012715 0.000070
0.000000 0.013652 0.000015
0.000023 0.013697 0.000002
0.013055 0.011804 0.000045
0.034477 0.008423 0.000068
0.063549 0.005223 0.000022
0.103100 0.001793 0.000136
0.176735 0.000296 0.002643
0.286943 0.000246 0.012580
0.397974 0.000117 0.020289
0.502095 0.000146 0.029639
0.598067 0.000055 0.044899
0.694833 0.000110 0.068572
0.785314 0.013723 0.121356
0.861995 0.106914 0.206106
0.902995 0.169709 0.300316
0.912018 0.195853 0.379623
0.920491 0.231768 0.412868
0.930109 0.280339 0.428310
0.941883 0.333738 0.443571
0.948665 0.361607 0.445597
0.952106 0.375667 0.433952
0.955820 0.391793 0.420852
0.959348 0.409717 0.401429
0.964898 0.431367 0.384479
0.969062 0.454944 0.360204
0.973769 0.480017 0.331491
0.978599 0.509187 0.299966
0.981077 0.537862 0.257072
0.982273 0.567426 0.203784
0.000046 0.024567 0.000031
0.000028 0.029731 0.000016
0.000021 0.031783 0.000010
0.000015 0.033326 0.000006
0.000011 0.034605 0.000002
0.000563 0.032464 0.000028
0.007085 0.028672 0.000058
0.025569 0.024177 0.000305
0.053488 0.023913 0.000129
0.095807 0.023205 0.000140
0.165092 0.017355 0.000167
0.260171 0.012063 0.001590
0.364446 0.002510 0.004007
0.465892 0.001506 0.012935
0.565836 0.000089 0.027985
0.662674 0.000118 0.047018
0.756362 0.004526 0.088132
0.841239 0.079218 0.166874
0.897410 0.165364 0.261102
0.911940 0.198658 0.348011
0.920590 0.235336 0.394387
0.930895 0.282446 0.413153
0.942597 0.336094 0.431557
0.949880 0.368690 0.438672
0.953234 0.381081 0.428342
0.957116 0.397582 0.414720
0.960324 0.414711 0.396274
0.965584 0.435590 0.379770
0.969980 0.459254 0.355796
0.974334 0.483511 0.327505
0.979068 0.512039 0.296564
0.981025 0.539860 0.253397
0.982314 0.569296 0.200391
0.000130 0.059341 0.000625
0.000092 0.067895 0.000439
0.000077 0.071331 0.000364
0.000065 0.073928 0.000307
0.000055 0.076090 0.000260
0.000064 0.062201 0.000251
0.000586 0.050882 0.000606
0.016179 0.051638 0.000025
0.045716 0.050644 0.000009
0.089458 0.050534 0.000144
0.156069 0.050940 0.000225
0.244928 0.047370 0.000055
0.341179 0.039612 0.000062
0.436402 0.029001 0.000605
0.537402 0.016651 0.005570
0.633835 0.010261 0.022071
0.729175 0.015287 0.054613
0.818750 0.061342 0.115430
0.893512 0.167848 0.217811
0.913004 0.207483 0.305544
0.921320 0.243257 0.372288
0.931731 0.286597 0.392117
0.943315 0.338787 0.416232
0.951499 0.376708 0.428229
0.955499 0.390562 0.421358
0.958700 0.404651 0.407245
0.961641 0.421064 0.390066
0.966440 0.440845 0.373921
0.971107 0.464611 0.350262
0.975046 0.487913 0.322482
0.979408 0.515413 0.291416
0.980959 0.542399 0.248730
0.982365 0.571680 0.196069
0.000192 0.124128 0.000107
0.000134 0.131836 0.000184
0.000110 0.134956 0.000216
0.000093 0.137322 0.000239
0.000078 0.139299 0.000259
0.000036 0.114256 0.000424
0.000063 0.099268 0.000106
0.003948 0.096019 0.000688
0.038968 0.092323 0.000089
0.084908 0.091119 0.000658
0.148702 0.091800 0.000703
0.227980 0.086771 0.000173
0.314342 0.082668 0.000157
0.407833 0.073030 0.000205
0.505357 0.059944 0.000320
0.603289 0.051918 0.001223
0.702853 0.053132 0.025264
0.794763 0.073604 0.072340
0.874423 0.155938 0.162528
0.915071 0.219773 0.256400
0.924564 0.256613 0.343670
0.933503 0.294091 0.368685
0.944259 0.343573 0.394967
0.953684 0.385617 0.412685
0.958262 0.402191 0.412760
0.960817 0.414284 0.398281
0.963588 0.429423 0.382873
0.967500 0.447329 0.366719
0.972086 0.470424 0.343079
0.975938 0.493430 0.316192
0.979802 0.519635 0.284827
0.980876 0.545613 0.242822
0.982431 0.574709 0.190578
0.000302 0.198456 0.000427
0.000237 0.205310 0.000341
0.000211 0.208100 0.000306
0.000191 0.210222 0.000279
0.000048 0.199964 0.000485
0.000026 0.174686 0.000022
0.000168 0.158666 0.000108
0.002061 0.150819 0.000127
0.018491 0.145670 0.000055
0.066447 0.141087 0.000000
0.128657 0.140589 0.000018
0.205263 0.135345 0.000000
0.290765 0.128379 0.000814
0.379138 0.120152 0.000155
0.476398 0.110675 0.000017
0.574990 0.100774 0.000003
0.674584 0.100227 0.002673
0.770730 0.116742 0.031912
0.854920 0.160642 0.104381
0.913392 0.231915 0.204134
0.928217 0.272796 0.296248
0.935564 0.308077 0.340715
0.946279 0.352761 0.371040
0.956659 0.396249 0.394868
0.960901 0.416378 0.396772
0.963621 0.427358 0.387671
0.965937 0.439519 0.374162
0.969318 0.456556 0.357247
0.973296 0.477588 0.334217
0.977030 0.500294 0.308277
0.980296 0.524926 0.276575
0.980850 0.549773 0.235272
0.982514 0.578545 0.183629
0.001293 0.272720 0.000113
0.003024 0.278022 0.000216
0.003731 0.280189 0.000258
0.004270 0.281841 0.000290
0.000458 0.258363 0.000832
0.000029 0.236567 0.000088
0.000133 0.222111 0.000103
0.000010 0.211950 0.000163
0.006060 0.203655 0.000311
0.039752 0.197409 0.000611
0.101371 0.193133 0.000063
0.176624 0.189800 0.000016
0.260390 0.181907 0.000273
0.349405 0.172398 0.000013
0.444497 0.162645 0.000088
0.546748 0.155842 0.000004
0.646129 0.154459 0.000362
0.744650 0.165023 0.004696
0.832678 0.188904 0.050584
0.908365 0.250662 0.145453
0.932327 0.295718 0.240679
0.941125 0.330938 0.304465
0.949720 0.366329 0.338996
0.959129 0.409333 0.369491
0.964488 0.432632 0.381936
0.966851 0.442483 0.373611
0.968937 0.453795 0.360094
0.971885 0.468640 0.345300
0.974775 0.486325 0.323391
0.978140 0.508727 0.297224
0.980910 0.531509 0.266317
0.981295 0.555669 0.225126
0.982619 0.583379 0.174876
0.055784 0.350582 0.029099
0.059752 0.354999 0.032002
0.061134 0.356900 0.033167
0.048031 0.343019 0.023733
0.016677 0.313551 0.005972
0.005909 0.294731 0.003020
0.003655 0.281909 0.001218
0.002379 0.276063 0.000025
0.000684 0.266505 0.000596
0.017127 0.257075 0.000275
0.069508 0.251419 0.000266
0.140743 0.244917 0.000380
0.227646 0.239675 0.000002
0.315858 0.230306 0.000472
0.409604 0.218850 0.000345
0.509299 0.212172 0.000012
0.614708 0.209571 0.000167
0.718562 0.211666 0.000000
0.807892 0.232981 0.011990
0.897644 0.276798 0.088112
0.938479 0.327000 0.182493
0.947571 0.360397 0.263529
0.954914 0.388842 0.300180
0.962571 0.426378 0.334266
0.968338 0.452155 0.363363
0.970274 0.460113 0.355421
0.972115 0.470379 0.342700
0.974876 0.483419 0.329273
0.976823 0.499187 0.309151
0.979504 0.519044 0.283731
0.981569 0.539735 0.253227
0.981847 0.563003 0.212506
0.982751 0.589438 0.163915
0.121141 0.440190 0.083938
0.123978 0.444167 0.086349
0.125143 0.445802 0.087340
0.091936 0.399944 0.059370
0.072072 0.372275 0.042825
0.057986 0.354644 0.031219
0.049840 0.344222 0.025134
0.039386 0.334818 0.018484
0.030641 0.325640 0.012516
0.027726 0.316157 0.003675
0.051752 0.309538 0.001426
0.107059 0.300315 0.000961
0.189238 0.294418 0.000558
0.279925 0.290382 0.000421
0.375459 0.283233 0.000036
0.475653 0.273611 0.000256
0.581879 0.268839 0.000072
0.686018 0.266944 0.000129
0.783822 0.273542 0.000933
0.880030 0.307837 0.038430
0.942578 0.360568 0.126659
0.954892 0.398431 0.211426
0.960251 0.418790 0.251175
0.966813 0.449354 0.291118
0.972167 0.475389 0.330302
0.973875 0.481454 0.331296
0.974935 0.488904 0.320858
0.978294 0.501158 0.308642
0.979097 0.514470 0.291619
0.980505 0.531438 0.265894
0.982033 0.550134 0.235715
0.982527 0.572048 0.196943
0.982933 0.596604 0.148190
0.187064 0.534650 0.138876
0.189075 0.537654 0.140630
0.158763 0.494255 0.115208
0.133802 0.458528 0.094394
0.118688 0.437179 0.082161
0.107138 0.420848 0.072368
0.100579 0.411160 0.066632
0.095270 0.403821 0.061610
0.088666 0.394379 0.056321
0.082952 0.384288 0.050134
0.086846 0.375649 0.041791
0.111939 0.367208 0.027658
0.160438 0.358632 0.007170
0.241090 0.353593 0.000076
0.342878 0.346629 0.000000
0.444436 0.340460 0.000006
0.548157 0.330997 0.000003
0.652192 0.327512 0.000023
0.755120 0.329516 0.000381
0.854371 0.349486 0.013181
0.934803 0.395624 0.075194
0.958934 0.438689 0.134670
0.965639 0.459577 0.191864
0.970594 0.478915 0.238070
0.976273 0.501772 0.280463
0.979122 0.508368 0.299122
0.978947 0.513561 0.292794
0.979619 0.521786 0.281092
0.979760 0.531569 0.263905
0.980774 0.546087 0.242417
0.982592 0.562697 0.214562
0.983015 0.582702 0.175711
0.983158 0.605390 0.128487
0.259382 0.632369 0.201560
0.229804 0.597071 0.175941
0.195490 0.547331 0.146278
0.176878 0.520309 0.130252
0.165111 0.503596 0.120085
0.156587 0.491158 0.113280
0.150004 0.481671 0.108017
0.144639 0.474319 0.103487
0.139198 0.466080 0.098535
0.133895 0.457706 0.093620
0.130929 0.449972 0.088677
0.137607 0.438644 0.077272
0.165905 0.429269 0.058334
0.223170 0.421298 0.028637
0.305594 0.412642 0.004151
0.408651 0.407039 0.000825
0.515524 0.402103 0.000035
0.619477 0.392004 0.000003
0.727753 0.393226 0.000102
0.828944 0.403077 0.000005
0.925201 0.441950 0.046929
0.961955 0.481280 0.084453
0.966603 0.501412 0.118940
0.972578 0.514779 0.165694
0.977128 0.530912 0.218749
0.980416 0.536217 0.255112
0.980514 0.539488 0.252051
0.981328 0.544076 0.246842
0.981152 0.552528 0.229351
0.981742 0.564392 0.211171
0.983451 0.578845 0.184389
0.983269 0.595189 0.147863
0.983433 0.616120 0.104396
0.389272 0.742643 0.320436
0.264011 0.639421 0.205402
0.234627 0.603163 0.180174
0.221474 0.584332 0.168103
0.212959 0.571774 0.160771
0.205700 0.561395 0.155244
0.199803 0.553803 0.150322
0.194972 0.547427 0.146275
0.191388 0.541628 0.143221
0.186518 0.534435 0.139158
0.179792 0.525475 0.133659
0.178715 0.514584 0.125402
0.190657 0.504020 0.114223
0.226896 0.495482 0.094140
0.286903 0.485145 0.052210
0.370965 0.479123 0.012773
0.479685 0.472908 0.000499
0.590574 0.467932 0.000000
0.697363 0.466387 0.000032
0.804266 0.472699 0.000033
0.908038 0.499364 0.016530
0.968663 0.532609 0.060063
0.971494 0.555176 0.055080
0.973732 0.557279 0.079643
0.977957 0.569188 0.130907
0.981976 0.568829 0.194494
0.982926 0.567605 0.208078
0.982276 0.570972 0.199924
0.982981 0.577175 0.187545
0.983068 0.585864 0.171011
0.983918 0.597863 0.146879
0.983185 0.611908 0.114338
0.982584 0.631360 0.075264
0.467441 0.800051 0.397093
0.321309 0.691144 0.257831
0.288815 0.666282 0.228387
0.270255 0.650950 0.211527
0.262900 0.641924 0.204465
0.257009 0.634582 0.199516
0.252076 0.628418 0.195478
0.247887 0.622548 0.191674
0.243209 0.615833 0.187325
0.237953 0.608107 0.182433
0.232009 0.599232 0.176894
0.227901 0.591768 0.171859
0.231279 0.582872 0.164012
0.251905 0.573268 0.150310
0.294189 0.563809 0.127279
0.358474 0.556302 0.084966
0.445456 0.549334 0.011184
0.559411 0.546439 0.001839
0.673249 0.547646 0.000457
0.783222 0.551149 0.000080
0.887598 0.567694 0.000370
0.966605 0.590528 0.021522
0.976304 0.616409 0.014056
0.977547 0.613596 0.016096
0.978885 0.613229 0.037936
0.982948 0.606355 0.100803
0.983861 0.601725 0.140188
0.983542 0.600603 0.136914
0.983368 0.605184 0.133442
0.983951 0.610420 0.119642
0.982909 0.619650 0.099036
0.982579 0.634010 0.074492
0.981410 0.649843 0.040525
0.490805 0.816224 0.419530
0.405047 0.754618 0.336544
0.383423 0.737968 0.315455
0.368749 0.727154 0.301999
0.359133 0.720301 0.292577
0.351272 0.714694 0.284862
0.343825 0.709255 0.278228
0.337167 0.704389 0.272339
0.329852 0.698940 0.265814
0.322851 0.692877 0.259150
0.314607 0.685728 0.251296
0.306697 0.678393 0.243737
0.300643 0.669281 0.231979
0.302425 0.659291 0.215197
0.323925 0.650574 0.193541
0.372460 0.643492 0.164575
0.445672 0.638110 0.117114
0.538709 0.632825 0.038627
0.649923 0.630668 0.000125
0.763288 0.637536 0.000000
0.866154 0.640163 0.000000
0.953963 0.645595 0.000742
0.979255 0.662791 0.000000
0.979817 0.669301 0.000269
0.980358 0.670372 0.001325
0.978797 0.654456 0.001739
0.982176 0.640954 0.057944
0.981118 0.637252 0.063957
0.981816 0.638261 0.064314
0.982477 0.642867 0.059897
0.981426 0.646927 0.044255
0.982909 0.658993 0.025196
0.981128 0.672245 0.013571
0.547469 0.854649 0.475156
0.501457 0.823190 0.429652
0.485723 0.811885 0.413818
0.473895 0.803597 0.401970
0.465351 0.797606 0.393732
0.459065 0.793192 0.388048
0.453668 0.789403 0.383168
0.448955 0.786102 0.378836
0.443801 0.782515 0.373936
0.437495 0.778130 0.367940
0.429904 0.772652 0.360747
0.420899 0.765905 0.352241
0.412728 0.758355 0.341128
0.407194 0.750053 0.326768
0.411155 0.741402 0.306992
0.435155 0.733942 0.278648
0.480214 0.729702 0.236600
0.549395 0.725840 0.163369
0.637878 0.719120 0.064495
0.742665 0.711467 0.004353
0.845362 0.708126 0.000095
0.940327 0.707177 0.000110
0.980313 0.710920 0.000000
0.981551 0.715253 0.000000
0.981683 0.713879 0.000003
0.981618 0.710317 0.000144
0.979590 0.688693 0.003417
0.980124 0.679164 0.003144
0.979365 0.676983 0.010715
0.981801 0.677267 0.004686
0.980219 0.679774 0.005312
0.982388 0.689491 0.002883
0.980901 0.699618 0.000055
0.619767 0.901834 0.548543
0.591089 0.883769 0.519181
0.581499 0.877529 0.509800
0.575292 0.873214 0.503340
0.570351 0.869781 0.498197
0.566001 0.866914 0.493789
0.561981 0.864442 0.489854
0.558348 0.862208 0.486295
0.554148 0.859627 0.482179
0.548803 0.856254 0.476949
0.541975 0.851783 0.470283
0.533747 0.846393 0.462245
0.525313 0.839902 0.452329
0.517424 0.832530 0.440425
0.515769 0.824961 0.425655
0.525094 0.816227 0.401548
0.547523 0.806966 0.364481
0.587642 0.800689 0.309717
0.647720 0.793822 0.211999
0.729566 0.783972 0.080905
0.823953 0.775399 0.009563
0.918106 0.770099 0.000004
0.979293 0.767014 0.000006
0.985219 0.768727 0.000000
0.983063 0.759746 0.000114
0.984086 0.746813 0.000338
0.982517 0.737826 0.000044
0.982244 0.728040 0.000017
0.981205 0.723883 0.000000
0.982988 0.719972 0.000051
0.981867 0.721220 0.000037
0.982406 0.725246 0.000083
0.981831 0.729317 0.000093
0.659329 0.926529 0.589149
0.657168 0.925218 0.586853
0.656310 0.924698 0.585937
0.652879 0.922558 0.582329
0.649741 0.920601 0.579030
0.647076 0.918940 0.576229
0.644743 0.917486 0.573775
0.642623 0.916170 0.571549
0.640162 0.914644 0.568965
0.637107 0.912749 0.565755
0.633347 0.910418 0.561801
0.628380 0.907150 0.556474
0.622058 0.902850 0.549634
0.613079 0.896212 0.538166
0.599870 0.885772 0.518957
0.600582 0.876211 0.496665
0.613703 0.867625 0.469574
0.641103 0.860793 0.431834
0.683071 0.854284 0.369538
0.739837 0.849154 0.263782
0.809892 0.840172 0.078512
0.893397 0.827013 0.002338
0.971076 0.820546 0.000088
0.986328 0.819616 0.000014
0.985633 0.809158 0.000034
0.985257 0.792374 0.000185
0.984977 0.768981 0.000011
0.983190 0.758451 0.000004
0.984215 0.754793 0.000070
0.983602 0.753345 0.000032
0.984277 0.751178 0.000168
0.983287 0.750923 0.000000
0.983562 0.753216 0.000015
0.663656 0.929187 0.593484
0.663656 0.929187 0.593484
0.663656 0.929187 0.593484
0.663656 0.929187 0.593484
0.663656 0.929187 0.593484
0.663656 0.929187 0.593484
0.663656 0.929187 0.593484
0.663656 0.929187 0.593484
0.663656 0.929187 0.593484
0.663632 0.929176 0.593457
0.663184 0.928973 0.592974
0.662641 0.928726 0.592386
0.661991 0.928431 0.591683
0.659140 0.925611 0.586777
0.655542 0.921984 0.580505
0.661349 0.919191 0.570227
0.671544 0.914142 0.552266
0.689156 0.906475 0.523078
0.720679 0.901458 0.485013
0.763064 0.896888 0.417819
0.816547 0.892189 0.289473
0.879672 0.883194 0.117470
0.954833 0.873529 0.009653
0.987951 0.866989 0.000422
0.988100 0.857937 0.000195
0.986067 0.837730 0.000022
0.986343 0.813719 0.000003
0.985570 0.788661 0.000032
0.985077 0.778157 0.000230
0.985314 0.772976 0.000000
0.984026 0.772505 0.000005
0.984985 0.768452 0.000000
0.983772 0.770592 0.000061
0.663656 0.929187 0.593484
0.663656 0.929187 0.593484
0.663656 0.929187 0.593484
0.663656 0.929187 0.593484
0.663656 0.929187 0.593484
0.663656 0.929187 0.593484
0.663656 0.929187 0.593484
0.663656 0.929187 0.593484
0.663656 0.929187 0.593484
0.663656 0.929187 0.593484
0.663656 0.929187 0.593484
0.663656 0.929187 0.593484
0.664132 0.929308 0.593350
0.664733 0.929461 0.593181
0.667611 0.929992 0.592962
0.677611 0.931688 0.592647
0.694962 0.934151 0.591382
0.721814 0.937171 0.587370
0.752525 0.936143 0.565716
0.792596 0.936263 0.537018
0.834194 0.933677 0.477600
0.884431 0.931936 0.362573
0.942529 0.924962 0.161833
0.983826 0.913373 0.014721
0.987969 0.898750 0.000128
0.987626 0.879738 0.000446
0.987939 0.856682 0.000443
0.984835 0.829585 0.000049
0.986655 0.813215 0.000220
0.985760 0.806407 0.000064
0.985771 0.801781 0.000012
0.985899 0.797139 0.000189
0.986215 0.795846 0.000062
0.663656 0.929187 0.593484
0.663656 0.929187 0.593484
0.663656 0.929187 0.593484
0.663656 0.929187 0.593484
0.663656 0.929187 0.593484
0.663656 0.929187 0.593484
0.663656 0.929187 0.593484
0.663656 0.929187 0.593484
0.663656 0.929187 0.593484
0.663656 0.929187 0.593484
0.663656 0.929187 0.593484
0.663656 0.929187 0.593484
0.663656 0.929187 0.593484
0.663907 0.929220 0.593479
0.668551 0.929830 0.593388
0.674122 0.930563 0.593285
0.690808 0.933516 0.592611
0.715348 0.937936 0.591491
0.754156 0.944113 0.588890
0.798201 0.951988 0.583764
0.846225 0.960193 0.572450
0.889866 0.962386 0.525301
0.935863 0.961337 0.406181
0.982289 0.953318 0.201299
0.992320 0.938420 0.074906
0.988528 0.918509 0.013184
0.987813 0.895909 0.000051
0.988392 0.871213 0.000054
0.987957 0.849629 0.000354
0.986306 0.840980 0.000003
0.986871 0.835448 0.000518
0.986616 0.830007 0.000071
0.987425 0.826803 0.000086
0.663656 0.929187 0.593484
0.663656 0.929187 0.593484
0.663656 0.929187 0.593484
0.663656 0.929187 0.593484
0.663656 0.929187 0.593484
0.663656 0.929187 0.593484
0.663656 0.929187 0.593484
0.663656 0.929187 0.593484
0.663656 0.929187 0.593484
0.663656 0.929187 0.593484
0.663656 0.929187 0.593484
0.663656 0.929187 0.593484
0.664193 0.929257 0.593489
0.664878 0.929345 0.593497
0.665698 0.929451 0.593506
0.669436 0.930059 0.593331
0.680832 0.931992 0.592648
0.696762 0.934641 0.591834
0.724899 0.939153 0.590935
