output/AppleLog_display/AppleLog_to_ASTIA_33grid.cube
TITLE "AppleLog_to_ASTIA"
# Input: Apple Log (BT.2020 primaries, D65)
# Output: BT.709 / Gamma 2.2 (display-referred)
# Use: Display LUT for iPhone 15/16 Pro Apple Log footage
# Source: FLog2C_to_ASTIA_65grid_V.1.00.cube
# Generated from Fujifilm GFX ETERNA 55 F-Log2C LUT
LUT_3D_SIZE 5
0.000334 0.000257 0.000073
0.024300 0.000909 0.000112
0.966802 0.000578 0.251282
0.999461 0.099723 0.540077
0.999783 0.457956 0.271152
0.000027 0.034540 0.000032
0.062577 0.031095 0.000126
0.806283 0.001535 0.099733
0.999964 0.201037 0.474274
0.999861 0.490931 0.237399
0.000056 0.706691 0.000448
0.000155 0.514942 0.000455
0.549183 0.436453 0.000113
0.999425 0.433332 0.246936
0.999774 0.559950 0.159470
0.000000 1.000000 0.000285
0.029107 0.999932 0.000211
0.417216 0.978071 0.000169
0.996778 0.869379 0.000091
0.999293 0.775768 0.000179
0.308378 0.999676 0.000245
0.334363 0.999714 0.000308
0.393018 0.999742 0.000334
0.666857 0.999438 0.000071
0.984041 0.999802 0.024142
0.000127 0.000046 0.059481
0.037212 0.000293 0.046613
0.945426 0.000372 0.222443
0.999461 0.099723 0.540077
0.999543 0.478482 0.249571
0.000110 0.066390 0.083749
0.050972 0.053234 0.049857
0.745584 0.024082 0.074987
0.999611 0.231959 0.455622
0.999672 0.513029 0.214643
0.000100 0.741829 0.008217
0.000081 0.566068 0.000118
0.524178 0.467451 0.000277
0.999477 0.454463 0.297069
0.998822 0.581292 0.167236
0.000000 1.000000 0.000285
0.000000 1.000000 0.000285
0.284633 0.997758 0.000196
0.985278 0.903199 0.000102
0.999430 0.811681 0.020989
0.307766 0.999720 0.000613
0.331727 0.999695 0.000638
0.386757 0.999691 0.000537
0.655101 0.999914 0.000664
0.985582 0.999361 0.037542
0.006265 0.000252 0.485158
0.078185 0.000024 0.395735
0.916801 0.000070 0.475831
0.999528 0.176658 0.665564
0.999210 0.514047 0.515109
0.000422 0.159035 0.767585
0.024207 0.092832 0.586571
0.686097 0.040278 0.504309
0.999862 0.317970 0.652222
0.999481 0.541460 0.506244
0.000224 0.745241 0.853383
0.000362 0.595861 0.653635
0.494915 0.496651 0.495777
0.999656 0.479477 0.601985
0.999709 0.595337 0.486200
0.000037 0.999824 0.391675
0.000146 0.999807 0.375541
0.157456 0.996709 0.324704
0.950895 0.914464 0.305926
0.999237 0.792566 0.380868
0.318307 0.999654 0.064620
0.337843 0.999558 0.053009
0.384701 0.999459 0.032209
0.640730 0.999708 0.000747
0.986143 0.999809 0.077737
0.000465 0.424466 0.999567
0.010821 0.289476 0.999929
0.621342 0.189981 0.999701
0.999947 0.288936 0.954287
0.999688 0.577029 0.777650
0.000387 0.547191 0.999997
0.000226 0.459647 0.999626
0.540966 0.375411 0.999348
0.999770 0.368838 0.962421
0.999428 0.596990 0.776801
0.000516 0.693044 0.999996
0.000433 0.658555 0.999894
0.405398 0.609143 0.999559
0.999792 0.518444 0.959717
0.999905 0.637105 0.775723
0.000489 0.933280 0.999838
0.000487 0.929594 0.999687
0.024834 0.920449 0.997663
0.855922 0.858102 0.856005
0.999980 0.777259 0.756118
0.185549 0.999667 0.728846
0.217990 0.999695 0.720918
0.284736 0.999701 0.703732
0.599961 0.999713 0.644014
0.990243 0.999726 0.569675
0.076865 0.671752 0.999618
0.169485 0.665522 0.999683
0.356274 0.660552 0.999860
0.807868 0.651345 0.999302
0.999526 0.639364 0.999443
0.069017 0.687772 0.999718
0.160169 0.678308 0.999894
0.346581 0.673008 0.999927
0.799396 0.662865 0.999160
0.999428 0.647428 0.999341
0.056141 0.719908 0.999909
0.136208 0.709594 0.999987
0.319939 0.698874 0.999904
0.781915 0.687820 0.999377
0.999163 0.665613 0.999093
0.011383 0.859554 1.000000
0.028657 0.852019 0.999996
0.174741 0.835367 0.999850
0.693849 0.798814 0.999895
0.999871 0.760451 0.999988
0.006390 0.982443 0.999948
0.018602 0.985100 0.999973
0.056665 0.992038 0.999982
0.399982 0.999859 0.999445
0.982352 0.989224 0.987367
