output/AppleLog_display/AppleLog_to_ACROS_33grid.cube
TITLE "AppleLog_to_ACROS"
# Input: Apple Log (BT.2020 primaries, D65)
# Output: BT.709 / Gamma 2.2 (display-referred)
# Use: Display LUT for iPhone 15/16 Pro Apple Log footage
# Source: FLog2C_to_ACROS_65grid_V.1.00.cube
# Generated from Fujifilm GFX ETERNA 55 F-Log2C LUT
LUT_3D_SIZE 9
0.000105 0.000105 0.000105
0.000105 0.000105 0.000105
0.005810 0.005810 0.005810
0.099641 0.099641 0.099641
0.318155 0.318155 0.318155
0.557730 0.557730 0.557730
0.558594 0.558594 0.558594
0.610487 0.610487 0.610487
0.680805 0.680805 0.680805
0.000105 0.000105 0.000105
0.000105 0.000105 0.000105
0.021642 0.021642 0.021642
0.120362 0.120362 0.120362
0.331891 0.331891 0.331891
0.503133 0.503133 0.503133
0.579774 0.579774 0.579774
0.630215 0.630215 0.630215
0.687796 0.687796 0.687796
0.016933 0.016933 0.016933
0.023079 0.023079 0.023079
0.030940 0.030940 0.030940
0.092571 0.092571 0.092571
0.244433 0.244433 0.244433
0.475771 0.475771 0.475771
0.596343 0.596343 0.596343
0.637797 0.637797 0.637797
0.690883 0.690883 0.690883
0.131092 0.131092 0.131092
0.120001 0.120001 0.120001
0.099345 0.099345 0.099345
0.133090 0.133090 0.133090
0.255017 0.255017 0.255017
0.484422 0.484422 0.484422
0.624454 0.624454 0.624454
0.651762 0.651762 0.651762
0.697059 0.697059 0.697059
0.370168 0.370168 0.370168
0.278049 0.278049 0.278049
0.270283 0.270283 0.270283
0.288241 0.288241 0.288241
0.362711 0.362711 0.362711
0.519165 0.519165 0.519165
0.659556 0.659556 0.659556
0.683367 0.683367 0.683367
0.712081 0.712081 0.712081
0.498587 0.498587 0.498587
0.495985 0.495985 0.495985
0.501453 0.501453 0.501453
0.514149 0.514149 0.514149
0.548260 0.548260 0.548260
0.627999 0.627999 0.627999
0.717840 0.717840 0.717840
0.735103 0.735103 0.735103
0.743507 0.743507 0.743507
0.697648 0.697648 0.697648
0.705397 0.705397 0.705397
0.708940 0.708940 0.708940
0.716154 0.716154 0.716154
0.733648 0.733648 0.733648
0.769108 0.769108 0.769108
0.817806 0.817806 0.817806
0.802337 0.802337 0.802337
0.793401 0.793401 0.793401
0.788535 0.788535 0.788535
0.792943 0.792943 0.792943
0.794814 0.794814 0.794814
0.798745 0.798745 0.798745
0.808647 0.808647 0.808647
0.831998 0.831998 0.831998
0.874914 0.874914 0.874914
0.893449 0.893449 0.893449
0.876280 0.876280 0.876280
0.841830 0.841830 0.841830
0.843325 0.843325 0.843325
0.843978 0.843978 0.843978
0.845336 0.845336 0.845336
0.849003 0.849003 0.849003
0.858362 0.858362 0.858362
0.879924 0.879924 0.879924
0.916451 0.916451 0.916451
0.922660 0.922660 0.922660
0.000105 0.000105 0.000105
0.000105 0.000105 0.000105
0.009476 0.009476 0.009476
0.104729 0.104729 0.104729
0.321233 0.321233 0.321233
0.558095 0.558095 0.558095
0.558594 0.558594 0.558594
0.612944 0.612944 0.612944
0.681658 0.681658 0.681658
0.000105 0.000105 0.000105
0.000105 0.000105 0.000105
0.025832 0.025832 0.025832
0.125022 0.125022 0.125022
0.300306 0.300306 0.300306
0.487630 0.487630 0.487630
0.584817 0.584817 0.584817
0.632298 0.632298 0.632298
0.688626 0.688626 0.688626
0.030889 0.030889 0.030889
0.036410 0.036410 0.036410
0.039960 0.039960 0.039960
0.097029 0.097029 0.097029
0.242321 0.242321 0.242321
0.477182 0.477182 0.477182
0.600332 0.600332 0.600332
0.639692 0.639692 0.639692
0.691684 0.691684 0.691684
0.147117 0.147117 0.147117
0.127589 0.127589 0.127589
0.109029 0.109029 0.109029
0.141566 0.141566 0.141566
0.259916 0.259916 0.259916
0.486022 0.486022 0.486022
0.627233 0.627233 0.627233
0.653483 0.653483 0.653483
0.697804 0.697804 0.697804
0.378478 0.378478 0.378478
0.281903 0.281903 0.281903
0.276231 0.276231 0.276231
0.294598 0.294598 0.294598
0.367429 0.367429 0.367429
0.521385 0.521385 0.521385
0.660686 0.660686 0.660686
0.684656 0.684656 0.684656
0.712848 0.712848 0.712848
0.522296 0.522296 0.522296
0.514197 0.514197 0.514197
0.518130 0.518130 0.518130
0.528205 0.528205 0.528205
0.556789 0.556789 0.556789
0.632378 0.632378 0.632378
0.727042 0.727042 0.727042
0.741464 0.741464 0.741464
0.747530 0.747530 0.747530
0.726681 0.726681 0.726681
0.733831 0.733831 0.733831
0.736562 0.736562 0.736562
0.741861 0.741861 0.741861
0.755788 0.755788 0.755788
0.787218 0.787218 0.787218
0.836207 0.836207 0.836207
0.827525 0.827525 0.827525
0.814030 0.814030 0.814030
0.808773 0.808773 0.808773
0.812863 0.812863 0.812863
0.814601 0.814601 0.814601
0.818393 0.818393 0.818393
0.828093 0.828093 0.828093
0.850638 0.850638 0.850638
0.891765 0.891765 0.891765
0.910532 0.910532 0.910532
0.890326 0.890326 0.890326
0.846836 0.846836 0.846836
0.848247 0.848247 0.848247
0.848863 0.848863 0.848863
0.850144 0.850144 0.850144
0.853718 0.853718 0.853718
0.863015 0.863015 0.863015
0.884220 0.884220 0.884220
0.921054 0.921054 0.921054
0.928169 0.928169 0.928169
0.004480 0.004480 0.004480
0.004480 0.004480 0.004480
0.011291 0.011291 0.011291
0.097559 0.097559 0.097559
0.305437 0.305437 0.305437
0.557902 0.557902 0.557902
0.558594 0.558594 0.558594
0.618764 0.618764 0.618764
0.687114 0.687114 0.687114
0.004956 0.004956 0.004956
0.004956 0.004956 0.004956
0.024449 0.024449 0.024449
0.114171 0.114171 0.114171
0.270581 0.270581 0.270581
0.469856 0.469856 0.469856
0.591041 0.591041 0.591041
0.638272 0.638272 0.638272
0.694474 0.694474 0.694474
0.047274 0.047274 0.047274
0.053864 0.053864 0.053864
0.051666 0.051666 0.051666
0.100184 0.100184 0.100184
0.235496 0.235496 0.235496
0.468778 0.468778 0.468778
0.607213 0.607213 0.607213
0.645756 0.645756 0.645756
0.697868 0.697868 0.697868
0.187671 0.187671 0.187671
0.159483 0.159483 0.159483
0.134428 0.134428 0.134428
0.158012 0.158012 0.158012
0.266139 0.266139 0.266139
0.479688 0.479688 0.479688
0.633564 0.633564 0.633564
0.660858 0.660858 0.660858
0.704571 0.704571 0.704571
0.439871 0.439871 0.439871
0.328925 0.328925 0.328925
0.315886 0.315886 0.315886
0.326626 0.326626 0.326626
0.388264 0.388264 0.388264
0.529416 0.529416 0.529416
0.667211 0.667211 0.667211
0.694462 0.694462 0.694462
0.721862 0.721862 0.721862
0.562269 0.562269 0.562269
0.549775 0.549775 0.549775
0.552232 0.552232 0.552232
0.559685 0.559685 0.559685
0.584058 0.584058 0.584058
0.650529 0.650529 0.650529
0.741690 0.741690 0.741690
0.755072 0.755072 0.755072
0.759209 0.759209 0.759209
0.742551 0.742551 0.742551
0.749211 0.749211 0.749211
0.752195 0.752195 0.752195
0.758097 0.758097 0.758097
0.772180 0.772180 0.772180
0.801747 0.801747 0.801747
0.847695 0.847695 0.847695
0.837030 0.837030 0.837030
0.822591 0.822591 0.822591
0.813619 0.813619 0.813619
0.817703 0.817703 0.817703
0.819439 0.819439 0.819439
0.823181 0.823181 0.823181
0.832760 0.832760 0.832760
0.855348 0.855348 0.855348
0.896421 0.896421 0.896421
0.915644 0.915644 0.915644
0.894651 0.894651 0.894651
0.848709 0.848709 0.848709
0.850130 0.850130 0.850130
0.850751 0.850751 0.850751
0.852042 0.852042 0.852042
0.855630 0.855630 0.855630
0.864923 0.864923 0.864923
0.885714 0.885714 0.885714
0.922834 0.922834 0.922834
0.930203 0.930203 0.930203
0.013846 0.013846 0.013846
0.013846 0.013846 0.013846
0.021699 0.021699 0.021699
0.099311 0.099311 0.099311
0.294190 0.294190 0.294190
0.548464 0.548464 0.548464
0.559972 0.559972 0.559972
0.631970 0.631970 0.631970
0.702808 0.702808 0.702808
0.014081 0.014081 0.014081
0.016053 0.016053 0.016053
0.031568 0.031568 0.031568
0.098497 0.098497 0.098497
0.243829 0.243829 0.243829
0.463779 0.463779 0.463779
0.605950 0.605950 0.605950
0.652788 0.652788 0.652788
0.710967 0.710967 0.710967
0.081952 0.081952 0.081952
0.085512 0.085512 0.085512
0.072966 0.072966 0.072966
0.116443 0.116443 0.116443
0.241296 0.241296 0.241296
0.468523 0.468523 0.468523
0.622486 0.622486 0.622486
0.660903 0.660903 0.660903
0.714393 0.714393 0.714393
0.248246 0.248246 0.248246
0.207445 0.207445 0.207445
0.174680 0.174680 0.174680
0.191777 0.191777 0.191777
0.288715 0.288715 0.288715
0.487153 0.487153 0.487153
0.642317 0.642317 0.642317
0.676898 0.676898 0.676898
0.721208 0.721208 0.721208
0.493322 0.493322 0.493322
0.380500 0.380500 0.380500
0.365968 0.365968 0.365968
0.373451 0.373451 0.373451
0.424463 0.424463 0.424463
0.550214 0.550214 0.550214
0.680961 0.680961 0.680961
0.710889 0.710889 0.710889
0.737876 0.737876 0.737876
0.598960 0.598960 0.598960
0.587029 0.587029 0.587029
0.589983 0.589983 0.589983
0.596666 0.596666 0.596666
0.618234 0.618234 0.618234
0.676619 0.676619 0.676619
0.760695 0.760695 0.760695
0.770111 0.770111 0.770111
0.774321 0.774321 0.774321
0.758089 0.758089 0.758089
0.765844 0.765844 0.765844
0.768736 0.768736 0.768736
0.774675 0.774675 0.774675
0.789353 0.789353 0.789353
0.818723 0.818723 0.818723
0.861767 0.861767 0.861767
0.848610 0.848610 0.848610
0.834400 0.834400 0.834400
0.820459 0.820459 0.820459
0.824563 0.824563 0.824563
0.826308 0.826308 0.826308
0.830140 0.830140 0.830140
0.839821 0.839821 0.839821
0.861922 0.861922 0.861922
0.903120 0.903120 0.903120
0.923290 0.923290 0.923290
0.901393 0.901393 0.901393
0.851550 0.851550 0.851550
0.852759 0.852759 0.852759
0.853287 0.853287 0.853287
0.854387 0.854387 0.854387
0.857887 0.857887 0.857887
0.867686 0.867686 0.867686
0.888371 0.888371 0.888371
0.925741 0.925741 0.925741
0.933717 0.933717 0.933717
0.034959 0.034959 0.034959
0.034959 0.034959 0.034959
0.046807 0.046807 0.046807
0.118367 0.118367 0.118367
0.297943 0.297943 0.297943
0.540668 0.540668 0.540668
0.581666 0.581666 0.581666
0.651237 0.651237 0.651237
0.721711 0.721711 0.721711
0.079766 0.079766 0.079766
0.082476 0.082476 0.082476
0.076814 0.076814 0.076814
0.127184 0.127184 0.127184
0.251977 0.251977 0.251977
0.467008 0.467008 0.467008
0.626699 0.626699 0.626699
0.671467 0.671467 0.671467
0.729562 0.729562 0.729562
0.172518 0.172518 0.172518
0.152617 0.152617 0.152617
0.130121 0.130121 0.130121
0.163713 0.163713 0.163713
0.272086 0.272086 0.272086
0.478573 0.478573 0.478573
0.636416 0.636416 0.636416
0.679423 0.679423 0.679423
0.732772 0.732772 0.732772
0.341148 0.341148 0.341148
0.277129 0.277129 0.277129
0.247207 0.247207 0.247207
0.259409 0.259409 0.259409
0.339478 0.339478 0.339478
0.508596 0.508596 0.508596
0.653603 0.653603 0.653603
0.694802 0.694802 0.694802
0.739264 0.739264 0.739264
0.550367 0.550367 0.550367
0.439811 0.439811 0.439811
0.429298 0.429298 0.429298
0.437786 0.437786 0.437786
0.479032 0.479032 0.479032
0.581351 0.581351 0.581351
0.698277 0.698277 0.698277
0.728563 0.728563 0.728563
0.756146 0.756146 0.756146
0.636320 0.636320 0.636320
0.627493 0.627493 0.627493
0.630053 0.630053 0.630053
0.637296 0.637296 0.637296
0.657985 0.657985 0.657985
0.707582 0.707582 0.707582
0.782908 0.782908 0.782908
0.786716 0.786716 0.786716
0.791295 0.791295 0.791295
0.774654 0.774654 0.774654
0.781896 0.781896 0.781896
0.785030 0.785030 0.785030
0.791186 0.791186 0.791186
0.806299 0.806299 0.806299
0.836024 0.836024 0.836024
0.876679 0.876679 0.876679
0.863427 0.863427 0.863427
0.848921 0.848921 0.848921
0.830123 0.830123 0.830123
0.834171 0.834171 0.834171
0.835900 0.835900 0.835900
0.839688 0.839688 0.839688
0.849270 0.849270 0.849270
0.871461 0.871461 0.871461
0.912349 0.912349 0.912349
0.935260 0.935260 0.935260
0.911631 0.911631 0.911631
0.858373 0.858373 0.858373
0.859546 0.859546 0.859546
0.860059 0.860059 0.860059
0.861125 0.861125 0.861125
0.864354 0.864354 0.864354
0.873233 0.873233 0.873233
0.894429 0.894429 0.894429
0.931573 0.931573 0.931573
0.941064 0.941064 0.941064
0.072830 0.072830 0.072830
0.068530 0.068530 0.068530
0.089752 0.089752 0.089752
0.148654 0.148654 0.148654
0.262736 0.262736 0.262736
0.458668 0.458668 0.458668
0.622740 0.622740 0.622740
0.677322 0.677322 0.677322
0.740429 0.740429 0.740429
0.284192 0.284192 0.284192
0.221389 0.221389 0.221389
0.208656 0.208656 0.208656
0.238025 0.238025 0.238025
0.327019 0.327019 0.327019
0.497641 0.497641 0.497641
0.644304 0.644304 0.644304
0.695837 0.695837 0.695837
0.748477 0.748477 0.748477
0.357622 0.357622 0.357622
0.283265 0.283265 0.283265
0.268756 0.268756 0.268756
0.290362 0.290362 0.290362
0.365094 0.365094 0.365094
0.516035 0.516035 0.516035
0.654283 0.654283 0.654283
0.703142 0.703142 0.703142
0.751861 0.751861 0.751861
0.460735 0.460735 0.460735
0.371136 0.371136 0.371136
0.359735 0.359735 0.359735
0.376513 0.376513 0.376513
0.431653 0.431653 0.431653
0.550917 0.550917 0.550917
0.674566 0.674566 0.674566
0.716950 0.716950 0.716950
0.758276 0.758276 0.758276
0.577868 0.577868 0.577868
0.501072 0.501072 0.501072
0.502912 0.502912 0.502912
0.515228 0.515228 0.515228
0.548269 0.548269 0.548269
0.624730 0.624730 0.624730
0.721534 0.721534 0.721534
0.747386 0.747386 0.747386
0.774149 0.774149 0.774149
0.658009 0.658009 0.658009
0.664496 0.664496 0.664496
0.668627 0.668627 0.668627
0.677349 0.677349 0.677349
0.697854 0.697854 0.697854
0.741361 0.741361 0.741361
0.804032 0.804032 0.804032
0.802126 0.802126 0.802126
0.807702 0.807702 0.807702
0.783991 0.783991 0.783991
0.791270 0.791270 0.791270
0.794327 0.794327 0.794327
0.800206 0.800206 0.800206
0.815179 0.815179 0.815179
0.845194 0.845194 0.845194
0.886606 0.886606 0.886606
0.878214 0.878214 0.878214
0.862792 0.862792 0.862792
0.839370 0.839370 0.839370
0.843451 0.843451 0.843451
0.845265 0.845265 0.845265
0.848987 0.848987 0.848987
0.858388 0.858388 0.858388
0.880073 0.880073 0.880073
0.920373 0.920373 0.920373
0.949814 0.949814 0.949814
0.924461 0.924461 0.924461
0.867974 0.867974 0.867974
0.869207 0.869207 0.869207
0.869746 0.869746 0.869746
0.870868 0.870868 0.870868
0.873877 0.873877 0.873877
0.881765 0.881765 0.881765
0.902741 0.902741 0.902741
0.939845 0.939845 0.939845
0.953958 0.953958 0.953958
0.415198 0.415198 0.415198
0.357560 0.357560 0.357560
0.367298 0.367298 0.367298
0.391127 0.391127 0.391127
0.444985 0.444985 0.444985
0.552771 0.552771 0.552771
0.667017 0.667017 0.667017
0.716243 0.716243 0.716243
0.762828 0.762828 0.762828
0.466490 0.466490 0.466490
0.429098 0.429098 0.429098
0.436813 0.436813 0.436813
0.456877 0.456877 0.456877
0.500661 0.500661 0.500661
0.588296 0.588296 0.588296
0.688581 0.688581 0.688581
0.729491 0.729491 0.729491
0.769358 0.769358 0.769358
0.484534 0.484534 0.484534
0.454197 0.454197 0.454197
0.462608 0.462608 0.462608
0.480793 0.480793 0.480793
0.521060 0.521060 0.521060
0.602606 0.602606 0.602606
0.697429 0.697429 0.697429
0.735075 0.735075 0.735075
0.772154 0.772154 0.772154
0.516177 0.516177 0.516177
0.497478 0.497478 0.497478
0.506071 0.506071 0.506071
0.522247 0.522247 0.522247
0.557731 0.557731 0.557731
0.629119 0.629119 0.629119
0.715274 0.715274 0.715274
0.745990 0.745990 0.745990
0.777989 0.777989 0.777989
0.574442 0.574442 0.574442
0.576898 0.576898 0.576898
0.584879 0.584879 0.584879
0.599639 0.599639 0.599639
0.629386 0.629386 0.629386
0.685384 0.685384 0.685384
0.755857 0.755857 0.755857
0.770548 0.770548 0.770548
0.792272 0.792272 0.792272
0.670230 0.670230 0.670230
0.683427 0.683427 0.683427
0.688738 0.688738 0.688738
0.698561 0.698561 0.698561
0.721465 0.721465 0.721465
0.764006 0.764006 0.764006
0.818077 0.818077 0.818077
0.816769 0.816769 0.816769
0.821715 0.821715 0.821715
0.779805 0.779805 0.779805
0.786777 0.786777 0.786777
0.789833 0.789833 0.789833
0.795821 0.795821 0.795821
0.810765 0.810765 0.810765
0.841591 0.841591 0.841591
0.884621 0.884621 0.884621
0.888989 0.888989 0.888989
0.873404 0.873404 0.873404
0.846295 0.846295 0.846295
0.850121 0.850121 0.850121
0.851778 0.851778 0.851778
0.855147 0.855147 0.855147
0.863618 0.863618 0.863618
0.883805 0.883805 0.883805
0.919722 0.919722 0.919722
0.956154 0.956154 0.956154
0.934592 0.934592 0.934592
0.876865 0.876865 0.876865
0.878148 0.878148 0.878148
0.878709 0.878709 0.878709
0.879894 0.879894 0.879894
0.883168 0.883168 0.883168
0.891298 0.891298 0.891298
0.910814 0.910814 0.910814
0.948072 0.948072 0.948072
0.969597 0.969597 0.969597
0.548809 0.548809 0.548809
0.567242 0.567242 0.567242
0.574784 0.574784 0.574784
0.588584 0.588584 0.588584
0.619286 0.619286 0.619286
0.675436 0.675436 0.675436
0.746619 0.746619 0.746619
0.767327 0.767327 0.767327
0.790826 0.790826 0.790826
0.567026 0.567026 0.567026
0.584336 0.584336 0.584336
0.591453 0.591453 0.591453
0.604671 0.604671 0.604671
0.634103 0.634103 0.634103
0.687892 0.687892 0.687892
0.756261 0.756261 0.756261
0.774854 0.774854 0.774854
0.795529 0.795529 0.795529
0.574428 0.574428 0.574428
0.591320 0.591320 0.591320
0.598193 0.598193 0.598193
0.611063 0.611063 0.611063
0.639868 0.639868 0.639868
0.692654 0.692654 0.692654
0.760277 0.760277 0.760277
0.777909 0.777909 0.777909
0.797586 0.797586 0.797586
0.588650 0.588650 0.588650
0.604527 0.604527 0.604527
0.611009 0.611009 0.611009
0.623435 0.623435 0.623435
0.651001 0.651001 0.651001
0.702172 0.702172 0.702172
0.768042 0.768042 0.768042
0.784077 0.784077 0.784077
0.801800 0.801800 0.801800
0.620445 0.620445 0.620445
0.634497 0.634497 0.634497
0.639930 0.639930 0.639930
0.651769 0.651769 0.651769
0.676532 0.676532 0.676532
0.724301 0.724301 0.724301
0.786134 0.786134 0.786134
0.799579 0.799579 0.799579
0.812192 0.812192 0.812192
0.679000 0.679000 0.679000
0.689614 0.689614 0.689614
0.693838 0.693838 0.693838
0.702341 0.702341 0.702341
0.722748 0.722748 0.722748
0.764172 0.764172 0.764172
0.819615 0.819615 0.819615
0.834539 0.834539 0.834539
0.835387 0.835387 0.835387
0.761648 0.761648 0.761648
0.767122 0.767122 0.767122
0.769671 0.769671 0.769671
0.774871 0.774871 0.774871
0.787828 0.787828 0.787828
0.816914 0.816914 0.816914
0.863704 0.863704 0.863704
0.894161 0.894161 0.894161
0.879099 0.879099 0.879099
0.843054 0.843054 0.843054
0.845802 0.845802 0.845802
0.847040 0.847040 0.847040
0.849571 0.849571 0.849571
0.856273 0.856273 0.856273
0.872855 0.872855 0.872855
0.905055 0.905055 0.905055
0.947160 0.947160 0.947160
0.939621 0.939621 0.939621
0.881897 0.881897 0.881897
0.883199 0.883199 0.883199
0.883768 0.883768 0.883768
0.884955 0.884955 0.884955
0.888114 0.888114 0.888114
0.896381 0.896381 0.896381
0.915809 0.915809 0.915809
0.952762 0.952762 0.952762
0.985866 0.985866 0.985866
0.655421 0.655421 0.655421
0.659756 0.659756 0.659756
0.661672 0.661672 0.661672
0.667080 0.667080 0.667080
0.681877 0.681877 0.681877
0.714643 0.714643 0.714643
0.768849 0.768849 0.768849
0.818284 0.818284 0.818284
0.825816 0.825816 0.825816
0.661863 0.661863 0.661863
0.664738 0.664738 0.664738
0.666733 0.666733 0.666733
0.671809 0.671809 0.671809
0.686315 0.686315 0.686315
0.718218 0.718218 0.718218
0.771957 0.771957 0.771957
0.821556 0.821556 0.821556
0.828495 0.828495 0.828495
0.664479 0.664479 0.664479
0.666740 0.666740 0.666740
0.668898 0.668898 0.668898
0.673833 0.673833 0.673833
0.688221 0.688221 0.688221
0.719771 0.719771 0.719771
0.773205 0.773205 0.773205
0.822979 0.822979 0.822979
0.829662 0.829662 0.829662
0.669536 0.669536 0.669536
0.670974 0.670974 0.670974
0.673311 0.673311 0.673311
0.677961 0.677961 0.677961
0.692107 0.692107 0.692107
0.722980 0.722980 0.722980
0.775786 0.775786 0.775786
0.825925 0.825925 0.825925
0.832082 0.832082 0.832082
0.683226 0.683226 0.683226
0.685593 0.685593 0.685593
0.686925 0.686925 0.686925
0.689986 0.689986 0.689986
0.701493 0.701493 0.701493
0.731392 0.731392 0.731392
0.782548 0.782548 0.782548
0.833725 0.833725 0.833725
0.838468 0.838468 0.838468
0.715346 0.715346 0.715346
0.716620 0.716620 0.716620
0.717231 0.717231 0.717231
0.718439 0.718439 0.718439
0.723786 0.723786 0.723786
0.750688 0.750688 0.750688
0.797949 0.797949 0.797949
0.851414 0.851414 0.851414
0.853729 0.853729 0.853729
0.772665 0.772665 0.772665
0.773989 0.773989 0.773989
0.774564 0.774564 0.774564
0.775804 0.775804 0.775804
0.779075 0.779075 0.779075
0.790827 0.790827 0.790827
0.829390 0.829390 0.829390
0.881476 0.881476 0.881476
0.886684 0.886684 0.886684
0.844806 0.844806 0.844806
0.846159 0.846159 0.846159
0.846801 0.846801 0.846801
0.848123 0.848123 0.848123
0.851583 0.851583 0.851583
0.859763 0.859763 0.859763
0.878128 0.878128 0.878128
0.920787 0.920787 0.920787
0.939819 0.939819 0.939819
0.881758 0.881758 0.881758
0.882963 0.882963 0.882963
0.883520 0.883520 0.883520
0.884681 0.884681 0.884681
0.887785 0.887785 0.887785
0.895506 0.895506 0.895506
0.913410 0.913410 0.913410
0.948720 0.948720 0.948720
0.993304 0.993304 0.993304
