output/AppleLog_display/AppleLog_to_ETERNA_33grid.cube
TITLE "AppleLog_to_ETERNA"
# Input: Apple Log (BT.2020 primaries, D65)
# Output: BT.709 / Gamma 2.2 (display-referred)
# Use: Display LUT for iPhone 15/16 Pro Apple Log footage
# Source: FLog2C_to_ETERNA_65grid_V.1.00.cube
# Generated from Fujifilm GFX ETERNA 55 F-Log2C LUT
LUT_3D_SIZE 33
0.006510 0.006095 0.006119
0.006510 0.006095 0.006119
0.006510 0.006095 0.006119
0.006510 0.006095 0.006119
0.006510 0.006095 0.006119
0.006510 0.006095 0.006119
0.006510 0.006095 0.006119
0.006510 0.006095 0.006119
0.052675 0.008949 0.012158
0.118472 0.009695 0.021632
0.179915 0.018560 0.028092
0.255084 0.022216 0.038907
0.348148 0.038136 0.050735
0.463592 0.057020 0.065923
0.589397 0.084435 0.079400
0.715839 0.111008 0.093349
0.837079 0.148631 0.109450
0.926601 0.192966 0.117971
0.938527 0.238940 0.157826
0.944619 0.288582 0.231199
0.944061 0.327455 0.269674
0.943984 0.328397 0.270514
0.943984 0.328397 0.270514
0.943984 0.328397 0.270514
0.943984 0.328397 0.270514
0.943984 0.328397 0.270514
0.943670 0.344709 0.257041
0.940605 0.373868 0.239224
0.939444 0.403556 0.217884
0.936756 0.433791 0.189839
0.933787 0.465327 0.157293
0.930816 0.497882 0.108042
0.929387 0.531279 0.068104
0.006510 0.006095 0.006119
0.006510 0.006095 0.006119
0.006510 0.006095 0.006119
0.006510 0.006095 0.006119
0.006510 0.006095 0.006119
0.006510 0.006095 0.006119
0.006510 0.006095 0.006119
0.039879 0.007917 0.010514
0.098224 0.010164 0.019017
0.151650 0.014838 0.025012
0.209114 0.018428 0.032152
0.282439 0.025446 0.042362
0.376652 0.041934 0.053274
0.488816 0.062051 0.069651
0.609037 0.088900 0.081054
0.730631 0.115423 0.095583
0.848223 0.152275 0.110687
0.929728 0.196034 0.118040
0.938950 0.241613 0.163542
0.944667 0.291016 0.233728
0.943993 0.328293 0.270421
0.943984 0.328397 0.270514
0.943984 0.328397 0.270514
0.943984 0.328397 0.270514
0.944015 0.328607 0.270327
0.943539 0.346607 0.256962
0.941506 0.370157 0.242337
0.938980 0.394898 0.223662
0.938132 0.420196 0.202459
0.935929 0.446964 0.175465
0.932664 0.476767 0.144489
0.929438 0.507314 0.093161
0.928752 0.538479 0.066375
0.006510 0.006095 0.006119
0.006510 0.006095 0.006119
0.006510 0.006095 0.006119
0.006510 0.006095 0.006119
0.006510 0.006095 0.006119
0.006510 0.006095 0.006119
0.006525 0.006002 0.006064
0.062465 0.009696 0.013444
0.112524 0.009423 0.020929
0.162355 0.017224 0.026028
0.220997 0.019227 0.034047
0.293918 0.028014 0.044049
0.387949 0.043585 0.054532
0.498872 0.064057 0.071137
0.616937 0.090696 0.081720
0.736622 0.117210 0.096488
0.852588 0.154058 0.111167
0.931006 0.197287 0.118069
0.939124 0.242710 0.165885
0.944687 0.292016 0.234767
0.944220 0.326691 0.268810
0.944702 0.326417 0.269333
0.943984 0.328397 0.270514
0.943984 0.328397 0.270514
0.943408 0.338519 0.261683
0.941045 0.359633 0.250689
0.941464 0.378678 0.235499
0.938624 0.403266 0.216763
0.937766 0.426763 0.196417
0.935247 0.452786 0.169810
0.932227 0.481572 0.136481
0.929175 0.511100 0.088623
0.928496 0.541372 0.065679
0.006510 0.006095 0.006119
0.006510 0.006095 0.006119
0.006510 0.006095 0.006119
0.006510 0.006095 0.006119
0.006510 0.006095 0.006119
0.006510 0.006095 0.006119
0.023629 0.006813 0.008345
0.077710 0.010175 0.015915
0.124003 0.010454 0.022205
0.170331 0.018803 0.026816
0.229741 0.019814 0.035441
0.302446 0.029922 0.045304
0.396498 0.045033 0.055829
0.506443 0.065567 0.072255
0.622910 0.092054 0.082223
0.741166 0.118567 0.097175
0.855907 0.155414 0.111532
0.931980 0.198243 0.118090
0.939256 0.243546 0.167673
0.942137 0.269758 0.208933
0.944740 0.293253 0.240122
0.944169 0.320610 0.264006
0.943984 0.328397 0.270514
0.943551 0.332488 0.265416
0.943298 0.349006 0.253892
0.941017 0.367685 0.243807
0.940952 0.385958 0.230079
0.938339 0.409419 0.211422
0.937498 0.431582 0.191985
0.934742 0.457105 0.165616
0.931900 0.485164 0.130494
0.929114 0.513963 0.085871
0.928302 0.543557 0.065153
0.006510 0.006095 0.006119
0.006510 0.006095 0.006119
0.006510 0.006095 0.006119
0.006510 0.006095 0.006119
0.006510 0.006095 0.006119
0.006510 0.006095 0.006119
0.038397 0.007798 0.010323
0.089700 0.010552 0.017859
0.133572 0.011768 0.023198
0.178712 0.018590 0.027932
0.236878 0.020294 0.036579
0.309459 0.031491 0.046335
0.403567 0.046231 0.056901
0.512695 0.066884 0.073027
0.627887 0.093185 0.082642
0.744962 0.119700 0.097748
0.858686 0.156550 0.111837
0.930143 0.190240 0.118730
0.936908 0.216289 0.126392
0.938914 0.244871 0.170010
0.943167 0.273311 0.213575
0.945331 0.303752 0.249691
0.944928 0.324980 0.265852
0.943295 0.340728 0.259804
0.942742 0.357508 0.249198
0.940991 0.374016 0.238459
0.940487 0.391906 0.225698
0.938089 0.414460 0.206830
0.937071 0.436023 0.187401
0.934327 0.460650 0.162172
0.931630 0.488132 0.125548
0.929063 0.516339 0.083585
0.928183 0.545417 0.064868
0.006510 0.006095 0.006119
0.006510 0.006095 0.006119
0.006510 0.006095 0.006119
0.006510 0.006095 0.006119
0.006510 0.006095 0.006119
0.006510 0.006095 0.006119
0.051687 0.008869 0.012031
0.098490 0.010151 0.019052
0.141639 0.012875 0.024034
0.185846 0.018409 0.028881
0.243702 0.020969 0.037489
0.315508 0.032845 0.047224
0.409693 0.047268 0.057830
0.518085 0.068118 0.073474
0.626079 0.092526 0.082762
0.717317 0.112624 0.095720
0.804863 0.138386 0.101961
0.888053 0.166720 0.115226
0.930809 0.198402 0.116564
0.937587 0.228095 0.142925
0.941129 0.259850 0.195160
0.943782 0.293913 0.234183
0.944661 0.328010 0.256574
0.942596 0.348737 0.254761
0.941954 0.364726 0.246264
0.940638 0.380031 0.234985
0.940093 0.396941 0.221948
0.937876 0.418741 0.202930
0.936637 0.439994 0.183159
0.933977 0.463716 0.159111
0.931397 0.490701 0.121266
0.929019 0.518404 0.081595
0.928131 0.547088 0.064804
0.006510 0.006095 0.006119
0.006510 0.006095 0.006119
0.006510 0.006095 0.006119
0.006510 0.006095 0.006119
0.006510 0.006095 0.006119
0.006510 0.006095 0.006119
0.061470 0.009888 0.013162
0.103016 0.009601 0.019722
0.142385 0.013893 0.023642
0.184758 0.017082 0.029404
0.237296 0.022442 0.035962
0.299185 0.028816 0.043715
0.377544 0.041452 0.055675
0.468399 0.059214 0.064141
0.565724 0.076987 0.076494
0.663090 0.100950 0.085755
0.756904 0.123546 0.099209
0.847163 0.152324 0.109268
0.919036 0.184738 0.116689
0.936509 0.216894 0.128236
0.940327 0.250459 0.175419
0.942452 0.291612 0.217105
0.943842 0.332195 0.246593
0.941346 0.356332 0.250100
0.941419 0.370396 0.242709
0.940338 0.385193 0.231998
0.939684 0.401718 0.217856
0.937690 0.422491 0.199513
0.936254 0.443498 0.179414
0.933781 0.466578 0.155055
0.931189 0.492990 0.117452
0.928980 0.520249 0.079816
0.928084 0.548585 0.064747
0.004036 0.020980 0.004554
0.004528 0.030006 0.004128
0.004839 0.033535 0.003996
0.005072 0.036168 0.003897
0.005263 0.038341 0.003815
0.005043 0.039000 0.002908
0.040768 0.033600 0.005560
0.085596 0.027386 0.013923
0.124918 0.026871 0.018357
0.165560 0.024406 0.024895
0.211963 0.024604 0.032680
0.269835 0.026464 0.041733
0.340046 0.039288 0.050197
0.428664 0.047341 0.062054
0.524936 0.067987 0.070356
0.623013 0.091644 0.081911
0.720943 0.113253 0.093627
0.815070 0.141946 0.105384
0.901599 0.176959 0.112851
0.935847 0.213886 0.115371
0.938794 0.252729 0.149804
0.942351 0.294315 0.199402
0.942739 0.336808 0.236510
0.940694 0.362626 0.246279
0.941067 0.375002 0.238594
0.940074 0.389807 0.229304
0.939317 0.406029 0.214170
0.937481 0.425882 0.196275
0.935903 0.446706 0.175985
0.933602 0.469210 0.151329
0.930997 0.495102 0.113932
0.928944 0.521957 0.078168
0.928041 0.549974 0.064694
0.006153 0.066980 0.003764
0.006009 0.077506 0.002128
0.005952 0.081689 0.001477
0.005909 0.084834 0.000988
0.005873 0.087442 0.000582
0.005188 0.082798 0.000305
0.025567 0.072828 0.000419
0.068360 0.065485 0.004076
0.108778 0.063233 0.010282
0.151652 0.062698 0.017022
0.195736 0.058732 0.024225
0.247251 0.060646 0.030795
0.311757 0.062743 0.040293
0.394246 0.072216 0.050735
0.487363 0.082638 0.062252
0.589784 0.100855 0.075568
0.687940 0.120178 0.086600
0.785984 0.147221 0.095243
0.878027 0.182414 0.104872
0.932944 0.219755 0.105688
0.936839 0.260314 0.122223
0.941836 0.298467 0.178003
0.942440 0.340442 0.222000
0.940691 0.369106 0.242378
0.940667 0.380207 0.233931
0.939827 0.395123 0.224208
0.938895 0.411006 0.209921
0.937108 0.429764 0.192095
0.935492 0.450463 0.171966
0.933391 0.472306 0.146949
0.930770 0.497596 0.109774
0.928902 0.523980 0.076214
0.927989 0.551623 0.064631
0.005875 0.112539 0.000442
0.006074 0.118478 0.000273
0.006155 0.120864 0.000205
0.006215 0.122667 0.000154
0.006266 0.124168 0.000111
0.005484 0.117503 0.000347
0.011651 0.108561 0.000540
0.053615 0.105039 0.000537
0.095969 0.101857 0.002007
0.136460 0.098503 0.008472
0.179924 0.097192 0.014654
0.228767 0.096834 0.022336
0.289495 0.097666 0.030801
0.364678 0.102435 0.041492
0.456556 0.108827 0.054519
0.556328 0.123651 0.066261
0.657056 0.139993 0.078687
0.755683 0.165064 0.088417
0.851417 0.195263 0.097575
0.923364 0.231374 0.101744
0.935339 0.270644 0.101497
0.940461 0.305218 0.149383
0.941986 0.344815 0.202200
0.940430 0.376630 0.233407
0.940260 0.388625 0.228099
0.939530 0.401615 0.217997
0.938367 0.417111 0.204661
0.936645 0.434594 0.186897
0.934982 0.455157 0.166932
0.933125 0.476206 0.141436
0.930723 0.500755 0.104582
0.928848 0.526550 0.073728
0.927924 0.553725 0.064551
0.005152 0.158546 0.000060
0.005501 0.163300 0.000052
0.005643 0.165224 0.000049
0.005750 0.166684 0.000047
0.005840 0.167903 0.000045
0.005391 0.155029 0.000143
0.006406 0.145906 0.000023
0.036831 0.141067 0.000002
0.079912 0.136987 0.000243
0.122420 0.131797 0.001134
0.166748 0.130671 0.007374
0.212894 0.128078 0.013810
0.267495 0.129074 0.022821
0.339891 0.132812 0.032258
0.426068 0.138451 0.043609
0.524591 0.149105 0.056827
0.624235 0.164496 0.068834
0.726159 0.183646 0.080582
0.823728 0.210808 0.090187
0.909772 0.245651 0.097284
0.934945 0.284758 0.093676
0.937709 0.315732 0.110550
0.939881 0.352232 0.172754
0.939740 0.385206 0.216495
0.939752 0.398918 0.220997
0.938789 0.410358 0.210427
0.937684 0.424482 0.198131
0.936072 0.440557 0.180489
0.934432 0.460693 0.160784
0.932794 0.481091 0.134539
0.930695 0.504736 0.098048
0.928780 0.529804 0.070577
0.927841 0.556395 0.064449
0.007488 0.206593 0.000688
0.007373 0.211180 0.000692
0.007326 0.213047 0.000693
0.007291 0.214467 0.000695
0.006704 0.208771 0.000507
0.005522 0.190838 0.000016
0.006021 0.181381 0.000405
0.021370 0.176311 0.000448
0.064081 0.173068 0.000244
0.110208 0.167774 0.000507
0.153117 0.164426 0.001292
0.198839 0.163506 0.006202
0.251714 0.163167 0.014030
0.318558 0.165049 0.024117
0.399173 0.169046 0.035118
0.494317 0.177554 0.048272
0.594953 0.188631 0.060532
0.694437 0.205251 0.072042
0.794535 0.230067 0.083368
0.886753 0.262994 0.090815
0.935516 0.300177 0.091984
0.936601 0.330654 0.087066
0.938284 0.362475 0.133387
0.938903 0.394875 0.195114
0.938341 0.412052 0.209467
0.937326 0.422080 0.201262
0.936849 0.433380 0.190235
0.935205 0.448675 0.172390
0.933751 0.467512 0.153215
0.932353 0.487188 0.125831
0.930658 0.509723 0.089860
0.928706 0.533904 0.067112
0.927737 0.559776 0.064320
0.006909 0.261344 0.000908
0.007064 0.265762 0.000883
0.007128 0.267567 0.000873
0.007176 0.268943 0.000865
0.006597 0.248891 0.000084
0.006388 0.232919 0.000178
0.005869 0.222409 0.000000
0.012772 0.216430 0.000072
0.048811 0.210224 0.000290
0.096045 0.205898 0.000293
0.140940 0.201533 0.000080
0.186631 0.198757 0.000817
0.237450 0.198175 0.006567
0.300274 0.197826 0.016416
0.377379 0.200378 0.027267
0.466757 0.204820 0.039891
0.564533 0.217165 0.051563
0.665362 0.232188 0.063759
0.765391 0.255739 0.074926
0.861275 0.285636 0.083822
0.931768 0.319811 0.088600
0.936918 0.351859 0.084736
0.935387 0.379066 0.097319
0.936425 0.408430 0.160911
0.937279 0.426765 0.196821
0.936563 0.435855 0.188127
0.935598 0.446176 0.178844
0.934039 0.459067 0.162425
0.932917 0.475828 0.143993
0.931378 0.494993 0.113012
0.930612 0.515926 0.079670
0.928683 0.539045 0.066023
0.927606 0.564035 0.064158
0.007335 0.328940 0.000693
0.007270 0.332979 0.000668
0.007246 0.334751 0.000647
0.007126 0.322267 0.000678
0.006533 0.294989 0.000126
0.006188 0.278722 0.000118
0.007124 0.266511 0.000024
0.006338 0.261470 0.000002
0.032167 0.256103 0.000174
0.084960 0.248997 0.000165
0.130858 0.245143 0.000547
0.174912 0.239679 0.000147
0.225515 0.237180 0.001575
0.283972 0.236738 0.007274
0.356853 0.238361 0.017619
0.443465 0.242728 0.029900
0.537831 0.251130 0.041710
0.636923 0.263355 0.054530
0.736997 0.283144 0.065134
0.833718 0.311896 0.074616
0.915489 0.345001 0.082527
0.933873 0.380208 0.081031
0.932503 0.400710 0.078511
0.933529 0.424953 0.117314
0.935989 0.444042 0.180224
0.935700 0.452005 0.172170
0.934284 0.461198 0.163284
0.932999 0.472103 0.146861
0.931731 0.487124 0.125033
0.930182 0.504532 0.097350
0.930423 0.523659 0.069925
0.928653 0.545442 0.064670
0.927443 0.569372 0.063954
0.006485 0.412029 0.000072
0.006464 0.415701 0.000063
0.006455 0.417210 0.000060
0.006407 0.371673 0.000001
0.007158 0.346299 0.000147
0.006919 0.329152 0.000104
0.006604 0.320060 0.000961
0.006344 0.312881 0.000485
0.026639 0.306475 0.000660
0.071277 0.300682 0.000283
0.120066 0.293634 0.000398
0.165891 0.288279 0.000612
0.215474 0.283550 0.000069
0.271596 0.282297 0.000814
0.339180 0.281932 0.007547
0.422719 0.284826 0.019226
0.513811 0.291359 0.031475
0.610309 0.302261 0.043635
0.708863 0.317942 0.055040
0.805894 0.343234 0.065389
0.894482 0.374674 0.073675
0.933173 0.410922 0.077758
0.931419 0.429088 0.075786
0.930658 0.446865 0.083701
0.933065 0.464904 0.141364
0.933618 0.471004 0.152236
0.933049 0.478416 0.140636
0.932137 0.488121 0.124763
0.930409 0.500641 0.102503
0.929308 0.515932 0.082448
0.929748 0.533385 0.067708
0.928613 0.553336 0.063005
0.927341 0.576027 0.063417
0.007845 0.506854 0.000630
0.007834 0.510211 0.000693
0.007704 0.464504 0.000434
0.006978 0.427873 0.000392
0.006960 0.406585 0.000277
0.006310 0.391202 0.000106
0.006514 0.382286 0.000224
0.007311 0.375730 0.000763
0.020053 0.368233 0.000797
0.055234 0.360081 0.000545
0.108991 0.352465 0.000207
0.156669 0.345564 0.000058
0.204959 0.339833 0.000121
0.259656 0.336495 0.000078
0.327204 0.331931 0.001177
0.405269 0.334229 0.008092
0.494024 0.338207 0.020938
0.588869 0.348508 0.033363
0.684449 0.362020 0.044735
0.779037 0.383689 0.054491
0.869409 0.411033 0.065029
0.930275 0.443953 0.073751
0.930254 0.464389 0.072161
0.929886 0.474265 0.070560
0.930124 0.488767 0.088249
0.931473 0.493332 0.115050
0.929864 0.500012 0.106066
0.930134 0.506678 0.093727
0.929784 0.517105 0.077191
0.929093 0.529322 0.070240
0.928926 0.545134 0.064996
0.928397 0.563472 0.062090
0.927228 0.584243 0.062711
0.007882 0.609685 0.000860
0.007888 0.571998 0.000124
0.008711 0.518343 0.000079
0.007609 0.489377 0.000276
0.007547 0.471158 0.000284
0.007502 0.459668 0.000299
0.007339 0.451170 0.000268
0.007191 0.443993 0.000255
0.017289 0.436970 0.000326
0.044357 0.429522 0.000299
0.098941 0.421936 0.000069
0.148184 0.413594 0.000110
0.196311 0.407166 0.000094
0.250650 0.401140 0.000012
0.314367 0.396097 0.000018
0.391671 0.395055 0.001546
0.477124 0.397052 0.008850
0.570540 0.402845 0.020177
0.664429 0.414362 0.032514
0.755617 0.431658 0.043100
0.842868 0.455339 0.055751
0.916614 0.482724 0.068378
0.928893 0.504371 0.070451
0.928841 0.508786 0.067955
0.929421 0.516068 0.069810
0.929137 0.520348 0.076767
0.929060 0.523750 0.070079
0.929096 0.528198 0.072771
0.928896 0.536219 0.064987
0.928568 0.546235 0.064694
0.928116 0.559934 0.064732
0.927969 0.576198 0.062087
0.927091 0.594282 0.061842
0.010054 0.706524 0.000385
0.008222 0.612700 0.000396
0.007303 0.576398 0.000297
0.008081 0.555385 0.000169
0.007778 0.541907 0.000321
0.007254 0.531989 0.000456
0.007988 0.524433 0.000205
0.009083 0.518060 0.000019
0.013666 0.512068 0.000018
0.035342 0.505229 0.000061
0.089480 0.497697 0.000202
0.141511 0.489408 0.000580
0.190555 0.482240 0.000247
0.242400 0.475340 0.000038
0.306524 0.468479 0.000129
0.379725 0.465850 0.000110
0.464799 0.464973 0.001309
0.553499 0.467199 0.008061
0.645650 0.475468 0.020419
0.733794 0.486994 0.032210
0.817628 0.505148 0.047174
0.895778 0.526991 0.059395
0.928076 0.550221 0.064866
0.928581 0.549076 0.065971
0.928612 0.549765 0.064954
0.927762 0.549517 0.066432
0.928920 0.549702 0.064649
0.928174 0.552519 0.065456
0.928042 0.558178 0.063491
0.927804 0.566169 0.063071
0.927408 0.577187 0.064214
0.927574 0.591098 0.061432
0.926728 0.606913 0.062306
0.008799 0.754968 0.000566
0.008849 0.661716 0.000051
0.008888 0.638517 0.000171
0.009131 0.624135 0.000195
0.007934 0.615018 0.000143
0.008015 0.607886 0.000460
0.008237 0.601939 0.000785
0.009016 0.596576 0.000593
0.009798 0.590509 0.000247
0.036275 0.584683 0.000157
0.087388 0.578978 0.000313
0.135543 0.571218 0.000734
0.184540 0.563615 0.000425
0.238625 0.555631 0.000043
0.299472 0.548227 0.000034
0.371400 0.542033 0.000012
0.454117 0.538470 0.000089
0.541262 0.538407 0.000808
0.627803 0.542782 0.007953
0.714023 0.549932 0.021487
0.796623 0.561507 0.038990
0.874526 0.576172 0.052797
0.926036 0.595179 0.062355
0.926916 0.596421 0.062220
0.927406 0.589844 0.061994
0.927154 0.583591 0.063399
0.927164 0.580584 0.063651
0.927254 0.580356 0.062885
0.927548 0.583201 0.062914
0.926911 0.588286 0.061723
0.927198 0.596479 0.062327
0.927275 0.608241 0.059792
0.926270 0.622044 0.063081
0.009392 0.771341 0.000886
0.009303 0.717732 0.000251
0.009029 0.703591 0.000341
0.008890 0.694119 0.000338
0.008751 0.687739 0.000228
0.008646 0.682510 0.000137
0.009935 0.677848 0.000376
0.011144 0.673708 0.000615
0.015694 0.669020 0.000812
0.045712 0.663348 0.000431
0.081991 0.656735 0.000050
0.133008 0.650753 0.000533
0.184458 0.643557 0.000533
0.236692 0.635690 0.000208
0.296251 0.628407 0.000138
0.367085 0.621488 0.000036
0.446308 0.615680 0.000020
0.529130 0.612885 0.000106
0.613908 0.610713 0.001204
0.696074 0.614692 0.013717
0.776559 0.619278 0.030892
0.853690 0.629356 0.046507
0.921040 0.643025 0.057983
0.925906 0.646041 0.059452
0.925510 0.635563 0.059647
0.925517 0.623919 0.061901
0.926624 0.613923 0.061933
0.926369 0.611667 0.062367
0.926314 0.612096 0.061314
0.926200 0.614914 0.061080
0.926469 0.620364 0.061489
0.926677 0.628720 0.060691
0.926584 0.639771 0.061955
0.009376 0.805742 0.000407
0.009403 0.775785 0.000330
0.009184 0.766504 0.000624
0.009158 0.760580 0.000652
0.009118 0.755505 0.000590
0.009067 0.750827 0.000445
0.009025 0.746802 0.000319
0.013587 0.743411 0.000231
0.029008 0.740001 0.000192
0.047615 0.735835 0.000145
0.080630 0.731193 0.000106
0.133114 0.726112 0.000078
0.183777 0.719868 0.000079
0.235175 0.712666 0.000101
0.292836 0.705220 0.000118
0.361779 0.698059 0.000017
0.439829 0.690293 0.000437
0.520946 0.684867 0.000212
0.601469 0.680405 0.000288
0.682748 0.678730 0.006761
0.759437 0.680510 0.023703
0.834368 0.685227 0.040013
0.902035 0.692160 0.051848
0.925685 0.697270 0.056939
0.925763 0.684480 0.057413
0.925797 0.668792 0.057434
0.926281 0.652008 0.058538
0.925738 0.646291 0.059841
0.925624 0.644234 0.060149
0.925889 0.643325 0.059505
0.925418 0.646953 0.059653
0.926054 0.652679 0.059278
0.926441 0.660725 0.060092
0.011578 0.849289 0.000620
0.009499 0.831031 0.000053
0.009486 0.824679 0.000058
0.009403 0.820165 0.000052
0.009334 0.816565 0.000047
0.012475 0.813603 0.000051
0.019046 0.811108 0.000064
0.024956 0.808854 0.000075
0.031753 0.806247 0.000089
0.050228 0.802955 0.000103
0.091959 0.798788 0.000116
0.142339 0.793753 0.000132
0.185988 0.788730 0.000123
0.236034 0.782642 0.000143
0.294925 0.774475 0.000300
0.361001 0.766724 0.000084
0.433910 0.759507 0.000011
0.512879 0.752282 0.000057
0.592457 0.745489 0.000153
0.670303 0.742408 0.002554
0.744395 0.740942 0.016162
0.816799 0.740503 0.032334
0.885329 0.742917 0.046814
0.925644 0.745975 0.056728
0.926336 0.734624 0.055902
0.926793 0.715351 0.056937
0.925084 0.694748 0.056281
0.925702 0.682369 0.058483
0.926267 0.677836 0.059614
0.925271 0.676065 0.057252
0.926107 0.676321 0.058196
0.926054 0.679386 0.057094
0.925872 0.684874 0.057808
0.011562 0.894472 0.000274
0.011326 0.881459 0.000327
0.011629 0.877048 0.000542
0.013964 0.873910 0.000589
0.016017 0.871384 0.000613
0.017675 0.869239 0.000634
0.019057 0.867359 0.000652
0.029606 0.865573 0.000634
0.051760 0.863414 0.000576
0.079393 0.860727 0.000504
0.113593 0.857410 0.000414
0.152230 0.853193 0.000350
0.196295 0.847954 0.000314
0.245720 0.842035 0.000236
0.298323 0.835654 0.000077
0.361004 0.829646 0.000038
0.431344 0.822426 0.000404
0.507151 0.814670 0.000618
0.583454 0.807968 0.000189
0.658854 0.802671 0.000017
0.731771 0.798299 0.010728
0.799835 0.795242 0.025840
0.866519 0.792886 0.041340
0.923243 0.792882 0.054858
0.926867 0.785108 0.054304
0.927037 0.764071 0.055702
0.926947 0.740253 0.055729
0.925770 0.721088 0.056208
0.925594 0.714468 0.056957
0.926350 0.710142 0.056524
0.926150 0.708054 0.057269
0.926590 0.708461 0.055207
0.925671 0.711474 0.056673
0.015049 0.932755 0.000248
0.014818 0.924614 0.000333
0.014757 0.921538 0.000374
0.015546 0.919275 0.000401
0.032467 0.917396 0.000328
0.046916 0.915788 0.000265
0.059627 0.914371 0.000210
0.071230 0.913074 0.000158
0.084777 0.911556 0.000098
0.102144 0.909632 0.000027
0.131628 0.906823 0.000049
0.168169 0.903346 0.000077
0.213064 0.899082 0.000112
0.256735 0.894437 0.000110
0.307267 0.888988 0.000100
0.364655 0.883240 0.000041
0.430592 0.876920 0.000181
0.503040 0.870197 0.000481
0.574938 0.863245 0.000217
0.646367 0.857367 0.000485
0.716586 0.852337 0.006535
0.784516 0.847174 0.021591
0.850593 0.842034 0.036923
0.908198 0.839887 0.048813
0.926349 0.833777 0.054997
0.926320 0.812472 0.054775
0.925731 0.786992 0.056773
0.927060 0.762535 0.055660
0.926301 0.751504 0.057064
0.927183 0.746816 0.056117
0.926753 0.742015 0.056461
0.927349 0.739863 0.055050
0.925799 0.740379 0.056813
0.019562 0.969636 0.000393
0.038424 0.963796 0.000494
0.052908 0.961616 0.000613
0.063601 0.960000 0.000700
0.072348 0.958674 0.000770
0.081958 0.957469 0.000806
0.096420 0.956223 0.000770
0.109734 0.955077 0.000737
0.125416 0.953727 0.000699
0.145203 0.952024 0.000651
0.170039 0.949887 0.000593
0.201006 0.947223 0.000522
0.232740 0.944352 0.000376
0.271294 0.940869 0.000193
0.317244 0.936818 0.000103
0.369784 0.932443 0.000405
0.430620 0.927187 0.000407
0.499082 0.921069 0.000021
0.567909 0.914633 0.000014
0.637050 0.908530 0.000387
0.704751 0.902716 0.002192
0.769367 0.897567 0.015670
0.833047 0.891441 0.032185
0.894161 0.885700 0.046167
0.927589 0.877673 0.053881
0.927586 0.858374 0.055221
0.927532 0.834366 0.054163
0.926666 0.807481 0.052644
0.926770 0.790235 0.056080
0.926628 0.783672 0.053789
0.926454 0.777675 0.056739
0.926847 0.773675 0.054514
0.926289 0.771686 0.055809
0.022018 0.997993 0.000073
0.045642 0.995765 0.000017
0.074706 0.994209 0.000024
0.096403 0.993047 0.000030
0.114303 0.992090 0.000035
0.129787 0.991262 0.000040
0.143561 0.990525 0.000044
0.156261 0.989847 0.000048
0.171245 0.989046 0.000053
0.186513 0.987961 0.000087
0.204909 0.986578 0.000135
0.228036 0.984852 0.000196
0.256935 0.982713 0.000271
0.292559 0.980092 0.000350
0.332303 0.976976 0.000218
0.380479 0.973221 0.000057
0.435148 0.969444 0.000066
0.497855 0.965257 0.000148
0.561566 0.959551 0.000041
0.626233 0.953768 0.000101
0.690631 0.947811 0.001982
0.754353 0.941288 0.012708
0.815705 0.934207 0.026622
0.872987 0.926352 0.041675
0.919060 0.917262 0.052697
0.929521 0.901704 0.054109
0.928447 0.878619 0.053870
0.927232 0.853252 0.054604
0.927368 0.830106 0.054891
0.928029 0.821696 0.053781
0.926796 0.814554 0.055541
0.927271 0.809184 0.054424
0.927528 0.804848 0.055283
0.041363 0.999859 0.000283
0.052470 0.999851 0.000333
0.071393 0.999850 0.000394
0.089359 0.999849 0.000450
0.104291 0.999848 0.000497
0.117289 0.999848 0.000538
0.128916 0.999848 0.000575
0.139690 0.999848 0.000610
0.152468 0.999847 0.000650
0.168725 0.999847 0.000703
0.189340 0.999847 0.000769
0.215373 0.999847 0.000853
0.239019 0.999504 0.000710
0.267936 0.999065 0.000515
0.303700 0.998537 0.000273
0.346401 0.998028 0.000092
0.395372 0.997731 0.000169
0.452775 0.997327 0.000304
0.515764 0.996526 0.000649
0.579809 0.993033 0.000791
