output/AppleLog_display/AppleLog_to_ACROS_33grid.cube
TITLE "AppleLog_to_ACROS"
# Input: Apple Log (BT.2020 primaries, D65)
# Output: BT.709 / Gamma 2.2 (display-referred)
# Use: Display LUT for iPhone 15/16 Pro Apple Log footage
# Source: FLog2C_to_ACROS_65grid_V.1.00.cube
# Generated from Fujifilm GFX ETERNA 55 F-Log2C LUT
LUT_3D_SIZE 5
0.000105 0.000105 0.000105
0.005810 0.005810 0.005810
0.318155 0.318155 0.318155
0.558594 0.558594 0.558594
0.680805 0.680805 0.680805
0.016933 0.016933 0.016933
0.030940 0.030940 0.030940
0.244433 0.244433 0.244433
0.596343 0.596343 0.596343
0.690883 0.690883 0.690883
0.370168 0.370168 0.370168
0.270283 0.270283 0.270283
0.362711 0.362711 0.362711
0.659556 0.659556 0.659556
0.712081 0.712081 0.712081
0.697648 0.697648 0.697648
0.708940 0.708940 0.708940
0.733648 0.733648 0.733648
0.817806 0.817806 0.817806
0.793401 0.793401 0.793401
0.841830 0.841830 0.841830
0.843978 0.843978 0.843978
0.849003 0.849003 0.849003
0.879924 0.879924 0.879924
0.922660 0.922660 0.922660
0.004480 0.004480 0.004480
0.011291 0.011291 0.011291
0.305437 0.305437 0.305437
0.558594 0.558594 0.558594
0.687114 0.687114 0.687114
0.047274 0.047274 0.047274
0.051666 0.051666 0.051666
0.235496 0.235496 0.235496
0.607213 0.607213 0.607213
0.697868 0.697868 0.697868
0.439871 0.439871 0.439871
0.315886 0.315886 0.315886
0.388264 0.388264 0.388264
0.667211 0.667211 0.667211
0.721862 0.721862 0.721862
0.742551 0.742551 0.742551
0.752195 0.752195 0.752195
0.772180 0.772180 0.772180
0.847695 0.847695 0.847695
0.822591 0.822591 0.822591
0.848709 0.848709 0.848709
0.850751 0.850751 0.850751
0.855630 0.855630 0.855630
0.885714 0.885714 0.885714
0.930203 0.930203 0.930203
0.034959 0.034959 0.034959
0.046807 0.046807 0.046807
0.297943 0.297943 0.297943
0.581666 0.581666 0.581666
0.721711 0.721711 0.721711
0.172518 0.172518 0.172518
0.130121 0.130121 0.130121
0.272086 0.272086 0.272086
0.636416 0.636416 0.636416
0.732772 0.732772 0.732772
0.550367 0.550367 0.550367
0.429298 0.429298 0.429298
0.479032 0.479032 0.479032
0.698277 0.698277 0.698277
0.756146 0.756146 0.756146
0.774654 0.774654 0.774654
0.785030 0.785030 0.785030
0.806299 0.806299 0.806299
0.876679 0.876679 0.876679
0.848921 0.848921 0.848921
0.858373 0.858373 0.858373
0.860059 0.860059 0.860059
0.864354 0.864354 0.864354
0.894429 0.894429 0.894429
0.941064 0.941064 0.941064
0.415198 0.415198 0.415198
0.367298 0.367298 0.367298
0.444985 0.444985 0.444985
0.667017 0.667017 0.667017
0.762828 0.762828 0.762828
0.484534 0.484534 0.484534
0.462608 0.462608 0.462608
0.521060 0.521060 0.521060
0.697429 0.697429 0.697429
0.772154 0.772154 0.772154
0.574442 0.574442 0.574442
0.584879 0.584879 0.584879
0.629386 0.629386 0.629386
0.755857 0.755857 0.755857
0.792272 0.792272 0.792272
0.779805 0.779805 0.779805
0.789833 0.789833 0.789833
0.810765 0.810765 0.810765
0.884621 0.884621 0.884621
0.873404 0.873404 0.873404
0.876865 0.876865 0.876865
0.878709 0.878709 0.878709
0.883168 0.883168 0.883168
0.910814 0.910814 0.910814
0.969597 0.969597 0.969597
0.655421 0.655421 0.655421
0.661672 0.661672 0.661672
0.681877 0.681877 0.681877
0.768849 0.768849 0.768849
0.825816 0.825816 0.825816
0.664479 0.664479 0.664479
0.668898 0.668898 0.668898
0.688221 0.688221 0.688221
0.773205 0.773205 0.773205
0.829662 0.829662 0.829662
0.683226 0.683226 0.683226
0.686925 0.686925 0.686925
0.701493 0.701493 0.701493
0.782548 0.782548 0.782548
0.838468 0.838468 0.838468
0.772665 0.772665 0.772665
0.774564 0.774564 0.774564
0.779075 0.779075 0.779075
0.829390 0.829390 0.829390
0.886684 0.886684 0.886684
0.881758 0.881758 0.881758
0.883520 0.883520 0.883520
0.887785 0.887785 0.887785
0.913410 0.913410 0.913410
0.993304 0.993304 0.993304
