output/AppleLog_display/AppleLog_to_PROVIA_33grid.cube
TITLE "AppleLog_to_PROVIA"
# Input: Apple Log (BT.2020 primaries, D65)
# Output: BT.709 / Gamma 2.2 (display-referred)
# Use: Display LUT for iPhone 15/16 Pro Apple Log footage
# Source: FLog2C_to_PROVIA_65grid_V.1.00.cube
# Generated from Fujifilm GFX ETERNA 55 F-Log2C LUT
LUT_3D_SIZE 33
0.000459 0.000290 0.000061
0.000459 0.000290 0.000061
0.000459 0.000290 0.000061
0.000459 0.000290 0.000061
0.000459 0.000290 0.000061
0.000459 0.000290 0.000061
0.000459 0.000290 0.000061
0.000459 0.000290 0.000061
0.029907 0.003138 0.000558
0.090789 0.003943 0.010416
0.171723 0.008689 0.014924
0.283964 0.008989 0.030981
0.410323 0.013538 0.047816
0.558355 0.016512 0.072398
0.715732 0.020776 0.108683
0.863777 0.029130 0.169320
0.989757 0.044155 0.264213
0.999337 0.071879 0.375196
0.999562 0.123259 0.447384
0.999261 0.196551 0.465157
0.999999 0.255824 0.480294
1.000000 0.257130 0.480656
1.000000 0.257130 0.480656
1.000000 0.257130 0.480656
1.000000 0.257130 0.480656
1.000000 0.257130 0.480656
0.999588 0.278967 0.462041
0.999304 0.315586 0.430683
0.999175 0.352298 0.398067
0.999391 0.389901 0.364116
0.999857 0.428642 0.326216
0.999728 0.467912 0.284156
0.999571 0.509318 0.235445
0.000459 0.000290 0.000061
0.000459 0.000290 0.000061
0.000459 0.000290 0.000061
0.000459 0.000290 0.000061
0.000459 0.000290 0.000061
0.000459 0.000290 0.000061
0.000459 0.000290 0.000061
0.022204 0.002006 0.000606
0.069168 0.003208 0.007817
0.129256 0.006578 0.012187
0.216348 0.007925 0.022604
0.324614 0.009623 0.038107
0.447088 0.014061 0.053744
0.589572 0.016803 0.078741
0.739713 0.021327 0.116938
0.880349 0.030944 0.180377
0.999940 0.045589 0.273446
0.999214 0.074272 0.383708
0.999577 0.127090 0.448348
0.999329 0.200430 0.466111
1.000000 0.256985 0.480616
1.000000 0.257130 0.480656
1.000000 0.257130 0.480656
1.000000 0.257130 0.480656
0.999985 0.257379 0.480463
0.999797 0.281638 0.459803
0.999622 0.312186 0.435680
0.999898 0.341567 0.408559
0.999277 0.373145 0.379965
0.999623 0.406861 0.348667
0.999690 0.443106 0.312094
0.999724 0.479349 0.271938
0.999458 0.518183 0.224592
0.000459 0.000290 0.000061
0.000459 0.000290 0.000061
0.000459 0.000290 0.000061
0.000459 0.000290 0.000061
0.000459 0.000290 0.000061
0.000459 0.000290 0.000061
0.000466 0.000192 0.000037
0.036042 0.003901 0.000707
0.084414 0.003659 0.009794
0.145046 0.008098 0.011954
0.233632 0.008231 0.024172
0.339672 0.010549 0.039449
0.461674 0.014337 0.056071
0.602017 0.016920 0.081270
0.749359 0.021549 0.120258
0.887060 0.031679 0.184855
0.999940 0.046603 0.277623
0.999163 0.075249 0.387186
0.999583 0.128660 0.448744
0.999357 0.202024 0.466502
0.999990 0.254766 0.480329
0.999990 0.254510 0.480362
1.000000 0.257130 0.480656
1.000000 0.257130 0.480656
0.999570 0.269761 0.469146
0.999910 0.297017 0.446748
0.999240 0.323263 0.425024
0.999949 0.350960 0.399710
0.999460 0.381530 0.372117
0.999586 0.413846 0.341962
0.999550 0.448887 0.305742
0.999637 0.483903 0.266493
0.999412 0.521743 0.220230
0.000459 0.000290 0.000061
0.000459 0.000290 0.000061
0.000459 0.000290 0.000061
0.000459 0.000290 0.000061
0.000459 0.000290 0.000061
0.000459 0.000290 0.000061
0.011882 0.000889 0.000430
0.049564 0.003386 0.003999
0.096746 0.004292 0.010820
0.156870 0.009085 0.012038
0.246351 0.008456 0.025327
0.350860 0.011237 0.040447
0.472731 0.014638 0.057801
0.611385 0.017007 0.083174
0.756651 0.021717 0.122768
0.892151 0.032236 0.188252
0.999940 0.047375 0.280800
0.999125 0.075995 0.389837
0.999588 0.129858 0.449046
0.999671 0.168225 0.458746
0.999941 0.201627 0.470829
0.999987 0.245530 0.478360
1.000000 0.257130 0.480656
0.999483 0.262591 0.476040
0.999790 0.283412 0.456516
0.999892 0.306875 0.438640
0.999205 0.332283 0.416669
0.999897 0.358717 0.392577
0.999596 0.387684 0.366354
0.999558 0.419023 0.336990
0.999446 0.453208 0.300995
0.999529 0.487331 0.262117
0.999377 0.524433 0.216934
0.000459 0.000290 0.000061
0.000459 0.000290 0.000061
0.000459 0.000290 0.000061
0.000459 0.000290 0.000061
0.000459 0.000290 0.000061
0.000459 0.000290 0.000061
0.021312 0.001875 0.000612
0.060198 0.002981 0.006587
0.107052 0.004896 0.011518
0.169859 0.008739 0.014562
0.256732 0.008639 0.026269
0.360059 0.011802 0.041267
0.481874 0.014887 0.059232
0.619189 0.017171 0.084835
0.762728 0.021856 0.124860
0.896404 0.032702 0.191090
0.999940 0.048021 0.283459
0.999304 0.069401 0.368605
0.999855 0.095414 0.424759
0.999768 0.129509 0.450361
0.999714 0.172360 0.459367
0.999890 0.220187 0.473855
0.999622 0.252677 0.477503
0.999680 0.273718 0.466839
0.999911 0.294016 0.448992
0.999869 0.314666 0.432216
0.999206 0.339612 0.409910
0.999784 0.365734 0.386238
0.999652 0.393019 0.361227
0.999536 0.423273 0.332908
0.999361 0.456778 0.297074
0.999440 0.490176 0.258486
0.999349 0.526727 0.214026
0.000459 0.000290 0.000061
0.000459 0.000290 0.000061
0.000459 0.000290 0.000061
0.000459 0.000290 0.000061
0.000459 0.000290 0.000061
0.000459 0.000290 0.000061
0.029313 0.003051 0.000562
0.069452 0.003216 0.007853
0.115740 0.005405 0.012107
0.180916 0.008445 0.016711
0.266889 0.008778 0.027885
0.367994 0.012290 0.041975
0.489798 0.015103 0.060472
0.626014 0.017444 0.086396
0.760698 0.021493 0.124173
0.865226 0.028821 0.174178
0.959217 0.039335 0.234052
0.998721 0.053439 0.311761
0.999753 0.075977 0.385277
0.999712 0.108233 0.440074
0.999712 0.151314 0.454548
0.999825 0.204207 0.467097
0.999707 0.257004 0.466578
0.999814 0.283997 0.458031
0.999960 0.302704 0.444385
0.999670 0.322607 0.425235
0.999221 0.345779 0.404238
0.999688 0.371688 0.380855
0.999683 0.397692 0.356698
0.999517 0.426960 0.329345
0.999287 0.459870 0.293680
0.999363 0.492649 0.255330
0.999326 0.528793 0.211294
0.000459 0.000290 0.000061
0.000459 0.000290 0.000061
0.000459 0.000290 0.000061
0.000459 0.000290 0.000061
0.000459 0.000290 0.000061
0.000459 0.000290 0.000061
0.035232 0.004040 0.000809
0.074515 0.003367 0.008162
0.116760 0.006020 0.011565
0.180398 0.007216 0.017928
0.256659 0.009983 0.027093
0.345027 0.010734 0.037544
0.450280 0.014456 0.053604
0.566027 0.016696 0.071915
0.685728 0.019139 0.100834
0.805650 0.024724 0.139142
0.911425 0.033190 0.199879
0.996139 0.047114 0.272229
0.999479 0.065594 0.353597
0.999578 0.095518 0.421873
0.999281 0.137983 0.448705
0.999831 0.200098 0.453848
0.999745 0.261945 0.456067
0.999757 0.293060 0.449883
0.999885 0.310337 0.438056
0.999498 0.329425 0.419244
0.999418 0.351175 0.399527
0.999604 0.376901 0.376139
0.999711 0.401814 0.352704
0.999513 0.430599 0.325516
0.999222 0.462623 0.290658
0.999294 0.494858 0.252509
0.999306 0.530644 0.208848
0.000031 0.010815 0.000013
0.000182 0.016335 0.000262
0.000252 0.018428 0.000381
0.000304 0.019989 0.000469
0.000346 0.021278 0.000542
0.000560 0.021544 0.000468
0.021018 0.018749 0.000485
0.053045 0.014335 0.000023
0.094952 0.013712 0.005423
0.149168 0.013130 0.010126
0.219553 0.012613 0.019701
0.307933 0.009863 0.035795
0.400252 0.014746 0.046179
0.513830 0.014827 0.064448
0.634790 0.018623 0.087212
0.757388 0.022225 0.122625
0.872317 0.028146 0.176484
0.973540 0.042353 0.245077
0.999665 0.061822 0.323366
0.999648 0.094816 0.399204
0.999341 0.141793 0.435861
0.999795 0.203355 0.440856
0.999736 0.266920 0.446282
0.999709 0.300923 0.443353
0.999715 0.317327 0.430251
0.999346 0.335520 0.413890
0.999596 0.356045 0.395279
0.999536 0.381489 0.371934
0.999737 0.405587 0.349050
0.999510 0.433947 0.321997
0.999161 0.465165 0.287869
0.999230 0.496904 0.249899
0.999288 0.532362 0.206578
0.000536 0.036415 0.000130
0.001000 0.043322 0.000458
0.001185 0.046067 0.000589
0.001323 0.048130 0.000687
0.001438 0.049842 0.000768
0.000319 0.045645 0.000163
0.007176 0.040129 0.000024
0.034368 0.036806 0.000208
0.072518 0.035615 0.000435
0.121356 0.034514 0.000243
0.189383 0.032323 0.004508
0.269494 0.031803 0.010912
0.360973 0.030254 0.027621
0.469250 0.031026 0.042905
0.588915 0.029943 0.066321
0.715946 0.033138 0.096531
0.833369 0.039808 0.143513
0.943257 0.052338 0.205770
0.996622 0.072985 0.284399
0.999871 0.107747 0.363516
0.999665 0.152635 0.416838
0.999599 0.208248 0.425052
0.999712 0.270835 0.433467
0.999669 0.309637 0.436989
0.999522 0.325235 0.421391
0.999437 0.342212 0.407781
0.999802 0.361670 0.390379
0.999481 0.386353 0.367308
0.999767 0.410005 0.344772
0.999506 0.437886 0.317856
0.999090 0.468167 0.284576
0.999154 0.499327 0.246805
0.999265 0.534401 0.203883
0.001872 0.071420 0.000178
0.001744 0.077367 0.000337
0.001693 0.079756 0.000401
0.001654 0.081561 0.000449
0.001621 0.083064 0.000489
0.000983 0.075961 0.000619
0.001282 0.068117 0.000007
0.015787 0.064772 0.000013
0.052608 0.060987 0.000029
0.096640 0.059270 0.000422
0.160137 0.057733 0.000571
0.236540 0.056803 0.000549
0.326815 0.055331 0.004881
0.428178 0.054756 0.017110
0.548455 0.054762 0.039381
0.674803 0.058442 0.065144
0.796419 0.064893 0.103608
0.909549 0.076761 0.163642
0.990057 0.096323 0.237182
0.999818 0.129637 0.315847
0.999930 0.167758 0.389009
0.999392 0.216387 0.404315
0.999641 0.275550 0.416962
0.999524 0.319595 0.425994
0.999581 0.334984 0.412465
0.999547 0.350376 0.400334
0.999940 0.369055 0.383845
0.999411 0.392405 0.361555
0.999806 0.415545 0.339402
0.999500 0.442851 0.312641
0.999171 0.472185 0.279907
0.999057 0.502406 0.242875
0.999237 0.537000 0.200449
0.002437 0.116965 0.000034
0.002443 0.122360 0.000024
0.002446 0.124544 0.000019
0.002447 0.126201 0.000016
0.002449 0.127584 0.000014
0.001505 0.113490 0.000243
0.001160 0.101883 0.000033
0.003782 0.096960 0.000663
0.029343 0.093769 0.000181
0.076070 0.089555 0.000043
0.130553 0.088828 0.000793
0.204789 0.086862 0.000408
0.290602 0.085649 0.000017
0.391709 0.085314 0.000584
0.507402 0.084673 0.008281
0.632410 0.087408 0.028388
0.757012 0.093874 0.062801
0.875132 0.105040 0.114134
0.981258 0.124913 0.182846
0.999836 0.155149 0.262317
0.999708 0.191482 0.345850
0.999953 0.230622 0.378063
0.999401 0.283595 0.394709
0.999200 0.330721 0.408031
0.999681 0.346723 0.401984
0.999675 0.361348 0.390430
0.999765 0.379388 0.374390
0.999325 0.399874 0.354460
0.999852 0.422554 0.332477
0.999492 0.449074 0.306108
0.999293 0.477275 0.273960
0.998935 0.506304 0.237900
0.999202 0.540301 0.196087
0.001690 0.178980 0.000197
0.001581 0.185509 0.000191
0.001536 0.188167 0.000188
0.001502 0.190188 0.000186
0.001300 0.181218 0.000163
0.001287 0.157390 0.000116
0.001608 0.144803 0.000403
0.001397 0.137192 0.000489
0.008751 0.132407 0.000110
0.050271 0.126628 0.000044
0.102023 0.124610 0.000220
0.174572 0.120529 0.000438
0.260023 0.120223 0.000082
0.356646 0.119450 0.000097
0.466212 0.120991 0.000232
0.592800 0.123319 0.002056
0.716695 0.128428 0.019753
0.838736 0.141131 0.060369
0.950661 0.159487 0.121148
0.999515 0.186431 0.202893
0.999589 0.218311 0.290529
0.999768 0.252847 0.345404
0.999671 0.295192 0.368976
0.999399 0.341335 0.386706
0.999881 0.362563 0.388669
0.999824 0.376060 0.377277
0.999555 0.391853 0.362969
0.999143 0.409499 0.345020
0.999907 0.431196 0.323947
0.999475 0.456785 0.297956
0.999446 0.483649 0.266508
0.998833 0.511288 0.231600
0.999158 0.544480 0.190567
0.000010 0.254787 0.000030
0.000010 0.260627 0.000030
0.000011 0.263014 0.000029
0.000011 0.264833 0.000029
0.001379 0.236654 0.000170
0.000097 0.215071 0.000307
0.001829 0.200698 0.000078
0.001657 0.191847 0.000292
0.003247 0.183604 0.000083
0.023436 0.178109 0.000282
0.074453 0.171822 0.000323
0.141360 0.167635 0.000235
0.225252 0.166235 0.000349
0.324026 0.164319 0.000001
0.431804 0.163038 0.000153
0.550954 0.165365 0.000001
0.677011 0.172713 0.000113
0.801659 0.184073 0.014644
0.916374 0.201745 0.055276
0.992503 0.224634 0.131207
0.999125 0.252356 0.224464
0.999790 0.284572 0.303286
0.999454 0.313706 0.334433
0.999498 0.356018 0.360875
0.999883 0.381022 0.374216
0.999735 0.392106 0.362991
0.999556 0.405871 0.349607
0.998868 0.421479 0.333057
0.999970 0.441744 0.313547
0.999353 0.465775 0.287515
0.999635 0.491576 0.257236
0.999033 0.517984 0.223516
0.999103 0.549745 0.183615
0.000085 0.345470 0.000039
0.000085 0.350697 0.000039
0.000082 0.352857 0.000039
0.000688 0.336553 0.000077
0.000170 0.300028 0.000004
0.000320 0.278740 0.000002
0.000024 0.261444 0.000061
0.000028 0.255266 0.000064
0.000034 0.247623 0.000047
0.001119 0.237797 0.000568
0.042274 0.231046 0.000359
0.106616 0.224940 0.000271
0.190182 0.221212 0.000556
0.286598 0.217874 0.000180
0.393648 0.217580 0.000210
0.513081 0.218980 0.000044
0.637204 0.223897 0.000064
0.764157 0.230836 0.000050
0.883776 0.247708 0.003600
0.979580 0.267189 0.057691
0.998777 0.290892 0.150703
0.999724 0.319474 0.252363
0.999444 0.340581 0.294305
0.999067 0.374471 0.326075
0.999726 0.402353 0.353858
0.999646 0.411129 0.345112
0.999496 0.423069 0.332302
0.998868 0.436502 0.317461
0.999692 0.455257 0.298289
0.999201 0.476748 0.274753
0.999798 0.501290 0.245768
0.999282 0.526315 0.213463
0.999035 0.556340 0.174910
0.000049 0.447541 0.000466
0.000054 0.452064 0.000509
0.000056 0.453923 0.000526
0.000003 0.397461 0.000032
0.000148 0.366910 0.000043
0.000017 0.345447 0.000017
0.000053 0.334564 0.000019
0.000008 0.325037 0.000062
0.000021 0.316634 0.000067
0.000010 0.306873 0.000018
0.012663 0.297666 0.000006
0.068897 0.290403 0.000062
0.149176 0.284586 0.000182
0.247905 0.281228 0.000436
0.356949 0.278623 0.000025
0.473577 0.277581 0.000236
0.597965 0.281343 0.000234
0.725234 0.287920 0.000341
0.845486 0.298048 0.000026
0.955312 0.315302 0.000190
0.999540 0.335415 0.065838
0.999943 0.358685 0.176955
0.999326 0.376495 0.242181
0.999101 0.399700 0.281451
0.999682 0.426974 0.319336
0.999850 0.435336 0.319758
0.999316 0.444675 0.308580
0.999217 0.454939 0.297727
0.999388 0.471440 0.280028
0.999148 0.490374 0.258170
0.999756 0.512954 0.231669
0.999589 0.536594 0.201070
0.999091 0.564813 0.162333
0.000061 0.558648 0.000156
0.000067 0.562330 0.000140
0.000027 0.508595 0.000177
0.000039 0.465840 0.000034
0.000022 0.440176 0.000685
0.000024 0.422511 0.000143
0.000068 0.410535 0.000276
0.000021 0.402072 0.000094
0.000117 0.392250 0.000342
0.000128 0.382529 0.000404
0.003038 0.374073 0.000100
0.030440 0.365670 0.000258
0.101829 0.358246 0.000220
0.203008 0.353159 0.000706
0.317124 0.345935 0.000125
0.434851 0.343607 0.000175
0.559383 0.345654 0.000816
0.685915 0.349805 0.000012
0.810430 0.357450 0.000158
0.921222 0.370420 0.000179
0.993916 0.385807 0.006699
0.999715 0.405945 0.080616
0.999235 0.421335 0.172629
0.999443 0.433761 0.226739
0.999257 0.455512 0.270913
0.999907 0.463051 0.288868
0.999618 0.468799 0.282259
0.999680 0.478796 0.270867
0.999377 0.491343 0.257829
0.999274 0.507150 0.236762
0.999703 0.527063 0.214640
0.999658 0.549666 0.183996
0.999178 0.575306 0.146574
0.000000 0.672918 0.000754
0.000053 0.632834 0.000297
0.000000 0.571048 0.000191
0.000004 0.539155 0.000376
0.000166 0.517965 0.000505
0.000183 0.504030 0.000481
0.000226 0.493500 0.000508
0.000348 0.484691 0.000546
0.000177 0.475458 0.000383
0.000092 0.466184 0.000434
0.000251 0.458090 0.000814
0.003465 0.448691 0.000377
0.047354 0.439586 0.000663
0.149610 0.431129 0.000364
0.268859 0.422448 0.000176
0.390961 0.419548 0.000364
0.519048 0.415868 0.000045
0.650967 0.417204 0.000025
0.774157 0.424209 0.000156
0.886049 0.432958 0.000042
0.975475 0.445083 0.000034
0.999005 0.459453 0.010179
0.998830 0.473924 0.089375
0.999676 0.477781 0.156699
0.999227 0.490044 0.210851
0.999630 0.496250 0.249697
0.999471 0.499213 0.247925
0.999765 0.505302 0.241099
0.999398 0.515038 0.228976
0.999543 0.527507 0.212369
0.999343 0.545183 0.190458
0.999436 0.565962 0.161452
0.999279 0.588130 0.127324
0.000115 0.783811 0.000841
0.000011 0.679092 0.000271
0.000000 0.638634 0.000013
0.000003 0.614871 0.000335
0.000178 0.599517 0.000878
0.000525 0.588457 0.001167
0.000237 0.580035 0.000641
0.000023 0.572852 0.000293
0.000018 0.565508 0.000645
0.000040 0.557216 0.000726
0.000121 0.548296 0.000245
0.000254 0.537454 0.000704
0.012038 0.528125 0.000342
0.086745 0.518278 0.000213
0.211333 0.509652 0.000685
0.340442 0.502011 0.000185
0.474645 0.496081 0.000205
0.609061 0.492574 0.000265
0.734476 0.495542 0.000106
0.849660 0.498914 0.000021
0.948622 0.508679 0.000079
0.999423 0.517359 0.000023
0.999850 0.532606 0.018452
0.999613 0.529638 0.067392
0.999279 0.532888 0.137302
0.999060 0.533306 0.197125
0.999851 0.532175 0.208023
0.999194 0.536308 0.202597
0.999355 0.542457 0.193716
0.999769 0.552064 0.181849
0.999028 0.566824 0.160078
0.999306 0.584986 0.134162
0.999280 0.604200 0.101376
0.000000 0.837640 0.000024
0.000126 0.736493 0.000008
0.000003 0.708402 0.000492
0.000004 0.692953 0.000376
0.000010 0.682027 0.000720
0.000006 0.673419 0.000423
0.000001 0.666243 0.000083
0.000009 0.660548 0.000026
0.000018 0.654302 0.000024
0.000013 0.647128 0.000176
0.000000 0.638933 0.000478
0.000005 0.629776 0.000162
0.000058 0.620375 0.000022
0.035999 0.610848 0.000023
0.140245 0.600089 0.000208
0.281744 0.590086 0.000365
0.423024 0.581454 0.000133
0.561491 0.574304 0.000436
0.692238 0.571131 0.000054
0.811697 0.571677 0.000058
0.915174 0.575839 0.000066
0.989072 0.580979 0.000205
0.998757 0.591289 0.000003
0.999023 0.588873 0.000163
0.999671 0.582790 0.047689
0.999494 0.575783 0.119885
0.998945 0.570748 0.153035
0.999482 0.570897 0.153910
0.999146 0.574693 0.149744
0.999628 0.581713 0.139361
0.999015 0.592523 0.120388
0.999361 0.606799 0.101494
0.999265 0.623446 0.070060
0.000000 0.854462 0.000393
0.000051 0.798301 0.000437
0.000001 0.781910 0.000226
0.000005 0.769928 0.000104
0.000047 0.762949 0.000447
0.000081 0.757241 0.000731
0.000055 0.751627 0.000527
0.000027 0.746594 0.000312
0.000018 0.740997 0.000135
0.000176 0.735121 0.000449
0.000328 0.728172 0.000749
0.000105 0.720606 0.000286
0.000000 0.711476 0.000354
0.007876 0.701185 0.000494
0.059819 0.691108 0.000003
0.203634 0.680874 0.000050
0.359162 0.669229 0.000136
0.507377 0.659169 0.000098
0.647681 0.650003 0.000388
0.769917 0.646375 0.000003
0.877312 0.640154 0.000049
0.970024 0.635325 0.000446
0.999625 0.642243 0.000132
0.999412 0.649960 0.000009
0.999122 0.642173 0.002031
0.999268 0.628854 0.024951
0.999326 0.615021 0.081751
0.999615 0.610105 0.093397
0.999109 0.612046 0.089856
0.999603 0.614994 0.085538
0.999002 0.622315 0.072554
0.999610 0.632524 0.055265
0.999196 0.647076 0.029467
0.000148 0.891741 0.000550
0.000023 0.860617 0.000322
0.000000 0.850359 0.000166
0.000001 0.842549 0.000137
0.000001 0.836803 0.000124
0.000001 0.832431 0.000127
0.000000 0.828670 0.000131
0.000016 0.825239 0.000171
0.000072 0.821166 0.000297
0.000143 0.816187 0.000454
0.000146 0.810595 0.000476
0.000048 0.804427 0.000296
0.000004 0.797057 0.000200
0.001300 0.788525 0.000178
0.010205 0.779170 0.000245
0.109127 0.767806 0.000577
0.279468 0.755056 0.000095
0.441964 0.741552 0.000123
0.590341 0.728782 0.000226
0.724802 0.713513 0.000405
0.837442 0.700968 0.000123
0.937675 0.693004 0.000085
0.999865 0.688651 0.000157
0.998930 0.697433 0.000091
0.999657 0.694370 0.000248
0.999145 0.686279 0.000419
0.998889 0.662479 0.007995
0.999119 0.654306 0.021870
0.999246 0.652342 0.019475
0.999602 0.651762 0.026180
0.999098 0.656058 0.014362
0.999766 0.662950 0.015456
0.999294 0.674336 0.005186
0.000165 0.938096 0.000856
0.000002 0.918265 0.000536
0.000007 0.911066 0.000790
0.000016 0.905918 0.000480
0.000024 0.901813 0.000233
0.000029 0.898493 0.000124
0.000031 0.895770 0.000149
0.000033 0.893307 0.000172
0.000036 0.890456 0.000200
0.000039 0.887000 0.000220
0.000041 0.882903 0.000214
0.000044 0.877960 0.000203
0.000024 0.871467 0.000530
0.000016 0.864088 0.000787
0.000078 0.856775 0.000449
0.047637 0.847602 0.000279
0.186135 0.834138 0.000080
0.360366 0.818366 0.000389
0.527414 0.796988 0.000018
0.670081 0.778052 0.000027
0.794158 0.762789 0.000282
0.902259 0.749902 0.000392
0.980445 0.741703 0.000068
0.998541 0.740278 0.000005
0.999211 0.735156 0.000014
0.998557 0.726269 0.000041
0.999256 0.714093 0.000036
0.999405 0.702464 0.000076
0.999258 0.696694 0.000062
0.999408 0.694005 0.000296
0.999765 0.694776 0.000298
0.999564 0.698514 0.000066
0.999306 0.705539 0.000070
0.000078 0.981770 0.000368
0.000010 0.970220 0.000505
0.000011 0.965885 0.000884
0.000009 0.962580 0.000677
0.000006 0.959887 0.000446
0.000004 0.957597 0.000249
0.000002 0.955589 0.000075
0.000002 0.953697 0.000087
0.000002 0.951426 0.000280
0.000002 0.948600 0.000523
0.000002 0.945110 0.000825
0.000003 0.941287 0.000874
0.000005 0.937057 0.000653
0.000005 0.931669 0.000519
0.000002 0.924716 0.000582
0.005446 0.917570 0.000247
0.089457 0.905115 0.000083
0.262825 0.885025 0.000412
0.448958 0.861209 0.000574
0.610001 0.839290 0.000154
0.748202 0.820509 0.000022
0.860322 0.807388 0.000509
0.957793 0.795760 0.000199
0.999272 0.788146 0.000036
0.999353 0.782914 0.000094
0.999201 0.767056 0.000211
0.999193 0.748455 0.000020
0.999512 0.741561 0.000199
0.998562 0.737905 0.000032
0.999216 0.732305 0.000260
0.999246 0.733215 0.000105
0.999135 0.731312 0.000051
0.998950 0.735442 0.000035
0.000000 0.999246 0.000241
0.000000 0.997167 0.000258
0.000000 0.996046 0.000292
0.000000 0.995230 0.000313
0.000000 0.994507 0.000287
0.000000 0.993893 0.000265
0.000000 0.993356 0.000246
0.000000 0.992868 0.000228
0.000000 0.992303 0.000208
0.000001 0.991596 0.000188
0.000016 0.990637 0.000255
0.000034 0.989477 0.000337
0.000056 0.988097 0.000436
0.000037 0.985348 0.000482
0.000006 0.981932 0.000535
0.000001 0.976682 0.000457
0.031450 0.966648 0.000253
0.135343 0.948356 0.000067
0.350159 0.921863 0.000260
0.534741 0.898193 0.000040
0.687155 0.878523 0.000060
0.815476 0.860727 0.000452
0.921055 0.845525 0.000547
0.990464 0.835962 0.000015
0.999153 0.829117 0.000035
0.999379 0.811375 0.000009
0.999096 0.789933 0.000395
0.999366 0.769759 0.000206
0.999679 0.760662 0.000275
0.999577 0.757123 0.000001
0.999509 0.755585 0.000103
0.999150 0.754062 0.000003
0.999095 0.753825 0.000186
0.000000 1.000000 0.000285
0.000000 1.000000 0.000285
0.000000 1.000000 0.000285
0.000000 1.000000 0.000285
0.000000 1.000000 0.000285
0.000000 1.000000 0.000285
0.000000 1.000000 0.000285
0.000000 1.000000 0.000285
0.000000 1.000000 0.000285
0.000000 1.000000 0.000285
0.000000 1.000000 0.000285
0.000000 1.000000 0.000285
0.000000 1.000000 0.000285
0.000000 1.000000 0.000285
0.000000 1.000000 0.000285
0.000000 1.000000 0.000285
0.014134 0.998118 0.000300
0.057619 0.992867 0.000340
0.231769 0.976590 0.000474
0.440561 0.953893 0.000237
0.620457 0.931075 0.000100
0.761722 0.912582 0.000063
0.877966 0.896540 0.000085
0.969806 0.881744 0.000015
0.999216 0.870762 0.000160
0.998709 0.853603 0.000004
0.999155 0.832738 0.000145
0.999482 0.808465 0.000009
0.999636 0.793302 0.000059
0.999469 0.787700 0.000120
0.998919 0.782340 0.000196
0.999101 0.777811 0.000145
0.999381 0.776400 0.000158
0.000000 1.000000 0.000285
0.000000 1.000000 0.000285
0.000000 1.000000 0.000285
0.000000 1.000000 0.000285
0.000000 1.000000 0.000285
0.000000 1.000000 0.000285
0.000000 1.000000 0.000285
0.000000 1.000000 0.000285
0.000000 1.000000 0.000285
0.000000 1.000000 0.000285
0.000000 1.000000 0.000285
0.000000 1.000000 0.000285
0.000000 1.000000 0.000285
0.000000 1.000000 0.000285
0.000000 1.000000 0.000285
0.000000 1.000000 0.000285
0.000000 1.000000 0.000285
0.007517 1.000000 0.000295
0.130558 0.999997 0.000464
0.326816 0.995948 0.000261
0.529289 0.981614 0.000050
0.696576 0.961965 0.000168
0.827753 0.943184 0.000044
0.928313 0.925454 0.000523
0.991473 0.908578 0.000160
0.999239 0.891996 0.000050
0.999346 0.872012 0.000083
0.999596 0.850291 0.000019
0.999165 0.830844 0.000072
0.998974 0.821420 0.000006
0.999349 0.815986 0.000025
0.999331 0.811092 0.000005
0.999018 0.807746 0.000009
0.000000 1.000000 0.000285
0.000000 1.000000 0.000285
0.000000 1.000000 0.000285
0.000000 1.000000 0.000285
0.000000 1.000000 0.000285
0.000000 1.000000 0.000285
0.000000 1.000000 0.000285
0.000000 1.000000 0.000285
0.000000 1.000000 0.000285
0.000000 1.000000 0.000285
0.000000 1.000000 0.000285
0.000000 1.000000 0.000285
0.000000 1.000000 0.000285
0.000000 1.000000 0.000285
0.000000 1.000000 0.000285
0.000000 1.000000 0.000285
0.000000 1.000000 0.000285
0.002094 0.999986 0.000279
0.012026 0.999917 0.000253
0.105559 0.999941 0.000260
