output/AppleLog_display/AppleLog_to_ETERNA-BB_33grid.cube
TITLE "AppleLog_to_ETERNA-BB"
# Input: Apple Log (BT.2020 primaries, D65)
# Output: BT.709 / Gamma 2.2 (display-referred)
# Use: Display LUT for iPhone 15/16 Pro Apple Log footage
# Source: FLog2C_to_ETERNA-BB_65grid_V.1.00.cube
# Generated from Fujifilm GFX ETERNA 55 F-Log2C LUT
LUT_3D_SIZE 9
0.000282 0.000191 0.000111
0.000282 0.000191 0.000111
0.022859 0.003447 0.002676
0.216942 0.039945 0.053540
0.586723 0.128846 0.172642
0.752671 0.375432 0.374082
0.753503 0.376840 0.375047
0.805055 0.477890 0.409672
0.872706 0.628950 0.436500
0.000282 0.000191 0.000111
0.000282 0.000191 0.000111
0.066240 0.010303 0.014920
0.266757 0.045780 0.063140
0.598519 0.137930 0.181336
0.708885 0.294148 0.311021
0.774634 0.416634 0.388514
0.823785 0.519581 0.420493
0.877783 0.645323 0.437154
0.006536 0.037796 0.012002
0.010240 0.050673 0.015724
0.061404 0.043393 0.017046
0.191325 0.052950 0.046484
0.492553 0.092117 0.123212
0.693223 0.269336 0.276537
0.792834 0.448565 0.402762
0.830469 0.535830 0.424642
0.880182 0.652229 0.437567
0.035320 0.166080 0.049390
0.031375 0.154945 0.038891
0.059769 0.130600 0.038419
0.150512 0.130950 0.050462
0.418420 0.150339 0.094028
0.710462 0.336055 0.277307
0.819126 0.506376 0.417634
0.845889 0.565600 0.428848
0.884982 0.666036 0.438403
0.146156 0.531898 0.164301
0.086649 0.388455 0.104137
0.109932 0.356165 0.100325
0.183225 0.334894 0.112769
0.401346 0.346930 0.156704
0.746265 0.497779 0.304355
0.861355 0.610488 0.420346
0.876116 0.634202 0.436306
0.893951 0.697962 0.437846
0.218555 0.716378 0.237884
0.228651 0.681564 0.230932
0.264787 0.676920 0.239140
0.322551 0.670747 0.250617
0.508856 0.684419 0.305895
0.797548 0.751999 0.383454
0.913431 0.786862 0.414193
0.904750 0.747851 0.423914
0.908885 0.764103 0.417951
0.319588 0.828235 0.291486
0.369881 0.836225 0.302735
0.395737 0.840225 0.307982
0.450533 0.849577 0.319205
0.587310 0.876556 0.346812
0.801821 0.909903 0.389479
0.935220 0.919184 0.413361
0.931915 0.870431 0.414919
0.930715 0.857877 0.414916
0.445754 0.880343 0.321315
0.473837 0.886507 0.327491
0.485759 0.889125 0.330111
0.510889 0.895424 0.335140
0.575119 0.911414 0.347240
0.713764 0.940741 0.373145
0.877985 0.964620 0.404370
0.940438 0.958147 0.418673
0.941555 0.937590 0.416865
0.594810 0.918990 0.404687
0.603113 0.920623 0.404819
0.606741 0.921337 0.404876
0.614285 0.922821 0.404992
0.634588 0.926818 0.406494
0.685804 0.936882 0.412297
0.790672 0.954933 0.419257
0.907144 0.966976 0.431992
0.941483 0.969810 0.428020
0.000282 0.000191 0.000111
0.000282 0.000191 0.000111
0.036367 0.005614 0.006073
0.229261 0.041465 0.055876
0.589798 0.130679 0.174597
0.753023 0.376027 0.374490
0.753503 0.376840 0.375047
0.807419 0.482548 0.411256
0.873324 0.630953 0.436579
0.000282 0.000191 0.000111
0.000282 0.000191 0.000111
0.074415 0.012892 0.016820
0.277820 0.046951 0.065333
0.569151 0.117470 0.159560
0.698780 0.274430 0.296075
0.778967 0.425492 0.392034
0.825619 0.524047 0.421632
0.878429 0.647181 0.437264
0.012678 0.059628 0.018825
0.013687 0.066709 0.021278
0.063011 0.060863 0.022782
0.181249 0.067376 0.042862
0.479287 0.099450 0.116676
0.696320 0.278286 0.276487
0.796310 0.456691 0.403835
0.832140 0.539895 0.425682
0.880805 0.654021 0.437675
0.038980 0.184397 0.052859
0.033536 0.162128 0.039740
0.064373 0.139557 0.040683
0.151818 0.138904 0.053412
0.415796 0.158017 0.095121
0.712395 0.343833 0.276920
0.822370 0.512976 0.419526
0.847562 0.569296 0.429518
0.885562 0.667701 0.438505
0.151858 0.544672 0.170696
0.088547 0.394739 0.105898
0.117625 0.364985 0.105170
0.187042 0.343794 0.116579
0.403715 0.355577 0.161287
0.747781 0.505069 0.307508
0.862794 0.614611 0.420068
0.876921 0.636992 0.436435
0.894544 0.699589 0.437547
0.222686 0.727408 0.242731
0.229944 0.694116 0.234319
0.265475 0.690332 0.241894
0.321374 0.683266 0.254664
0.500439 0.693583 0.306283
0.790602 0.757995 0.381486
0.915787 0.795204 0.414238
0.909715 0.758148 0.438544
0.909661 0.772431 0.416538
0.304896 0.829988 0.287973
0.349656 0.837593 0.298304
0.370655 0.841190 0.302833
0.416644 0.849693 0.312333
0.549467 0.875979 0.339839
0.773410 0.912361 0.383292
0.924566 0.922395 0.411199
0.936376 0.879795 0.453504
0.932064 0.867436 0.430177
0.447491 0.881896 0.335808
0.472048 0.887586 0.338540
0.482477 0.890002 0.339704
0.505380 0.895471 0.342296
0.564070 0.909430 0.348726
0.696938 0.937201 0.370174
0.868078 0.963295 0.402115
0.942045 0.959657 0.429505
0.943263 0.939340 0.449513
0.602437 0.922602 0.447629
0.609716 0.924085 0.447340
0.612898 0.924733 0.447212
0.619513 0.926082 0.446942
0.638373 0.929824 0.447689
0.688223 0.939366 0.452227
0.790831 0.955456 0.459700
0.908421 0.967637 0.474202
0.943710 0.970507 0.461873
0.005870 0.003865 0.038072
0.005870 0.003865 0.038072
0.040694 0.006429 0.038300
0.214058 0.040802 0.057440
0.574848 0.121151 0.163672
0.752901 0.375739 0.374257
0.753503 0.376840 0.375047
0.814370 0.494769 0.414004
0.878102 0.643115 0.436864
0.006007 0.004036 0.040171
0.006007 0.004036 0.040171
0.072659 0.010946 0.041961
0.253449 0.043828 0.065726
0.534727 0.100766 0.142112
0.688506 0.254921 0.278419
0.785685 0.436604 0.397715
0.832033 0.536473 0.425425
0.884033 0.659800 0.437911
0.021072 0.073217 0.072709
0.023166 0.081548 0.076965
0.069848 0.071174 0.069471
0.175021 0.075522 0.078281
0.459652 0.104295 0.127287
0.696525 0.277652 0.272530
0.802207 0.470881 0.408330
0.839366 0.552524 0.427600
0.886287 0.666908 0.438201
0.054843 0.223229 0.136114
0.046605 0.190280 0.114852
0.074367 0.159354 0.098076
0.156902 0.152690 0.100823
0.409111 0.169216 0.136254
0.706005 0.344110 0.289769
0.829349 0.527879 0.429623
0.857199 0.584299 0.434653
0.890906 0.681179 0.439226
0.190595 0.603656 0.310261
0.121731 0.447098 0.196611
0.142006 0.411907 0.181874
0.205722 0.382217 0.180135
0.410134 0.386848 0.216065
0.750071 0.517447 0.347023
0.877377 0.631887 0.447208
0.885890 0.654046 0.454718
0.901809 0.715061 0.448144
0.236322 0.746329 0.321340
0.243545 0.715426 0.297707
0.278168 0.711087 0.301088
0.331359 0.704049 0.306458
0.504582 0.714035 0.344289
0.788277 0.769733 0.408403
0.923218 0.806258 0.458695
0.919564 0.767301 0.479306
0.920174 0.782823 0.459461
0.306822 0.834500 0.324723
0.349193 0.840624 0.327346
0.369957 0.844612 0.330471
0.415179 0.852848 0.337508
0.543449 0.876696 0.359078
0.767870 0.912924 0.394088
0.922678 0.923308 0.426124
0.940326 0.882779 0.485825
0.937078 0.870491 0.467889
0.452207 0.885830 0.375555
0.475116 0.891498 0.378527
0.484844 0.893901 0.379789
0.507497 0.898962 0.382399
0.565476 0.911775 0.388937
0.694184 0.938732 0.401353
0.865557 0.963374 0.411671
0.944224 0.959787 0.456369
0.945546 0.939775 0.475205
0.605656 0.924137 0.465642
0.612618 0.925625 0.464958
0.615661 0.926276 0.464657
0.621988 0.927629 0.464026
0.640214 0.931273 0.463981
0.688876 0.940399 0.467067
0.790727 0.955638 0.474529
0.908592 0.968325 0.487116
0.944264 0.970553 0.476100
0.017768 0.006915 0.083499
0.017768 0.006915 0.083499
0.055208 0.011307 0.081690
0.213676 0.033398 0.104950
0.564049 0.111653 0.179797
0.744071 0.360805 0.365648
0.759663 0.384760 0.396456
0.832059 0.525552 0.464302
0.894647 0.663330 0.483955
0.018508 0.007063 0.084797
0.021908 0.009436 0.091614
0.078259 0.014793 0.088232
0.209936 0.031559 0.110649
0.498429 0.081419 0.166251
0.691208 0.250528 0.307815
0.811762 0.476101 0.459754
0.854118 0.565037 0.481856
0.900263 0.679232 0.488554
0.046322 0.099164 0.155788
0.044868 0.103585 0.155318
0.080099 0.086225 0.126123
0.175879 0.091676 0.133229
0.450424 0.116261 0.176077
0.695185 0.275344 0.316062
0.828697 0.509316 0.480744
0.863481 0.581007 0.488375
0.902348 0.685570 0.490150
0.090868 0.282451 0.281169
0.069685 0.230029 0.222515
0.094860 0.187660 0.180958
0.173189 0.173663 0.173257
0.416067 0.187626 0.202053
0.708818 0.349303 0.343980
0.849592 0.554146 0.498692
0.878326 0.611001 0.500120
0.906732 0.698243 0.493605
0.230385 0.657928 0.500428
0.161407 0.499298 0.336937
0.188278 0.464260 0.308672
0.241478 0.430155 0.286466
0.436694 0.426582 0.304408
0.762507 0.537667 0.419206
0.896175 0.651050 0.517264
0.906374 0.673891 0.520067
0.915485 0.730957 0.500006
0.259735 0.767985 0.476553
0.271546 0.741396 0.434722
0.302620 0.737788 0.429917
0.354555 0.730944 0.425220
0.520812 0.741487 0.440580
0.794243 0.783927 0.487907
0.935488 0.814978 0.521740
0.932378 0.777663 0.542843
0.928432 0.791529 0.509465
0.317357 0.847230 0.437333
0.356041 0.852762 0.437608
0.375455 0.855282 0.438731
0.417853 0.862068 0.442369
0.542138 0.884079 0.458226
0.764284 0.916073 0.486864
0.922805 0.924114 0.508343
0.946597 0.886687 0.544310
0.941740 0.873323 0.513476
0.461297 0.892434 0.440231
0.482604 0.897508 0.441828
0.491654 0.899661 0.442510
0.512399 0.904431 0.444356
0.565821 0.916070 0.449138
0.691700 0.940063 0.460041
0.865108 0.963799 0.476417
0.947095 0.961066 0.501704
0.947402 0.940018 0.514383
0.611543 0.928075 0.507029
0.618008 0.929223 0.505389
0.620833 0.929725 0.504671
0.626710 0.930770 0.503177
0.644464 0.933843 0.501956
0.692786 0.942153 0.504092
0.791575 0.956767 0.509869
0.908690 0.969599 0.516528
0.946735 0.971124 0.500261
0.046480 0.016210 0.190330
0.046480 0.016210 0.190330
0.089177 0.019810 0.159827
0.250715 0.033036 0.167529
0.568902 0.102987 0.239770
0.761853 0.374784 0.436347
0.809726 0.459414 0.517886
0.870718 0.574109 0.572254
0.919896 0.689331 0.587486
0.078585 0.076129 0.288451
0.076655 0.079882 0.281031
0.102637 0.064117 0.223787
0.208936 0.070808 0.217859
0.473250 0.108216 0.263151
0.704991 0.262434 0.407862
0.854462 0.541481 0.579808
0.888111 0.607824 0.591869
0.924657 0.702859 0.591197
0.109648 0.167943 0.389185
0.099095 0.151096 0.347619
0.115443 0.127338 0.286969
0.203392 0.125989 0.265606
0.451536 0.152011 0.293169
0.708998 0.298046 0.427985
0.865022 0.559679 0.591842
0.894632 0.620782 0.597499
0.926728 0.708548 0.592458
0.193197 0.395850 0.516185
0.142545 0.303064 0.427970
0.148308 0.253175 0.373290
0.217153 0.226943 0.339363
0.441594 0.243226 0.352720
0.730985 0.385614 0.475016
0.883918 0.593667 0.610395
0.906400 0.646248 0.608570
0.930739 0.719937 0.595096
0.286044 0.707855 0.670761
0.222822 0.564537 0.536584
0.252734 0.535670 0.512662
0.304508 0.502624 0.485962
0.495021 0.496392 0.494192
0.792537 0.574253 0.572664
0.921047 0.676378 0.642016
0.929017 0.700893 0.630161
0.936245 0.747320 0.601998
0.278895 0.793674 0.651955
0.315687 0.775689 0.626184
0.339989 0.771915 0.621298
0.387697 0.769320 0.616766
0.549903 0.777297 0.627174
0.808129 0.804338 0.652536
0.954823 0.825225 0.659299
0.951029 0.790484 0.653534
0.947312 0.802938 0.612819
0.339902 0.866505 0.625087
0.375074 0.870529 0.625298
0.392530 0.872354 0.626450
0.432369 0.878292 0.630059
0.547177 0.894902 0.643260
0.764082 0.921607 0.666148
0.926581 0.927877 0.662835
0.958043 0.893625 0.661439
0.953756 0.878303 0.620757
0.476079 0.905558 0.580013
0.499181 0.910604 0.584825
0.508990 0.912741 0.586838
0.528635 0.916731 0.589788
0.578100 0.926481 0.595933
0.692663 0.946593 0.603616
0.866808 0.966576 0.610852
0.955412 0.965031 0.609948
0.954392 0.944033 0.609455
0.631257 0.936935 0.603441
0.637189 0.937959 0.601484
0.639782 0.938407 0.600628
0.645174 0.939338 0.598849
0.660750 0.941801 0.596798
0.702401 0.947793 0.596418
0.796783 0.959358 0.600710
0.911411 0.971610 0.597546
0.952251 0.974257 0.562688
0.102871 0.032110 0.432491
0.097775 0.030930 0.396667
0.149199 0.034886 0.364393
0.283117 0.040421 0.359791
0.515272 0.066084 0.388281
0.716704 0.241792 0.521473
0.846991 0.519108 0.637844
0.904408 0.629317 0.688526
0.941796 0.722160 0.711399
0.194736 0.258699 0.585192
0.155878 0.194820 0.528645
0.178692 0.174816 0.499889
0.272487 0.171062 0.477866
0.494703 0.202043 0.486161
0.733847 0.327864 0.582500
0.873219 0.563778 0.680937
0.919758 0.661546 0.710074
0.945558 0.732997 0.715996
0.236702 0.374516 0.618984
0.182406 0.273065 0.556218
0.198257 0.241679 0.530696
0.282999 0.227988 0.511525
0.495833 0.250228 0.517084
0.747492 0.373365 0.611211
0.883674 0.583427 0.696862
0.924663 0.673032 0.717397
0.947140 0.737554 0.717926
0.298731 0.547926 0.684558
0.235241 0.415701 0.602572
0.246986 0.382525 0.582261
0.316666 0.355846 0.566853
0.515989 0.361614 0.578372
0.773722 0.463802 0.663354
0.902096 0.620243 0.725036
0.932872 0.693984 0.730729
0.949463 0.746607 0.721001
0.337859 0.720853 0.746298
0.304354 0.626400 0.682616
0.326889 0.609505 0.674991
0.386600 0.589330 0.670134
0.566252 0.585073 0.691001
0.816581 0.629206 0.750184
0.934013 0.703006 0.775358
0.948097 0.736615 0.752044
0.955068 0.769173 0.728537
0.314244 0.802456 0.747018
0.361466 0.798346 0.749203
0.381254 0.797894 0.750759
0.434300 0.797969 0.757131
0.584506 0.807051 0.782826
0.821442 0.823314 0.820965
0.962773 0.827474 0.817575
0.964214 0.807589 0.779208
0.963607 0.815473 0.741790
0.370550 0.876590 0.756349
0.402515 0.880215 0.760818
0.417139 0.881538 0.762917
0.455360 0.886523 0.771574
0.556605 0.901747 0.789509
0.758673 0.922494 0.823826
0.929450 0.929002 0.829459
0.968599 0.899488 0.797297
0.964051 0.882972 0.756245
0.472315 0.916854 0.726497
0.492969 0.920951 0.730336
0.502322 0.922639 0.732341
0.521609 0.926038 0.736606
0.571177 0.935027 0.747644
0.690210 0.952386 0.770242
0.866769 0.972579 0.790464
0.968140 0.970894 0.771939
0.965084 0.947629 0.753768
0.653428 0.946229 0.735000
0.661205 0.947247 0.735800
0.664605 0.947692 0.736149
0.671678 0.948619 0.736878
0.688706 0.950745 0.738213
0.729252 0.955715 0.741103
0.809247 0.965961 0.745933
0.917099 0.977122 0.740618
0.963642 0.980396 0.697844
0.312861 0.422422 0.679152
0.278288 0.324726 0.643847
0.316272 0.315079 0.642101
0.398718 0.309397 0.646173
0.569317 0.327806 0.672659
0.775433 0.418372 0.744236
0.895152 0.573623 0.796965
0.926196 0.672586 0.793514
0.951551 0.754806 0.812930
0.336714 0.520551 0.711389
0.323986 0.449795 0.682236
0.355662 0.438190 0.681573
0.429032 0.428131 0.688941
0.594758 0.437161 0.722305
0.801844 0.504210 0.784710
0.910510 0.612305 0.823857
0.932567 0.694322 0.804614
0.954193 0.764508 0.818151
0.342581 0.553310 0.720722
0.337142 0.493450 0.698060
0.369479 0.482062 0.698593
0.440440 0.472522 0.706055
0.602918 0.478715 0.739176
0.810221 0.534240 0.801337
0.916147 0.627879 0.834568
0.935263 0.703475 0.809486
0.955294 0.768597 0.820308
0.353813 0.607212 0.737664
0.361682 0.564579 0.724331
0.391890 0.555969 0.726216
0.459678 0.547660 0.735310
0.616864 0.551986 0.767639
0.824168 0.590435 0.827914
0.927982 0.658372 0.851768
0.940167 0.720888 0.818038
0.957364 0.776699 0.824269
0.366467 0.699355 0.766347
0.396786 0.680750 0.766389
0.422981 0.677944 0.770296
0.485332 0.675930 0.782769
0.630184 0.681314 0.818724
0.836478 0.699261 0.869727
0.947821 0.724537 0.884436
0.951226 0.760049 0.836804
0.961787 0.796548 0.834019
0.380405 0.800142 0.800808
0.420961 0.801007 0.808199
0.441843 0.801680 0.812658
0.489122 0.805535 0.823674
0.610304 0.815906 0.852271
0.814160 0.829886 0.897348
0.951254 0.830841 0.912051
0.963855 0.826078 0.867715
0.966804 0.835739 0.851802
0.416202 0.875761 0.819583
0.446204 0.879088 0.826595
0.460752 0.880830 0.829845
0.492480 0.884954 0.837634
0.574359 0.896633 0.857914
0.746822 0.914047 0.895076
0.921586 0.922808 0.921166
0.975978 0.905228 0.900043
0.972546 0.889068 0.867407
0.476897 0.923727 0.821888
0.495864 0.927255 0.826587
0.504209 0.928818 0.828627
0.521173 0.931994 0.832771
0.566413 0.939737 0.843616
0.676659 0.954803 0.869373
0.856015 0.970511 0.902197
0.971430 0.971207 0.901125
0.978452 0.949636 0.874940
0.650494 0.950989 0.837790
0.657887 0.951779 0.838718
0.661120 0.952125 0.839124
0.667819 0.952906 0.839983
0.685408 0.955442 0.842365
0.728880 0.961356 0.848418
0.818516 0.972228 0.864397
0.921590 0.983796 0.875752
0.978318 0.988138 0.851908
0.427538 0.596892 0.753961
0.483800 0.603621 0.769896
0.507815 0.606525 0.777553
0.552357 0.611790 0.792404
0.658050 0.630178 0.830077
0.820819 0.652155 0.886256
0.937800 0.682950 0.919716
0.950006 0.736124 0.886517
0.959182 0.778971 0.885591
0.437583 0.627080 0.764071
0.489971 0.633605 0.781692
0.511872 0.636312 0.788188
0.556376 0.641886 0.803325
0.657106 0.659289 0.838907
0.820613 0.679472 0.893820
0.938606 0.703201 0.925254
0.952680 0.747955 0.891377
0.960358 0.786034 0.888266
0.441606 0.639378 0.768697
0.492339 0.645707 0.786258
0.513313 0.648338 0.792297
0.557641 0.653999 0.807625
0.656703 0.670258 0.842435
0.819959 0.690475 0.896489
0.938890 0.711579 0.927521
0.953966 0.752885 0.893742
0.960631 0.789006 0.889293
0.447638 0.662501 0.778982
0.496274 0.668424 0.794388
0.517074 0.671062 0.801292
0.559220 0.677096 0.815808
0.656225 0.691227 0.849131
0.818813 0.712240 0.901776
0.939215 0.727550 0.932046
0.956558 0.762838 0.898470
0.961195 0.795095 0.891397
0.459328 0.713439 0.799113
0.504755 0.718724 0.812735
0.523508 0.720099 0.818693
0.560012 0.725444 0.832048
0.651213 0.737136 0.859728
0.810495 0.756029 0.910324
0.937843 0.765640 0.940767
0.960713 0.785141 0.907994
0.962284 0.810336 0.896355
0.480195 0.790477 0.827047
0.515472 0.794881 0.838907
0.531577 0.797011 0.843873
0.562553 0.801352 0.853745
0.637744 0.811171 0.875989
0.786849 0.829015 0.919595
0.928969 0.834291 0.952201
0.965456 0.834268 0.928397
0.965278 0.843108 0.909544
0.503987 0.868942 0.855374
0.527795 0.872246 0.862549
0.538358 0.873496 0.865823
0.559772 0.876305 0.872197
0.614132 0.884007 0.887524
0.734968 0.897882 0.921221
0.897605 0.908690 0.955277
0.975634 0.903051 0.953422
0.971463 0.896004 0.926691
0.526079 0.928254 0.877095
0.540026 0.930285 0.881058
0.546303 0.931197 0.882648
0.559124 0.933062 0.885897
0.594166 0.937002 0.894414
0.681406 0.945563 0.914938
0.835861 0.959411 0.945416
0.961586 0.962894 0.961019
0.985150 0.949520 0.943086
0.649544 0.953800 0.899302
0.656240 0.954567 0.900492
0.659171 0.954903 0.901014
0.665275 0.955602 0.902099
0.681523 0.957468 0.904990
0.721126 0.963088 0.911572
0.805324 0.974039 0.925935
0.919388 0.987082 0.943870
0.990867 0.994582 0.947955
0.574332 0.735202 0.838128
0.595803 0.735946 0.844667
0.604815 0.736402 0.847422
0.624024 0.739311 0.853509
0.671556 0.747737 0.867288
0.768895 0.768662 0.901752
0.889377 0.793377 0.939086
0.964969 0.798355 0.960598
0.966137 0.819273 0.945996
0.576056 0.745783 0.841457
0.596620 0.744550 0.847302
0.605591 0.745022 0.850059
0.624003 0.747320 0.856002
0.671267 0.755351 0.869178
0.768324 0.775210 0.903516
0.888696 0.799929 0.939598
0.965535 0.803310 0.961028
0.966452 0.823186 0.947104
0.576759 0.750111 0.842831
0.596937 0.748047 0.848384
0.605887 0.748682 0.851203
0.623960 0.750722 0.857084
0.671137 0.758645 0.870095
0.768121 0.778033 0.904302
0.888103 0.802391 0.940010
0.965781 0.805453 0.961213
0.966534 0.824928 0.947544
0.578127 0.758546 0.845535
0.597671 0.755315 0.850675
0.606418 0.756087 0.853564
0.623800 0.757608 0.859319
0.670825 0.765347 0.871948
0.767233 0.783606 0.905533
0.886902 0.807486 0.940843
0.966288 0.809869 0.961593
0.966705 0.828541 0.948456
0.580247 0.778415 0.852319
0.600000 0.776677 0.857595
0.608439 0.776338 0.859930
0.625462 0.776154 0.864472
0.669231 0.781027 0.876301
0.763466 0.797319 0.907279
0.883924 0.820860 0.942899
0.966496 0.824278 0.962401
0.967162 0.838071 0.950854
0.585330 0.820206 0.864855
0.603531 0.818485 0.869551
0.611538 0.817926 0.871367
0.627625 0.816800 0.875020
0.667028 0.815657 0.885183
0.756579 0.828092 0.911841
0.878608 0.848839 0.946248
0.967153 0.855387 0.965341
0.968854 0.859294 0.954057
0.589828 0.878689 0.880135
0.606138 0.878793 0.885195
0.613042 0.878832 0.887216
0.626840 0.878856 0.890336
0.661550 0.878922 0.898221
0.740841 0.879581 0.919037
0.863577 0.892815 0.950435
0.958880 0.901393 0.968579
0.976194 0.896365 0.963224
0.598316 0.934572 0.897326
0.610202 0.935248 0.900418
0.615435 0.935466 0.901668
0.626215 0.935916 0.904242
0.654024 0.937082 0.910766
0.717779 0.940156 0.924837
0.831624 0.943395 0.951865
0.941599 0.949835 0.973937
0.985481 0.947026 0.978555
0.661773 0.956526 0.915723
0.667397 0.957222 0.917133
0.669877 0.957520 0.917752
0.675050 0.958141 0.919043
0.688878 0.959799 0.922492
0.723940 0.964165 0.930901
0.799307 0.974377 0.950039
0.906238 0.986748 0.975289
0.993139 0.995444 0.993696
