output/AppleLog_display/AppleLog_to_CLASSIC-Neg._33grid.cube
TITLE "AppleLog_to_CLASSIC-Neg."
# Input: Apple Log (BT.2020 primaries, D65)
# Output: BT.709 / Gamma 2.2 (display-referred)
# Use: Display LUT for iPhone 15/16 Pro Apple Log footage
# Source: FLog2C_to_CLASSIC-Neg._65grid_V.1.00.cube
# Generated from Fujifilm GFX ETERNA 55 F-Log2C LUT
LUT_3D_SIZE 33
0.000129 0.000120 0.000052
0.000129 0.000120 0.000052
0.000129 0.000120 0.000052
0.000129 0.000120 0.000052
0.000129 0.000120 0.000052
0.000129 0.000120 0.000052
0.000129 0.000120 0.000052
0.000129 0.000120 0.000052
0.017369 0.001159 0.000042
0.065013 0.004866 0.000675
0.113020 0.009340 0.000041
0.186484 0.013683 0.000014
0.301471 0.024648 0.000186
0.480007 0.039402 0.000685
0.683414 0.061055 0.000010
0.820409 0.081761 0.000385
0.895864 0.107503 0.036936
0.937151 0.138124 0.107956
0.945071 0.178440 0.178616
0.948013 0.234829 0.231632
0.950955 0.280785 0.276107
0.951060 0.281893 0.277250
0.951060 0.281893 0.277250
0.951060 0.281893 0.277250
0.951060 0.281893 0.277250
0.951060 0.281893 0.277250
0.952150 0.300230 0.273999
0.952273 0.330512 0.271325
0.952636 0.363632 0.265181
0.953635 0.398647 0.259623
0.954409 0.435271 0.252503
0.955261 0.475156 0.244680
0.955479 0.516406 0.234168
0.000129 0.000120 0.000052
0.000129 0.000120 0.000052
0.000129 0.000120 0.000052
0.000129 0.000120 0.000052
0.000129 0.000120 0.000052
0.000129 0.000120 0.000052
0.000129 0.000120 0.000052
0.012075 0.000953 0.000016
0.048937 0.003825 0.000746
0.088548 0.007191 0.000423
0.138735 0.010289 0.000039
0.218130 0.016382 0.000013
0.339002 0.027869 0.000040
0.522173 0.043536 0.000338
0.708524 0.064029 0.000026
0.830950 0.085137 0.003679
0.901579 0.109689 0.041407
0.938616 0.140296 0.114026
0.945179 0.181450 0.181802
0.948154 0.237712 0.234331
0.951048 0.281770 0.277124
0.951060 0.281893 0.277250
0.951060 0.281893 0.277250
0.951060 0.281893 0.277250
0.951014 0.282108 0.277263
0.951773 0.301376 0.273556
0.951957 0.327840 0.271101
0.952940 0.354166 0.267833
0.953391 0.382195 0.260934
0.953772 0.414475 0.255966
0.954776 0.448593 0.249985
0.955165 0.487168 0.242708
0.956173 0.525580 0.231495
0.000129 0.000120 0.000052
0.000129 0.000120 0.000052
0.000129 0.000120 0.000052
0.000129 0.000120 0.000052
0.000129 0.000120 0.000052
0.000129 0.000120 0.000052
0.000130 0.000086 0.000031
0.021703 0.001366 0.000082
0.060615 0.004537 0.000697
0.097897 0.008328 0.000194
0.150339 0.011019 0.000032
0.232405 0.017901 0.000089
0.355191 0.029190 0.000069
0.538984 0.045184 0.000199
0.718625 0.065225 0.000032
0.835219 0.086504 0.005012
0.903545 0.110925 0.043971
0.939214 0.141184 0.116507
0.945223 0.182684 0.183107
0.948212 0.238897 0.235441
0.950966 0.279820 0.275518
0.950944 0.279674 0.275166
0.951060 0.281893 0.277250
0.951060 0.281893 0.277250
0.950269 0.292822 0.274599
0.952110 0.314251 0.272498
0.952045 0.336881 0.269465
0.953825 0.363072 0.266737
0.953519 0.389960 0.259327
0.953742 0.420877 0.254520
0.954696 0.454283 0.248608
0.955293 0.491778 0.241664
0.956452 0.529264 0.230419
0.000129 0.000120 0.000052
0.000129 0.000120 0.000052
0.000129 0.000120 0.000052
0.000129 0.000120 0.000052
0.000129 0.000120 0.000052
0.000129 0.000120 0.000052
0.005952 0.000568 0.000000
0.033077 0.002496 0.000460
0.068700 0.005202 0.000653
0.104846 0.009109 0.000041
0.158877 0.011557 0.000027
0.243011 0.019029 0.000145
0.369228 0.030252 0.000209
0.551638 0.046424 0.000095
0.726261 0.066129 0.000037
0.838457 0.087541 0.006024
0.905041 0.111865 0.045920
0.939670 0.141861 0.118397
0.945257 0.183626 0.184104
0.946076 0.212742 0.212309
0.948702 0.240034 0.241046
0.950747 0.272715 0.269220
0.951060 0.281893 0.277250
0.951080 0.286260 0.275790
0.950916 0.303055 0.272635
0.951759 0.322954 0.271370
0.952437 0.344922 0.268290
0.954021 0.370071 0.265597
0.953613 0.395658 0.258147
0.953719 0.425624 0.253447
0.954638 0.458537 0.247578
0.955467 0.495164 0.240756
0.956662 0.532048 0.229605
0.000129 0.000120 0.000052
0.000129 0.000120 0.000052
0.000129 0.000120 0.000052
0.000129 0.000120 0.000052
0.000129 0.000120 0.000052
0.000129 0.000120 0.000052
0.011462 0.000930 0.000013
0.042022 0.003384 0.000757
0.075078 0.005782 0.000614
0.111994 0.009311 0.000041
0.165847 0.011995 0.000024
0.251731 0.019957 0.000191
0.380834 0.031129 0.000325
0.562021 0.047491 0.000039
0.732624 0.066883 0.000041
0.841162 0.088407 0.006869
0.906292 0.112653 0.047553
0.938807 0.135877 0.102502
0.942845 0.156189 0.149021
0.945162 0.184754 0.185603
0.947394 0.216071 0.216709
0.949528 0.252971 0.251845
0.950895 0.278344 0.272125
0.951722 0.294830 0.274667
0.951473 0.312112 0.272007
0.951520 0.329835 0.270472
0.952789 0.351526 0.267355
0.953827 0.376154 0.264404
0.953579 0.400774 0.257462
0.953698 0.429520 0.252565
0.954590 0.462051 0.246727
0.955611 0.497974 0.240001
0.956755 0.534450 0.228926
0.000129 0.000120 0.000052
0.000129 0.000120 0.000052
0.000129 0.000120 0.000052
0.000129 0.000120 0.000052
0.000129 0.000120 0.000052
0.000129 0.000120 0.000052
0.016961 0.001143 0.000040
0.049154 0.003838 0.000745
0.080455 0.006271 0.000582
0.118078 0.009483 0.000042
0.173396 0.012591 0.000020
0.259254 0.020758 0.000231
0.390893 0.031889 0.000426
0.570873 0.048471 0.000036
0.730735 0.066382 0.000061
0.821065 0.082118 0.002725
0.878826 0.100673 0.021697
0.919549 0.119551 0.063490
0.938989 0.141312 0.117398
0.943804 0.166689 0.166888
0.946066 0.200477 0.199926
0.948440 0.240874 0.238252
0.950933 0.281251 0.265720
0.952152 0.303334 0.273613
0.951948 0.320308 0.272090
0.952042 0.336778 0.269436
0.953074 0.357106 0.266548
0.953664 0.381317 0.263391
0.953513 0.405308 0.256965
0.953694 0.432911 0.251815
0.954549 0.465093 0.245991
0.955736 0.500418 0.239345
0.956737 0.536645 0.228333
0.000129 0.000120 0.000052
0.000129 0.000120 0.000052
0.000129 0.000120 0.000052
0.000129 0.000120 0.000052
0.000129 0.000120 0.000052
0.000129 0.000120 0.000052
0.021181 0.001396 0.000036
0.052996 0.003909 0.000668
0.081931 0.006583 0.000355
0.117165 0.009309 0.000170
0.167180 0.012408 0.000000
0.238104 0.019226 0.000133
0.343194 0.028049 0.000083
0.488487 0.041342 0.000186
0.648750 0.054871 0.000112
0.771542 0.073091 0.000011
0.850093 0.090056 0.006540
0.899999 0.109679 0.041563
0.933851 0.132548 0.092880
0.942459 0.156478 0.148670
0.946075 0.189703 0.188889
0.947544 0.236552 0.227183
0.950730 0.284608 0.260045
0.952260 0.311605 0.272518
0.952081 0.326749 0.271287
0.952489 0.342740 0.268543
0.953200 0.362282 0.265561
0.953522 0.385837 0.262504
0.953455 0.409308 0.256526
0.953895 0.436408 0.251314
0.954512 0.467803 0.245335
0.955848 0.502601 0.238758
0.956720 0.538612 0.227801
0.000165 0.004634 0.000112
0.000096 0.008082 0.000924
0.000057 0.009482 0.001298
0.000027 0.010526 0.001578
0.000003 0.011388 0.001809
0.000000 0.011668 0.001492
0.009704 0.010145 0.000363
0.035644 0.009283 0.000027
0.068443 0.010056 0.000342
0.100951 0.011002 0.000015
0.142229 0.013103 0.000114
0.203885 0.016159 0.000983
0.290583 0.024066 0.000065
0.419619 0.033303 0.000008
0.585369 0.049103 0.000018
0.726287 0.065619 0.000110
0.824132 0.083231 0.002995
0.885153 0.101917 0.027107
0.926492 0.128219 0.074033
0.941842 0.155356 0.132762
0.945311 0.189682 0.179632
0.947687 0.238015 0.216973
0.950386 0.287970 0.254920
0.952206 0.318606 0.271627
0.951952 0.331975 0.269780
0.952884 0.348072 0.267739
0.953317 0.366955 0.264669
0.953463 0.389870 0.261651
0.953402 0.412969 0.256126
0.954080 0.439624 0.250855
0.954479 0.470303 0.244729
0.955951 0.504622 0.238215
0.956705 0.540437 0.227308
0.000167 0.025329 0.005644
0.000588 0.032152 0.007072
0.000755 0.034864 0.007639
0.000881 0.036902 0.008066
0.000985 0.038593 0.008420
0.000233 0.035276 0.007081
0.002915 0.028505 0.002184
0.020833 0.025035 0.000787
0.051079 0.025380 0.000222
0.085112 0.026432 0.000001
0.123693 0.026054 0.000161
0.174531 0.027890 0.000132
0.251081 0.032841 0.000199
0.363482 0.041975 0.000185
0.519942 0.054368 0.000017
0.680669 0.072306 0.000132
0.796348 0.089274 0.000231
0.870162 0.109753 0.015078
0.915672 0.135939 0.058451
0.940737 0.162862 0.116213
0.944481 0.195309 0.169271
0.947351 0.240436 0.206289
0.950047 0.290185 0.246075
0.951899 0.326078 0.270732
0.951805 0.337877 0.268069
0.953141 0.354157 0.266558
0.953456 0.372350 0.263639
0.953607 0.394320 0.260515
0.953339 0.417256 0.255657
0.954298 0.443408 0.250315
0.954440 0.473257 0.244014
0.956074 0.507017 0.237572
0.956687 0.542604 0.226722
0.001256 0.060130 0.013129
0.001231 0.065333 0.014749
0.001221 0.067423 0.015400
0.001214 0.069002 0.015891
0.001208 0.070317 0.016300
0.001322 0.062668 0.011377
0.001482 0.054749 0.007722
0.009996 0.051983 0.006072
0.035476 0.049694 0.002609
0.069886 0.048233 0.000350
0.107178 0.048578 0.000197
0.152499 0.049856 0.000056
0.219849 0.053681 0.000149
0.316716 0.060413 0.000095
0.460716 0.073002 0.000473
0.628498 0.090172 0.000001
0.763128 0.107893 0.000091
0.850237 0.127735 0.006345
0.903508 0.149454 0.044044
0.936472 0.176032 0.096620
0.944320 0.205136 0.156717
0.946666 0.244650 0.194460
0.949622 0.292913 0.234795
0.951952 0.333729 0.266893
0.952166 0.347307 0.266986
0.953461 0.361581 0.265122
0.953580 0.379139 0.262335
0.953786 0.399857 0.259103
0.953290 0.422622 0.255050
0.954574 0.448178 0.249635
0.954538 0.477263 0.243092
0.956228 0.510060 0.236753
0.956663 0.545366 0.225976
0.002260 0.096388 0.021761
0.002488 0.100206 0.022957
0.002580 0.101751 0.023440
0.002650 0.102923 0.023807
0.002709 0.103902 0.024114
0.002621 0.092691 0.015986
0.002695 0.085096 0.013592
0.002452 0.080555 0.011999
0.018845 0.077929 0.009741
0.054485 0.074944 0.004103
0.091835 0.075254 0.000484
0.135018 0.074627 0.000380
0.188772 0.077347 0.000342
0.278210 0.084740 0.000554
0.405951 0.094973 0.000417
0.572289 0.110179 0.000025
0.723931 0.127209 0.000004
0.827549 0.145015 0.001409
0.888789 0.166714 0.028745
0.929773 0.190991 0.076569
0.944124 0.219286 0.140073
0.947026 0.252002 0.181351
0.949135 0.298660 0.222363
0.952635 0.340940 0.258297
0.952634 0.358805 0.265732
0.953733 0.371438 0.263512
0.953577 0.387829 0.260643
0.954006 0.406690 0.257364
0.953824 0.429182 0.253871
0.954921 0.454154 0.248786
0.954680 0.482344 0.241927
0.956424 0.513912 0.235717
0.956632 0.548876 0.225027
0.003926 0.137294 0.030867
0.003870 0.141416 0.031574
0.003847 0.143094 0.031862
0.003829 0.144370 0.032080
0.003392 0.138636 0.027754
0.001987 0.122945 0.019809
0.002553 0.114439 0.017704
0.002822 0.109287 0.017367
0.008314 0.105544 0.016365
0.036597 0.103558 0.010645
0.075032 0.102865 0.006301
0.116599 0.102474 0.001235
0.168480 0.105111 0.000311
0.244451 0.108522 0.000045
0.355484 0.117785 0.000178
0.515890 0.131210 0.000040
0.679130 0.147521 0.000318
0.800208 0.165340 0.000087
0.871872 0.184693 0.014813
0.920607 0.209611 0.059053
0.944004 0.236849 0.118002
0.946238 0.266861 0.167988
0.949046 0.307167 0.207164
0.951962 0.350206 0.248984
0.953173 0.372660 0.263130
0.953886 0.384471 0.261768
0.953568 0.398313 0.258604
0.954313 0.416032 0.255520
0.954486 0.437269 0.252418
0.955314 0.461601 0.247682
0.954857 0.488710 0.240466
0.956590 0.518868 0.234355
0.956593 0.553319 0.223827
0.005051 0.187944 0.041748
0.005326 0.192350 0.042520
0.005439 0.194151 0.042836
0.005524 0.195524 0.043077
0.004611 0.175155 0.030840
0.004296 0.160114 0.025930
0.004245 0.149619 0.023589
0.003738 0.143703 0.022898
0.005248 0.138900 0.022238
0.018882 0.134739 0.019400
0.055866 0.132681 0.013557
0.099145 0.131789 0.007303
0.148116 0.133048 0.001866
0.215771 0.136383 0.000005
0.316717 0.141901 0.000053
0.458957 0.152789 0.000009
0.627732 0.170217 0.000035
0.767771 0.187626 0.000013
0.853339 0.209210 0.002472
0.907540 0.232794 0.040170
0.941387 0.260445 0.094368
0.946686 0.288628 0.150284
0.948486 0.321500 0.191604
0.951723 0.362841 0.236143
0.953527 0.389480 0.260594
0.953541 0.400294 0.259727
0.953289 0.413249 0.257289
0.954706 0.428020 0.253499
0.955300 0.447138 0.250647
0.955181 0.470903 0.245606
0.955076 0.496628 0.238646
0.956298 0.525721 0.232302
0.956543 0.558919 0.222314
0.008067 0.256775 0.052385
0.008217 0.261058 0.052985
0.008299 0.262988 0.053260
0.008356 0.249659 0.046907
0.006094 0.219060 0.035357
0.006178 0.203030 0.032332
0.006207 0.191342 0.030666
0.005053 0.186192 0.030079
0.005062 0.179986 0.029444
0.005635 0.173570 0.027489
0.035796 0.169795 0.023522
0.079839 0.167696 0.016411
0.127369 0.167668 0.009703
0.189649 0.168507 0.003111
0.279783 0.173787 0.000296
0.410367 0.184363 0.000009
0.576473 0.198718 0.000016
0.729894 0.215701 0.000012
0.831606 0.236754 0.000003
0.892928 0.260499 0.023702
0.934326 0.288146 0.072711
0.946714 0.318465 0.135410
0.949083 0.342964 0.176278
0.950850 0.377845 0.219296
0.953691 0.410071 0.257056
0.953392 0.419017 0.256591
0.953474 0.430514 0.254960
0.955076 0.443008 0.250788
0.955012 0.460707 0.247421
0.955016 0.482264 0.243065
0.955345 0.506546 0.236332
0.955939 0.534246 0.229752
0.956479 0.565936 0.220418
0.011354 0.347927 0.066391
0.011474 0.352004 0.067072
0.011524 0.353679 0.067352
0.008938 0.301760 0.049155
0.008642 0.273664 0.045859
0.007249 0.255723 0.041023
0.007101 0.245427 0.039540
0.007110 0.237005 0.038242
0.006637 0.230262 0.038171
0.007078 0.222070 0.036823
0.016335 0.215705 0.033783
0.060271 0.212902 0.026714
0.109673 0.210257 0.018770
0.166837 0.211138 0.012115
0.247053 0.214765 0.002381
0.366679 0.220947 0.000258
0.527051 0.234800 0.000176
0.687542 0.251300 0.000027
0.808117 0.269196 0.000057
0.878368 0.295014 0.009751
0.924594 0.322823 0.052267
0.946478 0.353805 0.113663
0.948987 0.372963 0.157731
0.951159 0.399995 0.199925
0.953467 0.432498 0.245969
0.954328 0.441124 0.251417
0.954847 0.449618 0.250364
0.955416 0.461353 0.247285
0.954736 0.476990 0.243565
0.955101 0.496330 0.239322
0.955678 0.519166 0.233270
0.955505 0.544764 0.226615
0.956802 0.574667 0.217490
0.014290 0.459139 0.080613
0.014353 0.463157 0.081150
0.012417 0.408155 0.067494
0.011274 0.364741 0.060332
0.009854 0.339606 0.056061
0.009650 0.321562 0.053596
0.009494 0.311784 0.050531
0.008628 0.303497 0.049349
0.009043 0.294746 0.047944
0.009080 0.285868 0.046657
0.010871 0.277504 0.045051
0.034404 0.270404 0.040176
0.086163 0.266641 0.032369
0.142617 0.265083 0.023971
0.218832 0.264684 0.013528
0.327276 0.270407 0.003148
0.477830 0.280778 0.000029
0.645425 0.298245 0.000125
0.778529 0.316410 0.000000
0.860229 0.337977 0.000904
0.912638 0.364863 0.032929
0.945634 0.394851 0.086602
0.949200 0.414115 0.138971
0.950767 0.430414 0.179930
0.953440 0.456646 0.224462
0.954688 0.468866 0.245517
0.955033 0.475712 0.244367
0.955321 0.485252 0.242278
0.955470 0.497453 0.239081
0.955620 0.513572 0.233915
0.956083 0.534403 0.229565
0.955375 0.558143 0.222457
0.957262 0.585435 0.213803
0.018749 0.584034 0.097717
0.017126 0.538020 0.088722
0.014770 0.470839 0.078590
0.013751 0.437129 0.072574
0.012816 0.414741 0.068234
0.012448 0.400296 0.065822
0.012188 0.389730 0.064138
0.011736 0.381111 0.062591
0.011345 0.372523 0.061331
0.011130 0.363332 0.059747
0.011530 0.354079 0.057659
0.016753 0.344566 0.056207
0.057266 0.338368 0.049246
0.120334 0.334545 0.038326
0.191100 0.331589 0.028692
0.288662 0.332725 0.015770
0.432243 0.342903 0.003519
0.605719 0.356764 0.000035
0.749774 0.373105 0.000000
0.841447 0.393151 0.000284
0.898941 0.417475 0.014212
0.939430 0.443974 0.061171
0.950516 0.464107 0.117949
0.951177 0.472932 0.158460
0.954096 0.489560 0.203617
0.954955 0.500922 0.235731
0.956184 0.505298 0.237394
0.955555 0.512078 0.235106
0.955686 0.521718 0.232993
0.955923 0.535282 0.228370
0.956439 0.553519 0.224006
0.955609 0.574821 0.217111
0.957836 0.598580 0.209305
0.022095 0.698244 0.117072
0.019040 0.588271 0.097744
0.016399 0.542809 0.090802
0.015810 0.516039 0.085776
0.015325 0.499714 0.082688
0.015517 0.487065 0.079792
0.015085 0.477576 0.078531
0.014742 0.469563 0.077484
0.014509 0.462024 0.076652
0.014173 0.452998 0.075331
0.013631 0.442310 0.073153
0.013124 0.432383 0.071193
0.034022 0.423751 0.067011
0.090578 0.417732 0.057723
0.160528 0.413495 0.047991
0.254058 0.412894 0.034140
0.387951 0.417665 0.016971
0.556679 0.427734 0.001016
0.714317 0.443338 0.000243
0.823004 0.460832 0.000003
0.885905 0.478347 0.003885
0.930449 0.500529 0.038011
0.950263 0.523632 0.097163
0.951823 0.524599 0.134606
0.954063 0.531845 0.177856
0.956045 0.539142 0.221655
0.956110 0.540102 0.226673
0.956021 0.543494 0.226913
0.955773 0.550926 0.224956
0.956357 0.561241 0.222035
0.956825 0.576231 0.217119
0.956155 0.594541 0.210999
0.957741 0.615409 0.203804
0.022942 0.747522 0.124478
0.019482 0.646955 0.107905
0.019231 0.618058 0.102170
0.019192 0.601657 0.099865
0.019028 0.588230 0.097311
0.018378 0.579783 0.095784
0.017747 0.573076 0.094578
0.017637 0.566443 0.093657
0.017640 0.558797 0.092672
0.017213 0.550459 0.091377
0.016346 0.541280 0.089748
0.015919 0.531440 0.088378
0.016190 0.521029 0.086511
0.057320 0.513069 0.080173
0.130150 0.507251 0.068568
0.217674 0.503162 0.054846
0.339939 0.505193 0.038203
0.510041 0.511796 0.015197
0.678891 0.524498 0.001494
0.800901 0.536362 0.000006
0.872742 0.550983 0.001016
0.919597 0.566985 0.022879
0.949774 0.586271 0.066277
0.953134 0.585884 0.112641
0.953881 0.582381 0.150319
0.956571 0.582396 0.196857
0.955982 0.580488 0.215439
0.957457 0.580483 0.215752
0.956297 0.584906 0.214754
0.957409 0.591235 0.213539
0.957227 0.602873 0.208410
0.957134 0.617531 0.204121
0.957500 0.635621 0.197232
0.024205 0.761593 0.126884
0.022181 0.707734 0.118113
0.021564 0.691979 0.115398
0.021049 0.681807 0.114053
0.021137 0.673891 0.112509
0.021205 0.667410 0.111248
0.020948 0.662007 0.110328
0.020700 0.657231 0.109529
0.020397 0.651844 0.108573
0.019853 0.645509 0.106986
0.019296 0.638051 0.105236
0.019784 0.630380 0.105020
0.021179 0.620995 0.103093
0.036809 0.611427 0.098710
0.090961 0.604805 0.090655
0.181081 0.600572 0.077273
0.297400 0.599320 0.061545
0.457949 0.603526 0.039811
0.636447 0.610034 0.014741
0.773956 0.620888 0.001584
0.859609 0.627628 0.000076
0.908617 0.638078 0.016842
0.944815 0.650913 0.047570
0.953467 0.652345 0.085115
0.954540 0.642548 0.120411
0.955834 0.633373 0.165695
0.957668 0.625680 0.197852
0.957334 0.622745 0.201712
0.956873 0.622607 0.200950
0.957382 0.626537 0.200957
0.957072 0.633447 0.197634
0.957533 0.644871 0.194097
0.957610 0.659488 0.186936
0.025017 0.792423 0.132372
0.024199 0.765313 0.127615
0.023623 0.756304 0.125426
0.023356 0.750117 0.124829
0.023284 0.745204 0.124349
0.023367 0.741057 0.123940
0.023438 0.737492 0.123587
0.023392 0.734325 0.123150
0.023094 0.730749 0.122383
0.022729 0.726380 0.121444
0.022563 0.721089 0.120407
0.022689 0.714776 0.119291
0.022537 0.707577 0.117991
0.027606 0.699824 0.115784
0.055225 0.692756 0.110380
0.136708 0.688692 0.099154
0.244398 0.687384 0.082985
0.397356 0.688973 0.062332
0.581593 0.694379 0.037237
0.741858 0.699831 0.016270
0.839899 0.704594 0.004798
0.896655 0.711013 0.010783
0.936323 0.716630 0.034818
0.954608 0.719040 0.069114
0.955303 0.704310 0.088574
0.955930 0.689761 0.129719
0.957567 0.674374 0.173338
0.957531 0.667977 0.182049
0.957251 0.665032 0.184250
0.957642 0.665198 0.185672
0.957321 0.668768 0.183163
0.957347 0.676018 0.179876
0.957904 0.686510 0.174731
0.025677 0.830874 0.137419
0.025703 0.813800 0.135045
0.025840 0.807918 0.134266
0.026074 0.803995 0.133897
0.026256 0.800869 0.133598
0.026165 0.798378 0.133214
0.025796 0.796378 0.132724
0.025464 0.794570 0.132282
0.025081 0.792479 0.131774
0.024788 0.789647 0.131189
0.024764 0.785718 0.130552
0.024733 0.780979 0.129779
0.024651 0.776052 0.129344
0.024604 0.770174 0.128587
0.024744 0.762631 0.126549
0.089681 0.760291 0.117975
0.190550 0.759182 0.103095
0.331568 0.760797 0.083079
0.519343 0.765308 0.057843
0.696437 0.769797 0.034568
0.813980 0.773502 0.018176
0.883147 0.775139 0.009460
0.925233 0.776855 0.022771
0.954626 0.779434 0.054514
0.956023 0.765392 0.068136
0.956016 0.748101 0.089385
0.957238 0.726865 0.135398
0.958213 0.713902 0.159816
0.959211 0.708767 0.163165
0.957550 0.706099 0.164743
0.958837 0.706176 0.164921
0.957636 0.709685 0.161980
0.958590 0.716304 0.159204
0.026997 0.863620 0.143795
0.026777 0.854483 0.142165
0.026500 0.851223 0.141618
0.026586 0.848706 0.141152
0.026695 0.846655 0.140768
0.026789 0.844911 0.140442
0.026872 0.843383 0.140157
0.026891 0.841911 0.139968
0.026852 0.840108 0.139821
0.026802 0.837863 0.139640
0.026739 0.835089 0.139418
0.026834 0.831898 0.139028
0.027096 0.828226 0.138452
0.026948 0.824193 0.137694
0.025939 0.820032 0.136713
0.052982 0.816051 0.132710
0.129782 0.814175 0.121584
0.262795 0.816014 0.102767
0.440816 0.820833 0.079293
0.636207 0.826662 0.051963
0.785429 0.830781 0.031809
0.864902 0.830370 0.021418
0.912931 0.829598 0.016231
0.946634 0.829251 0.033939
0.956369 0.820217 0.054142
0.957117 0.801979 0.061336
0.956792 0.779216 0.092229
0.958564 0.760316 0.127755
0.958556 0.752449 0.135048
0.958169 0.748328 0.139751
0.958267 0.745411 0.140859
0.958806 0.745668 0.140723
0.959196 0.748327 0.138428
0.028599 0.892962 0.149462
0.028360 0.887099 0.148236
0.028125 0.884751 0.147472
0.027957 0.883028 0.146923
0.027921 0.881705 0.146756
0.027891 0.880571 0.146613
0.027865 0.879570 0.146488
0.027842 0.878655 0.146374
0.027815 0.877583 0.146240
0.027787 0.876245 0.146080
0.027836 0.874660 0.145977
0.027898 0.872705 0.145851
0.027973 0.870316 0.145697
0.027863 0.867013 0.144892
0.027688 0.863010 0.143843
0.041439 0.859818 0.141335
0.088067 0.858000 0.134857
0.191222 0.858871 0.121326
0.349269 0.862679 0.099788
0.552650 0.869950 0.071839
0.730802 0.874811 0.047468
0.839322 0.876835 0.033083
0.900604 0.875080 0.024723
0.937004 0.874069 0.022691
0.956699 0.867438 0.037317
0.956938 0.849970 0.044969
0.956979 0.828771 0.053415
0.957792 0.806442 0.089824
0.957602 0.795210 0.103344
0.958939 0.788761 0.107399
0.958212 0.784653 0.111177
0.958132 0.782510 0.113831
0.958494 0.781855 0.112720
0.028753 0.918193 0.153643
0.028551 0.914415 0.153273
0.028621 0.913237 0.152972
0.028674 0.912362 0.152748
0.028718 0.911642 0.152565
0.028750 0.910991 0.152404
0.028762 0.910329 0.152258
0.028772 0.909720 0.152123
0.028783 0.909003 0.151966
0.028798 0.908101 0.151769
0.028817 0.906970 0.151524
0.028839 0.905565 0.151223
0.028881 0.903647 0.150946
0.028934 0.901293 0.150608
0.028949 0.898509 0.150038
0.028805 0.895378 0.148888
0.053398 0.893425 0.144766
0.116054 0.893418 0.136168
0.258533 0.896707 0.117739
0.455962 0.903747 0.091340
0.666509 0.912435 0.063956
0.805964 0.915468 0.044506
0.880183 0.914815 0.032949
0.924379 0.912361 0.027081
0.952662 0.906666 0.024284
0.955977 0.891805 0.027349
0.957572 0.872313 0.036130
0.957018 0.849298 0.048592
0.957186 0.834275 0.066170
0.957278 0.827194 0.066373
0.957738 0.821901 0.071484
0.957476 0.817973 0.076628
0.957082 0.815543 0.078918
0.029528 0.938213 0.156166
0.029965 0.935999 0.155966
0.030104 0.935297 0.156238
0.030208 0.934772 0.156441
0.030293 0.934340 0.156609
0.030367 0.933967 0.156753
0.030433 0.933635 0.156882
0.030494 0.933329 0.157001
0.030565 0.932969 0.157141
0.030556 0.932461 0.156889
0.030521 0.931810 0.156470
0.030477 0.930995 0.155947
0.030423 0.929984 0.155300
0.030359 0.928728 0.154566
0.030314 0.926975 0.154675
0.030263 0.924864 0.154797
0.030240 0.922091 0.154034
0.038310 0.919225 0.151757
0.171052 0.923577 0.133605
0.352152 0.930457 0.110466
0.565475 0.939134 0.082575
0.746821 0.945375 0.058183
0.852457 0.946497 0.043193
0.908245 0.943180 0.033960
0.941520 0.938096 0.029550
0.953219 0.926290 0.024892
0.954692 0.909579 0.023813
0.955630 0.889761 0.028737
0.956943 0.870894 0.037540
0.956727 0.863119 0.040359
0.957101 0.857021 0.042082
0.957374 0.851614 0.044974
0.957813 0.848017 0.047609
0.029291 0.944444 0.157090
0.029291 0.944444 0.157090
0.029298 0.944396 0.157105
0.029305 0.944347 0.157121
0.029311 0.944307 0.157133
0.029316 0.944273 0.157144
0.029320 0.944243 0.157154
0.029324 0.944215 0.157163
0.029329 0.944182 0.157173
0.029335 0.944141 0.157186
0.029342 0.944089 0.157202
0.029352 0.944025 0.157223
0.029349 0.943847 0.157177
0.029345 0.943625 0.157117
0.029340 0.943361 0.157046
0.029351 0.943080 0.156984
0.029403 0.942826 0.156970
0.032730 0.942506 0.156585
0.048305 0.941909 0.154852
