output/AppleLog_display/AppleLog_to_ETERNA_33grid.cube
TITLE "AppleLog_to_ETERNA"
# Input: Apple Log (BT.2020 primaries, D65)
# Output: BT.709 / Gamma 2.2 (display-referred)
# Use: Display LUT for iPhone 15/16 Pro Apple Log footage
# Source: FLog2C_to_ETERNA_65grid_V.1.00.cube
# Generated from Fujifilm GFX ETERNA 55 F-Log2C LUT
LUT_3D_SIZE 9
0.006510 0.006095 0.006119
0.006510 0.006095 0.006119
0.052675 0.008949 0.012158
0.348148 0.038136 0.050735
0.837079 0.148631 0.109450
0.944061 0.327455 0.269674
0.943984 0.328397 0.270514
0.939444 0.403556 0.217884
0.929387 0.531279 0.068104
0.006510 0.006095 0.006119
0.006510 0.006095 0.006119
0.133572 0.011768 0.023198
0.403567 0.046231 0.056901
0.858686 0.156550 0.111837
0.943167 0.273311 0.213575
0.942742 0.357508 0.249198
0.937071 0.436023 0.187401
0.928183 0.545417 0.064868
0.006153 0.066980 0.003764
0.005873 0.087442 0.000582
0.108778 0.063233 0.010282
0.311757 0.062743 0.040293
0.687940 0.120178 0.086600
0.936839 0.260314 0.122223
0.940667 0.380207 0.233931
0.935492 0.450463 0.171966
0.927989 0.551623 0.064631
0.006909 0.261344 0.000908
0.006597 0.248891 0.000084
0.048811 0.210224 0.000290
0.237450 0.198175 0.006567
0.564533 0.217165 0.051563
0.931768 0.319811 0.088600
0.937279 0.426765 0.196821
0.932917 0.475828 0.143993
0.927606 0.564035 0.064158
0.007882 0.609685 0.000860
0.007547 0.471158 0.000284
0.017289 0.436970 0.000326
0.196311 0.407166 0.000094
0.477124 0.397052 0.008850
0.842868 0.455339 0.055751
0.929421 0.516068 0.069810
0.928896 0.536219 0.064987
0.927091 0.594282 0.061842
0.009376 0.805742 0.000407
0.009118 0.755505 0.000590
0.029008 0.740001 0.000192
0.183777 0.719868 0.000079
0.439829 0.690293 0.000437
0.759437 0.680510 0.023703
0.925763 0.684480 0.057413
0.925624 0.644234 0.060149
0.926441 0.660725 0.060092
0.019562 0.969636 0.000393
0.072348 0.958674 0.000770
0.125416 0.953727 0.000699
0.232740 0.944352 0.000376
0.430620 0.927187 0.000407
0.704751 0.902716 0.002192
0.927589 0.877673 0.053881
0.926770 0.790235 0.056080
0.926289 0.771686 0.055809
0.146815 0.999640 0.000308
0.200311 0.999527 0.000134
0.223081 0.999479 0.000061
0.263342 0.999577 0.000136
0.359529 0.999897 0.000407
0.556152 0.999110 0.000155
0.803446 0.999825 0.029030
0.932111 0.970738 0.054829
0.929883 0.919846 0.056422
0.364416 0.999355 0.001079
0.377204 0.999300 0.000810
0.382793 0.999275 0.000691
0.394412 0.999226 0.000440
0.425149 0.999271 0.000133
0.501287 0.999753 0.000216
0.649260 0.999812 0.000333
0.857772 0.999750 0.052972
0.932526 0.999632 0.082454
0.006510 0.006095 0.006119
0.006510 0.006095 0.006119
0.076349 0.010132 0.015695
0.361915 0.039971 0.051961
0.842402 0.150359 0.110041
0.944029 0.327853 0.270029
0.943984 0.328397 0.270514
0.939070 0.407581 0.214140
0.929234 0.533005 0.067691
0.006510 0.006095 0.006119
0.006510 0.006095 0.006119
0.148719 0.014185 0.024734
0.415775 0.048298 0.058752
0.807285 0.139152 0.102341
0.941174 0.260221 0.195638
0.941957 0.364722 0.246276
0.936638 0.439989 0.183165
0.928130 0.547085 0.064805
0.005724 0.104140 0.000555
0.006000 0.116266 0.000336
0.105645 0.093713 0.004859
0.298082 0.091457 0.032707
0.665969 0.136248 0.080276
0.935479 0.267949 0.103963
0.940351 0.386650 0.229446
0.935098 0.454081 0.168092
0.927939 0.553232 0.064571
0.007592 0.280763 0.000799
0.006648 0.258178 0.000231
0.053084 0.221398 0.000451
0.236687 0.209304 0.004848
0.558191 0.226246 0.049022
0.928772 0.326813 0.086776
0.937044 0.431541 0.192775
0.932579 0.479035 0.138623
0.927560 0.565532 0.064102
0.007933 0.621862 0.000904
0.007695 0.476813 0.000254
0.016224 0.444311 0.000396
0.198035 0.415188 0.000107
0.476991 0.403950 0.007639
0.840211 0.461097 0.054792
0.929471 0.519551 0.069021
0.928844 0.538831 0.064701
0.927111 0.595863 0.061849
0.009109 0.822198 0.000315
0.008889 0.771327 0.000336
0.022192 0.756640 0.000563
0.163453 0.735325 0.000592
0.421805 0.703832 0.000285
0.745839 0.689308 0.018246
0.925712 0.695675 0.057440
0.925404 0.653176 0.057165
0.925493 0.670037 0.058027
0.019352 0.984102 0.000478
0.019133 0.975374 0.000328
0.053410 0.970858 0.000370
0.141221 0.961943 0.000389
0.363206 0.944327 0.000317
0.660212 0.917498 0.000222
0.915383 0.889695 0.050910
0.926984 0.804665 0.054777
0.927126 0.786191 0.054430
0.127647 0.999585 0.000198
0.177982 0.999597 0.000252
0.199395 0.999603 0.000275
0.237343 0.999645 0.000208
0.329694 0.999772 0.000086
0.525589 0.999680 0.000507
0.781981 0.999756 0.021371
0.931357 0.973541 0.058215
0.929801 0.921731 0.054740
0.370546 0.999414 0.039783
0.382005 0.999394 0.037853
0.387013 0.999386 0.037006
0.397427 0.999368 0.035233
0.426209 0.999393 0.032642
0.500029 0.999618 0.030273
0.644856 0.999517 0.019825
0.850690 0.999746 0.048899
0.932505 0.999629 0.082445
0.010169 0.004586 0.098849
0.010169 0.004586 0.098849
0.082188 0.004077 0.090298
0.344262 0.036992 0.058199
0.816701 0.142498 0.104955
0.944017 0.327628 0.269868
0.943984 0.328397 0.270514
0.937589 0.417365 0.205854
0.928748 0.543620 0.065388
0.010800 0.004364 0.104166
0.010800 0.004364 0.104166
0.147555 0.006377 0.085724
0.388617 0.042331 0.066562
0.751934 0.121706 0.097697
0.939559 0.245513 0.162465
0.940967 0.372819 0.239827
0.934798 0.451465 0.171897
0.928109 0.558809 0.064558
0.013732 0.119691 0.128466
0.014569 0.133040 0.129985
0.102663 0.104842 0.101980
0.285357 0.100151 0.094741
0.632629 0.143942 0.098870
0.935785 0.271007 0.098028
0.938921 0.398369 0.221509
0.934610 0.464666 0.159611
0.927949 0.565498 0.063977
0.017366 0.309197 0.151860
0.016119 0.279256 0.125646
0.042776 0.239634 0.094444
0.233328 0.220881 0.090256
0.541025 0.235156 0.083677
0.909059 0.330067 0.083164
0.937351 0.442021 0.199548
0.932873 0.491400 0.134081
0.927476 0.578764 0.062668
0.024028 0.660233 0.162606
0.017218 0.518750 0.079538
0.015198 0.480961 0.058053
0.188835 0.446596 0.053018
0.464424 0.426821 0.041841
0.817927 0.471422 0.050778
0.929657 0.532581 0.106249
0.930223 0.552336 0.115654
0.926532 0.610189 0.062057
0.018860 0.835727 0.016281
0.014202 0.789095 0.000365
0.013354 0.775500 0.000429
0.137092 0.754842 0.000015
0.404317 0.722331 0.000133
0.732949 0.701573 0.017096
0.925320 0.705974 0.057256
0.927811 0.661577 0.092065
0.925601 0.678996 0.056762
0.019339 0.985808 0.000758
0.020636 0.977129 0.000208
0.047303 0.973388 0.000275
0.123169 0.965873 0.000276
0.342877 0.947974 0.000460
0.648319 0.921196 0.000530
0.907976 0.891882 0.048992
0.927202 0.809057 0.059784
0.927346 0.789420 0.054298
0.123365 0.999926 0.000212
0.172646 0.999908 0.000080
0.193601 0.999900 0.000024
0.230885 0.999779 0.000006
0.322143 0.999499 0.000120
0.515497 0.999399 0.000035
0.774220 0.999828 0.019861
0.931715 0.974300 0.058728
0.929734 0.922176 0.054641
0.375552 0.999605 0.077729
0.386468 0.999589 0.074867
0.391239 0.999583 0.073614
0.401162 0.999569 0.071003
0.429354 0.999556 0.067073
0.502746 0.999608 0.062435
0.644298 0.999511 0.040564
0.847735 0.999803 0.047405
0.932505 0.999629 0.082445
0.017314 0.003211 0.209906
0.017314 0.003211 0.209906
0.098190 0.002244 0.197964
0.353024 0.011519 0.195091
0.801008 0.123340 0.212654
0.946198 0.316351 0.266868
0.945441 0.330765 0.300770
0.940788 0.435155 0.285813
0.935107 0.556775 0.218765
0.017632 0.003205 0.212133
0.017917 0.005816 0.224390
0.148518 0.001860 0.207226
0.349295 0.010031 0.213573
0.701138 0.088749 0.250936
0.945497 0.233761 0.276181
0.944469 0.395368 0.326695
0.939824 0.468898 0.288138
0.934600 0.571167 0.216675
0.022718 0.152346 0.273528
0.022609 0.159651 0.270920
0.098577 0.125233 0.226255
0.283234 0.116968 0.222027
0.616027 0.149547 0.251588
0.946528 0.262209 0.280198
0.943143 0.420290 0.331934
0.939695 0.481878 0.288687
0.934343 0.577326 0.215809
0.029286 0.353362 0.350713
0.025814 0.308884 0.295685
0.038733 0.264287 0.248190
0.239272 0.240185 0.239250
0.539486 0.245999 0.250557
0.900802 0.326969 0.276544
0.942341 0.457560 0.325397
0.939891 0.506934 0.289082
0.933801 0.589703 0.214440
0.038919 0.690486 0.428751
0.029499 0.553894 0.292449
0.028069 0.516685 0.259384
0.193498 0.478077 0.245638
0.471183 0.449621 0.245549
0.813630 0.478785 0.258183
0.937999 0.542576 0.295474
0.937972 0.564649 0.287786
0.934127 0.619582 0.211050
0.038991 0.838133 0.291171
0.031554 0.799585 0.235678
0.029911 0.787110 0.219847
0.128486 0.766153 0.210714
0.407828 0.732951 0.216560
0.732898 0.709490 0.225870
0.934437 0.711333 0.222812
0.937242 0.667015 0.280132
0.933283 0.684041 0.200908
0.039724 0.974588 0.117780
0.037888 0.967728 0.104806
0.048175 0.964921 0.100121
0.107092 0.958459 0.100010
0.331040 0.943273 0.120561
0.640399 0.920340 0.137991
0.900424 0.891110 0.119610
0.937155 0.809424 0.232254
0.933307 0.790345 0.168192
0.127242 0.999812 0.051531
0.175525 0.999775 0.052512
0.196055 0.999759 0.052925
0.231571 0.999787 0.053572
0.318543 0.999803 0.053360
0.505030 0.999705 0.038377
0.762860 0.999801 0.015797
0.932153 0.974868 0.061024
0.931391 0.921340 0.085447
0.383108 0.999626 0.154273
0.393592 0.999607 0.151019
0.398174 0.999599 0.149596
0.407703 0.999583 0.146633
0.434746 0.999605 0.143026
0.505407 0.999711 0.141539
0.644814 0.999601 0.127093
0.846493 0.999706 0.088075
0.932505 0.999629 0.082445
0.025276 0.003287 0.377178
0.025276 0.003287 0.377178
0.148016 0.000931 0.336104
0.392115 0.000045 0.327380
0.805632 0.094789 0.365648
0.949943 0.318298 0.381390
0.950766 0.372957 0.437980
0.946959 0.467065 0.433220
0.943315 0.574663 0.390438
0.032546 0.099653 0.468982
0.031884 0.107770 0.456925
0.136856 0.080595 0.394142
0.321896 0.073544 0.379081
0.647219 0.113399 0.410012
0.955263 0.232932 0.458598
0.949685 0.436649 0.470910
0.946989 0.497334 0.439502
0.943168 0.587737 0.391073
0.038776 0.227896 0.548433
0.036130 0.210448 0.501937
0.099414 0.175567 0.436615
0.288499 0.161058 0.410440
0.599055 0.176205 0.423780
0.934203 0.267563 0.466612
0.949178 0.452625 0.475538
0.946489 0.509550 0.442319
0.943268 0.593242 0.391325
0.046424 0.436294 0.625814
0.040474 0.360014 0.541100
0.043449 0.313392 0.481143
0.253369 0.282334 0.456707
0.545468 0.276802 0.447292
0.884607 0.339270 0.472842
0.949766 0.481262 0.481772
0.946803 0.531929 0.447444
0.943473 0.604287 0.391937
0.056065 0.719628 0.676415
0.044961 0.591523 0.554156
0.042845 0.560431 0.521370
0.202348 0.523039 0.500951
0.484942 0.486164 0.484882
0.810328 0.495391 0.482257
0.947719 0.558937 0.482732
0.947429 0.583012 0.456076
0.943405 0.631567 0.393462
0.059481 0.838749 0.567057
0.053093 0.804902 0.523664
0.050311 0.793689 0.508538
0.128662 0.775071 0.495281
0.408130 0.744682 0.494891
0.732203 0.717575 0.486970
0.948694 0.714900 0.463714
0.947074 0.675477 0.460540
0.943518 0.691272 0.389627
0.062990 0.956847 0.431757
0.061321 0.951007 0.418554
0.060775 0.948552 0.413299
0.097452 0.943169 0.409311
0.312857 0.930517 0.422314
0.628446 0.910298 0.434323
0.898224 0.882662 0.415369
0.948802 0.811340 0.429220
0.944399 0.790281 0.370994
0.120359 0.999644 0.284237
0.177157 0.999415 0.291489
0.200866 0.999326 0.294484
0.235184 0.999370 0.297777
0.318925 0.999467 0.303518
0.495661 0.999787 0.302554
0.757949 0.999318 0.288476
0.945849 0.971422 0.278780
0.944950 0.915658 0.302498
0.403400 0.999460 0.310225
0.412279 0.999495 0.306338
0.416161 0.999510 0.304639
0.424235 0.999542 0.301107
0.448209 0.999658 0.296247
0.512363 0.999866 0.291656
0.647979 0.999932 0.283522
0.847082 0.999931 0.257220
0.941261 0.999649 0.170249
0.043599 0.012020 0.690588
0.052626 0.008924 0.642280
0.213600 0.002729 0.604808
0.403921 0.000097 0.592217
0.707003 0.034370 0.622958
0.966381 0.186836 0.667960
0.955935 0.409757 0.587772
0.955303 0.509416 0.586691
0.953026 0.601706 0.573063
0.056047 0.317983 0.827731
0.050271 0.256113 0.745200
0.141697 0.226289 0.709299
0.322988 0.205013 0.684257
0.613084 0.209659 0.677367
0.919004 0.277201 0.696515
0.957139 0.446764 0.620938
0.954237 0.539978 0.598433
0.952931 0.612874 0.575110
0.058095 0.416565 0.843683
0.052289 0.329335 0.758097
0.115389 0.296069 0.725139
0.304382 0.268468 0.704156
0.591036 0.260532 0.693932
0.896739 0.314379 0.702615
0.957484 0.464019 0.632919
0.954932 0.550882 0.604252
0.952885 0.617579 0.575987
0.061394 0.561244 0.861312
0.054996 0.449809 0.769026
0.070018 0.416452 0.738181
0.273660 0.381595 0.725989
0.556688 0.355110 0.713867
0.862408 0.384831 0.710981
0.957411 0.498146 0.651102
0.955360 0.571682 0.613281
0.953057 0.627245 0.578113
0.067095 0.717823 0.841638
0.057093 0.630613 0.767105
0.055744 0.609611 0.747406
0.214963 0.580700 0.740449
0.495946 0.543759 0.731068
0.805440 0.531608 0.721793
0.957920 0.577408 0.680712
0.956107 0.614594 0.627211
0.953827 0.650554 0.582475
0.072558 0.824769 0.756902
0.068890 0.804524 0.734073
0.066862 0.797405 0.726347
0.122856 0.783812 0.718949
0.404182 0.758374 0.726237
0.728005 0.730588 0.728257
0.961206 0.717160 0.700013
0.957688 0.691869 0.645009
0.955309 0.701679 0.587494
0.078457 0.935542 0.661696
0.076837 0.930155 0.652347
0.076826 0.927557 0.648912
0.098534 0.923164 0.646742
0.286564 0.912724 0.660716
0.601606 0.895496 0.679428
0.883628 0.871537 0.672990
0.961664 0.814088 0.640019
0.957360 0.789925 0.586077
0.091348 0.991578 0.522998
0.103163 0.991724 0.522164
0.122245 0.991877 0.524332
0.168418 0.992235 0.530063
0.272441 0.992578 0.542212
0.462769 0.993648 0.560401
0.741150 0.990943 0.570866
0.963118 0.963050 0.545913
0.959620 0.908566 0.537901
0.414030 0.994164 0.511766
0.425933 0.994180 0.511843
0.431139 0.994186 0.511876
0.441969 0.994201 0.511947
0.468052 0.994738 0.511259
0.529982 0.996342 0.509242
0.651705 0.999190 0.506566
0.842915 0.999760 0.484576
0.956305 0.999621 0.404843
0.065423 0.465465 0.950046
0.086320 0.376104 0.940364
0.210523 0.358879 0.941467
0.358712 0.337981 0.934554
0.612365 0.322136 0.927287
0.878575 0.347675 0.911507
0.965824 0.452135 0.815079
0.961356 0.545491 0.727198
0.961233 0.630278 0.713665
0.065728 0.542470 0.937541
0.064588 0.476473 0.935546
0.171122 0.459699 0.936741
0.324775 0.435692 0.934854
0.576901 0.411496 0.929220
0.850273 0.418145 0.913414
0.966895 0.488275 0.834735
0.961488 0.567881 0.734581
0.961856 0.640921 0.717573
0.066024 0.568320 0.933436
0.065961 0.511322 0.932593
0.153182 0.495648 0.932746
0.311974 0.472078 0.934591
0.563542 0.445115 0.928745
0.840242 0.445399 0.914294
0.966797 0.502816 0.842140
0.961950 0.577020 0.737645
0.962098 0.645457 0.719235
0.066747 0.612631 0.925673
0.065670 0.568565 0.926685
0.127332 0.556069 0.928581
0.288508 0.535189 0.930894
0.539011 0.506576 0.926414
0.821619 0.495660 0.915491
0.968064 0.532325 0.855456
0.962194 0.594845 0.743035
0.962472 0.654760 0.722634
0.069589 0.692743 0.908110
0.067866 0.667071 0.910343
0.084135 0.658691 0.908960
0.240338 0.644576 0.913903
0.486457 0.620596 0.918921
0.780188 0.599184 0.913621
0.969673 0.599945 0.874067
0.963502 0.635246 0.753132
0.963246 0.677351 0.730663
0.079601 0.796821 0.882336
0.076940 0.785662 0.875062
0.079892 0.781618 0.872070
0.153492 0.774350 0.873709
0.387175 0.758857 0.886946
0.695847 0.738610 0.896886
0.951176 0.717652 0.878848
0.965770 0.710586 0.776173
0.964737 0.724090 0.745524
0.087293 0.903408 0.820174
0.085957 0.899635 0.815399
0.084754 0.898323 0.813685
0.109066 0.895072 0.812446
0.270893 0.887172 0.824760
0.559410 0.874093 0.845743
0.851432 0.854252 0.851593
0.971889 0.818003 0.805779
0.968164 0.795143 0.754866
0.089711 0.984314 0.722548
0.097599 0.983870 0.722007
0.101687 0.983655 0.721863
0.109899 0.983224 0.721555
0.198403 0.981860 0.728983
0.403822 0.979320 0.751619
0.706571 0.969876 0.775607
0.957461 0.948366 0.767719
0.971674 0.901053 0.740183
0.370994 0.988019 0.686587
0.382980 0.988290 0.686416
0.388223 0.988408 0.686341
0.399168 0.988634 0.686302
0.428508 0.989091 0.687078
0.500671 0.990451 0.688717
0.645956 0.993471 0.700253
0.831718 0.999303 0.705693
0.973278 0.999352 0.657229
0.105192 0.591647 0.935684
0.232754 0.587418 0.950526
0.274055 0.585362 0.955466
0.346199 0.583023 0.964340
0.512133 0.578447 0.985966
0.755991 0.570067 0.999400
0.970558 0.569628 0.999854
0.970477 0.610430 0.871184
0.968393 0.655679 0.840235
0.095574 0.616075 0.929263
0.226421 0.611746 0.943266
0.265568 0.609732 0.948060
0.336239 0.607199 0.957776
0.496584 0.602941 0.979067
0.741407 0.594554 0.999405
0.967398 0.590185 0.999723
0.970653 0.622922 0.874194
0.968515 0.663386 0.841667
0.095680 0.625927 0.926963
0.223101 0.621547 0.940471
0.261884 0.619653 0.945320
0.332294 0.617011 0.955153
0.490107 0.612628 0.976374
0.735523 0.604375 0.999580
0.965832 0.598738 0.999666
0.970742 0.627993 0.876091
0.968518 0.666671 0.842053
0.090655 0.644368 0.922290
0.214339 0.640232 0.936010
0.254122 0.638696 0.941276
0.324213 0.635823 0.950385
0.477539 0.631553 0.970954
0.724055 0.623870 0.999892
0.957711 0.615431 0.999406
0.970918 0.638243 0.879860
0.968525 0.673404 0.842841
0.080359 0.687644 0.911583
0.198657 0.682824 0.925145
0.236993 0.681444 0.930074
0.302858 0.679329 0.939435
0.448166 0.674376 0.958199
0.692099 0.666804 0.992486
0.936415 0.654808 0.999493
0.971312 0.664359 0.889599
0.968929 0.690677 0.845412
0.086188 0.760209 0.894753
0.164604 0.758162 0.904111
0.200747 0.756634 0.908635
0.264237 0.754260 0.917211
0.392048 0.750030 0.935648
0.627526 0.744345 0.970392
0.886527 0.729809 0.999211
0.974515 0.719101 0.910530
0.970134 0.729780 0.854525
0.087514 0.860410 0.874099
0.114659 0.858233 0.878090
0.139682 0.857182 0.881550
0.189220 0.855454 0.888277
0.302577 0.852457 0.904507
0.511028 0.846815 0.934709
0.796140 0.833360 0.973083
0.980280 0.810172 0.943392
0.975488 0.800618 0.868685
0.099718 0.960743 0.854734
0.103855 0.959925 0.855143
0.106893 0.959639 0.855593
0.113067 0.959054 0.856507
0.176435 0.957094 0.864918
0.372607 0.951488 0.888329
0.658447 0.942459 0.916715
0.923843 0.925938 0.923650
0.981381 0.896234 0.883506
0.305802 0.981554 0.841746
0.318084 0.981811 0.842152
0.323460 0.981924 0.842330
0.334655 0.982158 0.842701
0.364457 0.982780 0.843690
0.439148 0.984092 0.845698
0.594866 0.987551 0.849337
0.809871 0.994683 0.858721
0.986062 0.997513 0.848086
0.321339 0.685819 0.939682
0.358204 0.681713 0.944769
0.373593 0.680222 0.946901
0.405238 0.679785 0.951298
0.478881 0.680400 0.961237
0.622301 0.684400 0.979514
0.812633 0.694212 0.999515
0.980810 0.686813 0.999927
0.976448 0.704242 0.971890
0.318826 0.695600 0.937529
0.355344 0.690033 0.942826
0.370767 0.688748 0.944938
0.401767 0.687584 0.948994
0.474974 0.687698 0.958840
0.619070 0.690671 0.977795
0.807728 0.701336 0.999391
0.980450 0.692643 0.999894
0.976639 0.708646 0.972280
0.317821 0.699632 0.936641
0.354185 0.693452 0.942026
0.369567 0.692339 0.944058
0.400289 0.690868 0.947968
0.473407 0.690840 0.957806
0.617728 0.693401 0.977057
0.806072 0.703914 0.998971
0.980288 0.695161 0.999880
0.976782 0.710541 0.972416
0.315909 0.707550 0.934898
0.351985 0.700583 0.940353
0.367139 0.699547 0.942182
0.397290 0.697459 0.945799
0.470266 0.697239 0.955797
0.614337 0.699179 0.975484
0.802665 0.709246 0.998143
0.979943 0.700336 0.999848
0.977080 0.714473 0.972700
0.309055 0.727367 0.929266
0.344716 0.721501 0.934728
0.359641 0.719329 0.936879
0.389216 0.715609 0.941222
0.460436 0.712943 0.952117
0.604135 0.714404 0.971424
0.793852 0.723227 0.996258
0.979336 0.715398 0.999774
0.977864 0.724858 0.973448
0.295397 0.772262 0.918613
0.328693 0.766035 0.924373
0.342787 0.763402 0.926796
0.371101 0.758096 0.931661
0.439987 0.750189 0.941690
0.581454 0.748795 0.961576
0.773421 0.755021 0.989381
0.977126 0.751064 0.999302
0.979742 0.750166 0.976288
0.258839 0.850760 0.898110
0.290595 0.846661 0.903167
0.303983 0.844905 0.905357
0.330268 0.841215 0.910079
0.395663 0.832132 0.921134
0.531291 0.817858 0.942816
0.731817 0.815053 0.973516
0.940595 0.815065 0.999929
0.982298 0.801730 0.981013
0.200020 0.949428 0.872220
0.226329 0.947506 0.876349
0.237215 0.946790 0.878102
0.259675 0.945317 0.881718
0.317323 0.941424 0.891032
0.440033 0.930373 0.911536
0.649743 0.910973 0.946666
0.871630 0.901876 0.985347
0.988023 0.887466 0.986388
0.299096 0.980413 0.882153
0.309955 0.980522 0.883864
0.314421 0.980596 0.884558
0.323735 0.980751 0.886005
0.348626 0.981165 0.889875
0.412283 0.982138 0.899371
0.554877 0.984224 0.919277
0.765292 0.990190 0.955709
0.984256 0.988980 0.986792
