output/AppleLog_display/AppleLog_to_ETERNA_33grid.cube
TITLE "AppleLog_to_ETERNA"
# Input: Apple Log (BT.2020 primaries, D65)
# Output: BT.709 / Gamma 2.2 (display-referred)
# Use: Display LUT for iPhone 15/16 Pro Apple Log footage
# Source: FLog2C_to_ETERNA_65grid_V.1.00.cube
# Generated from Fujifilm GFX ETERNA 55 F-Log2C LUT
LUT_3D_SIZE 5
0.006510 0.006095 0.006119
0.052675 0.008949 0.012158
0.837079 0.148631 0.109450
0.943984 0.328397 0.270514
0.929387 0.531279 0.068104
0.006153 0.066980 0.003764
0.108778 0.063233 0.010282
0.687940 0.120178 0.086600
0.940667 0.380207 0.233931
0.927989 0.551623 0.064631
0.007882 0.609685 0.000860
0.017289 0.436970 0.000326
0.477124 0.397052 0.008850
0.929421 0.516068 0.069810
0.927091 0.594282 0.061842
0.019562 0.969636 0.000393
0.125416 0.953727 0.000699
0.430620 0.927187 0.000407
0.927589 0.877673 0.053881
0.926289 0.771686 0.055809
0.364416 0.999355 0.001079
0.382793 0.999275 0.000691
0.425149 0.999271 0.000133
0.649260 0.999812 0.000333
0.932526 0.999632 0.082454
0.010169 0.004586 0.098849
0.082188 0.004077 0.090298
0.816701 0.142498 0.104955
0.943984 0.328397 0.270514
0.928748 0.543620 0.065388
0.013732 0.119691 0.128466
0.102663 0.104842 0.101980
0.632629 0.143942 0.098870
0.938921 0.398369 0.221509
0.927949 0.565498 0.063977
0.024028 0.660233 0.162606
0.015198 0.480961 0.058053
0.464424 0.426821 0.041841
0.929657 0.532581 0.106249
0.926532 0.610189 0.062057
0.019339 0.985808 0.000758
0.047303 0.973388 0.000275
0.342877 0.947974 0.000460
0.907976 0.891882 0.048992
0.927346 0.789420 0.054298
0.375552 0.999605 0.077729
0.391239 0.999583 0.073614
0.429354 0.999556 0.067073
0.644298 0.999511 0.040564
0.932505 0.999629 0.082445
0.025276 0.003287 0.377178
0.148016 0.000931 0.336104
0.805632 0.094789 0.365648
0.950766 0.372957 0.437980
0.943315 0.574663 0.390438
0.038776 0.227896 0.548433
0.099414 0.175567 0.436615
0.599055 0.176205 0.423780
0.949178 0.452625 0.475538
0.943268 0.593242 0.391325
0.056065 0.719628 0.676415
0.042845 0.560431 0.521370
0.484942 0.486164 0.484882
0.947719 0.558937 0.482732
0.943405 0.631567 0.393462
0.062990 0.956847 0.431757
0.060775 0.948552 0.413299
0.312857 0.930517 0.422314
0.898224 0.882662 0.415369
0.944399 0.790281 0.370994
0.403400 0.999460 0.310225
0.416161 0.999510 0.304639
0.448209 0.999658 0.296247
0.647979 0.999932 0.283522
0.941261 0.999649 0.170249
0.065423 0.465465 0.950046
0.210523 0.358879 0.941467
0.612365 0.322136 0.927287
0.965824 0.452135 0.815079
0.961233 0.630278 0.713665
0.066024 0.568320 0.933436
0.153182 0.495648 0.932746
0.563542 0.445115 0.928745
0.966797 0.502816 0.842140
0.962098 0.645457 0.719235
0.069589 0.692743 0.908110
0.084135 0.658691 0.908960
0.486457 0.620596 0.918921
0.969673 0.599945 0.874067
0.963246 0.677351 0.730663
0.087293 0.903408 0.820174
0.084754 0.898323 0.813685
0.270893 0.887172 0.824760
0.851432 0.854252 0.851593
0.968164 0.795143 0.754866
0.370994 0.988019 0.686587
0.388223 0.988408 0.686341
0.428508 0.989091 0.687078
0.645956 0.993471 0.700253
0.973278 0.999352 0.657229
0.321339 0.685819 0.939682
0.373593 0.680222 0.946901
0.478881 0.680400 0.961237
0.812633 0.694212 0.999515
0.976448 0.704242 0.971890
0.317821 0.699632 0.936641
0.369567 0.692339 0.944058
0.473407 0.690840 0.957806
0.806072 0.703914 0.998971
0.976782 0.710541 0.972416
0.309055 0.727367 0.929266
0.359641 0.719329 0.936879
0.460436 0.712943 0.952117
0.793852 0.723227 0.996258
0.977864 0.724858 0.973448
0.258839 0.850760 0.898110
0.303983 0.844905 0.905357
0.395663 0.832132 0.921134
0.731817 0.815053 0.973516
0.982298 0.801730 0.981013
0.299096 0.980413 0.882153
0.314421 0.980596 0.884558
0.348626 0.981165 0.889875
0.554877 0.984224 0.919277
0.984256 0.988980 0.986792
