output/AppleLog_display/AppleLog_to_PROVIA_33grid.cube
TITLE "AppleLog_to_PROVIA"
# Input: Apple Log (BT.2020 primaries, D65)
# Output: BT.709 / Gamma 2.2 (display-referred)
# Use: Display LUT for iPhone 15/16 Pro Apple Log footage
# Source: FLog2C_to_PROVIA_65grid_V.1.00.cube
# Generated from Fujifilm GFX ETERNA 55 F-Log2C LUT
LUT_3D_SIZE 9
0.000459 0.000290 0.000061
0.000459 0.000290 0.000061
0.029907 0.003138 0.000558
0.410323 0.013538 0.047816
0.989757 0.044155 0.264213
0.999999 0.255824 0.480294
1.000000 0.257130 0.480656
0.999175 0.352298 0.398067
0.999571 0.509318 0.235445
0.000459 0.000290 0.000061
0.000459 0.000290 0.000061
0.107052 0.004896 0.011518
0.481874 0.014887 0.059232
0.999940 0.048021 0.283459
0.999714 0.172360 0.459367
0.999911 0.294016 0.448992
0.999652 0.393019 0.361227
0.999349 0.526727 0.214026
0.000536 0.036415 0.000130
0.001438 0.049842 0.000768
0.072518 0.035615 0.000435
0.360973 0.030254 0.027621
0.833369 0.039808 0.143513
0.999665 0.152635 0.416838
0.999522 0.325235 0.421391
0.999767 0.410005 0.344772
0.999265 0.534401 0.203883
0.000010 0.254787 0.000030
0.001379 0.236654 0.000170
0.003247 0.183604 0.000083
0.225252 0.166235 0.000349
0.677011 0.172713 0.000113
0.999125 0.252356 0.224464
0.999883 0.381022 0.374216
0.999970 0.441744 0.313547
0.999103 0.549745 0.183615
0.000000 0.672918 0.000754
0.000166 0.517965 0.000505
0.000177 0.475458 0.000383
0.047354 0.439586 0.000663
0.519048 0.415868 0.000045
0.975475 0.445083 0.000034
0.999227 0.490044 0.210851
0.999398 0.515038 0.228976
0.999279 0.588130 0.127324
0.000148 0.891741 0.000550
0.000001 0.836803 0.000124
0.000072 0.821166 0.000297
0.000004 0.797057 0.000200
0.279468 0.755056 0.000095
0.837442 0.700968 0.000123
0.999657 0.694370 0.000248
0.999246 0.652342 0.019475
0.999294 0.674336 0.005186
0.000000 1.000000 0.000285
0.000000 1.000000 0.000285
0.000000 1.000000 0.000285
0.000000 1.000000 0.000285
0.014134 0.998118 0.000300
0.620457 0.931075 0.000100
0.999216 0.870762 0.000160
0.999636 0.793302 0.000059
0.999381 0.776400 0.000158
0.000000 1.000000 0.000285
0.000000 1.000000 0.000285
0.000000 1.000000 0.000285
0.000000 1.000000 0.000285
0.000000 1.000000 0.000285
0.037504 0.999999 0.000334
0.743115 0.999929 0.000309
0.998835 0.954183 0.004403
0.999539 0.906779 0.000112
0.000000 1.000000 0.000285
0.000000 1.000000 0.000285
0.000000 1.000000 0.000285
0.000000 1.000000 0.000285
0.000000 1.000000 0.000285
0.002800 0.999981 0.000306
0.301720 0.999881 0.000643
0.856788 0.997357 0.000192
0.985376 0.985469 0.016687
0.000459 0.000290 0.000061
0.000459 0.000290 0.000061
0.048357 0.003432 0.003705
0.428080 0.013791 0.050679
0.994773 0.044823 0.268602
0.999999 0.256376 0.480447
1.000000 0.257130 0.480656
0.999145 0.357281 0.393951
0.999544 0.511444 0.232843
0.000459 0.000290 0.000061
0.000459 0.000290 0.000061
0.124933 0.006162 0.012250
0.497664 0.015317 0.061703
0.961100 0.039759 0.236203
0.999710 0.151903 0.454688
0.999963 0.302691 0.444413
0.999684 0.397686 0.356703
0.999326 0.528790 0.211296
0.001904 0.063530 0.000167
0.001792 0.075152 0.000278
0.064211 0.054555 0.000327
0.339783 0.049252 0.009603
0.807199 0.059434 0.113997
0.999959 0.163113 0.397449
0.999562 0.332737 0.414472
0.999799 0.414253 0.340661
0.999244 0.536391 0.201252
0.000013 0.280459 0.000028
0.000133 0.249535 0.000382
0.000394 0.200042 0.000183
0.219735 0.181572 0.000355
0.668132 0.187120 0.000226
0.998874 0.263417 0.203853
0.999839 0.387143 0.369589
0.999892 0.445584 0.309222
0.999084 0.551595 0.181172
0.000024 0.686584 0.000602
0.000287 0.524809 0.000480
0.000069 0.484155 0.000383
0.045869 0.449285 0.000735
0.516868 0.424134 0.000089
0.973806 0.452411 0.000041
0.999298 0.494510 0.202927
0.999434 0.518320 0.224861
0.999318 0.590203 0.124308
0.000014 0.906992 0.000209
0.000036 0.853561 0.000232
0.000013 0.836921 0.000346
0.000118 0.812525 0.000436
0.235009 0.770892 0.000093
0.816742 0.712200 0.000473
0.999160 0.709663 0.000200
0.999370 0.660841 0.041027
0.999113 0.685687 0.000271
0.000000 1.000000 0.000285
0.000000 1.000000 0.000285
0.000000 1.000000 0.000285
0.000000 1.000000 0.000285
0.000000 1.000000 0.000285
0.508583 0.958079 0.000006
0.995277 0.884132 0.000014
0.999234 0.837393 0.000133
0.999435 0.815347 0.000332
0.000000 1.000000 0.000285
0.000000 1.000000 0.000285
0.000000 1.000000 0.000285
0.000000 1.000000 0.000285
0.000000 1.000000 0.000285
0.024563 0.999969 0.000271
0.700612 0.999888 0.000225
0.999007 0.957530 0.005982
0.999044 0.920267 0.000081
0.000000 1.000000 0.000285
0.000000 1.000000 0.000285
0.000000 1.000000 0.000285
0.000000 1.000000 0.000285
0.000000 1.000000 0.000285
0.001913 0.999941 0.000269
0.286898 0.999851 0.000319
0.846698 0.998394 0.000049
0.985570 0.986495 0.018269
0.003510 0.000386 0.063208
0.003510 0.000386 0.063208
0.053070 0.000572 0.052352
0.406831 0.012673 0.052527
0.976792 0.041802 0.243084
0.999982 0.256014 0.480414
1.000000 0.257130 0.480656
0.999408 0.369894 0.382650
0.999149 0.524494 0.216002
0.003651 0.000417 0.067643
0.003651 0.000417 0.067643
0.126448 0.001178 0.053755
0.463903 0.013642 0.061972
0.905962 0.031778 0.194536
0.999753 0.131044 0.445125
0.999228 0.314260 0.431628
0.999299 0.410843 0.343745
0.998930 0.542806 0.192662
0.000431 0.075674 0.089513
0.000467 0.088195 0.089697
0.059841 0.062614 0.059552
0.319187 0.055538 0.061055
0.767767 0.068035 0.121172
0.999546 0.172103 0.358183
0.999817 0.345496 0.405062
0.999399 0.427392 0.327511
0.999233 0.551105 0.182721
0.000124 0.318002 0.075601
0.000127 0.279212 0.046152
0.000455 0.224626 0.022251
0.210546 0.196429 0.018002
0.643657 0.196054 0.038442
0.999305 0.268267 0.217915
0.999576 0.400332 0.368448
0.999460 0.460008 0.300102
0.999568 0.567501 0.165715
0.000053 0.724736 0.004623
0.000066 0.571474 0.000564
0.000096 0.528325 0.000061
0.031394 0.484421 0.000338
0.493503 0.445615 0.000126
0.952452 0.455461 0.022834
0.999709 0.506011 0.264250
0.999706 0.533813 0.256069
0.999354 0.606209 0.137666
0.000072 0.925458 0.000097
0.000014 0.874347 0.000439
0.000009 0.857909 0.000559
0.000262 0.832604 0.000338
0.192425 0.789744 0.000294
0.796939 0.729728 0.000404
0.998960 0.714923 0.044647
0.999133 0.664628 0.174884
0.999404 0.689107 0.080354
0.000000 1.000000 0.000285
0.000000 1.000000 0.000285
0.000000 1.000000 0.000285
0.000000 1.000000 0.000285
0.000000 1.000000 0.000285
0.482461 0.966001 0.000644
0.988834 0.891915 0.000463
0.999460 0.841180 0.030804
0.999279 0.823018 0.002920
0.000000 1.000000 0.000285
0.000000 1.000000 0.000285
0.000000 1.000000 0.000285
0.000000 1.000000 0.000285
0.000000 1.000000 0.000285
0.020683 0.999998 0.000402
0.687047 0.999832 0.000270
0.999022 0.961780 0.009135
0.999034 0.931082 0.000010
0.000000 1.000000 0.000285
0.000000 1.000000 0.000285
0.000000 1.000000 0.000285
0.000000 1.000000 0.000285
0.000000 1.000000 0.000285
0.001631 0.999962 0.000260
0.281477 0.999774 0.000132
0.842383 0.999365 0.000064
0.985219 0.987864 0.019942
0.019923 0.000122 0.201443
0.019923 0.000122 0.201443
0.076348 0.000156 0.173185
0.417295 0.000033 0.169760
0.951625 0.023279 0.308186
1.000000 0.241561 0.480481
0.999384 0.259584 0.507467
0.999421 0.388959 0.446674
0.999517 0.538233 0.323136
0.020725 0.000142 0.204873
0.021311 0.000619 0.223833
0.130830 0.000282 0.182273
0.411963 0.000016 0.193977
0.842478 0.004312 0.302011
0.999751 0.112878 0.523425
0.999843 0.340194 0.504931
0.999588 0.430770 0.433573
0.999529 0.555177 0.313479
0.000168 0.101136 0.305964
0.000312 0.109568 0.302066
0.061396 0.074652 0.224515
0.315374 0.064206 0.209308
0.738780 0.071430 0.266900
0.999860 0.164087 0.458232
0.999598 0.369334 0.498967
0.999806 0.447018 0.428758
0.999370 0.562710 0.309581
0.000031 0.360058 0.382443
0.000184 0.308824 0.312598
0.001238 0.252124 0.248196
0.214928 0.216742 0.215286
0.633249 0.205924 0.222832
0.999572 0.263609 0.359121
0.999880 0.413024 0.476622
0.999553 0.475998 0.418251
0.998984 0.577740 0.302035
0.000152 0.741346 0.395873
0.000479 0.595711 0.237044
0.000163 0.554784 0.204641
0.026171 0.510957 0.174510
0.483327 0.462746 0.147067
0.932069 0.457523 0.220951
0.999848 0.514030 0.405228
0.998891 0.545325 0.388268
0.999412 0.613412 0.282096
0.000000 0.918869 0.089325
0.000008 0.875368 0.037190
0.000171 0.861974 0.025493
0.000034 0.838702 0.015431
0.159485 0.793794 0.007362
0.774700 0.736504 0.029990
0.999314 0.716280 0.230701
0.998923 0.667176 0.323090
0.999011 0.690948 0.233326
0.000000 1.000000 0.000285
0.000000 1.000000 0.000285
0.000000 1.000000 0.000285
0.000000 1.000000 0.000285
0.000000 1.000000 0.000285
0.444295 0.984713 0.000124
0.974071 0.926086 0.001936
0.999374 0.837844 0.178541
0.999011 0.817756 0.130352
0.000000 1.000000 0.000285
0.000000 1.000000 0.000285
0.000000 1.000000 0.000285
0.000000 1.000000 0.000285
0.000000 1.000000 0.000285
0.013991 0.999924 0.000236
0.662507 0.999560 0.000106
0.999233 0.979664 0.024472
0.998984 0.949444 0.001259
0.000000 1.000000 0.000285
0.000000 1.000000 0.000285
0.000000 1.000000 0.000285
0.000000 1.000000 0.000285
0.000000 1.000000 0.000285
0.000881 0.999956 0.000296
0.272762 0.999631 0.000297
0.832892 0.999600 0.000143
0.985129 0.995779 0.028405
0.045641 0.000256 0.441461
0.045641 0.000256 0.441461
0.141125 0.000018 0.376142
0.471713 0.000011 0.362831
0.949911 0.000085 0.482495
0.999075 0.236160 0.588447
0.999238 0.308953 0.618149
0.999625 0.424379 0.577472
0.999540 0.553092 0.489374
0.044149 0.035404 0.576059
0.038413 0.043563 0.561007
0.125699 0.022054 0.465547
0.378834 0.013667 0.441957
0.773227 0.020279 0.493099
0.999917 0.112731 0.647398
0.999720 0.386267 0.624483
0.999900 0.460078 0.572730
0.999517 0.568485 0.484019
0.000645 0.184946 0.685285
0.000956 0.163738 0.619603
0.073573 0.119073 0.526705
0.322738 0.095366 0.483051
0.712242 0.092629 0.494625
0.999742 0.167816 0.609793
0.999859 0.403479 0.623524
0.999921 0.474141 0.570091
0.999563 0.575054 0.481835
0.000260 0.433367 0.767082
0.000364 0.353719 0.657536
0.002468 0.303094 0.583017
0.232686 0.259151 0.524190
0.629198 0.233902 0.492602
0.994953 0.270835 0.559076
0.999819 0.437622 0.616876
0.999785 0.501375 0.563850
0.999617 0.588219 0.477345
0.000054 0.762552 0.794132
0.000333 0.618376 0.625210
0.000119 0.585715 0.588111
0.029629 0.543307 0.540842
0.482218 0.485785 0.482555
0.911214 0.463804 0.490492
0.999634 0.527068 0.583424
0.999748 0.561941 0.549795
0.999394 0.620878 0.464318
0.000135 0.909930 0.578600
0.000090 0.869897 0.518601
0.000049 0.857970 0.500654
0.000046 0.837529 0.476022
0.143218 0.795598 0.429246
0.753650 0.735949 0.394319
0.999491 0.715915 0.481204
0.999418 0.672068 0.510332
0.999587 0.692926 0.428676
0.000182 0.999562 0.291137
0.000000 0.999916 0.278109
0.000000 0.999758 0.274540
0.000034 0.999581 0.267345
0.000139 0.999833 0.254558
0.389591 0.982292 0.228796
0.947265 0.920461 0.275303
0.999734 0.832786 0.403300
0.999232 0.809733 0.351989
0.000011 0.999859 0.029956
0.000003 0.999860 0.030390
0.000000 0.999858 0.030606
0.000000 0.999798 0.032009
0.000011 0.999755 0.032836
0.001150 0.999859 0.019333
0.611538 0.999638 0.001867
0.998769 0.996892 0.106370
0.998954 0.949194 0.176488
0.000000 0.999829 0.023309
0.000000 0.999878 0.018829
0.000000 0.999899 0.016868
0.000000 0.999944 0.012787
0.000016 0.999992 0.007005
0.000152 0.999989 0.001096
0.256656 0.999848 0.000169
0.813768 0.999771 0.006701
0.983157 0.999727 0.051426
0.132902 0.000263 0.867398
0.124080 0.000129 0.800791
0.268580 0.000008 0.740797
0.497813 0.000045 0.715970
0.836347 0.000339 0.764706
1.000000 0.035176 0.870574
0.999920 0.347514 0.745352
0.999375 0.470377 0.703902
0.999787 0.579692 0.656079
0.067580 0.261407 0.999348
0.054389 0.195190 0.960325
0.162540 0.157848 0.905154
0.384998 0.125992 0.848487
0.718787 0.114499 0.809694
0.999906 0.168924 0.833987
0.999492 0.390714 0.762836
0.999825 0.505730 0.705765
0.999675 0.592484 0.655085
0.009912 0.377726 0.999781
0.010647 0.289167 0.970526
0.114712 0.250006 0.921027
0.345383 0.211188 0.866626
0.684932 0.185816 0.818505
0.997612 0.220949 0.821634
0.999736 0.410256 0.766909
0.999682 0.519170 0.706825
0.999623 0.597867 0.654639
0.000463 0.555339 1.000000
0.000474 0.430898 0.970825
0.029434 0.393722 0.932613
0.265795 0.349526 0.883635
0.624674 0.305804 0.827317
0.971122 0.311623 0.807902
0.999970 0.450027 0.773322
0.999717 0.542877 0.708091
0.999437 0.609521 0.651912
0.000420 0.757414 0.999915
0.000738 0.648495 0.947534
0.000483 0.623925 0.923824
0.069540 0.586346 0.886556
0.491415 0.526986 0.822300
0.888417 0.491022 0.780944
0.999232 0.541690 0.775098
0.999820 0.593344 0.708521
0.999585 0.637781 0.645873
0.000097 0.888343 0.901720
0.000220 0.866364 0.875231
0.000389 0.857082 0.865584
0.000436 0.842059 0.845704
0.178978 0.802192 0.801598
0.739050 0.744116 0.741661
0.999320 0.711102 0.733811
0.999196 0.685571 0.691852
0.999708 0.698948 0.628934
0.000173 0.991704 0.726013
0.000241 0.988494 0.717061
0.000141 0.987023 0.712943
0.000080 0.985019 0.705861
0.000092 0.978575 0.692108
0.348601 0.953994 0.648768
0.911627 0.898275 0.617579
0.999722 0.827374 0.635450
0.999305 0.802448 0.583707
0.000110 0.999591 0.456671
0.000149 0.999414 0.454713
0.000152 0.999446 0.454228
0.000151 0.999568 0.453427
0.000197 0.999723 0.451121
0.000217 0.999876 0.446532
0.543021 0.999545 0.400451
0.997695 0.988816 0.442385
0.999456 0.932011 0.463524
0.000022 0.999934 0.361707
0.000026 0.999916 0.359937
0.000027 0.999908 0.359162
0.000030 0.999892 0.357551
0.000024 0.999868 0.351699
0.002832 0.999819 0.336465
0.254667 0.999887 0.300392
0.778986 0.999479 0.271472
0.981212 0.999436 0.232470
0.176319 0.412789 0.999714
0.226756 0.308044 0.999845
0.318385 0.285838 0.999443
0.466363 0.257989 0.999802
0.719179 0.225868 0.999704
0.988889 0.241621 0.999568
0.999986 0.382286 0.962081
0.999724 0.505069 0.838876
0.999858 0.607322 0.793483
0.067249 0.518585 1.000000
0.151551 0.436930 0.999847
0.248269 0.412866 0.999472
0.406179 0.378773 0.999389
0.671053 0.339509 0.999658
0.959697 0.331049 0.999294
0.999852 0.425134 0.971065
0.999775 0.531398 0.837686
0.999868 0.619802 0.793280
0.025760 0.554756 1.000000
0.118099 0.483628 0.999787
0.219656 0.459636 0.999878
0.380539 0.425127 0.999475
0.650699 0.382323 0.999443
0.945888 0.366075 0.999708
0.999998 0.442722 0.973015
0.999816 0.541604 0.837118
0.999868 0.625176 0.793101
0.000052 0.615209 0.999786
0.057108 0.560475 0.999948
0.158701 0.539950 0.999733
0.330311 0.507881 0.999983
0.610502 0.460527 0.999592
0.920576 0.431310 0.998990
0.999681 0.475514 0.979066
0.999815 0.562360 0.836436
0.999833 0.636589 0.792108
0.000159 0.718098 0.999485
0.001846 0.688823 0.999991
0.024212 0.677148 0.999997
0.193750 0.653594 0.999908
0.515027 0.610194 0.999914
0.860472 0.565674 0.999795
0.999713 0.556154 0.981549
0.999983 0.611298 0.835150
0.999829 0.664036 0.792215
0.000612 0.848417 0.999943
0.000450 0.836721 1.000000
0.000486 0.832050 0.999936
0.000641 0.822998 0.999937
0.251118 0.793424 0.999819
0.715374 0.747596 0.985519
0.999249 0.704971 0.942587
0.999607 0.700132 0.832430
0.999851 0.717901 0.793139
0.000461 0.945078 0.979335
0.000562 0.942681 0.975597
0.000552 0.941789 0.973661
0.000448 0.939744 0.968144
0.000588 0.935257 0.957427
0.346293 0.920260 0.919213
0.867716 0.871916 0.869137
0.999525 0.822884 0.828100
0.999675 0.799390 0.775167
0.000649 0.999906 0.805231
0.000525 0.999823 0.803780
0.000433 0.999780 0.803134
0.000246 0.999692 0.801817
0.000094 0.999644 0.797143
0.000339 0.999594 0.787885
0.478456 0.999213 0.746038
0.973487 0.966086 0.725367
0.999583 0.912882 0.716217
0.000148 0.999628 0.684576
0.000146 0.999615 0.681744
0.000145 0.999609 0.680506
0.000143 0.999597 0.678016
0.000136 0.999563 0.672060
0.000167 0.999602 0.657570
0.253640 0.999866 0.635919
0.740471 0.999528 0.609819
0.982248 0.999502 0.566053
0.193741 0.577793 0.999994
0.318374 0.566252 0.999853
0.365631 0.562589 0.999709
0.451064 0.555815 0.999467
0.620809 0.541934 0.999585
0.865001 0.513438 0.999794
0.999855 0.499727 0.999786
0.999865 0.569663 0.975379
0.999892 0.627671 0.923540
0.161723 0.609099 0.999817
0.289430 0.599313 0.999979
0.336560 0.595356 0.999906
0.422420 0.587969 0.999496
0.595834 0.573586 0.999645
0.844870 0.546302 0.999639
0.999670 0.526899 0.999764
0.999820 0.583874 0.974998
0.999893 0.636877 0.922547
0.149447 0.621872 0.999801
0.277289 0.612546 1.000000
0.324105 0.608639 1.000000
0.410070 0.601187 0.999506
0.584306 0.586569 0.999635
0.835384 0.560021 0.999689
0.999621 0.538148 0.999768
0.999696 0.589810 0.974849
0.999901 0.640706 0.922196
0.121518 0.646421 0.999847
0.249464 0.637734 1.000000
0.296994 0.634493 0.999967
0.384896 0.626998 0.999714
0.560914 0.612177 0.999365
0.817157 0.587051 0.999788
0.999798 0.559807 0.999718
0.999443 0.601791 0.974508
0.999920 0.648544 0.921484
0.055387 0.702897 0.999930
0.183986 0.693477 0.999973
0.232714 0.689420 0.999925
0.320642 0.683685 0.999220
0.502892 0.669757 0.999350
0.770753 0.645266 0.999792
0.999071 0.611103 0.999770
0.999751 0.632561 0.976816
0.999954 0.668724 0.919561
0.003896 0.798221 0.999896
0.031579 0.789997 0.999953
0.074881 0.786912 0.999727
0.161889 0.781428 0.999693
0.360497 0.768617 0.999723
0.663074 0.745967 0.999999
0.958621 0.710701 0.999570
0.999941 0.698611 0.983182
0.999944 0.715381 0.915028
0.000572 0.899027 0.999803
0.000494 0.897363 0.999811
0.000549 0.896771 0.999871
0.001484 0.896208 0.999945
0.056223 0.894518 0.999933
0.398067 0.875503 0.999996
0.811685 0.840693 0.999839
0.999744 0.805401 0.987117
0.999878 0.797451 0.904567
0.000207 0.981018 1.000000
0.000358 0.980186 1.000000
0.000452 0.979769 1.000000
0.000643 0.978922 1.000000
0.000585 0.977340 0.999967
0.000984 0.976888 0.999506
0.463130 0.977773 0.976711
0.932284 0.935240 0.932950
0.999581 0.900821 0.892855
0.000059 0.997130 0.945574
0.000081 0.997316 0.943397
0.000091 0.997398 0.942444
0.000111 0.997569 0.940460
0.000164 0.998026 0.935180
0.000244 0.998978 0.921719
0.156348 0.999755 0.884042
0.699144 0.999480 0.836805
0.989196 0.999831 0.813418
0.333625 0.688208 0.999946
0.384138 0.681464 0.999951
0.404777 0.678861 0.999928
0.441936 0.676162 0.999637
0.527840 0.671384 0.999831
0.685054 0.667503 0.999349
0.889425 0.664430 0.999752
0.999588 0.641144 0.999554
0.999977 0.671286 0.999104
0.320358 0.700724 0.999914
0.373168 0.691983 0.999929
0.393494 0.689458 0.999886
0.431756 0.685945 0.999744
0.519275 0.680497 0.999795
0.677528 0.675828 0.999335
0.883331 0.672804 0.999993
0.999605 0.648456 0.999538
0.999976 0.676822 0.999112
0.315085 0.705861 0.999902
0.368850 0.696283 0.999921
0.388889 0.693926 0.999887
0.427611 0.690070 0.999808
0.515512 0.684491 0.999766
0.674364 0.679399 0.999329
0.880552 0.676536 0.999960
0.999611 0.651610 0.999527
0.999976 0.679291 0.999148
0.305124 0.715909 0.999879
0.360075 0.705174 0.999907
0.379941 0.702906 0.999927
0.419573 0.698362 0.999975
0.507629 0.692721 0.999735
0.667380 0.686897 0.999367
0.874837 0.684222 0.999896
0.999619 0.658086 0.999498
0.999976 0.684414 0.999223
0.266965 0.741739 0.999945
0.323447 0.732497 0.999962
0.345580 0.729231 0.999967
0.388673 0.723177 0.999939
0.481306 0.714198 0.999679
0.648798 0.706713 0.999699
0.860079 0.704149 0.999763
0.999608 0.679118 0.999372
0.999978 0.697930 0.999417
0.174497 0.799735 0.999693
0.239918 0.790149 0.999555
0.264415 0.786214 0.999543
0.313705 0.778302 0.999518
0.419957 0.763706 0.999284
0.596718 0.752921 0.999347
0.825349 0.746231 0.999619
0.999788 0.727238 0.999694
0.999971 0.729112 0.999664
0.023346 0.890392 1.000000
0.041435 0.888427 0.999999
0.052608 0.887179 0.999992
0.101495 0.881527 0.999925
0.224888 0.866765 0.999806
0.465584 0.838166 0.999471
0.746872 0.819293 0.998847
0.990994 0.804657 0.999560
0.999888 0.788939 0.999724
0.000304 0.969437 0.999960
0.000240 0.967684 0.999921
0.000216 0.966889 0.999872
0.000166 0.965256 0.999772
0.000177 0.962869 0.999583
0.083169 0.971584 0.999802
0.529485 0.933625 0.999976
0.879597 0.905433 0.999797
0.999017 0.882812 0.999583
0.003503 0.990025 1.000000
0.003498 0.990020 0.999999
0.003494 0.990016 0.999999
0.003486 0.990008 0.999998
0.003466 0.989988 0.999995
0.003503 0.989889 0.999960
0.111806 0.999741 0.999807
0.622712 0.999657 0.992392
0.982962 0.990272 0.987781
