output/AppleLog_display/AppleLog_to_CLASSIC-CHROME_33grid.cube
TITLE "AppleLog_to_CLASSIC-CHROME"
# Input: Apple Log (BT.2020 primaries, D65)
# Output: BT.709 / Gamma 2.2 (display-referred)
# Use: Display LUT for iPhone 15/16 Pro Apple Log footage
# Source: FLog2C_to_CLASSIC-CHROME_65grid_V.1.00.cube
# Generated from Fujifilm GFX ETERNA 55 F-Log2C LUT
LUT_3D_SIZE 33
0.000178 0.000085 0.000052
0.000178 0.000085 0.000052
0.000178 0.000085 0.000052
0.000178 0.000085 0.000052
0.000178 0.000085 0.000052
0.000178 0.000085 0.000052
0.000178 0.000085 0.000052
0.000178 0.000085 0.000052
0.010954 0.001430 0.000088
0.054092 0.001909 0.002664
0.120363 0.003994 0.004237
0.222419 0.006851 0.010512
0.357035 0.011969 0.021866
0.515150 0.020028 0.041901
0.673685 0.039643 0.076901
0.806746 0.071762 0.126614
0.908621 0.119225 0.205460
0.963942 0.189378 0.308236
0.961846 0.260539 0.380418
0.958877 0.324704 0.417088
0.958727 0.373350 0.447845
0.958776 0.374451 0.448598
0.958776 0.374451 0.448598
0.958776 0.374451 0.448598
0.958776 0.374451 0.448598
0.958776 0.374451 0.448598
0.958080 0.394147 0.440310
0.957665 0.424508 0.431065
0.958385 0.455123 0.417603
0.957810 0.486629 0.405257
0.955876 0.518624 0.389378
0.955287 0.551315 0.374103
0.953652 0.585111 0.355125
0.000178 0.000085 0.000052
0.000178 0.000085 0.000052
0.000178 0.000085 0.000052
0.000178 0.000085 0.000052
0.000178 0.000085 0.000052
0.000178 0.000085 0.000052
0.000178 0.000085 0.000052
0.007284 0.001074 0.000163
0.036282 0.001951 0.000863
0.085389 0.002740 0.002418
0.159087 0.004660 0.006713
0.263153 0.007380 0.014138
0.394161 0.014396 0.025447
0.548739 0.023285 0.048093
0.695312 0.043778 0.082943
0.819172 0.077094 0.136079
0.917945 0.124075 0.212932
0.964130 0.194335 0.315885
0.961789 0.263915 0.382253
0.958799 0.327851 0.419004
0.958771 0.374329 0.448515
0.958776 0.374451 0.448598
0.958776 0.374451 0.448598
0.958776 0.374451 0.448598
0.958810 0.374645 0.448510
0.957926 0.395748 0.440371
0.958556 0.420645 0.430935
0.957203 0.445981 0.421779
0.957444 0.472700 0.411099
0.957358 0.500724 0.398363
0.954698 0.530607 0.384488
0.955264 0.561151 0.369993
0.953843 0.592009 0.350332
0.000178 0.000085 0.000052
0.000178 0.000085 0.000052
0.000178 0.000085 0.000052
0.000178 0.000085 0.000052
0.000178 0.000085 0.000052
0.000178 0.000085 0.000052
0.000160 0.000065 0.000031
0.013987 0.001688 0.000035
0.048857 0.001878 0.002417
0.098063 0.003426 0.002924
0.174719 0.005437 0.007353
0.280294 0.008091 0.015441
0.409366 0.015175 0.027075
0.562130 0.024583 0.050561
0.704011 0.045441 0.085373
0.824205 0.079253 0.139912
0.921057 0.126925 0.216953
0.964207 0.196360 0.319012
0.961766 0.265298 0.383006
0.958767 0.329144 0.419791
0.958823 0.372485 0.447293
0.958620 0.372449 0.447653
0.958776 0.374451 0.448598
0.958776 0.374451 0.448598
0.959102 0.385087 0.444008
0.957975 0.407902 0.434899
0.957247 0.429846 0.427435
0.957250 0.454443 0.417819
0.957752 0.479461 0.408239
0.956850 0.506815 0.395448
0.954673 0.535493 0.381846
0.955081 0.564922 0.367998
0.953920 0.594779 0.348408
0.000178 0.000085 0.000052
0.000178 0.000085 0.000052
0.000178 0.000085 0.000052
0.000178 0.000085 0.000052
0.000178 0.000085 0.000052
0.000178 0.000085 0.000052
0.003406 0.000586 0.000141
0.022391 0.001853 0.000020
0.058962 0.001991 0.002544
0.107622 0.003894 0.003338
0.186222 0.006009 0.007824
0.293030 0.008620 0.016409
0.421537 0.015514 0.028591
0.572210 0.025561 0.052419
0.710588 0.046698 0.087211
0.828022 0.080891 0.142820
0.923424 0.129093 0.220010
0.964266 0.197904 0.321394
0.961749 0.266354 0.383580
0.961164 0.299645 0.403001
0.960143 0.329012 0.422332
0.959017 0.364948 0.442813
0.958776 0.374451 0.448598
0.959017 0.378942 0.445593
0.957592 0.398256 0.437935
0.958078 0.416629 0.432112
0.957745 0.437756 0.424777
0.957253 0.460758 0.415219
0.957980 0.484423 0.406140
0.956474 0.511333 0.393282
0.954653 0.539147 0.379870
0.954859 0.567689 0.366325
0.953978 0.596871 0.346954
0.000178 0.000085 0.000052
0.000178 0.000085 0.000052
0.000178 0.000085 0.000052
0.000178 0.000085 0.000052
0.000178 0.000085 0.000052
0.000178 0.000085 0.000052
0.006859 0.001033 0.000171
0.029002 0.001983 0.000008
0.067386 0.002134 0.002336
0.118765 0.003981 0.004124
0.195611 0.006476 0.008208
0.303501 0.009055 0.017205
0.431600 0.015795 0.029845
0.580321 0.026451 0.054072
0.716068 0.047746 0.088742
0.831212 0.082259 0.145249
0.925406 0.130908 0.222570
0.964035 0.184573 0.302988
0.963463 0.227776 0.354811
0.962988 0.266255 0.384837
0.960042 0.304481 0.404577
0.959172 0.344923 0.429822
0.958399 0.371358 0.445498
0.958064 0.388361 0.443015
0.957647 0.407559 0.434673
0.958162 0.423511 0.429917
0.958323 0.444222 0.422631
0.957230 0.466001 0.413326
0.957957 0.488870 0.404011
0.956165 0.515044 0.391502
0.954636 0.542165 0.378238
0.954674 0.569985 0.364936
0.953980 0.598687 0.345624
0.000178 0.000085 0.000052
0.000178 0.000085 0.000052
0.000178 0.000085 0.000052
0.000178 0.000085 0.000052
0.000178 0.000085 0.000052
0.000178 0.000085 0.000052
0.010671 0.001403 0.000094
0.036516 0.001949 0.000892
0.074489 0.002253 0.002162
0.128248 0.004055 0.004793
0.205472 0.006670 0.008986
0.312535 0.009430 0.017892
0.440322 0.016038 0.030932
0.587005 0.027337 0.055666
0.714080 0.047060 0.088047
0.806299 0.072496 0.129615
0.882001 0.105283 0.183920
0.946447 0.147895 0.248020
0.965248 0.197596 0.319781
0.963337 0.244782 0.371128
0.961219 0.285323 0.393730
0.959610 0.331580 0.420184
0.958338 0.375116 0.438282
0.957776 0.397191 0.439976
0.958544 0.414535 0.432996
0.958229 0.430098 0.427743
0.958764 0.449640 0.420799
0.957211 0.470453 0.411716
0.957871 0.492809 0.402053
0.955914 0.518240 0.389972
0.954621 0.544779 0.376825
0.954514 0.571981 0.363729
0.953926 0.600360 0.344322
0.000178 0.000085 0.000052
0.000178 0.000085 0.000052
0.000178 0.000085 0.000052
0.000178 0.000085 0.000052
0.000178 0.000085 0.000052
0.000178 0.000085 0.000052
0.013678 0.001770 0.000057
0.040724 0.001795 0.001666
0.075884 0.002436 0.002477
0.125886 0.003580 0.004777
0.196751 0.005597 0.009283
0.288882 0.007833 0.015482
0.398401 0.013167 0.026700
0.521330 0.022055 0.042238
0.644476 0.034293 0.067558
0.752386 0.057783 0.101723
0.841556 0.086901 0.152073
0.915205 0.124937 0.213255
0.958991 0.175393 0.288887
0.963081 0.227714 0.353708
0.960887 0.273774 0.386443
0.960322 0.327365 0.409351
0.958210 0.379133 0.431482
0.958400 0.405126 0.436174
0.958583 0.420596 0.431067
0.958287 0.435756 0.425876
0.958567 0.454142 0.418934
0.957194 0.474351 0.410303
0.957795 0.496284 0.400326
0.955905 0.521062 0.388704
0.954608 0.547107 0.375567
0.954371 0.573765 0.362651
0.953877 0.601858 0.343155
0.000015 0.003432 0.000196
0.000348 0.005756 0.000111
0.000505 0.006685 0.000066
0.000622 0.007378 0.000032
0.000719 0.007950 0.000004
0.000553 0.008243 0.000117
0.007477 0.006874 0.000011
0.027487 0.005413 0.000004
0.059060 0.005191 0.001270
0.101356 0.005395 0.002989
0.162720 0.005778 0.006685
0.241398 0.006653 0.013078
0.346702 0.011331 0.021506
0.463339 0.016379 0.034624
0.592201 0.027574 0.055755
0.710254 0.047260 0.086765
0.810271 0.074678 0.130905
0.889861 0.109979 0.189509
0.953060 0.161475 0.263711
0.963477 0.221406 0.335896
0.961037 0.276351 0.377243
0.960511 0.329118 0.400003
0.958003 0.383031 0.425162
0.958514 0.411938 0.433455
0.957964 0.426090 0.428904
0.958335 0.440818 0.424200
0.958386 0.458206 0.417251
0.957226 0.477924 0.408813
0.957724 0.499465 0.398746
0.955896 0.523657 0.387538
0.954595 0.549255 0.374406
0.954239 0.575416 0.361652
0.953832 0.603248 0.342072
0.000430 0.015897 0.000108
0.000223 0.019066 0.000056
0.000140 0.020325 0.000035
0.000078 0.021272 0.000020
0.000027 0.022057 0.000007
0.000592 0.020578 0.000012
0.003586 0.017254 0.000321
0.017150 0.014684 0.000042
0.044746 0.014684 0.000156
0.083969 0.014652 0.000429
0.139273 0.014267 0.002653
0.208561 0.016689 0.005333
0.307193 0.018324 0.013355
0.419916 0.024301 0.024742
0.548255 0.032550 0.042828
0.672264 0.050163 0.069949
0.779164 0.075502 0.109478
0.866808 0.109463 0.164368
0.938544 0.162409 0.234940
0.963974 0.225476 0.313319
0.961576 0.284959 0.365335
0.960722 0.332677 0.389663
0.957777 0.386322 0.417066
0.957950 0.419362 0.431396
0.957259 0.432308 0.426457
0.958059 0.446515 0.421734
0.958174 0.462901 0.415307
0.957405 0.482167 0.406440
0.957642 0.503191 0.396897
0.955887 0.526711 0.386167
0.954580 0.551793 0.373034
0.954082 0.577372 0.360470
0.953778 0.604899 0.340787
0.000051 0.040636 0.000710
0.000097 0.045057 0.000731
0.000116 0.046833 0.000739
0.000130 0.048175 0.000745
0.000142 0.049293 0.000750
0.000248 0.041443 0.000574
0.001085 0.036542 0.000009
0.010429 0.033854 0.000127
0.032468 0.031798 0.000562
0.068793 0.030557 0.000483
0.118060 0.030056 0.000124
0.184653 0.032114 0.001127
0.274639 0.035055 0.005831
0.381326 0.040460 0.013855
0.507233 0.049544 0.030112
0.633572 0.066122 0.052636
0.745121 0.089555 0.086503
0.838652 0.124406 0.136207
0.915548 0.172645 0.200854
0.961310 0.235518 0.281556
0.961839 0.295945 0.349084
0.960685 0.339338 0.377611
0.957615 0.390062 0.406414
0.957663 0.427445 0.426921
0.957703 0.441248 0.424029
0.957723 0.453460 0.418734
0.957965 0.468923 0.412733
0.957627 0.487445 0.403493
0.957524 0.507853 0.394575
0.955876 0.530558 0.384440
0.954344 0.554919 0.371355
0.953882 0.579858 0.358967
0.953709 0.607004 0.339148
0.000612 0.075976 0.000335
0.000424 0.080029 0.000231
0.000347 0.081670 0.000189
0.000289 0.082914 0.000158
0.000241 0.083953 0.000131
0.000096 0.071315 0.000141
0.000652 0.064129 0.000842
0.004252 0.059504 0.000010
0.022347 0.057728 0.000176
0.055995 0.053689 0.000006
0.100188 0.054750 0.000031
0.164340 0.054431 0.000278
0.244159 0.057607 0.000118
0.347923 0.063079 0.006085
0.466505 0.071387 0.015369
0.594298 0.084427 0.033443
0.709977 0.109765 0.065670
0.809011 0.142144 0.111339
0.891158 0.187700 0.169912
0.950513 0.248899 0.245568
0.960980 0.309624 0.324712
0.959364 0.350227 0.363907
0.957688 0.395275 0.390862
0.957878 0.435844 0.418644
0.958337 0.452024 0.421126
0.957411 0.462676 0.415057
0.957875 0.476960 0.409075
0.957899 0.493955 0.399865
0.957090 0.513537 0.391560
0.955862 0.535379 0.382277
0.954020 0.558847 0.369248
0.953630 0.583004 0.357065
0.953622 0.609678 0.337066
0.000060 0.127374 0.000141
0.000051 0.132639 0.000250
0.000047 0.134782 0.000294
0.000044 0.136412 0.000328
0.000392 0.128720 0.000475
0.000420 0.108299 0.000031
0.000142 0.097810 0.000106
0.002215 0.091939 0.000236
0.013699 0.089236 0.000095
0.044125 0.085535 0.000134
0.085901 0.084523 0.000387
0.144978 0.083980 0.000016
0.223106 0.086041 0.000596
0.321407 0.089918 0.000178
0.431078 0.098491 0.005452
0.558737 0.111710 0.016720
0.676318 0.134355 0.042931
0.780701 0.165516 0.082979
0.865062 0.208669 0.137797
0.938421 0.265814 0.211998
0.959655 0.325169 0.293706
0.958709 0.366802 0.343701
0.958426 0.404715 0.375370
0.958042 0.444999 0.406273
0.958415 0.464292 0.416002
0.957169 0.474896 0.410556
0.957766 0.486661 0.404667
0.957610 0.502425 0.396223
0.956555 0.520546 0.387838
0.955808 0.541388 0.379548
0.953613 0.563768 0.366606
0.953373 0.587011 0.354513
0.953511 0.613064 0.334429
0.000108 0.197006 0.000038
0.000178 0.203363 0.000034
0.000207 0.205962 0.000033
0.000229 0.207942 0.000032
0.000298 0.180635 0.000077
0.000119 0.159153 0.000123
0.000371 0.147127 0.000111
0.000939 0.139434 0.000417
0.007934 0.132434 0.000005
0.031954 0.128491 0.000075
0.072518 0.124659 0.000070
0.127574 0.122905 0.000029
0.200725 0.123328 0.000573
0.295564 0.127021 0.000048
0.403135 0.133662 0.000175
0.521263 0.144311 0.004762
0.641962 0.167567 0.022097
0.749493 0.196905 0.054987
0.838937 0.238085 0.102755
0.915615 0.289947 0.170053
0.959451 0.345281 0.252978
0.957841 0.390202 0.320790
0.958224 0.419725 0.356174
0.957748 0.456948 0.390566
0.957885 0.478947 0.409226
0.957514 0.488816 0.403937
0.957684 0.499563 0.399080
0.956827 0.513019 0.392365
0.955902 0.529103 0.383289
0.955185 0.548926 0.375631
0.953107 0.569891 0.363320
0.953440 0.592298 0.350339
0.953371 0.617333 0.331107
0.000348 0.292089 0.000058
0.000330 0.297560 0.000102
0.000327 0.299909 0.000141
0.000118 0.282674 0.000383
0.000393 0.245016 0.000514
0.000330 0.221146 0.000311
0.000167 0.205984 0.000415
0.000410 0.198595 0.000479
0.002566 0.191157 0.000192
0.021912 0.184556 0.000935
0.060419 0.178331 0.000161
0.111880 0.174533 0.000021
0.182598 0.173402 0.000037
0.271823 0.174111 0.000154
0.374998 0.178879 0.000027
0.490776 0.190549 0.001451
0.610415 0.209870 0.007232
0.719231 0.236455 0.030016
0.812652 0.272450 0.072855
0.891474 0.318803 0.132168
0.953107 0.369771 0.210490
0.958300 0.418226 0.295075
0.958091 0.441940 0.334044
0.957216 0.471600 0.370727
0.957253 0.496778 0.399332
0.957333 0.504951 0.396008
0.957215 0.514714 0.392214
0.956477 0.525654 0.386507
0.955045 0.540139 0.378230
0.954424 0.558133 0.370855
0.952678 0.577539 0.358968
0.953524 0.598875 0.345150
0.953196 0.622683 0.326943
0.000089 0.399238 0.000261
0.000071 0.403797 0.000185
0.000064 0.405670 0.000154
0.000024 0.348198 0.000343
0.000607 0.314454 0.000451
0.000107 0.290675 0.000085
0.000344 0.279405 0.000035
0.000376 0.270851 0.000050
0.000270 0.262313 0.000057
0.014318 0.254581 0.000238
0.048996 0.247375 0.000222
0.098547 0.238791 0.000034
0.166882 0.234551 0.000048
0.251404 0.236158 0.000090
0.353653 0.239011 0.000167
0.464410 0.247691 0.001174
0.581478 0.263062 0.005488
0.689495 0.286009 0.015138
0.785732 0.313506 0.040530
0.867532 0.353719 0.092117
0.936120 0.399118 0.164538
0.958560 0.445776 0.250538
0.958408 0.470731 0.305044
0.957020 0.492598 0.344757
0.956807 0.517388 0.382568
0.955503 0.524134 0.387461
0.955824 0.532068 0.383554
0.956634 0.540530 0.378351
0.954086 0.553402 0.372094
0.953862 0.569351 0.364359
0.952827 0.587205 0.352638
0.953627 0.606990 0.338752
0.953002 0.629140 0.321494
0.003045 0.510589 0.000306
0.003350 0.514115 0.000268
0.001045 0.462144 0.000333
0.000211 0.418329 0.000128
0.000234 0.391225 0.000238
0.000161 0.372995 0.000550
0.000439 0.361514 0.000379
0.000224 0.353429 0.000947
0.001071 0.343935 0.000523
0.009773 0.334340 0.000303
0.036138 0.326617 0.000415
0.084068 0.318974 0.000126
0.150019 0.311373 0.000088
0.234103 0.309052 0.000025
0.334533 0.308335 0.000582
0.440334 0.314504 0.002091
0.555594 0.326014 0.006631
0.663645 0.342751 0.014343
0.758869 0.364464 0.024034
0.842435 0.396587 0.055258
0.918304 0.436311 0.119782
0.955577 0.478733 0.198658
0.957262 0.505867 0.270840
0.957891 0.518708 0.315216
0.955716 0.540304 0.358809
0.955574 0.546654 0.375602
0.955087 0.552769 0.373622
0.954283 0.559974 0.370620
0.953876 0.570402 0.363611
0.953690 0.582866 0.355560
0.953006 0.598880 0.345000
0.953485 0.616937 0.331586
0.952767 0.637076 0.314730
0.010405 0.617390 0.001593
0.007039 0.580703 0.000651
0.004161 0.523316 0.000211
0.001960 0.492391 0.000502
0.000997 0.471217 0.000560
0.001033 0.458024 0.000627
0.000924 0.447911 0.000657
0.000432 0.439013 0.000585
0.000375 0.431286 0.000362
0.005526 0.423077 0.000262
0.024506 0.414530 0.000439
0.069551 0.406745 0.000240
0.134227 0.398324 0.000822
0.219376 0.391546 0.000456
0.317288 0.387741 0.002225
0.422927 0.388282 0.005572
0.533238 0.394668 0.011695
0.640842 0.405928 0.016134
0.736763 0.422864 0.024646
0.819546 0.447659 0.035250
0.894989 0.480710 0.075442
0.954775 0.516276 0.144875
0.955128 0.547428 0.226576
0.955547 0.554924 0.279000
0.954176 0.567284 0.329333
0.954351 0.573167 0.359342
0.953526 0.577443 0.360660
0.953617 0.580920 0.357447
0.954029 0.589775 0.351794
0.953551 0.599381 0.344146
0.953038 0.612997 0.333897
0.953051 0.628979 0.323552
0.952481 0.646769 0.306461
0.017935 0.710796 0.006797
0.010262 0.623251 0.001027
0.007409 0.587417 0.000532
0.006774 0.564813 0.000218
0.005481 0.551002 0.000371
0.003235 0.540682 0.000172
0.003993 0.532152 0.000079
0.004472 0.525080 0.000012
0.003873 0.519280 0.000069
0.006974 0.511894 0.000189
0.017184 0.502363 0.000398
0.062004 0.492378 0.000057
0.124150 0.484661 0.000144
0.203952 0.477570 0.001823
0.301546 0.471592 0.004008
0.404635 0.468720 0.010133
0.513515 0.469584 0.015421
0.620356 0.475429 0.023137
0.715502 0.488387 0.030608
0.800478 0.505678 0.037761
0.875827 0.529868 0.050135
0.938255 0.558658 0.095817
0.954098 0.590975 0.182342
0.954006 0.594756 0.234782
0.953442 0.600678 0.287007
0.953133 0.602737 0.334634
0.953420 0.603137 0.342690
0.952675 0.605723 0.340648
0.953981 0.611398 0.335988
0.953289 0.618796 0.330213
0.952887 0.629607 0.320474
0.952700 0.642884 0.311791
0.952342 0.658132 0.293621
0.022355 0.753365 0.010163
0.013749 0.671153 0.004629
0.012814 0.649178 0.002852
0.011366 0.636155 0.001076
0.010100 0.626965 0.000894
0.010109 0.619935 0.000550
0.010281 0.614104 0.000225
0.009735 0.608810 0.000126
0.008934 0.602826 0.000066
0.010303 0.596297 0.000352
0.013374 0.589118 0.000971
0.053070 0.581455 0.000567
0.111981 0.573816 0.001562
0.192224 0.565366 0.005684
0.286406 0.557832 0.009464
0.389052 0.551649 0.016139
0.494431 0.550562 0.020778
0.601549 0.551597 0.028426
0.697038 0.558718 0.036992
0.781640 0.570652 0.043239
0.855978 0.587243 0.052514
0.922267 0.606623 0.069770
0.951481 0.631083 0.121436
0.951809 0.639592 0.189033
0.952650 0.637081 0.239038
0.952906 0.635350 0.295203
0.952497 0.632794 0.318224
0.952262 0.632688 0.319360
0.952882 0.635597 0.316000
0.952656 0.640847 0.313163
0.952262 0.648880 0.304419
0.952506 0.658641 0.295044
0.952205 0.671635 0.277932
0.023973 0.767209 0.013820
0.019173 0.721536 0.008399
0.017204 0.708624 0.006697
0.017169 0.700024 0.005778
0.016701 0.694412 0.005192
0.016312 0.689827 0.004704
0.015782 0.685626 0.004674
0.015300 0.681888 0.004689
0.015079 0.677711 0.004674
0.017249 0.673110 0.004273
0.021930 0.667620 0.003925
0.052246 0.661012 0.005165
0.104726 0.653554 0.006986
0.181468 0.645698 0.010086
0.273823 0.638752 0.015435
0.374558 0.633246 0.021757
0.479788 0.628872 0.027619
0.586491 0.627289 0.036252
0.681775 0.629444 0.043141
0.764753 0.634648 0.051851
0.837659 0.644195 0.060198
0.902855 0.656782 0.073384
0.950617 0.674168 0.093803
0.950531 0.683669 0.135241
0.950973 0.678774 0.184593
0.951410 0.672298 0.240628
0.951928 0.664171 0.284802
0.951803 0.662185 0.288719
0.951645 0.662418 0.289120
0.952411 0.665431 0.287175
0.952367 0.670371 0.279445
0.952294 0.677553 0.270734
0.951950 0.687372 0.259192
0.025822 0.796120 0.015066
0.023584 0.771812 0.012930
0.023259 0.763388 0.012620
0.022679 0.757903 0.011959
0.022115 0.753773 0.011443
0.021543 0.750522 0.011030
0.021056 0.747725 0.010676
0.020674 0.745152 0.010257
0.020349 0.742054 0.009540
0.019942 0.738273 0.008657
0.029324 0.733711 0.008849
0.051881 0.728279 0.010550
0.099341 0.722526 0.013013
0.170240 0.716319 0.016517
0.261613 0.709592 0.021748
0.362983 0.703729 0.027426
0.467499 0.699244 0.034495
0.570466 0.696048 0.042942
0.666257 0.694923 0.049369
0.749172 0.696321 0.060380
0.821718 0.698878 0.074162
0.885836 0.706589 0.087630
0.939583 0.717602 0.098976
0.950181 0.728114 0.110614
0.951591 0.721169 0.127478
0.950832 0.712192 0.178203
0.951383 0.697766 0.237664
0.951131 0.693428 0.251352
0.950553 0.691195 0.255893
0.951482 0.691270 0.253618
0.951172 0.693928 0.251919
0.951349 0.699140 0.244240
0.950872 0.705737 0.235990
0.029856 0.831011 0.017329
0.028977 0.816014 0.017041
0.027703 0.811261 0.015962
0.027530 0.806901 0.015884
0.027386 0.803431 0.015816
0.027369 0.800791 0.015802
0.027486 0.798831 0.015846
0.027592 0.797060 0.015886
0.027715 0.795012 0.015933
0.030462 0.792370 0.016021
0.038683 0.788920 0.016186
0.048515 0.784748 0.016388
0.097011 0.780874 0.017750
0.161431 0.776347 0.020200
0.250932 0.770780 0.026045
0.348016 0.766508 0.032765
0.450518 0.761129 0.039612
0.554331 0.756580 0.048094
0.650879 0.753166 0.060594
0.733562 0.751251 0.074710
0.804868 0.751540 0.085156
0.869825 0.754929 0.097625
0.926825 0.761591 0.111619
0.950374 0.770313 0.120505
0.951243 0.765280 0.118046
0.950089 0.752196 0.121016
0.950790 0.735325 0.175973
0.950594 0.724726 0.207830
0.950179 0.721269 0.213764
0.950481 0.719521 0.216805
0.950985 0.719788 0.216438
0.950295 0.722175 0.211692
0.949795 0.726818 0.206002
0.035185 0.865890 0.022248
0.033745 0.856638 0.021226
0.033143 0.853117 0.020396
0.032732 0.850391 0.020193
0.032401 0.848169 0.020080
0.032116 0.846280 0.019983
0.031865 0.844625 0.019896
0.032404 0.843189 0.019756
0.033811 0.841591 0.019527
0.035493 0.839602 0.019239
0.037459 0.837148 0.018879
0.058590 0.834265 0.020188
0.100099 0.830876 0.023269
0.157959 0.826977 0.026878
0.240540 0.822665 0.030947
0.336179 0.818628 0.039348
0.437067 0.813874 0.048555
0.538251 0.808663 0.059180
0.635365 0.804262 0.072161
0.718560 0.801987 0.085322
0.792567 0.800004 0.098215
0.854250 0.800949 0.111223
0.913675 0.803641 0.124259
0.952321 0.809517 0.135075
0.951895 0.806778 0.133646
0.951832 0.792922 0.127787
0.950784 0.774101 0.128105
0.951220 0.758088 0.153289
0.950833 0.752478 0.163526
0.950215 0.749450 0.170961
0.950735 0.747164 0.173130
0.950296 0.747402 0.173031
0.950199 0.749853 0.168183
0.039355 0.900369 0.026494
0.037810 0.893926 0.024902
0.037635 0.891314 0.024312
0.037528 0.889393 0.023906
0.037859 0.887771 0.024116
0.038142 0.886381 0.024297
0.038390 0.885153 0.024459
0.038617 0.884029 0.024608
0.038881 0.882711 0.024785
0.040044 0.881065 0.025033
0.055717 0.879143 0.025752
0.074894 0.876773 0.026623
0.098058 0.873882 0.027662
0.157829 0.871109 0.031698
0.234434 0.867910 0.036976
0.325444 0.864228 0.045092
0.425188 0.859456 0.056517
0.526409 0.854055 0.071120
0.621170 0.850749 0.084146
0.706849 0.846883 0.097974
0.778922 0.844820 0.111301
0.842296 0.843640 0.124729
0.900190 0.845513 0.137457
0.944937 0.848152 0.147905
0.953953 0.846237 0.147966
0.952526 0.831154 0.142736
0.952700 0.811890 0.134926
0.951378 0.792654 0.130128
0.951513 0.783176 0.129719
0.950745 0.778989 0.128295
0.951123 0.775782 0.134826
0.951506 0.773967 0.131769
0.950698 0.774185 0.135628
0.043738 0.933889 0.029643
0.043420 0.929018 0.029140
0.043519 0.927217 0.029244
0.043593 0.925878 0.029319
0.043654 0.924777 0.029380
0.044907 0.923830 0.029526
0.049406 0.922995 0.029921
0.053532 0.922226 0.030283
0.058371 0.921323 0.030709
0.064444 0.920184 0.031244
0.072014 0.918757 0.031911
0.081368 0.916981 0.032737
0.121367 0.914893 0.035068
0.171676 0.912341 0.037977
0.235452 0.909137 0.042728
0.321429 0.904980 0.052245
0.416269 0.900383 0.064133
0.516832 0.895559 0.078848
0.611341 0.892077 0.096286
0.696686 0.888629 0.111244
0.767901 0.886540 0.125251
0.831266 0.885073 0.137573
0.889151 0.884881 0.149061
0.941226 0.885259 0.160851
0.956508 0.881039 0.162838
0.955334 0.867537 0.157461
0.954197 0.848606 0.149703
0.953312 0.827741 0.140905
0.951935 0.814840 0.136242
0.952020 0.809651 0.135817
0.951966 0.804561 0.133185
0.951842 0.801128 0.130727
0.951876 0.800126 0.130971
0.048067 0.962730 0.034764
0.047756 0.959858 0.034822
0.047292 0.958975 0.034439
0.046946 0.958316 0.034153
0.046660 0.957774 0.033917
0.046413 0.957304 0.033713
0.046194 0.956887 0.033531
0.045991 0.956503 0.033364
0.045753 0.956049 0.033167
0.059827 0.955198 0.034250
0.080990 0.954060 0.035933
0.107437 0.952638 0.038037
0.140224 0.950877 0.040644
0.181514 0.948673 0.044114
0.249805 0.945239 0.053030
0.332505 0.941110 0.063814
0.418465 0.937258 0.076894
0.513243 0.933273 0.092243
0.602191 0.930536 0.107094
0.684396 0.927537 0.121520
0.756794 0.924797 0.135357
0.820050 0.922111 0.147885
0.876688 0.919158 0.161953
0.926243 0.917510 0.171316
0.955858 0.911865 0.176236
0.957651 0.899925 0.170243
0.956281 0.882747 0.164216
0.955144 0.863373 0.154960
0.954506 0.846083 0.148557
0.953656 0.839214 0.145790
0.953403 0.834167 0.143763
0.953051 0.829999 0.141673
0.953551 0.826742 0.141634
0.047866 0.967222 0.033919
0.047866 0.967222 0.033919
0.050394 0.967193 0.034185
0.052915 0.967165 0.034449
0.054989 0.967141 0.034667
0.056778 0.967121 0.034855
0.058365 0.967103 0.035021
0.059825 0.967087 0.035175
0.061542 0.967068 0.035355
0.063705 0.967043 0.035582
0.066411 0.967013 0.035866
0.069767 0.966975 0.036218
0.101624 0.966420 0.039914
0.142999 0.965705 0.044712
0.194072 0.964835 0.050624
0.258358 0.963517 0.058975
0.340929 0.961244 0.071934
0.435657 0.959157 0.086982
0.531010 0.959197 0.102907
