output/AppleLog_display/AppleLog_to_PRO-Neg.Std_33grid.cube
TITLE "AppleLog_to_PRO-Neg.Std"
# Input: Apple Log (BT.2020 primaries, D65)
# Output: BT.709 / Gamma 2.2 (display-referred)
# Use: Display LUT for iPhone 15/16 Pro Apple Log footage
# Source: FLog2C_to_PRO-Neg.Std_65grid_V.1.00.cube
# Generated from Fujifilm GFX ETERNA 55 F-Log2C LUT
LUT_3D_SIZE 33
0.000438 0.000379 0.000085
0.000438 0.000379 0.000085
0.000438 0.000379 0.000085
0.000438 0.000379 0.000085
0.000438 0.000379 0.000085
0.000438 0.000379 0.000085
0.000438 0.000379 0.000085
0.000438 0.000379 0.000085
0.025128 0.006355 0.004752
0.067688 0.009311 0.018458
0.121986 0.019224 0.033658
0.195572 0.024945 0.055357
0.296180 0.035083 0.082633
0.421750 0.043204 0.116138
0.571543 0.050706 0.159288
0.723447 0.057989 0.216538
0.846302 0.071375 0.293230
0.934527 0.090869 0.384074
0.950713 0.130409 0.443212
0.958709 0.200380 0.465014
0.965842 0.255961 0.484305
0.966102 0.257228 0.484735
0.966102 0.257228 0.484735
0.966102 0.257228 0.484735
0.966102 0.257228 0.484735
0.966102 0.257228 0.484735
0.967555 0.279199 0.469288
0.968469 0.313366 0.446016
0.970757 0.348781 0.418455
0.971256 0.385321 0.388693
0.972638 0.421237 0.357861
0.971372 0.460530 0.319918
0.973690 0.498831 0.281542
0.000438 0.000379 0.000085
0.000438 0.000379 0.000085
0.000438 0.000379 0.000085
0.000438 0.000379 0.000085
0.000438 0.000379 0.000085
0.000438 0.000379 0.000085
0.000438 0.000379 0.000085
0.019183 0.004522 0.004008
0.052656 0.008651 0.015002
0.094902 0.015479 0.025245
0.150457 0.019601 0.044379
0.225365 0.026966 0.063833
0.324730 0.037806 0.090337
0.451587 0.044324 0.124675
0.595827 0.050946 0.166441
0.738942 0.059920 0.225642
0.857150 0.072375 0.300558
0.937448 0.092129 0.390778
0.951329 0.134160 0.444695
0.959041 0.203962 0.466270
0.966073 0.257088 0.484687
0.966102 0.257228 0.484735
0.966102 0.257228 0.484735
0.966102 0.257228 0.484735
0.966056 0.257500 0.484456
0.967600 0.281035 0.467589
0.968977 0.310002 0.448512
0.969602 0.338765 0.426420
0.970775 0.368505 0.401567
0.971632 0.401506 0.374801
0.972894 0.434673 0.345915
0.971866 0.471317 0.309751
0.973118 0.507819 0.271597
0.000438 0.000379 0.000085
0.000438 0.000379 0.000085
0.000438 0.000379 0.000085
0.000438 0.000379 0.000085
0.000438 0.000379 0.000085
0.000438 0.000379 0.000085
0.000445 0.000284 0.000061
0.029802 0.007663 0.005521
0.063153 0.008752 0.017372
0.104960 0.017876 0.027694
0.161417 0.021298 0.046736
0.238182 0.028548 0.067210
0.336469 0.038758 0.093452
0.463482 0.044771 0.128079
0.605594 0.051042 0.169319
0.745217 0.060703 0.229329
0.861514 0.073230 0.304081
0.938641 0.092643 0.393518
0.951581 0.135698 0.445303
0.959178 0.205434 0.466786
0.966227 0.254754 0.484408
0.965971 0.254633 0.484500
0.966102 0.257228 0.484735
0.966102 0.257228 0.484735
0.968644 0.268768 0.477564
0.967724 0.295220 0.458052
0.968739 0.319835 0.441007
0.969791 0.347670 0.420435
0.970634 0.376618 0.395905
0.971695 0.407895 0.368979
0.973116 0.440262 0.340257
0.971938 0.475729 0.305362
0.972888 0.511428 0.267601
0.000438 0.000379 0.000085
0.000438 0.000379 0.000085
0.000438 0.000379 0.000085
0.000438 0.000379 0.000085
0.000438 0.000379 0.000085
0.000438 0.000379 0.000085
0.010580 0.002322 0.002399
0.039137 0.008173 0.009991
0.072052 0.010285 0.019555
0.112494 0.019463 0.029668
0.169483 0.022547 0.048470
0.247705 0.029724 0.069719
0.345929 0.039307 0.095892
0.472436 0.045107 0.130641
0.612979 0.051115 0.171494
0.749977 0.061296 0.232126
0.864834 0.073881 0.306760
0.939551 0.093036 0.395605
0.951773 0.136872 0.445767
0.956469 0.172828 0.457551
0.959277 0.205845 0.470120
0.964780 0.246430 0.481655
0.966102 0.257228 0.484735
0.965815 0.263339 0.480598
0.967914 0.283752 0.466951
0.967985 0.305446 0.450744
0.969157 0.328643 0.434136
0.970115 0.354960 0.414661
0.970529 0.382573 0.391752
0.971743 0.412634 0.364662
0.973281 0.444440 0.336027
0.971933 0.479105 0.301896
0.972714 0.514154 0.264583
0.000438 0.000379 0.000085
0.000438 0.000379 0.000085
0.000438 0.000379 0.000085
0.000438 0.000379 0.000085
0.000438 0.000379 0.000085
0.000438 0.000379 0.000085
0.018494 0.004310 0.003922
0.046480 0.008574 0.013506
0.079603 0.011968 0.021451
0.120795 0.019254 0.033158
0.176066 0.023567 0.049886
0.255535 0.030691 0.071782
0.353751 0.039761 0.097909
0.479843 0.045466 0.132765
0.619133 0.051176 0.173307
0.753954 0.061792 0.234462
0.867613 0.074425 0.309003
0.937495 0.088453 0.378890
0.945899 0.105716 0.423860
0.951935 0.136544 0.447992
0.956514 0.177420 0.460035
0.961950 0.222446 0.476337
0.965910 0.253167 0.482085
0.966469 0.273093 0.474341
0.967830 0.294417 0.459424
0.968240 0.313479 0.445013
0.969563 0.335878 0.428480
0.970520 0.361505 0.408857
0.970747 0.387699 0.387294
0.971783 0.416524 0.361119
0.973417 0.447890 0.332532
0.971929 0.481907 0.299020
0.972664 0.516440 0.262030
0.000438 0.000379 0.000085
0.000438 0.000379 0.000085
0.000438 0.000379 0.000085
0.000438 0.000379 0.000085
0.000438 0.000379 0.000085
0.000438 0.000379 0.000085
0.024669 0.006213 0.004695
0.052852 0.008653 0.015047
0.085969 0.013388 0.023051
0.127861 0.019076 0.036128
0.183201 0.024163 0.051815
0.262290 0.031525 0.073562
0.360529 0.040154 0.099658
0.486244 0.045894 0.134610
0.616588 0.050916 0.172460
0.724630 0.056598 0.220270
0.814593 0.067962 0.270521
0.895314 0.080164 0.330947
0.940261 0.093505 0.394258
0.948664 0.116501 0.437349
0.954828 0.158008 0.450679
0.961081 0.207130 0.467904
0.966827 0.256737 0.472945
0.967405 0.282577 0.467460
0.968133 0.302471 0.453776
0.969039 0.320630 0.440029
0.969904 0.341967 0.423689
0.970863 0.367059 0.403930
0.971033 0.392177 0.383131
0.971822 0.419909 0.358051
0.973535 0.450878 0.329505
0.971925 0.484342 0.296518
0.972735 0.518453 0.259759
0.000438 0.000379 0.000085
0.000438 0.000379 0.000085
0.000438 0.000379 0.000085
0.000438 0.000379 0.000085
0.000438 0.000379 0.000085
0.000438 0.000379 0.000085
0.029452 0.007851 0.005366
0.056474 0.008617 0.015468
0.086654 0.014179 0.023132
0.125747 0.018012 0.036506
0.176900 0.024363 0.049782
0.243629 0.028435 0.068514
0.328008 0.037107 0.089944
0.428335 0.045668 0.115714
0.540121 0.049535 0.148848
0.662370 0.054916 0.188159
0.765630 0.063160 0.239996
0.855143 0.073920 0.298612
0.927579 0.087016 0.367083
0.945810 0.106403 0.422422
0.952301 0.145669 0.446707
0.959334 0.203364 0.455882
0.966820 0.261407 0.464021
0.968525 0.291803 0.459783
0.968383 0.309327 0.448915
0.969721 0.326769 0.435739
0.970198 0.347356 0.419060
0.971162 0.371920 0.399617
0.971285 0.396128 0.379459
0.971920 0.423402 0.355113
0.973640 0.453539 0.326810
0.971922 0.486518 0.294283
0.972798 0.520256 0.257724
0.001030 0.011739 0.000832
0.002767 0.018109 0.001362
0.003529 0.020555 0.001574
0.004098 0.022380 0.001732
0.004567 0.023886 0.001862
0.004351 0.024103 0.001301
0.023437 0.023066 0.001138
0.046516 0.020858 0.005182
0.074112 0.021739 0.015705
0.108172 0.022988 0.025971
0.153690 0.025487 0.041434
0.210485 0.026665 0.059327
0.289255 0.035289 0.079705
0.379823 0.039746 0.104139
0.490697 0.046453 0.134309
0.612985 0.051450 0.171074
0.728075 0.059196 0.219504
0.825266 0.069896 0.275610
0.910999 0.086438 0.342220
0.944630 0.108230 0.405102
0.951928 0.148466 0.435856
0.959421 0.205534 0.445062
0.966166 0.266453 0.455571
0.969060 0.299631 0.453974
0.968600 0.315414 0.444562
0.970321 0.332260 0.431886
0.970463 0.352221 0.414886
0.971354 0.376236 0.395847
0.971516 0.399743 0.376098
0.972009 0.426615 0.352413
0.973736 0.455995 0.324322
0.971919 0.488532 0.292214
0.972857 0.521929 0.255836
0.006138 0.039452 0.001040
0.007318 0.045634 0.000790
0.007788 0.048090 0.000691
0.008141 0.049937 0.000616
0.008433 0.051468 0.000554
0.007644 0.047853 0.000066
0.017654 0.042632 0.000051
0.039663 0.042222 0.001412
0.065098 0.042815 0.005395
0.098282 0.044126 0.012009
0.140557 0.044863 0.027030
0.191456 0.048254 0.041217
0.261451 0.050797 0.062027
0.349166 0.055841 0.086775
0.454670 0.058526 0.113230
0.574067 0.064208 0.149027
0.693644 0.070278 0.192628
0.798407 0.081273 0.247672
0.889330 0.100289 0.310541
0.943786 0.122608 0.377508
0.952477 0.158013 0.419306
0.959201 0.209981 0.431462
0.965538 0.270667 0.444536
0.968951 0.307999 0.448943
0.968840 0.322302 0.439648
0.970360 0.338714 0.426610
0.970770 0.357840 0.410072
0.971333 0.380938 0.391943
0.971787 0.403977 0.372163
0.972112 0.430395 0.349236
0.973850 0.458895 0.321383
0.971916 0.490918 0.289762
0.972927 0.523917 0.253595
0.011533 0.070821 0.000451
0.012622 0.075765 0.000311
0.013060 0.077752 0.000255
0.013390 0.079252 0.000213
0.013666 0.080502 0.000178
0.011205 0.073209 0.000013
0.013139 0.067337 0.000224
0.034548 0.066647 0.000361
0.059787 0.066046 0.001061
0.089041 0.066843 0.004250
0.129589 0.067392 0.011206
0.178514 0.070776 0.021705
0.244180 0.074626 0.039022
0.323331 0.078366 0.062245
0.424663 0.081839 0.088568
0.540077 0.088770 0.120010
0.660601 0.094251 0.159964
0.768877 0.106912 0.211409
0.863712 0.123544 0.272592
0.936426 0.145830 0.338394
0.953121 0.172559 0.396152
0.958849 0.218254 0.413312
0.964727 0.275527 0.430081
0.968643 0.317430 0.440230
0.969349 0.332364 0.431603
0.970406 0.346590 0.420187
0.971074 0.364875 0.404282
0.971307 0.386787 0.387089
0.972126 0.409286 0.367243
0.972241 0.435161 0.345234
0.973821 0.462653 0.317692
0.971912 0.493950 0.286646
0.973016 0.526449 0.250739
0.015223 0.111870 0.000562
0.015808 0.116906 0.000526
0.016045 0.118945 0.000511
0.016224 0.120491 0.000500
0.016374 0.121782 0.000491
0.015097 0.106140 0.000175
0.013647 0.096337 0.000115
0.028441 0.093825 0.000434
0.052437 0.092763 0.000150
0.082275 0.091476 0.000983
0.119864 0.094051 0.002548
0.166979 0.096119 0.008586
0.224848 0.099740 0.017731
0.302650 0.103995 0.036408
0.397385 0.108711 0.060852
0.507729 0.113815 0.090173
0.627844 0.122369 0.125762
0.739637 0.134396 0.175065
0.836975 0.151638 0.229776
0.922749 0.171959 0.296567
0.953600 0.196185 0.362374
0.959562 0.231367 0.391107
0.963319 0.282568 0.409626
0.968020 0.327755 0.425909
0.969998 0.344545 0.421700
0.970621 0.356877 0.411806
0.971222 0.373784 0.397603
0.971278 0.394003 0.381104
0.972503 0.415968 0.361338
0.972400 0.441133 0.340221
0.973762 0.467397 0.313045
0.971907 0.497786 0.282701
0.973130 0.529668 0.247110
0.020861 0.164070 0.000053
0.021071 0.169076 0.000094
0.021156 0.171114 0.000111
0.021220 0.172663 0.000124
0.020736 0.164382 0.000026
0.017763 0.145877 0.000410
0.017698 0.133837 0.000614
0.023990 0.128540 0.000157
0.046092 0.126403 0.000207
0.078801 0.125323 0.000000
0.111851 0.126406 0.000533
0.157648 0.126769 0.000857
0.215630 0.130464 0.004338
0.287943 0.134175 0.010925
0.373395 0.139886 0.027684
0.480734 0.145252 0.054511
0.596705 0.153293 0.089407
0.709620 0.167314 0.131782
0.812024 0.182429 0.187181
0.903893 0.202069 0.252335
0.953458 0.223454 0.320861
0.958649 0.251557 0.364691
0.963794 0.294111 0.386889
0.968077 0.337447 0.407046
0.970798 0.359253 0.407953
0.971108 0.370279 0.400840
0.971396 0.384539 0.389509
0.971671 0.403449 0.372908
0.972974 0.424206 0.354059
0.972581 0.448541 0.333906
0.973687 0.473341 0.307223
0.971960 0.502654 0.277659
0.973273 0.533743 0.242517
0.023719 0.229310 0.000320
0.023779 0.235009 0.000357
0.023803 0.237339 0.000371
0.023821 0.239114 0.000383
0.022376 0.214594 0.000251
0.022093 0.192991 0.000138
0.021123 0.181214 0.000085
0.023609 0.173145 0.000343
0.039289 0.168158 0.000019
0.069958 0.166951 0.000011
0.107006 0.164683 0.000431
0.149991 0.165322 0.000121
0.203954 0.166798 0.000124
0.274348 0.172530 0.000447
0.356331 0.176037 0.001114
0.453777 0.180836 0.011374
0.565973 0.191663 0.045646
0.678929 0.203516 0.088200
0.783500 0.219473 0.136137
0.879164 0.237771 0.198821
0.951452 0.258621 0.269362
0.959588 0.281249 0.327421
0.964436 0.311256 0.358129
0.968480 0.352062 0.383539
0.971489 0.376573 0.395037
0.971473 0.386548 0.388221
0.972231 0.399305 0.377200
0.972446 0.415304 0.362368
0.973555 0.434258 0.345174
0.972624 0.457272 0.324967
0.973591 0.480735 0.299980
0.972397 0.508964 0.270901
0.973453 0.538878 0.236731
0.023523 0.315519 0.000037
0.023405 0.320635 0.000029
0.023327 0.322886 0.000053
0.022661 0.308149 0.000400
0.024063 0.273297 0.000409
0.023257 0.252070 0.000208
0.023964 0.236171 0.000145
0.023309 0.229266 0.000082
0.030680 0.221529 0.000062
0.063363 0.218554 0.000180
0.099842 0.215100 0.000087
0.141840 0.213579 0.000330
0.194876 0.214579 0.000038
0.261640 0.215085 0.000206
0.341577 0.218733 0.000143
0.434325 0.225382 0.000463
0.538059 0.234689 0.003726
0.650118 0.246079 0.038869
0.755772 0.260602 0.085400
0.852917 0.279059 0.143105
0.935863 0.298909 0.210646
0.960125 0.315986 0.286745
0.964130 0.338322 0.320964
0.967447 0.370179 0.354011
0.972167 0.397347 0.378170
0.972099 0.405560 0.372620
0.972859 0.416653 0.361898
0.972380 0.429886 0.348976
0.973830 0.446866 0.333148
0.972691 0.467932 0.314051
0.973492 0.489999 0.290725
0.972936 0.516821 0.262492
0.973679 0.545313 0.229483
0.017544 0.419072 0.000802
0.017147 0.423540 0.000824
0.016983 0.425377 0.000833
0.021754 0.367454 0.000565
0.022473 0.335651 0.000142
0.022490 0.313983 0.000054
0.023505 0.302697 0.000039
0.022792 0.293086 0.000375
0.024408 0.285334 0.000649
0.048987 0.279984 0.000250
0.089110 0.275997 0.000054
0.134950 0.271185 0.000263
0.188251 0.270235 0.000131
0.251608 0.272051 0.000165
0.327635 0.274654 0.000038
0.417314 0.279037 0.000167
0.515801 0.287609 0.000307
0.621449 0.297505 0.003731
0.729044 0.307949 0.026845
0.825907 0.324390 0.081936
0.916330 0.341845 0.148473
0.959485 0.357821 0.224973
0.965203 0.371696 0.276510
0.968196 0.394910 0.314066
0.972879 0.420495 0.350543
0.973057 0.427545 0.351521
0.972745 0.436609 0.342526
0.971296 0.447515 0.332385
0.974099 0.462088 0.318635
0.972693 0.481216 0.300394
0.973438 0.501815 0.278322
0.973596 0.526524 0.252113
0.973595 0.553877 0.218996
0.015343 0.525611 0.000227
0.015244 0.529152 0.000201
0.015941 0.478456 0.000304
0.017130 0.435924 0.000397
0.017886 0.410141 0.000098
0.019614 0.392013 0.000040
0.019742 0.380827 0.000161
0.021057 0.371963 0.000426
0.024102 0.361679 0.000253
0.040379 0.352853 0.000300
0.075897 0.347953 0.000785
0.121487 0.343521 0.000646
0.175797 0.339569 0.000161
0.240021 0.338588 0.000036
0.318015 0.337396 0.000229
0.402735 0.339330 0.000070
0.495805 0.345736 0.000055
0.599516 0.354260 0.000206
0.702925 0.363701 0.001201
0.799811 0.376547 0.017268
0.893179 0.390314 0.078546
0.960233 0.405805 0.151044
0.966406 0.414709 0.220439
0.969269 0.426132 0.268375
0.971396 0.446984 0.310164
0.971761 0.455151 0.324746
0.973503 0.460137 0.321757
0.972631 0.470897 0.311253
0.973789 0.482521 0.299346
0.972547 0.497634 0.283422
0.973372 0.516099 0.263334
0.973987 0.538583 0.237861
0.973440 0.564522 0.205855
0.011977 0.634840 0.000647
0.013197 0.593949 0.000056
0.014467 0.536524 0.000632
0.014650 0.506254 0.000069
0.015729 0.486607 0.000023
0.015114 0.473205 0.000306
0.014716 0.462679 0.000410
0.015060 0.453503 0.000280
0.015877 0.445665 0.000284
0.026135 0.437983 0.000226
0.057419 0.430876 0.000106
0.107651 0.423749 0.000646
0.164888 0.417565 0.000306
0.229822 0.413726 0.000118
0.305429 0.410805 0.000322
0.389097 0.409038 0.000020
0.482407 0.412059 0.000275
0.580031 0.416340 0.000142
0.679494 0.425108 0.000359
0.776019 0.434543 0.000048
0.866940 0.446977 0.014583
0.947660 0.457878 0.070726
0.965846 0.466025 0.149193
0.967617 0.469523 0.207312
0.970024 0.481762 0.258593
0.972356 0.486353 0.291899
0.973608 0.488933 0.292202
0.973083 0.496271 0.284356
0.974247 0.505362 0.275696
0.972506 0.517495 0.260988
0.973865 0.533902 0.241468
0.974061 0.553337 0.219100
0.973249 0.577529 0.189802
0.007991 0.739874 0.000052
0.012515 0.638401 0.001006
0.013724 0.599448 0.000375
0.013150 0.577187 0.000102
0.013687 0.563533 0.000243
0.014971 0.551958 0.000311
0.014941 0.543157 0.000220
0.014870 0.535851 0.000202
0.014496 0.529814 0.000566
0.021947 0.522820 0.000765
0.044221 0.514947 0.000611
0.093467 0.507091 0.000328
0.152548 0.499955 0.000196
0.216889 0.494768 0.000238
0.292215 0.488938 0.000016
0.374824 0.485763 0.000036
0.465763 0.484484 0.000004
0.559179 0.486629 0.000322
0.659654 0.491451 0.000153
0.753085 0.498070 0.000007
0.842444 0.507160 0.000294
0.925353 0.515437 0.007713
0.964062 0.524161 0.071471
0.967009 0.519987 0.132491
0.970144 0.522591 0.192069
0.972674 0.522373 0.247135
0.973359 0.522343 0.256011
0.973564 0.525676 0.252542
0.973983 0.531911 0.245942
0.972768 0.541348 0.233346
0.974068 0.555189 0.215547
0.973587 0.572168 0.195702
0.972825 0.593880 0.167560
0.006076 0.792645 0.000626
0.010709 0.693146 0.000007
0.012272 0.667271 0.000736
0.012352 0.651747 0.000635
0.012179 0.640859 0.000993
0.012162 0.632309 0.000564
0.012157 0.625170 0.000093
0.012271 0.619790 0.000264
0.012431 0.613973 0.000608
0.016303 0.606773 0.000577
0.023200 0.598101 0.000192
0.075973 0.592795 0.000379
0.136427 0.586228 0.000494
0.204456 0.579724 0.000631
0.278992 0.573115 0.000304
0.358703 0.566610 0.000133
0.450382 0.563353 0.000052
0.543483 0.560958 0.000137
0.640071 0.563821 0.000417
0.735321 0.565452 0.000171
0.822257 0.573353 0.000515
0.902802 0.578250 0.000077
0.961346 0.583342 0.004800
0.966894 0.578413 0.048148
0.969624 0.571724 0.112632
0.971711 0.564694 0.180197
0.973918 0.559391 0.210735
0.974175 0.559473 0.211740
0.972766 0.563634 0.207516
0.973448 0.570096 0.199713
0.973113 0.580686 0.185908
0.972266 0.595986 0.166773
0.972316 0.613458 0.140646
0.004563 0.810506 0.000590
0.007872 0.753267 0.000051
0.007839 0.736507 0.000068
0.009554 0.726036 0.000207
0.009921 0.719017 0.000095
0.010216 0.713277 0.000005
0.010538 0.707827 0.000150
0.010829 0.702957 0.000290
0.011650 0.697544 0.000403
0.016291 0.691859 0.000223
0.024436 0.685217 0.000045
0.066340 0.679093 0.000169
0.120292 0.672928 0.000179
0.187193 0.666455 0.000137
0.263096 0.659447 0.000143
0.344493 0.653047 0.000047
0.432835 0.647246 0.000040
0.526793 0.643000 0.000286
0.622297 0.639284 0.000014
0.714885 0.638693 0.000033
0.802693 0.639731 0.000003
0.880575 0.644516 0.000063
0.953979 0.647405 0.000019
0.964663 0.643038 0.000235
0.966190 0.631643 0.022940
0.969315 0.616844 0.091172
0.971470 0.603637 0.151244
0.973008 0.600587 0.157431
0.972358 0.600495 0.158842
0.972370 0.603350 0.152692
0.972060 0.611419 0.143377
0.971873 0.622264 0.126477
0.971115 0.637163 0.105293
0.003111 0.847120 0.000360
0.005032 0.814177 0.000131
0.006123 0.803356 0.000273
0.006297 0.796455 0.000680
0.006668 0.790769 0.000790
0.007235 0.785750 0.000654
0.007728 0.781431 0.000535
0.007973 0.777818 0.000425
0.007805 0.774254 0.000296
0.007602 0.769902 0.000139
0.020766 0.765199 0.000124
0.051912 0.760229 0.000302
0.103122 0.754885 0.000514
0.171520 0.749242 0.000593
0.247174 0.743771 0.000109
0.329001 0.737018 0.000811
0.417866 0.729375 0.000012
0.508146 0.723549 0.000154
0.601849 0.718912 0.000170
0.695015 0.713960 0.000397
0.779638 0.711025 0.000021
0.858376 0.710755 0.000033
0.930904 0.712037 0.000005
0.961802 0.711082 0.000030
0.963549 0.697316 0.000107
0.967053 0.677055 0.012853
0.970262 0.653181 0.072660
0.970474 0.644784 0.090480
0.970648 0.641676 0.098401
0.971193 0.641014 0.095750
0.971728 0.645972 0.092568
0.971375 0.653201 0.078148
0.970044 0.664368 0.062914
0.000201 0.891798 0.000140
0.001827 0.871154 0.000448
0.002212 0.864441 0.000425
0.003277 0.858852 0.000235
0.004121 0.854399 0.000084
0.004296 0.850910 0.000063
0.003808 0.848188 0.000172
0.003367 0.845728 0.000270
0.002857 0.842886 0.000383
0.007255 0.839727 0.000482
0.022063 0.836513 0.000530
0.039777 0.832610 0.000586
0.091435 0.828181 0.000345
0.155456 0.823115 0.000100
0.229798 0.817736 0.000082
0.310410 0.812973 0.000052
0.397038 0.806874 0.000398
0.487801 0.799636 0.000353
0.583014 0.791641 0.000565
0.673047 0.785079 0.000045
0.757954 0.778225 0.000090
0.838640 0.770806 0.000019
0.913077 0.766530 0.000113
0.962411 0.763434 0.000105
0.961864 0.754927 0.000177
0.963045 0.741935 0.000060
0.966422 0.710266 0.004010
0.969131 0.692531 0.020999
0.969667 0.687213 0.025941
0.969358 0.683997 0.031512
0.970371 0.684779 0.028314
0.969732 0.688223 0.024253
0.968617 0.695703 0.021448
0.000205 0.935900 0.000201
0.000096 0.922856 0.000300
0.000017 0.918111 0.000316
0.000107 0.914720 0.000338
0.000196 0.911989 0.000357
0.000269 0.909669 0.000374
0.000330 0.907637 0.000388
0.001301 0.905682 0.000403
0.003347 0.903292 0.000424
0.005798 0.900310 0.000449
0.008665 0.896621 0.000481
0.033227 0.893746 0.000396
0.081029 0.891679 0.000189
0.139686 0.888864 0.000091
0.211546 0.884965 0.000244
0.292310 0.880237 0.000157
0.378340 0.873139 0.000052
0.466865 0.863755 0.000292
0.558934 0.853809 0.000319
0.650338 0.844479 0.000007
0.738020 0.835336 0.000036
0.817897 0.826631 0.000002
0.892788 0.819104 0.000015
0.955284 0.812759 0.000004
0.960140 0.806163 0.000006
0.961054 0.789362 0.000012
0.961390 0.768204 0.000013
0.966100 0.746599 0.000102
0.967197 0.737086 0.000044
0.967232 0.732139 0.000081
0.966448 0.728527 0.000182
0.966786 0.728578 0.000722
0.966993 0.732213 0.000016
0.000005 0.978024 0.000604
0.000099 0.969565 0.000258
0.000170 0.966451 0.000116
0.000220 0.964160 0.000016
0.000240 0.962246 0.000021
0.000256 0.960608 0.000026
0.000271 0.959164 0.000030
0.000284 0.957844 0.000034
0.000299 0.956299 0.000039
0.001347 0.954405 0.000044
0.020215 0.952725 0.000043
0.043336 0.950637 0.000041
0.071320 0.948063 0.000038
0.127349 0.944310 0.000046
0.198063 0.939757 0.000056
0.275105 0.933175 0.000136
0.359761 0.925475 0.000183
0.448321 0.916862 0.000141
0.537743 0.907496 0.000014
0.628871 0.897574 0.000198
0.716913 0.887625 0.000514
0.796841 0.877246 0.000010
0.870357 0.868889 0.000043
0.937658 0.861868 0.000000
0.958296 0.854712 0.000025
0.958732 0.835218 0.000086
0.960339 0.811475 0.000043
0.963078 0.791520 0.000138
0.963105 0.781607 0.000113
0.964910 0.779494 0.000081
0.963565 0.771838 0.000010
0.964358 0.772807 0.000174
0.964759 0.769648 0.000000
0.000000 1.000000 0.000285
0.000000 0.998547 0.000224
0.000000 0.997418 0.000177
0.000000 0.996584 0.000142
0.000000 0.995902 0.000114
0.001396 0.995268 0.000109
0.006573 0.994573 0.000160
0.011322 0.993936 0.000207
0.016893 0.993188 0.000262
0.023888 0.992250 0.000331
0.032608 0.991081 0.000417
0.043388 0.989637 0.000523
0.082036 0.987578 0.000492
0.130583 0.985079 0.000450
0.189668 0.982127 0.000430
0.261909 0.978724 0.000474
0.342646 0.973083 0.000358
0.430194 0.964610 0.000077
0.519795 0.955800 0.000025
0.608882 0.946751 0.000013
0.698178 0.936451 0.000014
0.778077 0.926537 0.000449
0.850404 0.916576 0.000014
0.920307 0.906750 0.000072
0.957120 0.896527 0.000000
0.957308 0.878947 0.000000
0.957879 0.856860 0.000315
0.959009 0.832228 0.000014
0.961293 0.815102 0.000298
0.960714 0.809176 0.000190
0.961446 0.803660 0.000055
0.960895 0.799987 0.000064
0.960958 0.799070 0.000003
0.000000 1.000000 0.000285
0.000000 1.000000 0.000285
0.000000 1.000000 0.000285
0.000000 1.000000 0.000285
0.000000 1.000000 0.000285
0.000000 1.000000 0.000285
0.000000 1.000000 0.000285
0.000000 1.000000 0.000285
0.000000 1.000000 0.000285
0.013887 0.999984 0.000328
0.034694 0.999960 0.000391
0.060687 0.999929 0.000471
0.092903 0.999892 0.000570
0.132899 0.999848 0.000683
0.189702 0.999848 0.000677
0.258622 0.999848 0.000674
0.332732 0.999908 0.000416
0.416036 0.999803 0.000029
0.502237 0.996663 0.000032
0.589925 0.989394 0.000050
0.675812 0.979672 0.000162
0.754993 0.969592 0.000077
0.827711 0.958203 0.000006
0.893656 0.946483 0.000064
0.945787 0.933199 0.000073
0.956153 0.918036 0.000000
0.956894 0.897772 0.000224
0.958265 0.874227 0.000037
0.958815 0.854008 0.000002
0.958630 0.845216 0.000000
0.958527 0.839137 0.000028
0.959160 0.833430 0.000237
0.960274 0.829017 0.000117
0.000000 1.000000 0.000285
0.000000 1.000000 0.000285
0.002389 0.999987 0.000278
0.004769 0.999973 0.000272
0.006727 0.999962 0.000266
0.008416 0.999953 0.000262
0.009914 0.999945 0.000258
0.011292 0.999937 0.000254
0.012912 0.999928 0.000249
0.014952 0.999917 0.000244
0.017504 0.999902 0.000237
0.020667 0.999885 0.000228
0.049936 0.999901 0.000216
0.087966 0.999923 0.000200
0.134947 0.999949 0.000180
0.191793 0.999896 0.000164
0.259097 0.999624 0.000162
0.338252 0.999432 0.000140
0.426052 0.999752 0.000045
