output/AppleLog_display/AppleLog_to_CLASSIC-Neg._33grid.cube
TITLE "AppleLog_to_CLASSIC-Neg."
# Input: Apple Log (BT.2020 primaries, D65)
# Output: BT.709 / Gamma 2.2 (display-referred)
# Use: Display LUT for iPhone 15/16 Pro Apple Log footage
# Source: FLog2C_to_CLASSIC-Neg._65grid_V.1.00.cube
# Generated from Fujifilm GFX ETERNA 55 F-Log2C LUT
LUT_3D_SIZE 5
0.000129 0.000120 0.000052
0.017369 0.001159 0.000042
0.895864 0.107503 0.036936
0.951060 0.281893 0.277250
0.955479 0.516406 0.234168
0.000167 0.025329 0.005644
0.051079 0.025380 0.000222
0.796348 0.089274 0.000231
0.951805 0.337877 0.268069
0.956687 0.542604 0.226722
0.018749 0.584034 0.097717
0.011345 0.372523 0.061331
0.432243 0.342903 0.003519
0.954096 0.489560 0.203617
0.957836 0.598580 0.209305
0.028753 0.918193 0.153643
0.028783 0.909003 0.151966
0.053398 0.893425 0.144766
0.952662 0.906666 0.024284
0.957082 0.815543 0.078918
0.037308 0.943749 0.348063
0.037098 0.943678 0.345890
0.036863 0.943541 0.342121
0.388713 0.964772 0.292524
0.946166 0.994179 0.254962
0.004037 0.002578 0.032879
0.040853 0.003191 0.021307
0.884850 0.103021 0.027208
0.951060 0.281893 0.277250
0.956171 0.532888 0.229916
0.004712 0.073701 0.081876
0.051300 0.060683 0.047825
0.736380 0.113009 0.001913
0.953181 0.357756 0.267837
0.956226 0.560941 0.222645
0.029497 0.661867 0.331839
0.016901 0.436323 0.168710
0.419884 0.381500 0.088549
0.956438 0.514310 0.252725
0.958136 0.621328 0.228400
0.034084 0.931294 0.276565
0.033570 0.923120 0.268260
0.034230 0.908116 0.258655
0.945348 0.919011 0.223087
0.965532 0.834931 0.282315
0.041358 0.943157 0.465019
0.041400 0.943066 0.460854
0.042246 0.942900 0.453757
0.387976 0.963322 0.395746
0.949477 0.994187 0.330644
0.080900 0.029995 0.271315
0.127644 0.022653 0.205315
0.880946 0.086944 0.169573
0.959284 0.351620 0.436213
0.967320 0.599649 0.474974
0.107899 0.213986 0.554489
0.120705 0.150933 0.384255
0.707034 0.167954 0.259316
0.964318 0.449061 0.497422
0.968235 0.624580 0.484230
0.055040 0.761422 0.922104
0.042715 0.577028 0.684196
0.505400 0.497080 0.491355
0.969133 0.579367 0.539198
0.970080 0.674343 0.501314
0.054008 0.928610 0.797419
0.053253 0.922498 0.778561
0.061419 0.911242 0.744583
0.946913 0.922208 0.582453
0.976155 0.845357 0.543693
0.049822 0.941749 0.663382
0.049602 0.941680 0.657610
0.057337 0.942194 0.646239
0.399820 0.962773 0.578549
0.957831 0.993898 0.470539
0.542801 0.623217 0.996092
0.540796 0.477446 0.926840
0.826949 0.416773 0.829804
0.976102 0.499715 0.765040
0.980987 0.704596 0.757658
0.461107 0.707479 0.999912
0.511195 0.621812 0.973405
0.802185 0.555151 0.881691
0.979085 0.567448 0.800382
0.981642 0.722963 0.766061
0.309890 0.795183 0.999870
0.419181 0.769475 0.999395
0.739348 0.740288 0.948283
0.984094 0.688687 0.854758
0.982745 0.758384 0.783449
0.065505 0.911637 0.999825
0.077310 0.908774 0.999557
0.253485 0.912222 0.999802
0.942202 0.920809 0.919218
0.988307 0.864789 0.832509
0.074158 0.942235 0.984196
0.077817 0.942322 0.982214
0.121055 0.944955 0.972998
0.502077 0.968052 0.912032
0.977622 0.993209 0.807156
0.677098 0.806406 0.999864
0.722754 0.805393 0.998811
0.798364 0.808458 0.992262
0.953397 0.821397 0.973316
0.989966 0.803203 0.933722
0.666142 0.814766 0.999852
0.713566 0.813293 0.999305
0.791966 0.815175 0.994847
0.950877 0.827957 0.974751
0.990296 0.808464 0.935390
0.637609 0.832822 0.999629
0.688102 0.829908 0.999512
0.774101 0.829148 0.997656
0.945113 0.841200 0.977886
0.991060 0.820513 0.939204
0.451123 0.900814 0.999553
0.506921 0.900802 0.999813
0.625019 0.899557 0.999345
0.908759 0.900350 0.994124
0.993585 0.880015 0.959650
0.233016 0.952011 0.999487
0.248737 0.953063 0.999534
0.287618 0.955688 0.999737
0.580708 0.973198 0.999477
0.992715 0.994593 0.993164
