output/AppleLog_display/AppleLog_to_PRO-Neg.Std_33grid.cube
TITLE "AppleLog_to_PRO-Neg.Std"
# Input: Apple Log (BT.2020 primaries, D65)
# Output: BT.709 / Gamma 2.2 (display-referred)
# Use: Display LUT for iPhone 15/16 Pro Apple Log footage
# Source: FLog2C_to_PRO-Neg.Std_65grid_V.1.00.cube
# Generated from Fujifilm GFX ETERNA 55 F-Log2C LUT
LUT_3D_SIZE 9
0.000438 0.000379 0.000085
0.000438 0.000379 0.000085
0.025128 0.006355 0.004752
0.296180 0.035083 0.082633
0.846302 0.071375 0.293230
0.965842 0.255961 0.484305
0.966102 0.257228 0.484735
0.970757 0.348781 0.418455
0.973690 0.498831 0.281542
0.000438 0.000379 0.000085
0.000438 0.000379 0.000085
0.079603 0.011968 0.021451
0.353751 0.039761 0.097909
0.867613 0.074425 0.309003
0.956514 0.177420 0.460035
0.967830 0.294417 0.459424
0.970747 0.387699 0.387294
0.972664 0.516440 0.262030
0.006138 0.039452 0.001040
0.008433 0.051468 0.000554
0.065098 0.042815 0.005395
0.261451 0.050797 0.062027
0.693644 0.070278 0.192628
0.952477 0.158013 0.419306
0.968840 0.322302 0.439648
0.971787 0.403977 0.372163
0.972927 0.523917 0.253595
0.023719 0.229310 0.000320
0.022376 0.214594 0.000251
0.039289 0.168158 0.000019
0.203954 0.166798 0.000124
0.565973 0.191663 0.045646
0.951452 0.258621 0.269362
0.971489 0.376573 0.395037
0.973555 0.434258 0.345174
0.973453 0.538878 0.236731
0.011977 0.634840 0.000647
0.015729 0.486607 0.000023
0.015877 0.445665 0.000284
0.164888 0.417565 0.000306
0.482407 0.412059 0.000275
0.866940 0.446977 0.014583
0.970024 0.481762 0.258593
0.974247 0.505362 0.275696
0.973249 0.577529 0.189802
0.003111 0.847120 0.000360
0.006668 0.790769 0.000790
0.007805 0.774254 0.000296
0.103122 0.754885 0.000514
0.417866 0.729375 0.000012
0.779638 0.711025 0.000021
0.963549 0.697316 0.000107
0.970648 0.641676 0.098401
0.970044 0.664368 0.062914
0.000000 1.000000 0.000285
0.000000 0.995902 0.000114
0.016893 0.993188 0.000262
0.082036 0.987578 0.000492
0.342646 0.973083 0.000358
0.698178 0.936451 0.000014
0.957120 0.896527 0.000000
0.961293 0.815102 0.000298
0.960958 0.799070 0.000003
0.015558 0.999893 0.000395
0.036225 0.999751 0.000542
0.044934 0.999691 0.000603
0.089509 0.999621 0.000456
0.219692 0.999586 0.000075
0.483524 0.999756 0.000014
0.801774 0.999638 0.000355
0.953837 0.980309 0.000015
0.955547 0.934859 0.000042
0.231924 0.999903 0.000577
0.249087 0.999914 0.000454
0.256588 0.999918 0.000400
0.272185 0.999927 0.000288
0.312868 0.999826 0.000215
0.412205 0.999389 0.000469
0.608978 0.999926 0.000255
0.864787 0.999674 0.000047
0.951574 0.999622 0.008590
0.000438 0.000379 0.000085
0.000438 0.000379 0.000085
0.038304 0.008128 0.009592
0.309970 0.036398 0.086354
0.851479 0.071835 0.296705
0.965952 0.256496 0.484487
0.966102 0.257228 0.484735
0.970817 0.353425 0.413988
0.973553 0.500986 0.279158
0.000438 0.000379 0.000085
0.000438 0.000379 0.000085
0.092149 0.014823 0.024575
0.367259 0.040544 0.101393
0.816961 0.068330 0.272152
0.954885 0.158562 0.450881
0.968132 0.302466 0.453776
0.971032 0.392172 0.383135
0.972735 0.518448 0.259763
0.010230 0.064032 0.000566
0.012216 0.073924 0.000363
0.065464 0.060555 0.002723
0.252887 0.069232 0.045023
0.670488 0.089585 0.168198
0.952995 0.168047 0.403064
0.969224 0.330025 0.433494
0.972049 0.408050 0.368377
0.972995 0.525855 0.251409
0.023981 0.254364 0.000479
0.024043 0.224353 0.000056
0.042259 0.180887 0.000015
0.205097 0.180325 0.000172
0.559644 0.203227 0.032749
0.949503 0.270475 0.253052
0.971677 0.382340 0.391344
0.973638 0.437842 0.341758
0.973517 0.540683 0.234698
0.011749 0.647690 0.000559
0.015784 0.493111 0.000085
0.015552 0.454625 0.000173
0.166741 0.426679 0.000385
0.482257 0.419980 0.000360
0.864340 0.454012 0.011067
0.970040 0.486225 0.251850
0.974358 0.508367 0.272388
0.973233 0.579437 0.187271
0.001912 0.862402 0.000587
0.004430 0.809129 0.000317
0.006260 0.792424 0.000257
0.081715 0.770479 0.000103
0.395493 0.743706 0.000430
0.764468 0.721876 0.000634
0.967389 0.703447 0.007852
0.972697 0.652485 0.117158
0.969135 0.675900 0.044849
0.000000 1.000000 0.000285
0.000000 1.000000 0.000285
0.000000 1.000000 0.000285
0.022339 0.998760 0.000243
0.252670 0.988151 0.000167
0.642428 0.955254 0.000094
0.945320 0.911813 0.000117
0.969220 0.836786 0.035583
0.968120 0.818830 0.007310
0.009447 0.999895 0.000388
0.021206 0.999763 0.000516
0.026161 0.999708 0.000569
0.066590 0.999619 0.000499
0.185635 0.999533 0.000349
0.446876 0.999967 0.000109
0.777784 0.999695 0.000110
0.958327 0.993900 0.000145
0.962655 0.959154 0.000096
0.240028 0.999491 0.000194
0.255572 0.999524 0.000193
0.262366 0.999538 0.000192
0.276496 0.999568 0.000191
0.314793 0.999638 0.000232
0.411711 0.999727 0.000384
0.605458 0.999945 0.000217
0.861123 0.999852 0.000101
0.955519 0.999594 0.025370
0.002311 0.001344 0.052391
0.002311 0.001344 0.052391
0.043564 0.004803 0.050440
0.292403 0.033749 0.085286
0.825930 0.071056 0.275734
0.965971 0.256179 0.484411
0.966102 0.257228 0.484735
0.971382 0.364660 0.403871
0.973338 0.515465 0.263643
0.002812 0.001515 0.055527
0.002812 0.001515 0.055527
0.091153 0.010186 0.058555
0.339617 0.037186 0.098917
0.760557 0.061697 0.236830
0.951160 0.138905 0.443165
0.968363 0.312072 0.446783
0.972401 0.404955 0.372133
0.973219 0.533863 0.242830
0.018079 0.079216 0.084937
0.019707 0.090474 0.087600
0.068936 0.070940 0.068521
0.244133 0.076605 0.090872
0.636198 0.099693 0.175412
0.952883 0.178829 0.373387
0.969732 0.342505 0.424124
0.972787 0.420189 0.359805
0.973544 0.541621 0.234518
0.029785 0.298248 0.108852
0.029441 0.259322 0.081166
0.040078 0.208881 0.058048
0.207506 0.196528 0.066085
0.544973 0.212524 0.112350
0.932128 0.279161 0.268089
0.972654 0.395290 0.391971
0.971909 0.453019 0.335161
0.974122 0.557134 0.219984
0.018970 0.684386 0.069526
0.019787 0.535510 0.005513
0.019485 0.495459 0.001813
0.153844 0.461359 0.001722
0.469925 0.439064 0.016546
0.849431 0.458955 0.118939
0.973296 0.496776 0.305053
0.975663 0.523506 0.301121
0.974490 0.595369 0.198881
0.003996 0.874260 0.000031
0.006157 0.825409 0.000483
0.006472 0.810261 0.000180
0.061764 0.789313 0.000342
0.376359 0.761257 0.000042
0.754162 0.728938 0.000057
0.972917 0.707021 0.121297
0.977794 0.655347 0.233914
0.974464 0.680426 0.154608
0.000000 1.000000 0.000285
0.000000 1.000000 0.000285
0.000000 1.000000 0.000285
0.017526 0.999965 0.000340
0.229222 0.991678 0.000113
0.629239 0.960944 0.000088
0.941522 0.929396 0.000129
0.972877 0.834767 0.126666
0.972161 0.816216 0.083120
0.007831 0.999833 0.000323
0.017312 0.999632 0.000369
0.021307 0.999547 0.000389
0.061353 0.999584 0.000307
0.177832 0.999744 0.000094
0.435650 0.999853 0.000308
0.770502 0.999395 0.000226
0.959595 0.998832 0.000063
0.966130 0.962595 0.000243
0.244066 0.999278 0.000274
0.258824 0.999283 0.000255
0.265275 0.999286 0.000246
0.278693 0.999290 0.000229
0.315870 0.999402 0.000250
0.411609 0.999758 0.000373
0.604051 0.999972 0.000372
0.859007 0.999813 0.000072
0.955804 0.999802 0.031489
0.014889 0.002390 0.144745
0.014889 0.002390 0.144745
0.059685 0.004449 0.135363
0.303355 0.020414 0.174062
0.805435 0.055911 0.327351
0.966083 0.240939 0.484560
0.968422 0.260125 0.509973
0.975617 0.385820 0.463832
0.978242 0.528744 0.360789
0.015581 0.002547 0.146985
0.017796 0.004188 0.160529
0.097237 0.007409 0.149843
0.300824 0.018776 0.190501
0.703682 0.036168 0.318810
0.954301 0.124525 0.513007
0.973847 0.338036 0.512722
0.977437 0.424587 0.454187
0.978951 0.545836 0.353877
0.030679 0.114056 0.245259
0.031711 0.121951 0.243204
0.076904 0.089889 0.189103
0.254480 0.089730 0.203061
0.619866 0.106937 0.288454
0.957721 0.178465 0.466078
0.976653 0.367739 0.510172
0.977906 0.439962 0.449261
0.979002 0.552859 0.350685
0.033430 0.351697 0.346930
0.034243 0.300752 0.286241
0.043989 0.245496 0.229744
0.221420 0.222672 0.221159
0.546244 0.227078 0.259081
0.920462 0.279727 0.393717
0.978928 0.410382 0.490587
0.978876 0.468865 0.441483
0.979071 0.566866 0.344276
0.026608 0.705821 0.393082
0.029133 0.565044 0.255861
0.027889 0.526176 0.226552
0.156773 0.488669 0.205584
0.474266 0.458461 0.213373
0.843972 0.463710 0.289425
0.980731 0.506144 0.431895
0.982137 0.535527 0.420500
0.980163 0.603293 0.328656
0.012423 0.873690 0.193300
0.014280 0.828637 0.143828
0.014580 0.814975 0.131899
0.050411 0.792885 0.117971
0.367988 0.765274 0.113108
0.748682 0.730663 0.148346
0.980534 0.709673 0.292174
0.983986 0.658846 0.368259
0.980383 0.681428 0.289448
0.000009 0.999953 0.004725
0.000000 0.999628 0.002252
0.000000 0.999752 0.001613
0.011754 0.999599 0.000657
0.203392 0.996428 0.000205
0.617553 0.981462 0.008143
0.937357 0.933635 0.077885
0.977085 0.832285 0.262537
0.976721 0.811756 0.216835
0.007073 0.999935 0.000209
0.015168 0.999860 0.000122
0.018579 0.999828 0.000085
0.059305 0.999700 0.000085
0.172429 0.999476 0.000111
0.424572 0.999694 0.000066
0.762507 0.999942 0.000189
0.964179 0.999275 0.036480
0.969266 0.958319 0.093289
0.250564 0.999780 0.006849
0.264821 0.999793 0.005699
0.271053 0.999799 0.005191
0.284016 0.999811 0.004127
0.320143 0.999804 0.002407
0.413401 0.999708 0.000411
0.601912 0.999630 0.000682
0.857021 0.999760 0.008127
0.958450 0.999517 0.041178
0.032520 0.004903 0.323892
0.032520 0.004903 0.323892
0.108016 0.006440 0.287262
0.355584 0.013473 0.321322
0.809296 0.020327 0.479159
0.969896 0.240748 0.580601
0.977474 0.311656 0.615626
0.983693 0.420705 0.582942
0.986524 0.545381 0.510791
0.043236 0.069353 0.448032
0.040917 0.075455 0.436636
0.110591 0.055324 0.368059
0.300194 0.053413 0.382915
0.653619 0.064915 0.477770
0.962203 0.138156 0.629982
0.983121 0.385360 0.625879
0.986126 0.454771 0.581152
0.986911 0.560732 0.506235
0.046072 0.205831 0.568686
0.044372 0.184530 0.513132
0.095293 0.145241 0.438045
0.279529 0.131116 0.429282
0.607785 0.135674 0.478419
0.948189 0.193565 0.604639
0.984562 0.402262 0.626268
0.986285 0.468663 0.579161
0.987070 0.567173 0.504203
0.044199 0.430765 0.666650
0.041070 0.354337 0.568573
0.044661 0.305413 0.504674
0.243213 0.271890 0.477151
0.554993 0.259599 0.481400
0.906671 0.293278 0.568648
0.986423 0.434604 0.620830
0.986702 0.495013 0.575365
0.987417 0.580131 0.500199
0.033535 0.733686 0.712340
0.036634 0.595793 0.562918
0.037219 0.563608 0.529040
0.166443 0.525915 0.499799
0.484998 0.487720 0.484339
0.838373 0.474472 0.517294
0.988875 0.521612 0.595634
0.989364 0.554119 0.565800
0.988045 0.613950 0.490290
0.020517 0.871790 0.553154
0.022112 0.831979 0.500715
0.022683 0.819588 0.486012
0.037258 0.799132 0.462682
0.363777 0.771368 0.445312
0.744395 0.732863 0.443175
0.987804 0.711507 0.514735
0.989931 0.664976 0.537226
0.986658 0.686003 0.464103
0.004448 0.998491 0.361687
0.005429 0.994439 0.351405
0.005566 0.992760 0.347727
0.006055 0.989438 0.340082
0.172009 0.983240 0.330778
0.595296 0.959588 0.331954
0.925047 0.916014 0.363515
0.983341 0.827659 0.452076
0.982523 0.805108 0.404802
0.005942 0.999721 0.182539
0.011734 0.999648 0.182590
0.015289 0.999620 0.182622
0.060476 0.999670 0.182992
0.171077 0.999741 0.181236
0.405356 0.999664 0.165874
0.746370 0.999877 0.149528
0.969158 0.995314 0.250305
0.975469 0.945891 0.283077
0.271897 0.999651 0.168075
0.284288 0.999556 0.162550
0.289705 0.999514 0.160135
0.300971 0.999427 0.155111
0.333552 0.999471 0.147729
0.419031 0.999931 0.139187
0.598005 0.999518 0.128402
0.850889 0.999647 0.142310
0.963708 0.999518 0.133086
0.078358 0.011140 0.675849
0.079496 0.009868 0.622480
0.195262 0.005734 0.597522
0.391645 0.000117 0.620700
0.709682 0.001420 0.710222
0.967568 0.074823 0.825602
0.986865 0.351620 0.734021
0.991745 0.466829 0.706438
0.994308 0.573815 0.665971
0.052387 0.300496 0.912232
0.051378 0.233369 0.814116
0.142302 0.200296 0.776254
0.329166 0.175103 0.748759
0.623499 0.169961 0.747267
0.935070 0.207443 0.805988
0.989506 0.393493 0.753924
0.992832 0.500834 0.709058
0.994494 0.587024 0.664916
0.053472 0.402310 0.929279
0.051140 0.314500 0.831837
0.119740 0.279715 0.793820
0.309023 0.248974 0.766855
0.602578 0.232205 0.758594
0.916852 0.256756 0.799524
0.991111 0.412386 0.759701
0.993782 0.513981 0.710970
0.994582 0.592570 0.664492
0.049541 0.556893 0.944593
0.049577 0.438783 0.839431
0.079647 0.405183 0.807728
0.271211 0.371084 0.787771
0.567546 0.339338 0.771898
0.887131 0.339943 0.790798
0.994084 0.450233 0.769336
0.994894 0.538020 0.713255
0.994739 0.603678 0.663233
0.038583 0.737761 0.919907
0.042835 0.632019 0.828897
0.043023 0.607993 0.807170
0.185795 0.578070 0.789869
0.494290 0.535713 0.775782
0.831990 0.505481 0.772497
0.997360 0.539902 0.776251
0.995951 0.587952 0.714907
0.994496 0.632260 0.659256
0.026032 0.856582 0.812006
0.027543 0.834850 0.786221
0.028841 0.825293 0.776808
0.056415 0.810645 0.762695
0.363170 0.784523 0.753901
0.741074 0.743735 0.742319
0.994757 0.709235 0.746285
0.994280 0.680251 0.706295
0.992881 0.693973 0.646728
0.012665 0.977529 0.678721
0.013516 0.971402 0.671093
0.014275 0.968696 0.668431
0.014177 0.963214 0.662240
0.150966 0.954810 0.656205
0.561646 0.933271 0.654393
0.903341 0.894755 0.647995
0.990412 0.822569 0.660524
0.988952 0.798353 0.612485
0.004152 0.999648 0.485977
0.003842 0.999765 0.484432
0.010166 0.999763 0.484252
0.026277 0.999733 0.484132
0.102240 0.999696 0.484581
0.364655 0.999764 0.492076
0.717141 0.999857 0.484837
0.978510 0.985745 0.520511
0.981469 0.929011 0.523590
0.283358 0.999698 0.422907
0.299688 0.999622 0.421957
0.306830 0.999589 0.421542
0.321689 0.999520 0.420677
0.356248 0.999530 0.417254
0.436941 0.999700 0.408797
0.594692 0.999564 0.397738
0.838219 0.999914 0.395621
0.970910 0.999896 0.369329
0.059030 0.460744 0.999943
0.135068 0.363424 0.999534
0.230255 0.344601 0.999598
0.381520 0.319995 0.999862
0.629943 0.293626 0.999727
0.907071 0.294195 0.999728
0.999525 0.393882 0.943184
0.998832 0.504687 0.833714
0.999121 0.604244 0.797218
0.053858 0.542176 0.999930
0.095896 0.469890 0.999877
0.191239 0.452243 1.000000
0.343507 0.425160 0.999596
0.596443 0.391297 0.999638
0.883646 0.374794 0.999528
0.999691 0.434499 0.956227
0.999199 0.530659 0.834910
0.999012 0.617090 0.798477
0.051188 0.571374 0.999965
0.074754 0.507248 0.999777
0.176570 0.490389 1.000000
0.329434 0.463526 0.999966
0.583152 0.427683 0.999649
0.873983 0.406507 0.999808
0.999829 0.450782 0.961278
0.999547 0.541149 0.835013
0.998933 0.622541 0.798931
0.048748 0.620581 0.999833
0.064698 0.572280 0.999960
0.145647 0.557065 0.999848
0.300383 0.532496 0.999873
0.558763 0.494927 0.999894
0.857766 0.465240 0.999665
0.999904 0.483271 0.968430
0.999856 0.561504 0.835615
0.998582 0.633572 0.799373
0.042050 0.709778 0.999634
0.045551 0.681391 0.999878
0.083681 0.672742 0.999757
0.231629 0.657065 0.999725
0.499439 0.626594 0.999251
0.815393 0.585758 0.994897
0.999867 0.562394 0.973791
0.999829 0.609040 0.835813
0.997916 0.660662 0.800272
0.031675 0.824119 0.977087
0.033496 0.812209 0.965844
0.039764 0.807507 0.961279
0.103332 0.800392 0.957386
0.360900 0.784780 0.961974
0.712112 0.752354 0.957709
0.987808 0.709568 0.938986
0.999273 0.698665 0.836579
0.997000 0.715731 0.800479
0.020690 0.936729 0.883641
0.021713 0.932038 0.878423
0.021394 0.930145 0.876504
0.021314 0.926857 0.872802
0.157600 0.921273 0.872767
0.521135 0.903942 0.877459
0.868307 0.870161 0.869261
0.996749 0.820538 0.837043
0.994616 0.796864 0.788843
0.011203 0.999973 0.748310
0.011006 0.999918 0.746795
0.010878 0.999875 0.746101
0.010618 0.999788 0.744682
0.039793 0.999672 0.742480
0.280751 0.999905 0.748894
0.671189 0.996116 0.751654
0.967364 0.963595 0.755947
0.988068 0.911509 0.741807
0.221109 0.999608 0.661967
0.238532 0.999550 0.660732
0.246152 0.999524 0.660191
0.261696 0.999496 0.659041
0.300618 0.999608 0.655786
0.395389 0.999748 0.648316
0.582103 0.999647 0.649586
0.819879 0.999502 0.654834
0.981103 0.999679 0.625669
0.146529 0.596023 0.999754
0.258564 0.591405 0.999932
0.302426 0.589931 0.999871
0.381692 0.586693 0.999874
0.546676 0.579038 0.999375
0.799673 0.555033 0.999976
0.999193 0.526591 0.999543
0.999674 0.574832 0.966540
0.999542 0.630171 0.920302
0.135979 0.622996 0.999819
0.244941 0.619245 0.999951
0.288517 0.617022 0.999961
0.366065 0.614272 0.999897
0.528960 0.606359 0.999259
0.782645 0.583864 0.999902
0.997446 0.551142 0.999242
0.999866 0.589820 0.966335
0.999525 0.639381 0.919397
0.131846 0.633509 0.999812
0.239762 0.630251 0.999973
0.282655 0.627957 1.000000
0.359729 0.625142 0.999877
0.521474 0.617060 0.999357
0.774844 0.595759 0.999872
0.996815 0.561397 0.999142
0.999895 0.595987 0.966912
0.999548 0.643217 0.919057
0.121968 0.653794 0.999734
0.227944 0.651102 0.999994
0.268952 0.649488 0.999999
0.346589 0.646030 0.999848
0.507146 0.637821 0.999756
0.759984 0.619133 0.999805
0.994984 0.582271 0.999262
0.999951 0.608431 0.968002
0.999595 0.651076 0.918358
0.100539 0.701409 0.999402
0.201202 0.696659 0.999916
0.239925 0.694730 0.999850
0.313646 0.692014 0.999962
0.469322 0.685933 0.999840
0.723828 0.669033 0.999866
0.978043 0.632061 0.999474
0.999813 0.638467 0.970567
0.999712 0.671174 0.916648
0.061441 0.781165 0.999980
0.144868 0.778732 0.999939
0.179527 0.777876 0.999927
0.245512 0.775889 0.999831
0.391775 0.770614 0.999939
0.645769 0.757707 0.998914
0.920524 0.724668 0.999853
0.999528 0.703552 0.976432
0.999954 0.717597 0.912899
0.030189 0.885014 0.976766
0.055702 0.883394 0.979554
0.077266 0.882822 0.981504
0.123044 0.881674 0.985827
0.248944 0.878690 0.995771
0.492650 0.868902 0.999747
0.810013 0.844878 0.999316
0.999377 0.807632 0.986329
0.998999 0.797589 0.907894
0.014064 0.994269 0.930139
0.014056 0.993285 0.929677
0.014008 0.992808 0.929020
0.013911 0.991839 0.927677
0.053042 0.989582 0.928694
0.261634 0.983517 0.938586
0.618487 0.965666 0.942374
0.931609 0.934185 0.931586
0.992628 0.899089 0.897340
0.134146 0.999725 0.870861
0.151370 0.999732 0.869680
0.158910 0.999735 0.869162
0.174612 0.999741 0.868085
0.216413 0.999758 0.865216
0.316572 0.999874 0.858651
0.513078 0.999776 0.845272
0.790046 0.999569 0.837454
0.989235 0.999051 0.832114
0.329609 0.698713 0.999781
0.369423 0.694560 0.999938
0.385937 0.692968 0.999985
0.418589 0.691680 0.999894
0.495201 0.689481 0.999931
0.644475 0.689772 0.999683
0.844666 0.689368 0.999335
0.999769 0.658996 0.998853
0.999362 0.681523 0.999640
0.323479 0.709109 0.999882
0.363835 0.702897 0.999979
0.380407 0.701375 0.999957
0.413108 0.699828 0.999826
0.489975 0.697575 0.999913
0.639446 0.697336 0.999673
0.839312 0.696990 0.999405
0.999775 0.665883 0.998881
0.999373 0.686505 0.999580
0.321034 0.713329 0.999919
0.361609 0.706254 0.999991
0.378135 0.704976 0.999939
0.410850 0.703320 0.999792
0.487744 0.701117 0.999881
0.637337 0.700618 0.999669
0.837409 0.700069 0.999440
0.999776 0.668859 0.998894
0.999385 0.688642 0.999531
0.316393 0.721490 0.999980
0.357256 0.713269 0.999981
0.373686 0.712325 0.999892
0.406418 0.710450 0.999712
0.483161 0.708325 0.999804
0.632621 0.707111 0.999609
0.833498 0.706426 0.999512
0.999776 0.674983 0.998922
0.999410 0.693080 0.999430
0.301898 0.742584 0.999956
0.342800 0.736473 0.999945
0.359311 0.734556 0.999907
0.392146 0.731023 0.999862
0.469780 0.726265 0.999833
0.619729 0.722874 0.999355
0.823400 0.723013 0.999702
0.999767 0.695052 0.999117
0.999474 0.704813 0.999169
0.268515 0.792516 0.999954
0.309990 0.786048 0.999904
0.326478 0.783149 0.999719
0.359596 0.777312 0.999343
0.437497 0.767018 0.999189
0.587474 0.761450 0.999965
0.798130 0.758367 0.999350
0.997248 0.739861 0.999763
0.999592 0.733367 0.999636
0.189514 0.873546 0.991787
0.229599 0.869755 0.995502
0.246456 0.868058 0.996860
0.279312 0.863958 0.997931
0.359706 0.853723 0.999696
0.514742 0.834990 0.999949
0.742432 0.824144 0.999923
0.962072 0.812968 0.999917
0.999538 0.791892 0.999994
0.066862 0.978511 0.942618
0.090810 0.976308 0.945625
0.103606 0.975227 0.947120
0.129894 0.973005 0.950190
0.198126 0.967206 0.957992
0.361355 0.952740 0.975258
0.617990 0.925541 0.997556
0.877136 0.905398 0.999641
0.996150 0.882849 0.999654
0.133310 0.999751 0.933244
0.147756 0.999743 0.934331
0.154034 0.999731 0.934757
0.167129 0.999706 0.935646
0.202134 0.999638 0.938021
0.288049 0.999482 0.943172
0.465727 0.999829 0.954011
0.732573 0.999260 0.968101
0.982589 0.988086 0.985451
