output/AppleLog_display/AppleLog_to_CLASSIC-CHROME_33grid.cube
TITLE "AppleLog_to_CLASSIC-CHROME"
# Input: Apple Log (BT.2020 primaries, D65)
# Output: BT.709 / Gamma 2.2 (display-referred)
# Use: Display LUT for iPhone 15/16 Pro Apple Log footage
# Source: FLog2C_to_CLASSIC-CHROME_65grid_V.1.00.cube
# Generated from Fujifilm GFX ETERNA 55 F-Log2C LUT
LUT_3D_SIZE 5
0.000178 0.000085 0.000052
0.010954 0.001430 0.000088
0.908621 0.119225 0.205460
0.958776 0.374451 0.448598
0.953652 0.585111 0.355125
0.000430 0.015897 0.000108
0.044746 0.014684 0.000156
0.779164 0.075502 0.109478
0.957259 0.432308 0.426457
0.953778 0.604899 0.340787
0.010405 0.617390 0.001593
0.000375 0.431286 0.000362
0.533238 0.394668 0.011695
0.954176 0.567284 0.329333
0.952481 0.646769 0.306461
0.043738 0.933889 0.029643
0.058371 0.921323 0.030709
0.416269 0.900383 0.064133
0.956508 0.881039 0.162838
0.951876 0.800126 0.130971
0.276754 0.964199 0.061719
0.308948 0.963370 0.066713
0.380225 0.961964 0.078187
0.702231 0.964009 0.140901
0.964568 0.973038 0.212368
0.000155 0.000112 0.025352
0.021528 0.000423 0.020655
0.891031 0.111301 0.187842
0.958776 0.374451 0.448598
0.953520 0.597366 0.345822
0.000138 0.044871 0.056695
0.033267 0.034724 0.032210
0.719620 0.089950 0.098370
0.957154 0.449407 0.420689
0.952967 0.618451 0.331172
0.017054 0.669424 0.130116
0.001825 0.485157 0.019941
0.509450 0.425456 0.044267
0.953384 0.583744 0.374716
0.952084 0.660839 0.321266
0.047990 0.949158 0.032507
0.044142 0.940116 0.030786
0.266383 0.920275 0.050352
0.950391 0.890894 0.178880
0.955367 0.814986 0.299752
0.274992 0.964607 0.061714
0.303828 0.963664 0.065899
0.369496 0.962206 0.076028
0.689724 0.963472 0.137178
0.964568 0.973038 0.212368
0.002198 0.000215 0.333608
0.063761 0.000059 0.266935
0.867379 0.068059 0.367977
0.958585 0.426492 0.570536
0.953088 0.635818 0.559625
0.003195 0.158925 0.576928
0.014372 0.098547 0.430744
0.659362 0.119866 0.398496
0.956567 0.510628 0.602940
0.953407 0.653731 0.562125
0.039370 0.727592 0.748036
0.017610 0.566611 0.570759
0.488799 0.491549 0.488884
0.953367 0.618781 0.616151
0.953311 0.689970 0.567072
0.061680 0.941970 0.479329
0.059664 0.934127 0.464179
0.167027 0.918854 0.449072
0.935143 0.896393 0.546157
0.960040 0.825808 0.561023
0.294754 0.961179 0.284864
0.318787 0.960631 0.278772
0.375181 0.959913 0.271414
0.675391 0.964039 0.293246
0.968809 0.977420 0.343674
0.014803 0.402896 0.980010
0.019322 0.283282 0.939609
0.604335 0.266022 0.870057
0.955809 0.504985 0.810955
0.956200 0.694799 0.772730
0.025262 0.544997 0.968774
0.018630 0.460518 0.947211
0.536458 0.416977 0.888375
0.954695 0.559554 0.834022
0.956729 0.709342 0.777435
0.042585 0.697536 0.960021
0.038419 0.665865 0.949445
0.419963 0.632349 0.912222
0.955669 0.659640 0.865246
0.958712 0.738594 0.788041
0.076094 0.899162 0.901197
0.074852 0.894514 0.895416
0.088574 0.886189 0.884020
0.876984 0.880213 0.877965
0.966839 0.839530 0.819733
0.180339 0.958574 0.747574
0.205805 0.958505 0.745930
0.277888 0.958715 0.744409
0.640464 0.966679 0.757475
0.985402 0.990225 0.760866
0.114362 0.687019 0.960866
0.199455 0.683299 0.958447
0.378112 0.686250 0.960333
0.819972 0.721390 0.959535
0.963613 0.756627 0.939522
0.107395 0.701719 0.959338
0.191561 0.695405 0.958311
0.369740 0.697159 0.959661
0.814331 0.730768 0.959690
0.963818 0.762274 0.940638
0.097773 0.731057 0.957418
0.170346 0.724306 0.958404
0.344099 0.720868 0.958467
0.802532 0.750394 0.960985
0.963970 0.775040 0.943355
0.072348 0.847849 0.955736
0.082040 0.843535 0.957007
0.203447 0.832215 0.954650
0.737713 0.830749 0.958823
0.971284 0.841804 0.958475
0.099927 0.956979 0.935240
0.101856 0.957001 0.935383
0.107898 0.957122 0.935594
0.421770 0.959962 0.943245
0.983921 0.988952 0.986552
