output/AppleLog_display/AppleLog_to_ETERNA-BB_33grid.cube
TITLE "AppleLog_to_ETERNA-BB"
# Input: Apple Log (BT.2020 primaries, D65)
# Output: BT.709 / Gamma 2.2 (display-referred)
# Use: Display LUT for iPhone 15/16 Pro Apple Log footage
# Source: FLog2C_to_ETERNA-BB_65grid_V.1.00.cube
# Generated from Fujifilm GFX ETERNA 55 F-Log2C LUT
LUT_3D_SIZE 5
0.000282 0.000191 0.000111
0.022859 0.003447 0.002676
0.586723 0.128846 0.172642
0.753503 0.376840 0.375047
0.872706 0.628950 0.436500
0.006536 0.037796 0.012002
0.061404 0.043393 0.017046
0.492553 0.092117 0.123212
0.792834 0.448565 0.402762
0.880182 0.652229 0.437567
0.146156 0.531898 0.164301
0.109932 0.356165 0.100325
0.401346 0.346930 0.156704
0.861355 0.610488 0.420346
0.893951 0.697962 0.437846
0.319588 0.828235 0.291486
0.395737 0.840225 0.307982
0.587310 0.876556 0.346812
0.935220 0.919184 0.413361
0.930715 0.857877 0.414916
0.594810 0.918990 0.404687
0.606741 0.921337 0.404876
0.634588 0.926818 0.406494
0.790672 0.954933 0.419257
0.941483 0.969810 0.428020
0.005870 0.003865 0.038072
0.040694 0.006429 0.038300
0.574848 0.121151 0.163672
0.753503 0.376840 0.375047
0.878102 0.643115 0.436864
0.021072 0.073217 0.072709
0.069848 0.071174 0.069471
0.459652 0.104295 0.127287
0.802207 0.470881 0.408330
0.886287 0.666908 0.438201
0.190595 0.603656 0.310261
0.142006 0.411907 0.181874
0.410134 0.386848 0.216065
0.877377 0.631887 0.447208
0.901809 0.715061 0.448144
0.306822 0.834500 0.324723
0.369957 0.844612 0.330471
0.543449 0.876696 0.359078
0.922678 0.923308 0.426124
0.937078 0.870491 0.467889
0.605656 0.924137 0.465642
0.615661 0.926276 0.464657
0.640214 0.931273 0.463981
0.790727 0.955638 0.474529
0.944264 0.970553 0.476100
0.046480 0.016210 0.190330
0.089177 0.019810 0.159827
0.568902 0.102987 0.239770
0.809726 0.459414 0.517886
0.919896 0.689331 0.587486
0.109648 0.167943 0.389185
0.115443 0.127338 0.286969
0.451536 0.152011 0.293169
0.865022 0.559679 0.591842
0.926728 0.708548 0.592458
0.286044 0.707855 0.670761
0.252734 0.535670 0.512662
0.495021 0.496392 0.494192
0.921047 0.676378 0.642016
0.936245 0.747320 0.601998
0.339902 0.866505 0.625087
0.392530 0.872354 0.626450
0.547177 0.894902 0.643260
0.926581 0.927877 0.662835
0.953756 0.878303 0.620757
0.631257 0.936935 0.603441
0.639782 0.938407 0.600628
0.660750 0.941801 0.596798
0.796783 0.959358 0.600710
0.952251 0.974257 0.562688
0.312861 0.422422 0.679152
0.316272 0.315079 0.642101
0.569317 0.327806 0.672659
0.895152 0.573623 0.796965
0.951551 0.754806 0.812930
0.342581 0.553310 0.720722
0.369479 0.482062 0.698593
0.602918 0.478715 0.739176
0.916147 0.627879 0.834568
0.955294 0.768597 0.820308
0.366467 0.699355 0.766347
0.422981 0.677944 0.770296
0.630184 0.681314 0.818724
0.947821 0.724537 0.884436
0.961787 0.796548 0.834019
0.416202 0.875761 0.819583
0.460752 0.880830 0.829845
0.574359 0.896633 0.857914
0.921586 0.922808 0.921166
0.972546 0.889068 0.867407
0.650494 0.950989 0.837790
0.661120 0.952125 0.839124
0.685408 0.955442 0.842365
0.818516 0.972228 0.864397
0.978318 0.988138 0.851908
0.574332 0.735202 0.838128
0.604815 0.736402 0.847422
0.671556 0.747737 0.867288
0.889377 0.793377 0.939086
0.966137 0.819273 0.945996
0.576759 0.750111 0.842831
0.605887 0.748682 0.851203
0.671137 0.758645 0.870095
0.888103 0.802391 0.940010
0.966534 0.824928 0.947544
0.580247 0.778415 0.852319
0.608439 0.776338 0.859930
0.669231 0.781027 0.876301
0.883924 0.820860 0.942899
0.967162 0.838071 0.950854
0.589828 0.878689 0.880135
0.613042 0.878832 0.887216
0.661550 0.878922 0.898221
0.863577 0.892815 0.950435
0.976194 0.896365 0.963224
0.661773 0.956526 0.915723
0.669877 0.957520 0.917752
0.688878 0.959799 0.922492
0.799307 0.974377 0.950039
0.993139 0.995444 0.993696
