output/AppleLog_display/AppleLog_to_CLASSIC-Neg._33grid.cube
TITLE "AppleLog_to_CLASSIC-Neg."
# Input: Apple Log (BT.2020 primaries, D65)
# Output: BT.709 / Gamma 2.2 (display-referred)
# Use: Display LUT for iPhone 15/16 Pro Apple Log footage
# Source: FLog2C_to_CLASSIC-Neg._65grid_V.1.00.cube
# Generated from Fujifilm GFX ETERNA 55 F-Log2C LUT
LUT_3D_SIZE 9
0.000129 0.000120 0.000052
0.000129 0.000120 0.000052
0.017369 0.001159 0.000042
0.301471 0.024648 0.000186
0.895864 0.107503 0.036936
0.950955 0.280785 0.276107
0.951060 0.281893 0.277250
0.952636 0.363632 0.265181
0.955479 0.516406 0.234168
0.000129 0.000120 0.000052
0.000129 0.000120 0.000052
0.075078 0.005782 0.000614
0.380834 0.031129 0.000325
0.906292 0.112653 0.047553
0.947394 0.216071 0.216709
0.951473 0.312112 0.272007
0.953579 0.400774 0.257462
0.956755 0.534450 0.228926
0.000167 0.025329 0.005644
0.000985 0.038593 0.008420
0.051079 0.025380 0.000222
0.251081 0.032841 0.000199
0.796348 0.089274 0.000231
0.944481 0.195309 0.169271
0.951805 0.337877 0.268069
0.953339 0.417256 0.255657
0.956687 0.542604 0.226722
0.005051 0.187944 0.041748
0.004611 0.175155 0.030840
0.005248 0.138900 0.022238
0.148116 0.133048 0.001866
0.627732 0.170217 0.000035
0.941387 0.260445 0.094368
0.953527 0.389480 0.260594
0.955300 0.447138 0.250647
0.956543 0.558919 0.222314
0.018749 0.584034 0.097717
0.012816 0.414741 0.068234
0.011345 0.372523 0.061331
0.057266 0.338368 0.049246
0.432243 0.342903 0.003519
0.898941 0.417475 0.014212
0.954096 0.489560 0.203617
0.955686 0.521718 0.232993
0.957836 0.598580 0.209305
0.025017 0.792423 0.132372
0.023284 0.745204 0.124349
0.023094 0.730749 0.122383
0.022537 0.707577 0.117991
0.244398 0.687384 0.082985
0.839899 0.704594 0.004798
0.955303 0.704310 0.088574
0.957251 0.665032 0.184250
0.957904 0.686510 0.174731
0.028753 0.918193 0.153643
0.028718 0.911642 0.152565
0.028783 0.909003 0.151966
0.028881 0.903647 0.150946
0.053398 0.893425 0.144766
0.666509 0.912435 0.063956
0.952662 0.906666 0.024284
0.957186 0.834275 0.066170
0.957082 0.815543 0.078918
0.030267 0.945420 0.158066
0.030267 0.945420 0.158066
0.030267 0.945420 0.158066
0.030002 0.945155 0.157801
0.029325 0.944478 0.157124
0.124419 0.950099 0.145314
0.810337 0.989582 0.055643
0.947080 0.975195 0.110507
0.956886 0.941005 0.152128
0.037308 0.943749 0.348063
0.037162 0.943700 0.346553
0.037098 0.943678 0.345890
0.036964 0.943633 0.344504
0.036863 0.943541 0.342121
0.052077 0.944293 0.337014
0.388713 0.964772 0.292524
0.888078 0.992161 0.256737
0.946166 0.994179 0.254962
0.000129 0.000120 0.000052
0.000129 0.000120 0.000052
0.032062 0.002395 0.000426
0.319599 0.026203 0.000115
0.898604 0.108533 0.039041
0.951000 0.281253 0.276590
0.951060 0.281893 0.277250
0.952882 0.367954 0.264127
0.955646 0.518606 0.233528
0.000129 0.000120 0.000052
0.000129 0.000120 0.000052
0.085989 0.006880 0.000485
0.400879 0.032644 0.000525
0.880093 0.101206 0.022839
0.946098 0.200928 0.200362
0.951949 0.320305 0.272100
0.953511 0.405302 0.256965
0.956737 0.536642 0.228332
0.001238 0.052795 0.011168
0.001241 0.063395 0.014146
0.044592 0.043722 0.001308
0.231382 0.048598 0.000094
0.772978 0.103932 0.000062
0.944360 0.202526 0.160120
0.952073 0.345095 0.267218
0.953276 0.421380 0.255208
0.956668 0.544720 0.226150
0.006261 0.207314 0.045144
0.004680 0.184543 0.031295
0.003974 0.148477 0.024182
0.145210 0.142549 0.003156
0.616071 0.178177 0.000009
0.939777 0.268383 0.087847
0.953589 0.395196 0.259829
0.955224 0.450992 0.249734
0.956524 0.560889 0.221780
0.019519 0.598877 0.101531
0.012676 0.421695 0.069308
0.011469 0.381113 0.063184
0.056725 0.347365 0.050516
0.430087 0.350528 0.004049
0.897657 0.424263 0.012817
0.954121 0.493974 0.201073
0.955680 0.525061 0.232149
0.957906 0.600618 0.208711
0.025367 0.807871 0.134060
0.023645 0.762406 0.127592
0.023692 0.747736 0.124633
0.022565 0.725229 0.120789
0.218267 0.702020 0.089340
0.826076 0.716250 0.018342
0.958032 0.719628 0.144241
0.958768 0.678301 0.203893
0.957625 0.697855 0.169347
0.029857 0.930107 0.159960
0.029422 0.924129 0.157810
0.028977 0.921516 0.157467
0.028608 0.916396 0.156677
0.033122 0.905161 0.155050
0.547465 0.918233 0.096844
0.945969 0.916908 0.139992
0.965441 0.848810 0.256663
0.963157 0.831276 0.217005
0.034558 0.944921 0.277783
0.034174 0.944881 0.275225
0.034012 0.944864 0.274137
0.034119 0.944847 0.272676
0.034383 0.944702 0.269550
0.109925 0.948435 0.255691
0.788539 0.988198 0.183560
0.952579 0.976117 0.244414
0.962484 0.941111 0.270298
0.040112 0.943318 0.431382
0.040057 0.943255 0.428801
0.040033 0.943228 0.427670
0.039982 0.943171 0.425314
0.040492 0.943120 0.421435
0.058561 0.944153 0.414576
0.387685 0.963882 0.365276
0.886220 0.991721 0.321546
0.948951 0.994077 0.308702
0.004037 0.002578 0.032879
0.004037 0.002578 0.032879
0.040853 0.003191 0.021307
0.294766 0.023727 0.000181
0.884850 0.103021 0.027208
0.951026 0.281011 0.276464
0.951060 0.281893 0.277250
0.953706 0.379160 0.262408
0.956171 0.532888 0.229916
0.004432 0.002897 0.035681
0.004432 0.002897 0.035681
0.091304 0.005914 0.012927
0.358745 0.029276 0.000195
0.846460 0.088356 0.005968
0.945794 0.184036 0.182427
0.952192 0.329114 0.271606
0.953957 0.418507 0.255568
0.956121 0.552557 0.224093
0.004712 0.073701 0.081876
0.005122 0.084728 0.087813
0.051300 0.060683 0.047825
0.218169 0.060912 0.021540
0.736380 0.113009 0.001913
0.943797 0.207038 0.139594
0.953181 0.357756 0.267837
0.954708 0.433743 0.252968
0.956226 0.560941 0.222645
0.011574 0.249173 0.166275
0.009831 0.215409 0.134814
0.007116 0.173813 0.097378
0.148294 0.159415 0.063248
0.593078 0.189488 0.024835
0.932140 0.276208 0.104071
0.954041 0.409371 0.269150
0.955035 0.467631 0.251091
0.956652 0.577919 0.221329
0.029497 0.661867 0.331839
0.019360 0.484031 0.194108
0.016901 0.436323 0.168710
0.059225 0.392603 0.137779
0.419884 0.381500 0.088549
0.891815 0.442788 0.097457
0.956438 0.514310 0.252725
0.957084 0.547370 0.266977
0.958136 0.621328 0.228400
0.032452 0.824841 0.293451
0.029038 0.783423 0.250977
0.028642 0.770438 0.240868
0.027462 0.748880 0.226567
0.214000 0.725513 0.188320
0.821405 0.734167 0.136394
0.962166 0.735063 0.242387
0.962872 0.693226 0.299931
0.961536 0.711659 0.248969
0.034084 0.931294 0.276565
0.033784 0.925371 0.270760
0.033570 0.923120 0.268260
0.033045 0.918893 0.263745
0.034230 0.908116 0.258655
0.532318 0.920360 0.204427
0.945348 0.919011 0.223087
0.968446 0.853341 0.328716
0.965532 0.834931 0.282315
0.036689 0.943732 0.349418
0.036919 0.943669 0.346289
0.037017 0.943643 0.344959
0.036989 0.943759 0.343314
0.036977 0.943887 0.339432
0.111161 0.947560 0.322455
0.782711 0.986862 0.241058
0.955044 0.976782 0.292709
0.964838 0.941133 0.313515
0.041358 0.943157 0.465019
0.041388 0.943094 0.462122
0.041400 0.943066 0.460854
0.041426 0.943008 0.458212
0.042246 0.942900 0.453757
0.061454 0.943804 0.445835
0.387976 0.963322 0.395746
0.885450 0.991476 0.348352
0.949477 0.994187 0.330644
0.030259 0.009772 0.114383
0.030259 0.009772 0.114383
0.068929 0.009306 0.090935
0.315099 0.021546 0.050203
0.876447 0.095626 0.058501
0.950890 0.268284 0.266992
0.951969 0.288117 0.303040
0.956386 0.409394 0.329663
0.960241 0.560592 0.324390
0.031409 0.010008 0.116151
0.035615 0.012061 0.126345
0.104628 0.009689 0.090633
0.312515 0.021694 0.063504
0.807655 0.075030 0.060553
0.947347 0.181057 0.242167
0.955833 0.364847 0.349290
0.958455 0.450196 0.343624
0.960994 0.580064 0.329374
0.024361 0.113428 0.219062
0.020462 0.118277 0.218863
0.070623 0.088759 0.150485
0.228840 0.085393 0.111894
0.716731 0.129117 0.082853
0.947264 0.215034 0.221129
0.957265 0.395645 0.362374
0.959129 0.466952 0.348785
0.961168 0.588397 0.331006
0.022495 0.315535 0.382237
0.018396 0.261497 0.303548
0.023878 0.211144 0.234583
0.169395 0.190636 0.179585
0.597037 0.211380 0.128454
0.930407 0.289284 0.206534
0.958599 0.438072 0.368546
0.960355 0.500072 0.359977
0.961431 0.605133 0.334435
0.042646 0.711817 0.634573
0.029111 0.545247 0.412923
0.025377 0.496934 0.363383
0.089957 0.447767 0.304163
0.442007 0.425438 0.230597
0.892377 0.468212 0.228057
0.961243 0.540279 0.372203
0.962901 0.576521 0.382986
0.964036 0.644830 0.344332
0.043641 0.838140 0.561237
0.039385 0.802198 0.489209
0.037687 0.791354 0.470054
0.035697 0.770908 0.440282
0.229911 0.750083 0.375759
0.822683 0.753424 0.297348
0.967588 0.750084 0.379643
0.968113 0.709513 0.417509
0.966591 0.726564 0.363687
0.042789 0.931002 0.494534
0.042489 0.926123 0.482227
0.041966 0.924189 0.476705
0.041287 0.920257 0.467509
0.041968 0.910445 0.450803
0.518820 0.921676 0.376093
0.945720 0.920611 0.360667
0.972118 0.858644 0.436478
0.970843 0.838816 0.385947
0.041856 0.943323 0.479575
0.041712 0.943501 0.475911
0.041653 0.943577 0.474356
0.041653 0.943598 0.471299
0.041658 0.943421 0.464018
0.112021 0.947286 0.442303
0.772510 0.986124 0.351052
0.959473 0.977795 0.380322
0.968735 0.941254 0.391932
0.044012 0.943359 0.528834
0.043846 0.943420 0.525107
0.043773 0.943446 0.523477
0.043622 0.943501 0.520083
0.045807 0.943423 0.514499
0.071474 0.943903 0.505285
0.388937 0.963262 0.453553
0.884088 0.991313 0.398698
0.952005 0.993441 0.373262
0.080900 0.029995 0.271315
0.080900 0.029995 0.271315
0.127644 0.022653 0.205315
0.393899 0.026376 0.146786
0.880946 0.086944 0.169573
0.954870 0.280345 0.363081
0.959284 0.351620 0.436213
0.963488 0.465178 0.467540
0.967320 0.599649 0.474974
0.105007 0.099319 0.406214
0.099341 0.102651 0.394771
0.132234 0.075117 0.295789
0.306485 0.073105 0.237145
0.763757 0.116665 0.215687
0.952072 0.202785 0.365630
0.962998 0.431544 0.488884
0.965127 0.504173 0.487151
0.967943 0.617171 0.481332
0.107899 0.213986 0.554489
0.093352 0.190320 0.489582
0.120705 0.150933 0.384255
0.266739 0.139235 0.310510
0.707034 0.167954 0.259316
0.946673 0.242912 0.366412
0.964318 0.449061 0.497422
0.966512 0.519543 0.493691
0.968235 0.624580 0.484230
0.076562 0.449462 0.745546
0.054302 0.348373 0.609446
0.093921 0.291764 0.510860
0.225092 0.255494 0.420179
0.629117 0.262298 0.336554
0.929930 0.323191 0.384484
0.965380 0.483799 0.510748
0.967708 0.549567 0.506222
0.968794 0.639365 0.489896
0.055040 0.761422 0.922104
0.043332 0.617674 0.736640
0.042715 0.577028 0.684196
0.155342 0.532498 0.603599
0.505400 0.497080 0.491355
0.899164 0.510611 0.448300
0.969133 0.579367 0.539198
0.970057 0.617138 0.534930
0.970080 0.674343 0.501314
0.054788 0.851134 0.863442
0.051647 0.821659 0.804890
0.051068 0.812172 0.787117
0.049777 0.795129 0.754925
0.282726 0.779301 0.670465
0.832198 0.777808 0.558073
0.975497 0.769361 0.576757
0.975101 0.732821 0.576168
0.973267 0.745742 0.522840
0.054008 0.928610 0.797419
0.053528 0.923774 0.783372
0.053253 0.922498 0.778561
0.052939 0.919114 0.768277
0.061419 0.911242 0.744583
0.521703 0.922894 0.651233
0.946913 0.922208 0.582453
0.979300 0.865638 0.599222
0.976155 0.845357 0.543693
0.050646 0.941539 0.687916
0.050669 0.941525 0.688859
0.050677 0.941528 0.689226
0.050625 0.941811 0.688811
0.050341 0.942175 0.685862
0.125533 0.946179 0.659064
0.755721 0.983526 0.552877
0.967486 0.976951 0.538011
0.975089 0.940303 0.530241
0.049822 0.941749 0.663382
0.049669 0.941701 0.659366
0.049602 0.941680 0.657610
0.049463 0.941637 0.653959
0.057337 0.942194 0.646239
0.102115 0.945278 0.629573
0.399820 0.962773 0.578549
0.881053 0.990491 0.509724
0.957831 0.993898 0.470539
0.203314 0.093176 0.646574
0.182310 0.080868 0.584869
0.255715 0.068590 0.499603
0.475269 0.064669 0.427577
0.831850 0.092828 0.412676
0.958702 0.183999 0.539557
0.965724 0.413972 0.576167
0.971733 0.538669 0.612966
0.975122 0.654475 0.638526
0.277506 0.383387 0.878012
0.212889 0.285914 0.787563
0.249305 0.244905 0.717961
0.401490 0.220380 0.634486
0.758593 0.230394 0.550098
0.950486 0.283765 0.580324
0.969208 0.460331 0.614705
0.972675 0.577758 0.634749
0.975838 0.668543 0.644507
0.274927 0.494260 0.925258
0.206954 0.369022 0.828481
0.243446 0.322208 0.769120
0.386428 0.287562 0.688515
0.736515 0.282674 0.593806
0.943912 0.326109 0.599046
0.969934 0.481222 0.629374
0.973766 0.593453 0.644247
0.976147 0.674451 0.647029
0.248212 0.654787 0.985931
0.185622 0.503900 0.884720
0.225668 0.459293 0.837691
0.356417 0.415513 0.768050
0.699769 0.389877 0.665744
0.932947 0.409492 0.634993
0.972371 0.524768 0.655426
0.975072 0.621664 0.659669
0.976672 0.685688 0.652332
0.122122 0.786204 0.999884
0.110451 0.693563 0.956490
0.169547 0.672486 0.926198
0.283263 0.641514 0.876917
0.614280 0.606510 0.781950
0.910743 0.588109 0.707737
0.976308 0.626705 0.706791
0.977566 0.675894 0.687896
0.977734 0.714015 0.664782
0.061100 0.856533 0.999973
0.059808 0.837936 0.995842
0.061285 0.831647 0.991277
0.132502 0.823547 0.967597
0.397978 0.815272 0.902320
0.852380 0.809239 0.802173
0.983311 0.789636 0.764962
0.981354 0.765139 0.727183
0.980325 0.771353 0.688205
0.061479 0.923472 0.993231
0.061241 0.919662 0.986134
0.061156 0.918118 0.983269
0.061212 0.915403 0.977338
0.088439 0.909678 0.960648
0.561572 0.923886 0.874513
0.947290 0.922525 0.792830
0.985501 0.875451 0.761430
0.983058 0.852315 0.712804
0.058247 0.941742 0.895274
0.058161 0.941702 0.894846
0.058153 0.941738 0.894572
0.058152 0.941836 0.893968
0.058049 0.941723 0.892520
0.147842 0.946747 0.878633
0.734016 0.980454 0.784831
0.978792 0.975135 0.730290
0.984145 0.939279 0.706469
0.057704 0.941090 0.842627
0.058030 0.941124 0.841269
0.058172 0.941140 0.840675
0.058466 0.941171 0.839440
0.087337 0.942913 0.832451
0.184125 0.948692 0.812202
0.441372 0.964365 0.765489
0.877948 0.990349 0.689643
0.966667 0.993175 0.634415
0.542801 0.623217 0.996092
0.489132 0.502789 0.951235
0.540796 0.477446 0.926840
0.647901 0.447057 0.888291
0.826949 0.416773 0.829804
0.952509 0.416916 0.795480
0.976102 0.499715 0.765040
0.977769 0.605246 0.736869
0.980987 0.704596 0.757658
0.485616 0.686754 0.999927
0.470680 0.607383 0.982167
0.519638 0.585003 0.961408
0.624705 0.554966 0.925176
0.809868 0.516843 0.867740
0.945140 0.499630 0.822647
0.978053 0.547660 0.790158
0.979070 0.633198 0.749563
0.981456 0.717559 0.763565
0.461107 0.707479 0.999912
0.460172 0.641169 0.992335
0.511195 0.621812 0.973405
0.614250 0.594044 0.939040
0.802185 0.555151 0.881691
0.942647 0.532409 0.835012
0.979085 0.567448 0.800382
0.979556 0.644398 0.755040
0.981642 0.722963 0.766061
0.415032 0.741180 0.999762
0.437545 0.695674 0.999825
0.488143 0.681743 0.990989
0.590507 0.658104 0.961055
0.785753 0.623358 0.904578
0.937671 0.592656 0.854622
0.980563 0.605319 0.819397
0.980413 0.666284 0.765004
0.981958 0.733305 0.771060
0.309890 0.795183 0.999870
0.372111 0.776042 0.999179
0.419181 0.769475 0.999395
0.523621 0.760217 0.996378
0.739348 0.740288 0.948283
0.922206 0.710026 0.892651
0.984094 0.688687 0.854758
0.982104 0.714708 0.785981
0.982745 0.758384 0.783449
0.162194 0.857127 0.999852
0.238973 0.853031 0.999918
0.273530 0.851289 0.999882
0.350706 0.849674 0.999897
0.575687 0.848233 0.994609
0.871328 0.840607 0.936667
0.986630 0.813577 0.891520
0.985605 0.794168 0.824088
0.985364 0.804118 0.807811
0.065505 0.911637 0.999825
0.070896 0.909652 0.999782
0.077310 0.908774 0.999557
0.117829 0.909127 0.999577
0.253485 0.912222 0.999802
0.646469 0.924571 0.980746
0.942202 0.920809 0.919218
0.990147 0.886606 0.872439
0.988307 0.864789 0.832509
0.063737 0.942923 0.999738
0.063841 0.942870 0.999738
0.063897 0.942841 0.999738
0.064011 0.942783 0.999738
0.064409 0.942396 0.999765
0.176234 0.947767 0.999500
0.725244 0.975593 0.933242
0.978781 0.971777 0.873193
0.990000 0.937946 0.842126
0.074158 0.942235 0.984196
0.076706 0.942295 0.982816
0.077817 0.942322 0.982214
0.083218 0.942592 0.980549
0.121055 0.944955 0.972998
0.217695 0.951007 0.953894
0.502077 0.968052 0.912032
0.875103 0.990137 0.854916
0.977622 0.993209 0.807156
0.571632 0.734883 0.999875
0.657805 0.735017 0.997666
0.688807 0.735417 0.994630
0.744628 0.735748 0.987932
0.840150 0.736696 0.973810
0.938889 0.727360 0.958673
0.987287 0.699456 0.937018
0.984663 0.702191 0.855929
0.985460 0.746203 0.849234
0.555136 0.752432 0.999350
0.640982 0.753870 0.999014
0.671977 0.754918 0.998323
0.729708 0.755475 0.993672
0.829630 0.756358 0.978852
0.932412 0.749870 0.963081
0.988719 0.721262 0.941754
0.985340 0.715974 0.861154
0.985883 0.754191 0.852248
0.548735 0.759805 0.999151
0.633763 0.761438 0.999715
0.664918 0.762520 0.999675
0.723030 0.762914 0.995340
0.824696 0.763818 0.980912
0.930085 0.757792 0.964986
0.989215 0.730226 0.943713
0.985733 0.721675 0.863504
0.986094 0.757406 0.853449
0.533976 0.773515 0.999361
0.617279 0.774354 0.999466
0.649680 0.775046 0.999250
0.708920 0.776346 0.997493
0.815205 0.778153 0.984682
0.925659 0.773663 0.968683
0.989083 0.746645 0.947540
0.986517 0.733167 0.868232
0.986528 0.763990 0.855909
0.498738 0.800716 0.999501
0.579754 0.803398 0.999734
0.610782 0.804175 0.999796
0.670876 0.806140 0.999944
0.785882 0.807924 0.993373
0.910280 0.806921 0.976844
0.989830 0.784523 0.956347
0.987673 0.760414 0.880993
0.987476 0.780470 0.862319
0.419642 0.846743 0.999804
0.488002 0.848129 0.999954
0.518633 0.849546 0.999969
0.577919 0.852174 0.999945
0.707614 0.857080 0.999908
0.874857 0.859505 0.992027
0.977554 0.845112 0.970280
0.989201 0.813683 0.907650
0.988368 0.816101 0.876640
0.283196 0.898234 0.999936
0.326674 0.899929 0.999987
0.346196 0.900867 0.999973
0.387447 0.902754 0.999931
0.503823 0.907696 0.999501
0.742703 0.917352 0.999452
0.933117 0.915470 0.987359
0.992710 0.889205 0.945395
0.991329 0.874021 0.901729
0.081326 0.938895 0.999997
0.098814 0.939499 0.999972
0.109968 0.939917 0.999953
0.132639 0.940766 0.999914
0.192318 0.943162 0.999812
0.361359 0.950405 0.999913
0.767936 0.967677 0.998180
0.971622 0.962914 0.961226
0.993115 0.938686 0.927234
0.163380 0.948846 0.999983
0.173973 0.949471 0.999971
0.178609 0.949745 0.999965
0.188263 0.950314 0.999954
0.213952 0.951828 0.999924
0.290647 0.956062 0.999529
0.523361 0.970226 0.997761
0.874665 0.991805 0.954895
0.988855 0.995374 0.923434
0.677098 0.806406 0.999864
0.709543 0.805626 0.999172
0.722754 0.805393 0.998811
0.745998 0.805893 0.997276
0.798364 0.808458 0.992262
0.876338 0.813725 0.981912
0.953397 0.821397 0.973316
0.991456 0.803598 0.963710
0.989966 0.803203 0.933722
0.669225 0.812276 0.999831
0.703319 0.811113 0.999431
0.716218 0.810945 0.999096
0.740169 0.811023 0.998234
0.793940 0.813176 0.994043
0.873804 0.818216 0.982949
0.951678 0.826187 0.974340
0.991543 0.808718 0.964648
0.990195 0.806870 0.934886
0.666142 0.814766 0.999852
0.700922 0.813442 0.999576
0.713566 0.813293 0.999305
0.737811 0.813193 0.998727
0.791966 0.815175 0.994847
0.872752 0.820175 0.983399
0.950877 0.827957 0.974751
0.991584 0.810937 0.965053
0.990296 0.808464 0.935390
0.660413 0.819797 0.999964
0.695999 0.818251 0.999929
0.708443 0.818027 0.999905
0.733272 0.817569 0.999900
0.787954 0.819251 0.996348
0.870101 0.824186 0.984505
0.949243 0.831617 0.975607
0.991674 0.815517 0.965886
0.990506 0.811773 0.936438
0.637609 0.832822 0.999629
0.673809 0.830848 0.999510
0.688102 0.829908 0.999512
0.715889 0.828435 0.999354
0.774101 0.829148 0.997656
0.862490 0.834334 0.987788
0.945113 0.841200 0.977886
0.992284 0.827941 0.968826
0.991060 0.820513 0.939204
0.583251 0.860371 0.999920
0.623666 0.858706 0.999882
0.639959 0.857859 0.999795
0.672752 0.856154 0.999617
0.741268 0.853346 0.999937
0.841762 0.857033 0.995651
0.935069 0.863500 0.982916
0.993266 0.855594 0.974098
0.991807 0.841052 0.946554
0.451123 0.900814 0.999553
0.490243 0.900842 0.999769
0.506921 0.900802 0.999813
0.541123 0.900334 0.999542
0.625019 0.899557 0.999345
0.773914 0.897400 0.999938
0.908759 0.900350 0.994124
0.990554 0.898637 0.981652
0.993585 0.880015 0.959650
0.223813 0.941010 1.000000
0.249616 0.941687 1.000000
0.261666 0.942042 0.999999
0.286469 0.942773 0.999999
0.352284 0.944673 0.999953
0.532742 0.949058 0.999678
0.814375 0.952439 0.999220
0.959545 0.951266 0.994572
0.995917 0.937011 0.977748
0.233016 0.952011 0.999487
0.243661 0.952720 0.999507
0.248737 0.953063 0.999534
0.259326 0.953777 0.999589
0.287618 0.955688 0.999737
0.365703 0.960828 0.999844
0.580708 0.973198 0.999477
0.866313 0.990708 0.999735
0.992715 0.994593 0.993164
