output/AppleLog_display/AppleLog_to_ETERNA-BB_33grid.cube
TITLE "AppleLog_to_ETERNA-BB"
# Input: Apple Log (BT.2020 primaries, D65)
# Output: BT.709 / Gamma 2.2 (display-referred)
# Use: Display LUT for iPhone 15/16 Pro Apple Log footage
# Source: FLog2C_to_ETERNA-BB_65grid_V.1.00.cube
# Generated from Fujifilm GFX ETERNA 55 F-Log2C LUT
LUT_3D_SIZE 33
0.000282 0.000191 0.000111
0.000282 0.000191 0.000111
0.000282 0.000191 0.000111
0.000282 0.000191 0.000111
0.000282 0.000191 0.000111
0.000282 0.000191 0.000111
0.000282 0.000191 0.000111
0.000282 0.000191 0.000111
0.022859 0.003447 0.002676
0.058646 0.007880 0.012595
0.093515 0.017550 0.019832
0.140687 0.026099 0.033804
0.216942 0.039945 0.053540
0.319211 0.052451 0.074136
0.421300 0.068363 0.096933
0.511300 0.089532 0.130165
0.586723 0.128846 0.172642
0.648139 0.187398 0.223811
0.684777 0.246984 0.273588
0.721325 0.317351 0.330168
0.752671 0.375432 0.374082
0.753503 0.376840 0.375047
0.753503 0.376840 0.375047
0.753503 0.376840 0.375047
0.753503 0.376840 0.375047
0.753503 0.376840 0.375047
0.766309 0.400344 0.384107
0.786273 0.438137 0.398150
0.805055 0.477890 0.409672
0.823847 0.515525 0.419554
0.840319 0.553315 0.428957
0.859526 0.590614 0.433641
0.872706 0.628950 0.436500
0.000282 0.000191 0.000111
0.000282 0.000191 0.000111
0.000282 0.000191 0.000111
0.000282 0.000191 0.000111
0.000282 0.000191 0.000111
0.000282 0.000191 0.000111
0.000282 0.000191 0.000111
0.016315 0.002823 0.001063
0.048706 0.007300 0.009454
0.076303 0.013481 0.016948
0.110122 0.019580 0.025452
0.160374 0.029647 0.039874
0.242448 0.043093 0.058377
0.339702 0.055983 0.078927
0.435414 0.070353 0.101776
0.521053 0.094079 0.135137
0.593140 0.132735 0.176758
0.652781 0.192200 0.227812
0.686742 0.250449 0.276536
0.723193 0.320985 0.333046
0.753411 0.376684 0.374940
0.753503 0.376840 0.375047
0.753503 0.376840 0.375047
0.753503 0.376840 0.375047
0.753759 0.377237 0.375282
0.767313 0.402242 0.385540
0.784931 0.435299 0.396651
0.800047 0.466630 0.406594
0.814857 0.498575 0.415682
0.831173 0.532165 0.423902
0.847326 0.566541 0.431174
0.863976 0.601053 0.435223
0.875280 0.637306 0.436827
0.000282 0.000191 0.000111
0.000282 0.000191 0.000111
0.000282 0.000191 0.000111
0.000282 0.000191 0.000111
0.000282 0.000191 0.000111
0.000282 0.000191 0.000111
0.000276 0.000135 0.000072
0.027946 0.003982 0.003934
0.055695 0.007374 0.011675
0.083200 0.015632 0.017419
0.117725 0.021373 0.027346
0.170057 0.031718 0.042486
0.252603 0.044282 0.060334
0.347872 0.057392 0.080838
0.441091 0.071153 0.103725
0.525003 0.095921 0.137151
0.595384 0.134902 0.178668
0.654678 0.194163 0.229447
0.687548 0.251870 0.277744
0.723961 0.322479 0.334228
0.751865 0.374454 0.373240
0.752154 0.374277 0.373387
0.753503 0.376840 0.375047
0.753503 0.376840 0.375047
0.761870 0.392233 0.382352
0.776126 0.420090 0.390761
0.790779 0.446704 0.400216
0.805572 0.477144 0.409175
0.818740 0.507645 0.417708
0.833996 0.538943 0.425448
0.849733 0.572142 0.431903
0.865722 0.605264 0.435511
0.876314 0.640664 0.436956
0.000282 0.000191 0.000111
0.000282 0.000191 0.000111
0.000282 0.000191 0.000111
0.000282 0.000191 0.000111
0.000282 0.000191 0.000111
0.000282 0.000191 0.000111
0.008329 0.001658 0.000038
0.037192 0.005774 0.006283
0.061427 0.008768 0.013447
0.088263 0.017111 0.017895
0.123319 0.022692 0.028740
0.177251 0.033256 0.044427
0.260351 0.045102 0.061870
0.354021 0.058452 0.082276
0.445383 0.071758 0.105198
0.527999 0.097318 0.138678
0.597091 0.136550 0.180120
0.656124 0.195659 0.230694
0.688163 0.252954 0.278667
0.706462 0.288730 0.307842
0.724841 0.323850 0.335753
0.747098 0.365365 0.366638
0.753503 0.376840 0.375047
0.758055 0.383700 0.378174
0.769184 0.405932 0.385203
0.782042 0.430413 0.394662
0.795272 0.456306 0.402606
0.809375 0.484816 0.411075
0.821590 0.514305 0.419194
0.836088 0.543970 0.426592
0.851534 0.576328 0.432446
0.867023 0.608457 0.435564
0.877095 0.643202 0.437054
0.000282 0.000191 0.000111
0.000282 0.000191 0.000111
0.000282 0.000191 0.000111
0.000282 0.000191 0.000111
0.000282 0.000191 0.000111
0.000282 0.000191 0.000111
0.015557 0.002751 0.000877
0.044463 0.007183 0.008131
0.066240 0.010303 0.014920
0.092856 0.017495 0.019589
0.127886 0.023769 0.029878
0.183167 0.034521 0.046023
0.266757 0.045780 0.063140
0.359138 0.059285 0.083399
0.448960 0.072262 0.106425
0.530502 0.098485 0.139954
0.598519 0.137930 0.181336
0.643949 0.182717 0.219542
0.669504 0.219011 0.250251
0.689017 0.255264 0.280541
0.708885 0.294148 0.311021
0.733854 0.340805 0.348824
0.751183 0.372567 0.371433
0.763689 0.394353 0.382074
0.774634 0.416634 0.388514
0.786665 0.438547 0.397724
0.798884 0.464139 0.404497
0.812286 0.491048 0.412633
0.823785 0.519581 0.420493
0.837806 0.548097 0.427530
0.853022 0.579785 0.432893
0.868101 0.611108 0.435608
0.877783 0.645323 0.437154
0.000282 0.000191 0.000111
0.000282 0.000191 0.000111
0.000282 0.000191 0.000111
0.000282 0.000191 0.000111
0.000282 0.000191 0.000111
0.000282 0.000191 0.000111
0.022354 0.003398 0.002551
0.048836 0.007302 0.009495
0.070297 0.011597 0.016163
0.096766 0.017822 0.021031
0.132609 0.024670 0.031283
0.188269 0.035612 0.047399
0.272309 0.046367 0.064240
0.363603 0.059941 0.084276
0.447326 0.071586 0.105779
0.510389 0.090373 0.132399
0.567769 0.116582 0.158656
0.611702 0.150071 0.192897
0.652525 0.194616 0.229883
0.677215 0.234060 0.262519
0.698492 0.273864 0.295622
0.725323 0.324870 0.333961
0.752948 0.376461 0.370472
0.768795 0.404899 0.385702
0.778974 0.425505 0.392041
0.790432 0.446677 0.400243
0.801935 0.470729 0.406141
0.814759 0.496339 0.413957
0.825624 0.524052 0.421634
0.839317 0.551666 0.428310
0.854312 0.582778 0.433279
0.869038 0.613412 0.435647
0.878429 0.647183 0.437265
0.000282 0.000191 0.000111
0.000282 0.000191 0.000111
0.000282 0.000191 0.000111
0.000282 0.000191 0.000111
0.000282 0.000191 0.000111
0.000282 0.000191 0.000111
0.027488 0.004144 0.003934
0.050928 0.007163 0.010284
0.071447 0.012536 0.016101
0.095745 0.017163 0.022841
0.128178 0.024582 0.031715
0.175760 0.033504 0.043554
0.244246 0.042008 0.057952
0.323542 0.052806 0.072536
0.400697 0.065310 0.093040
0.473122 0.079286 0.115169
0.537839 0.102173 0.145736
0.591664 0.133740 0.177247
0.635787 0.174727 0.213538
0.670151 0.219033 0.250179
0.692050 0.261427 0.284141
0.721602 0.320840 0.325308
0.755454 0.381555 0.369767
0.773531 0.415423 0.389165
0.783324 0.433314 0.395463
0.793657 0.453657 0.402396
0.804795 0.476498 0.408179
0.816926 0.500972 0.415118
0.827246 0.527995 0.422641
0.841102 0.555009 0.428612
0.855461 0.585443 0.433622
0.869875 0.615470 0.435681
0.879007 0.648849 0.437365
0.001225 0.009783 0.001641
0.002232 0.014836 0.002943
0.002647 0.016753 0.003479
0.002956 0.018183 0.003879
0.003211 0.019363 0.004209
0.002993 0.019734 0.004276
0.022117 0.019710 0.007266
0.045800 0.018892 0.010358
0.064764 0.020264 0.014748
0.086072 0.020949 0.018413
0.113616 0.024089 0.026718
0.151574 0.030300 0.039689
0.211168 0.041255 0.052854
0.287672 0.046192 0.067935
0.369147 0.060145 0.085333
0.444833 0.071733 0.104760
0.514055 0.091471 0.132837
0.573406 0.120787 0.163983
0.622168 0.162831 0.201932
0.664324 0.214128 0.242992
0.691260 0.262025 0.278842
0.722396 0.323012 0.322923
0.758239 0.387023 0.369118
0.778213 0.424197 0.392485
0.787779 0.440471 0.398881
0.796533 0.459896 0.404310
0.807377 0.481705 0.410019
0.818969 0.505275 0.416305
0.828731 0.531604 0.423562
0.842745 0.558082 0.428890
0.856522 0.587903 0.433938
0.870649 0.617376 0.435713
0.879544 0.650394 0.437457
0.006536 0.037796 0.012002
0.008441 0.044420 0.013917
0.009199 0.047053 0.014678
0.009768 0.049032 0.015250
0.010240 0.050673 0.015724
0.008566 0.047780 0.014219
0.018553 0.042693 0.010917
0.040858 0.041430 0.014000
0.061404 0.043393 0.017046
0.082326 0.044145 0.020876
0.106670 0.044171 0.025812
0.140408 0.048592 0.033007
0.191325 0.052950 0.046484
0.262207 0.059133 0.061017
0.342148 0.065001 0.075677
0.420585 0.074553 0.096930
0.492553 0.092117 0.123212
0.560214 0.120546 0.155731
0.612372 0.162408 0.194019
0.660339 0.215921 0.238421
0.693223 0.269336 0.276537
0.723844 0.327378 0.321106
0.760262 0.391124 0.366319
0.784327 0.433303 0.396682
0.792834 0.448565 0.402762
0.799682 0.466835 0.406129
0.810358 0.487715 0.412144
0.821574 0.510566 0.418100
0.830469 0.535830 0.424642
0.844678 0.561698 0.429218
0.857776 0.590807 0.434310
0.871566 0.619634 0.435751
0.880182 0.652229 0.437567
0.013454 0.064460 0.020503
0.013826 0.068043 0.021737
0.013975 0.069483 0.022233
0.014088 0.070570 0.022608
0.014182 0.071476 0.022920
0.012948 0.067485 0.018128
0.017167 0.062748 0.015694
0.038749 0.064072 0.020992
0.059747 0.064860 0.024220
0.077682 0.065046 0.025036
0.101899 0.066875 0.029769
0.131905 0.068877 0.034909
0.175433 0.071281 0.042562
0.239598 0.074581 0.053125
0.318859 0.079182 0.067477
0.398659 0.086756 0.087785
0.473690 0.101026 0.114086
0.544402 0.129188 0.150100
0.604191 0.168661 0.188721
0.657316 0.221941 0.233820
0.697909 0.281112 0.276471
0.726499 0.335117 0.319791
0.762291 0.395978 0.362645
0.789624 0.443050 0.398978
0.797295 0.459142 0.404070
0.803542 0.475306 0.408354
0.813907 0.495180 0.414593
0.824810 0.517148 0.420329
0.832688 0.541123 0.425953
0.847114 0.566254 0.429632
0.859325 0.594472 0.434518
0.872730 0.622503 0.435799
0.880994 0.654568 0.437708
0.018167 0.091135 0.028088
0.018928 0.093945 0.029236
0.019237 0.095082 0.029701
0.019470 0.095944 0.030053
0.019666 0.096664 0.030347
0.017526 0.088803 0.021647
0.019826 0.083715 0.021604
0.038255 0.084096 0.024492
0.057827 0.083681 0.028085
0.077225 0.082746 0.030891
0.096984 0.086510 0.031397
0.125563 0.086569 0.036531
0.160760 0.088744 0.042474
0.222540 0.092497 0.050367
0.297437 0.095512 0.060863
0.376626 0.100793 0.077337
0.455079 0.113699 0.103361
0.528247 0.137877 0.138781
0.593571 0.179070 0.183753
0.651134 0.231658 0.228622
0.705415 0.297022 0.278575
0.731289 0.346457 0.317924
0.764840 0.404344 0.359733
0.792944 0.452968 0.397717
0.802483 0.471843 0.405461
0.808851 0.486551 0.411543
0.817875 0.504480 0.417082
0.828796 0.525266 0.423072
0.836225 0.547676 0.426728
0.850168 0.571960 0.430152
0.861272 0.599088 0.434748
0.874203 0.626134 0.435861
0.882027 0.657539 0.437887
0.026806 0.123764 0.037892
0.027496 0.127205 0.038766
0.027777 0.128606 0.039122
0.027990 0.129671 0.039393
0.025945 0.124528 0.036392
0.023026 0.112182 0.026780
0.023423 0.105320 0.025120
0.036465 0.103823 0.028932
0.058520 0.105036 0.033531
0.077888 0.103306 0.036223
0.095913 0.105174 0.038756
0.120520 0.105712 0.039102
0.155708 0.107122 0.044208
0.208844 0.110774 0.052412
0.279151 0.113909 0.062167
0.356391 0.117751 0.073684
0.435607 0.127654 0.093546
0.513589 0.149429 0.125356
0.582822 0.189282 0.172296
0.646377 0.245780 0.226498
0.708230 0.314938 0.279854
0.740096 0.367434 0.318555
0.771037 0.416323 0.359335
0.798231 0.464490 0.396772
0.809789 0.487211 0.411456
0.816092 0.501408 0.416052
0.822677 0.515735 0.420100
0.832952 0.534981 0.425688
0.840581 0.555751 0.427684
0.853928 0.579054 0.430850
0.863713 0.604873 0.435038
0.876011 0.630763 0.436015
0.883334 0.661299 0.438114
0.035320 0.166080 0.049390
0.036152 0.170247 0.050180
0.036493 0.171950 0.050502
0.036752 0.173248 0.050748
0.031375 0.154945 0.038891
0.028932 0.142086 0.033663
0.028842 0.133706 0.033067
0.038817 0.131308 0.034381
0.059769 0.130600 0.038419
0.078535 0.128848 0.041685
0.097850 0.128463 0.045839
0.119871 0.129653 0.049318
0.150512 0.130950 0.050462
0.198511 0.133215 0.053736
0.264651 0.136028 0.063977
0.338821 0.139710 0.077079
0.418420 0.150339 0.094028
0.498953 0.169249 0.119741
0.573354 0.207563 0.161479
0.642237 0.266546 0.219384
0.710462 0.336055 0.277307
0.755513 0.397263 0.324576
0.780457 0.435711 0.360107
0.805694 0.480737 0.396232
0.819126 0.506376 0.417634
0.823485 0.518122 0.420429
0.830229 0.531508 0.424142
0.837462 0.546569 0.428323
0.845889 0.565600 0.428848
0.857957 0.587749 0.432417
0.866752 0.612071 0.435403
0.877989 0.636893 0.436693
0.884982 0.666036 0.438403
0.047687 0.234557 0.062864
0.048546 0.238967 0.063791
0.048994 0.240941 0.064224
0.046359 0.227333 0.056702
0.039956 0.197740 0.047318
0.037062 0.180937 0.043371
0.035246 0.170795 0.040419
0.042825 0.167004 0.042247
0.063176 0.165687 0.045180
0.083175 0.161465 0.048180
0.101428 0.160318 0.052190
0.121933 0.159617 0.056795
0.149783 0.160806 0.061007
0.188998 0.162881 0.060813
0.252257 0.166015 0.067403
0.325882 0.169433 0.078922
0.405261 0.178142 0.098095
0.486880 0.195836 0.123047
0.568159 0.236107 0.160653
0.642132 0.294492 0.212555
0.715724 0.362611 0.272880
0.774138 0.432424 0.330883
0.793367 0.464545 0.363709
0.813605 0.498804 0.397040
0.829081 0.528596 0.423452
0.831738 0.537113 0.424697
0.838831 0.549469 0.428029
0.844034 0.561239 0.430149
0.851783 0.578622 0.431217
0.862878 0.598374 0.434346
0.870252 0.620849 0.435912
0.880449 0.644516 0.437537
0.887046 0.671970 0.438766
0.067780 0.324176 0.083058
0.068635 0.327983 0.083950
0.068986 0.329548 0.084317
0.056837 0.281454 0.067552
0.050389 0.254542 0.059664
0.047313 0.234014 0.055533
0.046598 0.224769 0.052765
0.056103 0.219027 0.054819
0.073382 0.213700 0.057375
0.091940 0.209269 0.060298
0.108566 0.205383 0.064210
0.128248 0.203078 0.066032
0.153891 0.200031 0.070991
0.190375 0.203478 0.076646
0.246408 0.206597 0.078377
0.318749 0.209896 0.089876
0.397947 0.218735 0.109279
0.481604 0.238401 0.135280
0.566020 0.276153 0.173756
0.646214 0.330775 0.218031
0.721760 0.396580 0.269444
0.790900 0.469269 0.331355
0.809536 0.500319 0.366397
0.823927 0.524688 0.396214
0.838971 0.551445 0.424455
0.842115 0.559017 0.428886
0.848046 0.568861 0.430491
0.853043 0.579389 0.430952
0.858874 0.594227 0.433908
0.868088 0.611341 0.435766
0.873665 0.631213 0.436713
0.883483 0.653916 0.438577
0.888949 0.678947 0.438576
0.101068 0.426282 0.117549
0.102291 0.429756 0.118895
0.083741 0.380953 0.100357
0.072439 0.341213 0.086656
0.066518 0.319163 0.079383
0.061730 0.303544 0.074583
0.059609 0.294072 0.072373
0.067571 0.288591 0.071336
0.085028 0.282569 0.074796
0.104433 0.276019 0.078283
0.121526 0.269612 0.080242
0.141038 0.264144 0.083683
0.165371 0.260180 0.088307
0.196801 0.259645 0.094367
0.248523 0.260714 0.103145
0.316546 0.266064 0.108368
0.395279 0.277359 0.124417
0.482173 0.296330 0.155541
0.569684 0.331065 0.192079
0.657084 0.380363 0.234440
0.732961 0.442147 0.280596
0.797162 0.507618 0.326452
0.826784 0.544643 0.367328
0.838136 0.558772 0.398125
0.850119 0.577749 0.421368
0.855965 0.585851 0.433407
0.860299 0.592254 0.433471
0.864155 0.601052 0.434199
0.868159 0.613333 0.435404
0.873288 0.626968 0.436132
0.877781 0.643730 0.437666
0.886296 0.665391 0.439007
0.891202 0.687503 0.438249
0.146156 0.531898 0.164301
0.129452 0.493937 0.146868
0.105025 0.438176 0.123279
0.093970 0.408119 0.111496
0.086649 0.388455 0.104137
0.082924 0.376500 0.099305
0.085694 0.367842 0.097232
0.093344 0.360620 0.096968
0.109932 0.356165 0.100325
0.128391 0.351511 0.103969
0.143799 0.345538 0.105859
0.160598 0.338992 0.108529
0.183225 0.334894 0.112769
0.215151 0.331559 0.119771
0.262186 0.331095 0.132047
0.323960 0.335491 0.143904
0.401346 0.346930 0.156704
0.488388 0.366347 0.183874
0.581366 0.398827 0.220082
0.670213 0.442324 0.260224
0.746265 0.497779 0.304355
0.806151 0.552982 0.342107
0.843362 0.593397 0.365756
0.853662 0.599746 0.394227
0.861355 0.610488 0.420346
0.869032 0.616710 0.434269
0.870108 0.619167 0.436257
0.871423 0.626156 0.435993
0.876116 0.634202 0.436306
0.879228 0.645292 0.437887
0.883762 0.660471 0.438130
0.888832 0.679253 0.438695
0.893951 0.697962 0.437846
0.187346 0.630981 0.205522
0.147981 0.536906 0.166495
0.130667 0.499360 0.149196
0.120962 0.477731 0.139555
0.114892 0.463850 0.133270
0.111438 0.454233 0.129545
0.118506 0.446968 0.129131
0.125638 0.441117 0.129177
0.141871 0.437705 0.132492
0.158407 0.433303 0.136001
0.172794 0.427497 0.139251
0.187738 0.420618 0.139763
0.210299 0.414812 0.143601
0.240114 0.411326 0.152090
0.284239 0.411224 0.162857
0.345316 0.415829 0.179917
0.418094 0.426023 0.200243
0.502054 0.444491 0.217658
0.595868 0.475690 0.251716
0.683852 0.515085 0.292527
0.758959 0.558928 0.330386
0.818733 0.604546 0.360297
0.864213 0.645714 0.382321
0.867948 0.646846 0.389499
0.874691 0.648325 0.415323
0.879314 0.649012 0.434224
0.880868 0.649668 0.437804
0.880523 0.653465 0.437935
0.883468 0.658058 0.437259
0.886051 0.666887 0.439411
0.890090 0.679790 0.438115
0.892748 0.695331 0.437981
0.897502 0.710738 0.436596
0.204176 0.676245 0.223514
0.171746 0.587937 0.189472
0.159777 0.562982 0.178761
0.153366 0.548422 0.172066
0.149918 0.538879 0.168343
0.154607 0.533219 0.167452
0.159534 0.528773 0.166969
0.170775 0.524741 0.168754
0.185248 0.520182 0.171347
0.198460 0.516263 0.174105
0.210899 0.512883 0.177131
0.226183 0.506893 0.179545
0.246704 0.502050 0.183564
0.275635 0.499844 0.190419
0.317302 0.499152 0.201246
0.375279 0.501874 0.217717
0.444826 0.512479 0.236548
0.525092 0.530366 0.259908
0.615731 0.558214 0.288544
0.701124 0.591218 0.324309
0.773409 0.625931 0.352301
0.831083 0.659357 0.374998
0.879637 0.693267 0.394126
0.887878 0.698375 0.398787
0.886422 0.691916 0.403543
0.889521 0.686019 0.427303
0.891283 0.683124 0.437104
0.890723 0.683249 0.438111
0.892310 0.686022 0.438534
0.893674 0.692425 0.437900
0.895186 0.700628 0.436691
0.898528 0.713585 0.436687
0.901784 0.725964 0.435048
0.209106 0.689796 0.228061
0.191320 0.642946 0.210463
0.186292 0.629527 0.206067
0.182981 0.620855 0.203078
0.189439 0.615262 0.202162
0.194634 0.610668 0.201375
0.206018 0.608784 0.204115
0.216647 0.607274 0.206801
0.228198 0.605405 0.209567
0.237796 0.601768 0.210537
0.249433 0.597572 0.211796
0.264610 0.594227 0.214507
0.284800 0.591117 0.218706
0.313190 0.589142 0.225523
0.354875 0.590107 0.236507
0.411203 0.595363 0.252727
0.478188 0.604897 0.273452
0.554907 0.618798 0.299309
0.637388 0.639703 0.325687
0.718457 0.666539 0.349599
0.787782 0.690976 0.368574
0.841214 0.714944 0.388549
0.884378 0.739549 0.403906
0.902472 0.749566 0.408507
0.899847 0.739791 0.407873
0.898745 0.727652 0.413969
0.899447 0.719583 0.432625
0.898474 0.717452 0.434774
0.899775 0.716789 0.435217
0.899720 0.720462 0.435519
0.901245 0.725244 0.434360
0.903399 0.733275 0.431733
0.905172 0.744153 0.425843
0.218555 0.716378 0.237884
0.210613 0.694017 0.230124
0.212451 0.686607 0.228560
0.219627 0.683571 0.229263
0.228651 0.681564 0.230932
0.239944 0.680308 0.233562
0.249715 0.679234 0.235840
0.257638 0.678216 0.237638
0.264787 0.676920 0.239140
0.273549 0.675350 0.240989
0.285528 0.673585 0.243161
0.301477 0.671630 0.245663
0.322551 0.670747 0.250617
0.350302 0.670796 0.258198
0.390019 0.671659 0.269236
0.445482 0.677357 0.284730
0.508856 0.684419 0.305895
0.580406 0.698182 0.325825
0.656240 0.714983 0.345737
0.732633 0.733640 0.366002
0.797548 0.751999 0.383454
0.849222 0.769303 0.396741
0.889091 0.786250 0.408030
0.915123 0.797754 0.414108
0.913431 0.786862 0.414193
0.910649 0.771751 0.412013
0.905750 0.755576 0.420576
0.905129 0.750286 0.423806
0.904750 0.747851 0.423914
0.905372 0.747907 0.425322
0.906305 0.749978 0.423125
0.907720 0.756471 0.420737
0.908885 0.764103 0.417951
0.229058 0.747228 0.248918
0.233286 0.736622 0.247215
0.242070 0.734392 0.248424
0.257583 0.734882 0.252379
0.269964 0.735279 0.255534
0.279215 0.735129 0.257855
0.285849 0.734417 0.259469
0.291860 0.733777 0.260930
0.298828 0.733041 0.262621
0.307889 0.732409 0.264875
0.319814 0.732152 0.267943
0.334263 0.731851 0.271664
0.355877 0.732136 0.277776
0.384145 0.733200 0.285909
0.426385 0.737031 0.298469
0.475505 0.744160 0.309586
0.533318 0.753996 0.322708
0.598385 0.765828 0.339055
0.671763 0.779334 0.357345
0.741638 0.792861 0.374980
0.803671 0.805933 0.388368
0.853960 0.817290 0.400423
0.890703 0.827973 0.409094
0.922878 0.836140 0.415133
0.923500 0.829777 0.415565
0.919768 0.813958 0.416354
0.915234 0.795034 0.414581
0.912572 0.784226 0.414458
0.911717 0.780792 0.414218
0.910999 0.777826 0.413248
0.911431 0.778704 0.413515
0.912953 0.782064 0.413964
0.913774 0.785976 0.414332
0.240121 0.773814 0.259636
0.266503 0.772425 0.265291
0.285933 0.773602 0.270223
0.296233 0.773885 0.273084
0.304062 0.774042 0.275305
0.310728 0.774178 0.277197
0.316578 0.774301 0.278859
0.322343 0.774503 0.280428
0.329521 0.774833 0.282315
0.338466 0.775247 0.284668
0.349524 0.775764 0.287579
0.365702 0.777266 0.291750
0.387517 0.779829 0.297293
0.416097 0.783984 0.304082
0.454132 0.790756 0.312456
0.500021 0.798924 0.323073
0.553020 0.808532 0.334643
0.614163 0.819279 0.347983
0.681600 0.830645 0.363195
0.747011 0.841068 0.378397
0.804301 0.851472 0.390150
0.853693 0.857428 0.400811
0.890532 0.863537 0.406943
0.919101 0.869059 0.412258
0.930901 0.867002 0.414380
0.927486 0.852846 0.414686
0.924334 0.834095 0.414434
0.921592 0.817412 0.415487
0.919866 0.812629 0.414856
0.918913 0.808768 0.415509
0.919123 0.807402 0.414891
0.918905 0.807599 0.414971
0.920129 0.809615 0.415489
0.279251 0.799734 0.276435
0.311014 0.802893 0.284451
0.322131 0.804406 0.286551
0.330342 0.805516 0.288119
0.337540 0.806331 0.289916
0.343712 0.807030 0.291456
0.349162 0.807647 0.292816
0.354155 0.808213 0.294061
0.360007 0.808876 0.295520
0.367566 0.809789 0.297390
0.380751 0.812312 0.300404
0.397037 0.815436 0.304132
0.416958 0.819272 0.308697
0.445350 0.824240 0.315054
0.479991 0.830228 0.322791
0.521109 0.837818 0.332004
0.570053 0.846662 0.342011
0.626954 0.856611 0.353172
0.687685 0.867028 0.367612
0.748100 0.876464 0.379083
0.803568 0.883746 0.389150
0.849983 0.889775 0.398273
0.886669 0.894315 0.404826
0.915762 0.897176 0.411138
0.934229 0.896903 0.413002
0.933855 0.884801 0.414206
0.930997 0.868456 0.415105
0.928777 0.851094 0.415127
0.926060 0.844043 0.415547
0.925503 0.839329 0.414072
0.924857 0.835738 0.415420
0.924739 0.834046 0.414896
0.925100 0.833315 0.415174
0.319588 0.828235 0.291486
0.345346 0.832341 0.297257
0.355768 0.833992 0.299584
0.363513 0.835218 0.301313
0.369881 0.836225 0.302735
0.375845 0.837159 0.304023
0.382470 0.838179 0.305342
0.388564 0.839118 0.306554
0.395737 0.840225 0.307982
0.404780 0.841622 0.309781
0.416115 0.843378 0.312036
0.430228 0.845570 0.314842
0.450533 0.849577 0.319205
0.475560 0.854555 0.324602
0.506152 0.860689 0.330885
0.543588 0.868349 0.337589
0.587310 0.876556 0.346812
0.637555 0.885121 0.358846
0.694497 0.894997 0.369531
0.749249 0.902846 0.378222
0.801821 0.909903 0.389479
0.845682 0.914729 0.397338
0.882577 0.917946 0.402923
0.912547 0.919582 0.408237
0.935220 0.919184 0.413361
0.938800 0.910202 0.414334
0.935539 0.897716 0.414622
0.933355 0.881414 0.413198
0.931915 0.870431 0.414919
0.931398 0.865250 0.414034
0.930717 0.862192 0.414495
0.930138 0.860543 0.416024
0.930715 0.857877 0.414916
0.360215 0.854688 0.301958
0.383220 0.859091 0.307597
0.394813 0.861180 0.309974
0.403487 0.862746 0.311754
0.410658 0.864041 0.313226
0.416870 0.865164 0.314502
0.422405 0.866165 0.315640
0.427515 0.867090 0.316691
0.433552 0.868184 0.317933
0.442202 0.870137 0.319575
0.453354 0.872740 0.321661
0.467344 0.876006 0.324280
0.484780 0.880079 0.327543
0.506402 0.885010 0.331642
0.534053 0.889201 0.337756
0.567542 0.894301 0.345146
0.606195 0.901168 0.353219
0.650997 0.909475 0.362198
0.699458 0.917367 0.369385
0.749840 0.924030 0.380103
0.798363 0.929773 0.388462
0.840999 0.934442 0.395261
0.877146 0.936787 0.402305
0.904968 0.936380 0.408656
0.929524 0.935919 0.412987
0.940754 0.930676 0.416651
0.939700 0.919917 0.414436
0.937483 0.907266 0.413496
0.935474 0.895563 0.414220
0.935763 0.889743 0.413549
0.934027 0.886268 0.413337
0.933647 0.882993 0.414499
0.932734 0.880271 0.413147
0.383772 0.864610 0.308124
0.401712 0.868978 0.312343
0.411142 0.871423 0.314339
0.418821 0.873443 0.315921
0.425199 0.875121 0.317235
0.430746 0.876582 0.318377
0.435704 0.877888 0.319399
0.440297 0.879097 0.320345
0.445740 0.880532 0.321467
0.452660 0.882356 0.322893
0.461426 0.884668 0.324699
0.472480 0.887585 0.326977
0.487365 0.891033 0.330070
0.505985 0.895319 0.333941
0.529014 0.900624 0.338729
0.557160 0.906999 0.344271
0.591085 0.914415 0.350180
0.631129 0.922864 0.357402
0.676259 0.931082 0.366464
