output/AppleLog_display/AppleLog_to_Velvia_33grid.cube
TITLE "AppleLog_to_Velvia"
# Input: Apple Log (BT.2020 primaries, D65)
# Output: BT.709 / Gamma 2.2 (display-referred)
# Use: Display LUT for iPhone 15/16 Pro Apple Log footage
# Source: FLog2C_to_Velvia_65grid_V.1.00.cube
# Generated from Fujifilm GFX ETERNA 55 F-Log2C LUT
LUT_3D_SIZE 33
0.000000 0.000000 0.000000
0.000000 0.000000 0.000000
0.000000 0.000000 0.000000
0.000000 0.000000 0.000000
0.000000 0.000000 0.000000
0.000000 0.000000 0.000000
0.000000 0.000000 0.000000
0.000000 0.000000 0.000000
0.002774 0.000053 0.000017
0.039215 0.000406 0.000292
0.120039 0.000392 0.001474
0.256506 0.000097 0.000299
0.424372 0.000095 0.000688
0.597849 0.000429 0.014335
0.775632 0.000050 0.049919
0.961433 0.000280 0.127894
0.999971 0.023548 0.259860
0.999761 0.070053 0.410997
0.999892 0.139283 0.484319
0.999914 0.224425 0.488284
0.999873 0.285442 0.492244
0.999899 0.286792 0.492290
0.999899 0.286792 0.492290
0.999899 0.286792 0.492290
0.999899 0.286792 0.492290
0.999899 0.286792 0.492290
0.999409 0.313535 0.468622
0.999205 0.350958 0.429647
0.999921 0.390240 0.385153
0.999626 0.428920 0.337154
0.999752 0.464308 0.288257
0.999087 0.501623 0.231822
0.999826 0.537819 0.169134
0.000000 0.000000 0.000000
0.000000 0.000000 0.000000
0.000000 0.000000 0.000000
0.000000 0.000000 0.000000
0.000000 0.000000 0.000000
0.000000 0.000000 0.000000
0.000000 0.000000 0.000000
0.001152 0.000042 0.000006
0.022414 0.000312 0.000101
0.076391 0.001193 0.000274
0.172100 0.000077 0.002300
0.309086 0.000207 0.000727
0.469569 0.000212 0.001410
0.632739 0.000269 0.019434
0.803984 0.000051 0.058528
0.970089 0.000326 0.143389
0.999966 0.028200 0.272600
0.999729 0.072970 0.422142
0.999875 0.144084 0.484687
0.999877 0.228412 0.488597
0.999896 0.286643 0.492285
0.999899 0.286792 0.492290
0.999899 0.286792 0.492290
0.999899 0.286792 0.492290
0.999853 0.287064 0.492011
0.999608 0.315668 0.464644
0.999268 0.347654 0.431742
0.999955 0.379199 0.398570
0.999884 0.411193 0.358506
0.999671 0.444811 0.316146
0.999649 0.477212 0.270308
0.998882 0.512521 0.216201
0.999904 0.545922 0.153881
0.000000 0.000000 0.000000
0.000000 0.000000 0.000000
0.000000 0.000000 0.000000
0.000000 0.000000 0.000000
0.000000 0.000000 0.000000
0.000000 0.000000 0.000000
0.000000 0.000000 0.000000
0.004271 0.000069 0.000023
0.033727 0.000289 0.000284
0.091441 0.000796 0.000624
0.193303 0.000054 0.001374
0.330216 0.000154 0.000569
0.487114 0.000264 0.002179
0.646649 0.000205 0.021466
0.815388 0.000052 0.061991
0.973594 0.000344 0.149664
0.999963 0.030113 0.278426
0.999716 0.074162 0.426696
0.999868 0.146053 0.484838
0.999862 0.230050 0.488725
0.999805 0.284387 0.492262
0.999915 0.284343 0.492761
0.999899 0.286792 0.492290
0.999899 0.286792 0.492290
0.999539 0.302943 0.477796
0.999509 0.333321 0.449199
0.999420 0.359546 0.420400
0.999953 0.390035 0.386181
0.999917 0.419761 0.347373
0.999613 0.451449 0.306910
0.999577 0.482520 0.261754
0.998861 0.516651 0.209287
0.999934 0.549175 0.147755
0.000000 0.000000 0.000000
0.000000 0.000000 0.000000
0.000000 0.000000 0.000000
0.000000 0.000000 0.000000
0.000000 0.000000 0.000000
0.000000 0.000000 0.000000
0.000090 0.000024 0.000000
0.010785 0.000209 0.000010
0.045000 0.000625 0.000241
0.102954 0.000520 0.000906
0.208905 0.000036 0.000692
0.345916 0.000113 0.000451
0.499889 0.000310 0.003420
0.657120 0.000157 0.022996
0.824010 0.000053 0.064610
0.976253 0.000358 0.154424
0.999960 0.031569 0.282857
0.999706 0.075070 0.430167
0.999863 0.147555 0.484953
0.999850 0.191506 0.486841
0.999933 0.230913 0.490008
0.999865 0.274760 0.492421
0.999899 0.286792 0.492290
0.999624 0.293234 0.487050
0.999620 0.318736 0.460776
0.999312 0.343501 0.437148
0.999651 0.369431 0.409244
0.999913 0.397970 0.376559
0.999940 0.426049 0.339198
0.999570 0.456372 0.300061
0.999524 0.486488 0.255356
0.998875 0.519659 0.203752
0.999958 0.551633 0.143128
0.000000 0.000000 0.000000
0.000000 0.000000 0.000000
0.000000 0.000000 0.000000
0.000000 0.000000 0.000000
0.000000 0.000000 0.000000
0.000000 0.000000 0.000000
0.000964 0.000041 0.000005
0.015908 0.000319 0.000001
0.055009 0.001003 0.000153
0.117895 0.000408 0.001403
0.221640 0.000022 0.000135
0.358824 0.000081 0.000354
0.510452 0.000348 0.004445
0.665874 0.000129 0.024514
0.831194 0.000053 0.066791
0.978474 0.000370 0.158400
0.999958 0.032787 0.286567
0.999789 0.066144 0.401659
0.999868 0.101211 0.466346
0.999833 0.147289 0.486873
0.999384 0.197397 0.488106
0.999402 0.248224 0.493177
0.999947 0.283043 0.490872
0.999746 0.306163 0.475908
0.999432 0.330375 0.448661
0.999165 0.351524 0.427666
0.999847 0.377477 0.399984
0.999850 0.404439 0.368273
0.999917 0.431188 0.332318
0.999534 0.460414 0.294439
0.999479 0.489765 0.250071
0.998886 0.522156 0.199159
0.999949 0.553808 0.138956
0.000000 0.000000 0.000000
0.000000 0.000000 0.000000
0.000000 0.000000 0.000000
0.000000 0.000000 0.000000
0.000000 0.000000 0.000000
0.000000 0.000000 0.000000
0.002649 0.000052 0.000016
0.022624 0.000312 0.000104
0.063447 0.001323 0.000078
0.130612 0.000313 0.001825
0.234553 0.000043 0.000094
0.369960 0.000052 0.000270
0.519607 0.000381 0.005334
0.673574 0.000123 0.026186
0.828757 0.000054 0.065310
0.956291 0.000003 0.136589
0.999897 0.007322 0.221044
0.999285 0.045346 0.326510
0.999521 0.074660 0.425141
0.999728 0.118141 0.482683
0.999635 0.173502 0.486831
0.999443 0.231754 0.488838
0.999915 0.288347 0.479090
0.999660 0.317823 0.464562
0.999097 0.339502 0.439520
0.999187 0.359644 0.418747
0.999989 0.384221 0.392199
0.999795 0.409929 0.361236
0.999884 0.435595 0.326355
0.999505 0.463897 0.289566
0.999441 0.492604 0.245492
0.998896 0.524326 0.195166
0.999907 0.555861 0.134936
0.000000 0.000000 0.000000
0.000000 0.000000 0.000000
0.000000 0.000000 0.000000
0.000000 0.000000 0.000000
0.000000 0.000000 0.000000
0.000000 0.000000 0.000000
0.004172 0.000111 0.000059
0.026363 0.000401 0.000176
0.065075 0.001362 0.000151
0.127899 0.000705 0.001845
0.222161 0.000018 0.000983
0.341506 0.000018 0.000086
0.470379 0.000077 0.003685
0.604784 0.000039 0.012550
0.740289 0.000096 0.039501
0.883863 0.000016 0.088437
0.994276 0.002531 0.170860
0.999940 0.027994 0.272552
0.999594 0.061590 0.383207
0.999369 0.100246 0.466306
0.999926 0.157031 0.483185
0.999792 0.228753 0.474079
0.999836 0.294592 0.466539
0.999262 0.327741 0.453303
0.998989 0.347358 0.431983
0.999206 0.366615 0.411079
0.999843 0.389833 0.385373
0.999747 0.414736 0.355072
0.999855 0.439484 0.321094
0.999501 0.466994 0.284837
0.999406 0.495131 0.241414
0.998905 0.526265 0.191599
0.999869 0.557700 0.131334
0.000051 0.000051 0.000051
0.000476 0.000540 0.000467
0.000672 0.000766 0.000658
0.000819 0.000934 0.000801
0.000939 0.001073 0.000919
0.000899 0.001365 0.000914
0.002092 0.001677 0.000234
0.012505 0.000985 0.000142
0.043451 0.001355 0.000368
0.094300 0.001213 0.000191
0.175346 0.000637 0.000854
0.284818 0.000045 0.001778
0.411163 0.000267 0.002695
0.543868 0.000023 0.007032
0.678462 0.000033 0.025248
0.824716 0.000164 0.066305
0.959008 0.000012 0.134443
0.999666 0.011991 0.232840
0.999640 0.054648 0.344357
0.999445 0.098076 0.435709
0.999778 0.162612 0.466368
0.999795 0.234043 0.457368
0.999729 0.301023 0.454009
0.999179 0.336383 0.444118
0.999051 0.354422 0.425509
0.999225 0.372848 0.404215
0.999712 0.394899 0.379214
0.999685 0.418991 0.349540
0.999828 0.443044 0.316277
0.999497 0.469842 0.280488
0.999374 0.497464 0.237650
0.998913 0.528060 0.188296
0.999834 0.559406 0.127992
0.000152 0.006147 0.000021
0.000079 0.008811 0.000011
0.000050 0.009869 0.000007
0.000028 0.010665 0.000004
0.000010 0.011325 0.000001
0.000024 0.008131 0.000358
0.000014 0.007470 0.000399
0.004382 0.005230 0.000016
0.024068 0.005918 0.000000
0.066805 0.005390 0.000003
0.138565 0.004248 0.000147
0.233282 0.002602 0.000005
0.360467 0.000121 0.000021
0.493725 0.000027 0.001507
0.631317 0.000019 0.007365
0.776889 0.000023 0.033287
0.916901 0.000061 0.091470
0.999952 0.008723 0.177023
0.999857 0.063551 0.284589
0.999806 0.110096 0.385989
0.999597 0.177782 0.440016
0.999832 0.241514 0.437304
0.999649 0.306540 0.437477
0.999525 0.346037 0.434861
0.999119 0.362427 0.418193
0.999278 0.379825 0.396273
0.999562 0.400749 0.372104
0.999559 0.423581 0.343343
0.999797 0.447213 0.310635
0.999493 0.473194 0.275371
0.999336 0.500220 0.233203
0.998923 0.530186 0.184383
0.999793 0.561433 0.124024
0.000275 0.025225 0.000406
0.000189 0.029354 0.000244
0.000155 0.031013 0.000180
0.000129 0.032266 0.000131
0.000107 0.033310 0.000090
0.000050 0.027108 0.000181
0.000100 0.022569 0.000156
0.000603 0.020794 0.000260
0.011303 0.019161 0.000694
0.044284 0.017367 0.000310
0.105398 0.016879 0.000061
0.194482 0.015761 0.000135
0.317734 0.011307 0.000374
0.447442 0.006491 0.000268
0.590691 0.001110 0.000036
0.732258 0.003467 0.006154
0.868878 0.007260 0.035747
0.995117 0.025325 0.108635
0.999787 0.079087 0.208561
0.999767 0.131342 0.315745
0.999736 0.197051 0.401556
0.999842 0.252764 0.411003
0.999627 0.313133 0.416411
0.999792 0.356626 0.420939
0.999512 0.373546 0.405343
0.999342 0.388340 0.386590
0.999486 0.408090 0.363227
0.999404 0.429296 0.335634
0.999758 0.452443 0.303544
0.999487 0.477418 0.268922
0.999345 0.503795 0.227269
0.998935 0.532888 0.179412
0.999740 0.564016 0.118967
0.000097 0.067530 0.000509
0.000121 0.073561 0.000526
0.000131 0.076003 0.000533
0.000139 0.077854 0.000538
0.000145 0.079401 0.000542
0.000143 0.062974 0.000121
0.000693 0.052730 0.000050
0.000248 0.048301 0.000864
0.003411 0.044436 0.000417
0.025776 0.039610 0.000185
0.076164 0.040190 0.000870
0.158269 0.039249 0.000210
0.270011 0.037377 0.000205
0.405036 0.033688 0.000424
0.546845 0.028958 0.000019
0.686361 0.028515 0.000041
0.819783 0.040370 0.002396
0.960039 0.061256 0.036271
0.999199 0.101240 0.122758
0.999738 0.158377 0.231609
0.999854 0.222740 0.342037
0.999516 0.269254 0.376242
0.999769 0.323440 0.388572
0.999896 0.367704 0.400308
0.999974 0.386860 0.389611
0.999348 0.399500 0.373620
0.999704 0.417432 0.352051
0.999217 0.436354 0.326125
0.999722 0.459050 0.294324
0.999479 0.482711 0.260840
0.999364 0.508310 0.219756
0.998950 0.536308 0.173119
0.999673 0.567299 0.112541
0.000047 0.137394 0.000002
0.000084 0.145229 0.000002
0.000100 0.148419 0.000002
0.000111 0.150844 0.000002
0.000062 0.139120 0.000150
0.000013 0.112274 0.000025
0.000542 0.097374 0.000033
0.000119 0.090523 0.000198
0.000312 0.085489 0.000093
0.008757 0.081237 0.000003
0.049398 0.079089 0.000084
0.124517 0.076600 0.000268
0.231015 0.075876 0.000165
0.367181 0.071813 0.000602
0.502589 0.070477 0.000178
0.645456 0.070708 0.000014
0.773053 0.083969 0.000172
0.909295 0.107901 0.000661
0.995514 0.142313 0.035245
0.999508 0.192495 0.142681
0.999773 0.250945 0.264238
0.999969 0.293730 0.332625
0.999843 0.337672 0.354441
0.999291 0.380093 0.374770
0.999591 0.401016 0.370905
0.999243 0.414099 0.356262
0.999963 0.428714 0.338551
0.999099 0.445697 0.313407
0.999679 0.467199 0.282959
0.999475 0.489339 0.250728
0.999389 0.513966 0.210348
0.998987 0.540757 0.164873
0.999589 0.571456 0.104407
0.000186 0.239863 0.000085
0.000159 0.249198 0.000139
0.000148 0.253014 0.000161
0.000140 0.255922 0.000177
0.000250 0.217227 0.000030
0.000007 0.185253 0.000505
0.000017 0.166609 0.000230
0.000001 0.155965 0.000315
0.000129 0.145982 0.000407
0.002740 0.139864 0.000115
0.024933 0.134115 0.000275
0.086057 0.130596 0.000625
0.187973 0.126674 0.000124
0.324952 0.123668 0.000129
0.465493 0.122822 0.000274
0.601381 0.123714 0.000068
0.726762 0.142619 0.000032
0.857666 0.164369 0.000068
0.988820 0.197735 0.000145
0.999116 0.238404 0.039347
0.999586 0.287550 0.165478
0.999907 0.330107 0.269312
0.999621 0.358768 0.307246
0.999147 0.397020 0.337403
0.999336 0.418948 0.348484
0.999403 0.430629 0.335585
0.999501 0.443094 0.319884
0.999036 0.457480 0.297279
0.999625 0.477150 0.269093
0.999559 0.498066 0.237498
0.999421 0.521001 0.198649
0.999141 0.547214 0.152544
0.999483 0.576695 0.094158
0.000007 0.374759 0.000240
0.000016 0.382260 0.000230
0.000024 0.385469 0.000233
0.000395 0.363063 0.000524
0.000031 0.309704 0.000062
0.000043 0.277245 0.000043
0.000018 0.255888 0.000040
0.000147 0.244445 0.000573
0.000078 0.233216 0.000050
0.000153 0.222863 0.000006
0.003939 0.214411 0.000160
0.047202 0.207257 0.000071
0.142386 0.202287 0.000764
0.272263 0.197382 0.000098
0.418725 0.193067 0.000228
0.555819 0.195994 0.000017
0.680681 0.209856 0.000163
0.806301 0.229502 0.000005
0.950184 0.256568 0.000004
0.999544 0.289630 0.001580
0.999666 0.328504 0.048360
0.999757 0.368369 0.195229
0.999837 0.388387 0.247588
0.999417 0.416977 0.290098
0.999309 0.440030 0.320778
0.999738 0.449277 0.310557
0.999292 0.459979 0.296219
0.999194 0.472123 0.276967
0.999675 0.488797 0.250595
0.999663 0.508728 0.221355
0.999439 0.529790 0.183701
0.999332 0.555248 0.137208
0.999351 0.583263 0.081318
0.000415 0.510085 0.000474
0.000435 0.515215 0.000491
0.000444 0.517324 0.000498
0.000024 0.451167 0.000046
0.000019 0.408271 0.000028
0.000018 0.373862 0.000069
0.000266 0.359389 0.000902
0.000054 0.346715 0.000147
0.000014 0.334307 0.000339
0.000006 0.323500 0.000183
0.000002 0.313004 0.000013
0.007807 0.299187 0.000021
0.084993 0.294482 0.000304
0.214709 0.288881 0.000220
0.365117 0.281458 0.000049
0.506592 0.280400 0.000183
0.635885 0.288000 0.000008
0.759406 0.302716 0.000066
0.893449 0.321985 0.000010
0.992538 0.346252 0.000073
0.999286 0.376159 0.008180
0.999775 0.410170 0.084311
0.999127 0.426228 0.173996
0.999760 0.444463 0.231004
0.999260 0.463487 0.279884
0.999979 0.470544 0.279180
0.999826 0.479409 0.265184
0.999614 0.489961 0.251914
0.999741 0.502858 0.228149
0.999586 0.521663 0.200044
0.999379 0.540912 0.163650
0.999569 0.565159 0.118296
0.999365 0.591120 0.064069
0.000115 0.625944 0.000500
0.000100 0.629544 0.000491
0.000091 0.576157 0.000329
0.000055 0.530413 0.000239
0.000441 0.502118 0.000120
0.000062 0.480648 0.000284
0.000153 0.468019 0.000035
0.000031 0.458140 0.000056
0.000043 0.446909 0.000156
0.000043 0.434946 0.000144
0.000179 0.423201 0.000371
0.002128 0.411781 0.000717
0.031889 0.402334 0.000736
0.141682 0.390664 0.000121
0.305349 0.377074 0.000005
0.453463 0.370877 0.000003
0.589466 0.371663 0.000219
0.713507 0.379455 0.000014
0.840302 0.392166 0.000002
0.977265 0.408938 0.000026
0.999093 0.429797 0.000000
0.999062 0.456513 0.003674
0.999203 0.470880 0.081975
0.999944 0.476928 0.154160
0.999363 0.491728 0.216435
0.999736 0.496401 0.239069
0.999193 0.501715 0.231447
0.999425 0.510807 0.217976
0.999830 0.521905 0.196641
0.999198 0.537156 0.172047
0.999309 0.554346 0.139439
0.999719 0.576845 0.094337
0.999408 0.600771 0.042594
0.000231 0.732124 0.000579
0.000425 0.695280 0.000160
0.000311 0.638852 0.000084
0.000092 0.608283 0.000242
0.000273 0.586985 0.000435
0.000209 0.573430 0.000538
0.000086 0.562896 0.000465
0.000024 0.553512 0.000228
0.000124 0.545183 0.000142
0.000216 0.536255 0.000088
0.000156 0.526801 0.000029
0.000000 0.517283 0.000042
0.005130 0.506870 0.000351
0.069978 0.493359 0.000385
0.229363 0.476492 0.000223
0.399410 0.463665 0.000307
0.540925 0.457759 0.000115
0.668713 0.456982 0.000355
0.794970 0.463017 0.000043
0.936196 0.473949 0.000040
0.999543 0.484456 0.000115
0.999519 0.506263 0.000274
0.999381 0.520383 0.004840
0.999457 0.519234 0.061089
0.999268 0.524854 0.135306
0.998963 0.525645 0.186107
0.999213 0.530095 0.185515
0.999456 0.534377 0.175735
0.999600 0.543725 0.156573
0.999360 0.555865 0.135727
0.999184 0.570777 0.104314
0.999756 0.590548 0.064541
0.999463 0.612561 0.016333
0.000013 0.836362 0.000902
0.000134 0.739758 0.000229
0.000000 0.701602 0.000635
0.000083 0.679820 0.000051
0.000162 0.665762 0.000238
0.000123 0.655524 0.000608
0.000097 0.648076 0.000391
0.000082 0.641753 0.000225
0.000128 0.635605 0.000139
0.000169 0.628126 0.000210
0.000183 0.619065 0.000609
0.000028 0.609821 0.000829
0.000054 0.601632 0.000817
0.012421 0.589036 0.000478
0.137448 0.571348 0.000153
0.322777 0.554701 0.000153
0.484651 0.542219 0.000220
0.618878 0.535709 0.000030
0.745180 0.535326 0.000224
0.882110 0.530368 0.000444
0.988508 0.527485 0.000135
0.999317 0.542375 0.000066
0.999015 0.571051 0.000037
0.999165 0.568508 0.005729
0.999261 0.566563 0.026467
0.999570 0.560820 0.114508
0.999416 0.559851 0.127631
0.999183 0.563403 0.122257
0.999255 0.569090 0.106831
0.999767 0.578454 0.090334
0.999228 0.590704 0.061601
0.999768 0.607623 0.033590
0.999233 0.627195 0.007550
0.000081 0.884995 0.000431
0.000002 0.791975 0.000545
0.000037 0.767705 0.000357
0.000203 0.753106 0.000911
0.000661 0.741831 0.001340
0.000414 0.735626 0.000754
0.000107 0.730883 0.000118
0.000229 0.724816 0.000138
0.000468 0.717500 0.000308
0.000573 0.710446 0.000428
0.000564 0.703482 0.000499
0.000159 0.695921 0.000516
0.000007 0.688773 0.000701
0.000115 0.679014 0.000379
0.059954 0.664327 0.000019
0.233720 0.643138 0.000064
0.419830 0.626650 0.000051
0.567339 0.612450 0.000009
0.697316 0.599074 0.000056
0.830775 0.587255 0.000003
0.969331 0.578273 0.000150
0.999383 0.577605 0.000031
0.999246 0.598930 0.000001
0.999517 0.617449 0.000001
0.999447 0.613595 0.000338
0.998948 0.602770 0.019510
0.999470 0.595380 0.052741
0.999059 0.596243 0.054002
0.999077 0.599233 0.044985
0.999811 0.605807 0.037178
0.999858 0.615307 0.009889
0.999744 0.628690 0.003298
0.998910 0.644682 0.000052
0.000023 0.903376 0.000132
0.000006 0.849762 0.000453
0.000031 0.835986 0.000734
0.000093 0.826630 0.000539
0.000043 0.819498 0.000374
0.000002 0.813654 0.000243
0.000000 0.808789 0.000503
0.000000 0.804483 0.000761
0.000000 0.799589 0.000962
0.000000 0.793593 0.000507
0.000000 0.786547 0.000049
0.000000 0.779486 0.000507
0.000000 0.771112 0.000594
0.000000 0.761862 0.000279
0.013073 0.751360 0.000200
0.113495 0.734207 0.000524
0.328585 0.708143 0.000034
0.504393 0.681676 0.000004
0.646693 0.661913 0.000344
0.776924 0.647106 0.000060
0.921304 0.631811 0.000050
0.996835 0.623530 0.000019
0.999305 0.627387 0.000054
0.999333 0.643730 0.000003
0.999012 0.651678 0.000001
0.999091 0.650385 0.000291
0.999359 0.636138 0.002831
0.999636 0.633508 0.002108
0.999280 0.633803 0.001880
0.999341 0.636371 0.000058
0.999371 0.643106 0.001217
0.999390 0.653440 0.000076
0.998891 0.667281 0.000000
0.000000 0.939925 0.000354
0.000054 0.908729 0.000253
0.000085 0.898641 0.000415
0.000026 0.892259 0.000177
0.000006 0.887374 0.000163
0.000019 0.883439 0.000341
0.000029 0.880046 0.000495
0.000035 0.876939 0.000556
0.000037 0.873231 0.000449
0.000038 0.868689 0.000314
0.000036 0.863757 0.000200
0.000031 0.858543 0.000129
0.000046 0.851416 0.000235
0.000058 0.843119 0.000395
0.000885 0.835708 0.000311
0.032497 0.821933 0.000411
0.213309 0.785489 0.000011
0.426054 0.752645 0.000006
0.584680 0.728691 0.000052
0.722314 0.707657 0.000015
0.862012 0.689879 0.000000
0.981634 0.675119 0.000016
0.999003 0.670045 0.000137
0.998922 0.679788 0.000006
0.999418 0.676761 0.000003
0.998917 0.678245 0.000005
0.999298 0.678379 0.000094
0.999538 0.672924 0.000003
0.999268 0.671646 0.000256
0.999441 0.670410 0.000356
0.998969 0.675631 0.000006
0.999491 0.678542 0.000010
0.999327 0.686008 0.000019
0.000000 0.985655 0.000794
0.000080 0.967029 0.000428
0.000128 0.960513 0.000661
0.000071 0.955778 0.000397
0.000026 0.952011 0.000189
0.000007 0.948706 0.000164
0.000012 0.945663 0.000322
0.000017 0.942913 0.000464
0.000022 0.939736 0.000628
0.000024 0.936004 0.000746
0.000014 0.931800 0.000731
0.000002 0.926718 0.000708
0.000000 0.920706 0.000751
0.000000 0.913726 0.000681
0.000000 0.905941 0.000091
0.000029 0.896787 0.000163
0.103488 0.868311 0.000148
0.315512 0.829627 0.000030
0.512248 0.797961 0.000012
0.660304 0.773956 0.000125
0.799916 0.753463 0.000243
0.947287 0.732955 0.000000
0.999307 0.721771 0.000150
0.998668 0.723973 0.000011
0.999250 0.717328 0.000016
0.999440 0.704426 0.000031
0.999759 0.700149 0.000075
0.999036 0.698449 0.000134
0.998661 0.695066 0.000004
0.999116 0.695031 0.000008
0.999311 0.694722 0.000132
0.999546 0.697076 0.000348
0.999511 0.699572 0.000045
0.000002 0.999544 0.000305
0.000015 0.997947 0.000341
0.000024 0.997290 0.000344
0.000017 0.996830 0.000319
0.000011 0.996478 0.000295
0.000006 0.996192 0.000276
0.000002 0.995954 0.000260
0.000000 0.995758 0.000253
0.000000 0.995552 0.000254
0.000000 0.995315 0.000255
0.000000 0.995051 0.000256
0.000000 0.993171 0.000316
0.000000 0.989566 0.000439
0.000010 0.984629 0.000578
0.000038 0.977693 0.000718
0.000017 0.969946 0.000312
0.016639 0.952545 0.000034
0.157472 0.918583 0.000017
0.410596 0.878413 0.000213
0.588273 0.848290 0.000126
0.733519 0.823678 0.000000
0.882173 0.801136 0.000000
0.986206 0.782162 0.000021
0.999783 0.776390 0.000317
0.999404 0.772310 0.000090
0.999215 0.752941 0.000164
0.999615 0.729216 0.000088
0.999077 0.717773 0.000297
0.999604 0.713522 0.000101
0.999517 0.712216 0.000016
0.999198 0.710367 0.000047
0.999379 0.710969 0.000247
0.998877 0.712737 0.000056
0.000000 1.000000 0.000285
0.000000 1.000000 0.000285
0.000000 1.000000 0.000285
0.000000 1.000000 0.000285
0.000000 1.000000 0.000285
0.000000 1.000000 0.000285
0.000000 1.000000 0.000285
0.000000 1.000000 0.000285
0.000000 1.000000 0.000285
0.000000 1.000000 0.000285
0.000000 1.000000 0.000285
0.000000 1.000000 0.000285
0.000000 1.000000 0.000285
0.000000 1.000000 0.000285
0.000000 1.000000 0.000285
0.000000 1.000000 0.000285
0.010310 0.996350 0.000257
0.068737 0.985602 0.000263
0.263814 0.963583 0.000413
0.496835 0.926710 0.000079
0.660790 0.899076 0.000332
0.812722 0.873510 0.000142
0.961920 0.850108 0.000017
0.998716 0.836397 0.000006
0.999023 0.829561 0.000000
0.999274 0.807738 0.000000
0.999344 0.779332 0.000019
0.999052 0.752160 0.000012
0.999654 0.741247 0.000011
0.998450 0.735228 0.000000
0.999364 0.732593 0.000223
0.999223 0.730223 0.000107
0.999403 0.731598 0.000057
0.000000 1.000000 0.000285
0.000000 1.000000 0.000285
0.000000 1.000000 0.000285
0.000000 1.000000 0.000285
0.000000 1.000000 0.000285
0.000000 1.000000 0.000285
0.000000 1.000000 0.000285
0.000000 1.000000 0.000285
0.000000 1.000000 0.000285
0.000000 1.000000 0.000285
0.000000 1.000000 0.000285
0.000000 1.000000 0.000285
0.000000 1.000000 0.000285
0.000000 1.000000 0.000285
0.000000 1.000000 0.000285
0.000000 1.000000 0.000285
0.000000 1.000000 0.000285
0.009900 1.000000 0.000328
0.129253 1.000000 0.000843
0.377208 0.985001 0.000535
0.579312 0.966578 0.000208
0.737455 0.941808 0.000054
0.894504 0.916659 0.000237
0.989705 0.895175 0.000049
0.999342 0.882493 0.000277
0.999772 0.861736 0.000000
0.998900 0.833365 0.000086
0.999716 0.803114 0.000673
0.999501 0.783445 0.000153
0.999011 0.775662 0.000008
0.999350 0.769345 0.000028
0.999502 0.764576 0.000121
0.999486 0.762258 0.000108
0.000000 1.000000 0.000285
0.000000 1.000000 0.000285
0.000000 1.000000 0.000285
0.000000 1.000000 0.000285
0.000000 1.000000 0.000285
0.000000 1.000000 0.000285
0.000000 1.000000 0.000285
0.000000 1.000000 0.000285
0.000000 1.000000 0.000285
0.000000 1.000000 0.000285
0.000000 1.000000 0.000285
0.000000 1.000000 0.000285
0.000000 1.000000 0.000285
0.000000 1.000000 0.000285
0.000000 1.000000 0.000285
0.000000 1.000000 0.000285
0.000000 1.000000 0.000285
0.000038 0.999999 0.000284
0.000664 0.999986 0.000274
0.212610 0.999865 0.000112
0.461174 0.999765 0.000019
0.652560 0.990135 0.000060
0.816914 0.970018 0.000150
0.960414 0.944579 0.000022
0.998927 0.925101 0.000016
0.999444 0.907905 0.000259
0.998925 0.883794 0.000016
0.998961 0.854909 0.000288
0.999007 0.830095 0.000106
0.999224 0.819129 0.000006
0.998983 0.812503 0.000258
0.999533 0.805330 0.000020
0.998882 0.801941 0.000018
0.000000 1.000000 0.000285
0.000000 1.000000 0.000285
0.000000 1.000000 0.000285
0.000000 1.000000 0.000285
0.000000 1.000000 0.000285
0.000000 1.000000 0.000285
0.000000 1.000000 0.000285
0.000000 1.000000 0.000285
0.000000 1.000000 0.000285
0.000000 1.000000 0.000285
0.000000 1.000000 0.000285
0.000000 1.000000 0.000285
0.000000 1.000000 0.000285
0.000000 1.000000 0.000285
0.000000 1.000000 0.000285
0.000000 1.000000 0.000285
0.000000 1.000000 0.000285
0.000000 1.000000 0.000285
0.000000 1.000000 0.000285
0.023332 0.999998 0.000326
