output/AppleLog_display/AppleLog_to_ASTIA_33grid.cube
TITLE "AppleLog_to_ASTIA"
# Input: Apple Log (BT.2020 primaries, D65)
# Output: BT.709 / Gamma 2.2 (display-referred)
# Use: Display LUT for iPhone 15/16 Pro Apple Log footage
# Source: FLog2C_to_ASTIA_65grid_V.1.00.cube
# Generated from Fujifilm GFX ETERNA 55 F-Log2C LUT
LUT_3D_SIZE 9
0.000334 0.000257 0.000073
0.000334 0.000257 0.000073
0.024300 0.000909 0.000112
0.396931 0.003200 0.009193
0.966802 0.000578 0.251282
0.999497 0.097925 0.539790
0.999461 0.099723 0.540077
0.999554 0.242682 0.448445
0.999783 0.457956 0.271152
0.000334 0.000257 0.000073
0.000334 0.000257 0.000073
0.085794 0.002762 0.002973
0.469771 0.002227 0.013083
0.982080 0.000516 0.277421
0.999947 0.005268 0.523015
0.999945 0.152717 0.504534
0.999905 0.301751 0.405078
0.999850 0.480499 0.247963
0.000027 0.034540 0.000032
0.000066 0.045857 0.000056
0.062577 0.031095 0.000126
0.347652 0.017054 0.000623
0.806283 0.001535 0.099733
0.999575 0.000387 0.480684
0.999964 0.201037 0.474274
0.999613 0.327009 0.385575
0.999861 0.490931 0.237399
0.000297 0.265613 0.000050
0.000037 0.245050 0.000341
0.017949 0.180629 0.000183
0.232076 0.155427 0.000205
0.668530 0.138732 0.000036
0.999835 0.129510 0.258412
0.999488 0.285611 0.417401
0.999952 0.369273 0.353693
0.999882 0.511808 0.216262
0.000056 0.706691 0.000448
0.000123 0.559715 0.000127
0.000155 0.514942 0.000455
0.145269 0.470873 0.000214
0.549183 0.436453 0.000113
0.939521 0.430854 0.000103
0.999425 0.433332 0.246936
0.999293 0.465594 0.262515
0.999774 0.559950 0.159470
0.000001 0.893810 0.000480
0.000237 0.844518 0.000649
0.000041 0.830300 0.000453
0.094373 0.806757 0.000560
0.466227 0.768182 0.000000
0.822448 0.710664 0.000097
0.999435 0.689851 0.000154
0.999580 0.634812 0.048882
0.999260 0.659480 0.021066
0.000000 1.000000 0.000285
0.000000 1.000000 0.000285
0.029107 0.999932 0.000211
0.123700 0.998550 0.000068
0.417216 0.978071 0.000169
0.741619 0.925044 0.000048
0.996778 0.869379 0.000091
0.999319 0.790154 0.000034
0.999293 0.775768 0.000179
0.038365 0.999957 0.000301
0.089472 0.999898 0.000324
0.111065 0.999873 0.000334
0.169091 0.999854 0.000408
0.318866 0.999745 0.000501
0.569990 0.999786 0.000065
0.842845 0.999717 0.000085
0.987646 0.965860 0.002168
0.992791 0.911415 0.000004
0.308378 0.999676 0.000245
0.326460 0.999703 0.000289
0.334363 0.999714 0.000308
0.350799 0.999738 0.000348
0.393018 0.999742 0.000334
0.493830 0.999667 0.000069
0.666857 0.999438 0.000071
0.905087 0.999563 0.002953
0.984041 0.999802 0.024142
0.000334 0.000257 0.000073
0.000334 0.000257 0.000073
0.038148 0.001589 0.001049
0.414893 0.003021 0.009674
0.972525 0.000599 0.257489
0.999482 0.098685 0.539911
0.999461 0.099723 0.540077
0.999708 0.250260 0.443683
0.999792 0.460701 0.268328
0.000334 0.000257 0.000073
0.000334 0.000257 0.000073
0.101439 0.002949 0.002745
0.486031 0.001911 0.014722
0.935030 0.000099 0.213496
0.999611 0.001575 0.516965
0.999941 0.165470 0.498203
0.999825 0.308686 0.399726
0.999853 0.483303 0.245124
0.000440 0.059018 0.000034
0.000289 0.069524 0.000021
0.057762 0.047479 0.000051
0.328621 0.035912 0.000549
0.781727 0.011886 0.069123
0.999832 0.002435 0.461550
0.999959 0.213160 0.466141
0.999538 0.333332 0.380696
0.999864 0.493638 0.234659
0.000111 0.296872 0.000019
0.000724 0.260001 0.000248
0.018026 0.197764 0.000000
0.230523 0.171502 0.000374
0.660779 0.155126 0.000103
0.999766 0.148116 0.233470
0.999223 0.294360 0.410962
0.999838 0.374430 0.348686
0.999885 0.514330 0.213712
0.000115 0.718344 0.000677
0.000057 0.566716 0.000015
0.000137 0.524314 0.000573
0.147887 0.480530 0.000191
0.548664 0.445805 0.000141
0.935874 0.440110 0.000107
0.999342 0.439320 0.239161
0.999246 0.469861 0.258374
0.999783 0.562418 0.156443
0.000013 0.908128 0.000864
0.000135 0.858253 0.000218
0.000208 0.844752 0.000303
0.069012 0.820837 0.000371
0.439870 0.780330 0.000000
0.805194 0.720344 0.000253
0.999173 0.700509 0.000015
0.998865 0.643893 0.073715
0.999070 0.673023 0.008815
0.000000 1.000000 0.000285
0.000000 1.000000 0.000285
0.000000 1.000000 0.000285
0.034488 0.999979 0.000372
0.318663 0.995765 0.000253
0.692517 0.948583 0.000005
0.991123 0.887456 0.000081
0.999287 0.831393 0.000000
0.999324 0.812774 0.000226
0.024631 0.999904 0.000395
0.055294 0.999784 0.000532
0.068219 0.999733 0.000590
0.122107 0.999730 0.000450
0.267767 0.999725 0.000238
0.530879 0.999770 0.000438
0.817546 0.999497 0.000145
0.987158 0.976211 0.003925
0.993264 0.935807 0.000026
0.307412 0.999653 0.000391
0.324500 0.999653 0.000412
0.331969 0.999653 0.000421
0.347504 0.999654 0.000440
0.387927 0.999674 0.000375
0.486017 0.999747 0.000027
0.658346 0.999772 0.000346
0.897351 0.999856 0.006347
0.985231 0.999371 0.032466
0.000127 0.000046 0.059481
0.000127 0.000046 0.059481
0.037212 0.000293 0.046613
0.392600 0.002969 0.015580
0.945426 0.000372 0.222443
0.999465 0.098276 0.539916
0.999461 0.099723 0.540077
0.999763 0.268823 0.429732
0.999543 0.478482 0.249571
0.000070 0.000002 0.063241
0.000070 0.000002 0.063241
0.100101 0.000655 0.039345
0.450563 0.002066 0.019792
0.876194 0.000168 0.158028
0.999694 0.000254 0.507773
0.999925 0.182024 0.486491
0.999249 0.327143 0.384401
0.999846 0.502671 0.224372
0.000110 0.066390 0.083749
0.000225 0.078024 0.083903
0.050972 0.053234 0.049857
0.302986 0.041562 0.029161
0.745584 0.024082 0.074987
0.999647 0.012788 0.412739
0.999611 0.231959 0.455622
0.999760 0.349290 0.367156
0.999672 0.513029 0.214643
0.000445 0.335523 0.061912
0.000030 0.291478 0.032988
0.007922 0.225402 0.013319
0.214769 0.185824 0.002251
0.637648 0.165038 0.001998
0.999580 0.169898 0.238312
0.999530 0.313063 0.410407
0.999463 0.393970 0.337995
0.999436 0.533088 0.198067
0.000100 0.741829 0.008217
0.000202 0.609097 0.000025
0.000081 0.566068 0.000118
0.115296 0.515558 0.000140
0.524178 0.467451 0.000277
0.907647 0.445904 0.014860
0.999477 0.454463 0.297069
0.999290 0.489129 0.290014
0.998822 0.581292 0.167236
0.000211 0.924639 0.000507
0.000022 0.876778 0.000702
0.000019 0.862261 0.000141
0.038236 0.838826 0.000535
0.409768 0.796546 0.000019
0.789265 0.743882 0.000010
0.999577 0.699973 0.074477
0.999313 0.646008 0.206648
0.999629 0.672819 0.112838
0.000000 1.000000 0.000285
0.000000 1.000000 0.000285
0.000000 1.000000 0.000285
0.023805 0.999953 0.000340
0.284633 0.997758 0.000196
0.678968 0.955521 0.000196
0.985278 0.903199 0.000102
0.999213 0.830944 0.061257
0.999430 0.811681 0.020989
0.021942 0.999939 0.000226
0.048507 0.999864 0.000155
0.059702 0.999833 0.000125
0.111825 0.999865 0.000367
0.252662 0.999941 0.000740
0.516866 0.999541 0.000470
0.809108 0.999170 0.000168
0.988028 0.986242 0.012362
0.993047 0.945247 0.000114
0.307766 0.999720 0.000613
0.324439 0.999703 0.000631
0.331727 0.999695 0.000638
0.346885 0.999679 0.000654
0.386757 0.999691 0.000537
0.484241 0.999781 0.000012
0.655101 0.999914 0.000664
0.894184 0.999895 0.008729
0.985582 0.999361 0.037542
0.001717 0.000001 0.200917
0.001717 0.000001 0.200917
0.044802 0.000107 0.163126
0.394699 0.000206 0.127588
0.921178 0.000014 0.287760
0.999969 0.078468 0.542037
0.999656 0.101983 0.567475
0.999873 0.297809 0.488778
0.999670 0.495209 0.357071
0.001606 0.000000 0.204421
0.002833 0.000015 0.222413
0.090366 0.000044 0.167611
0.388015 0.000108 0.153894
0.813271 0.000252 0.267330
0.999944 0.000069 0.580156
0.999704 0.224256 0.552161
0.999674 0.353189 0.472838
0.999801 0.516861 0.347262
0.001092 0.085329 0.325542
0.000029 0.095485 0.319338
0.040168 0.060067 0.222591
0.288906 0.044755 0.186272
0.717328 0.024197 0.234969
0.999842 0.016595 0.502646
0.999814 0.270194 0.541321
0.999944 0.374875 0.466810
0.999744 0.525933 0.342901
0.000500 0.374063 0.424237
0.000128 0.317996 0.338765
0.002072 0.251301 0.259484
0.202697 0.204222 0.201857
0.623582 0.173762 0.193557
0.992173 0.173475 0.381112
0.999830 0.331375 0.514011
0.999739 0.415163 0.452166
0.999575 0.544145 0.334343
0.000107 0.737256 0.461625
0.000223 0.618735 0.267934
0.000012 0.582489 0.223403
0.093386 0.536046 0.170153
0.509466 0.480085 0.119578
0.889406 0.448321 0.217679
0.999668 0.463956 0.437786
0.999653 0.503833 0.420708
0.998968 0.587657 0.311313
0.000012 0.907371 0.154264
0.000014 0.865916 0.088798
0.000009 0.854191 0.073422
0.015461 0.832287 0.050637
0.381274 0.793920 0.006690
0.774657 0.744859 0.026883
0.999651 0.698114 0.264192
0.999303 0.646757 0.352881
0.998889 0.671812 0.264428
0.000000 1.000000 0.000285
0.000000 1.000000 0.000285
0.000000 1.000000 0.000285
0.012180 0.999886 0.000236
0.234661 0.999729 0.000265
0.657920 0.981881 0.000336
0.974565 0.931160 0.009126
0.999215 0.824392 0.216156
0.998987 0.803257 0.166362
0.017758 0.999881 0.000403
0.038084 0.999745 0.000538
0.046650 0.999687 0.000595
0.096932 0.999683 0.000467
0.231273 0.999761 0.000151
0.494770 0.999594 0.000384
0.795780 0.999951 0.000353
0.988153 0.998813 0.027372
0.994616 0.957265 0.009551
0.308932 0.999804 0.000141
0.324622 0.999828 0.000145
0.331480 0.999838 0.000147
0.345745 0.999859 0.000150
0.384183 0.999851 0.000147
0.479901 0.999737 0.000128
0.649599 0.999772 0.000584
0.887709 0.999575 0.012023
0.985213 0.999597 0.048604
0.006265 0.000252 0.485158
0.006265 0.000252 0.485158
0.078185 0.000024 0.395735
0.437520 0.000095 0.344613
0.916801 0.000070 0.475831
0.999830 0.071254 0.646358
0.999528 0.176658 0.665564
0.999555 0.345304 0.607001
0.999210 0.514047 0.515109
0.006209 0.009428 0.642691
0.005667 0.018031 0.624813
0.059273 0.002516 0.507160
0.331972 0.000558 0.456932
0.745599 0.000176 0.499079
0.999925 0.000055 0.691427
0.999819 0.292876 0.656536
0.999867 0.392202 0.599564
0.999371 0.533406 0.508861
0.000422 0.159035 0.767585
0.000378 0.138263 0.697632
0.024207 0.092832 0.586571
0.271451 0.065143 0.514102
0.686097 0.040278 0.504309
0.999636 0.040217 0.644865
0.999862 0.317970 0.652222
0.999768 0.411303 0.595172
0.999481 0.541460 0.506244
0.000038 0.440093 0.833520
0.000237 0.357482 0.732727
0.000043 0.300861 0.655415
0.188658 0.246255 0.572537
0.609000 0.203398 0.503064
0.969169 0.193198 0.580766
0.999412 0.362998 0.641052
0.999321 0.446265 0.587630
0.999687 0.557505 0.501001
0.000224 0.745241 0.853383
0.000378 0.625631 0.690509
0.000362 0.595861 0.653635
0.065727 0.553578 0.593797
0.494915 0.496651 0.495777
0.868807 0.454016 0.495110
0.999656 0.479477 0.601985
0.999943 0.524302 0.568133
0.999709 0.595337 0.486200
0.000431 0.886705 0.659734
0.000049 0.847227 0.603995
0.000689 0.836473 0.586821
0.001603 0.817434 0.559960
0.342973 0.781703 0.469562
0.757281 0.736240 0.410413
0.999684 0.694404 0.500137
0.999573 0.649889 0.529003
0.999375 0.671912 0.454219
0.000037 0.999824 0.391675
0.000107 0.999820 0.379335
0.000146 0.999807 0.375541
0.000100 0.999729 0.366629
0.157456 0.996709 0.324704
0.621027 0.975231 0.262087
0.950895 0.914464 0.305926
0.999427 0.815207 0.430043
0.999237 0.792566 0.380868
0.009604 0.999878 0.110211
0.019153 0.999913 0.107558
0.024329 0.999923 0.106326
0.074062 0.999795 0.099839
0.198360 0.999569 0.080741
0.455842 0.999816 0.041026
0.770720 0.999813 0.019781
0.990118 0.998449 0.148104
0.996620 0.944576 0.222257
0.318307 0.999654 0.064620
0.331900 0.999587 0.056542
0.337843 0.999558 0.053009
0.350205 0.999498 0.045660
0.384701 0.999459 0.032209
0.472902 0.999557 0.010044
0.640730 0.999708 0.000747
0.875881 0.999492 0.026850
0.986143 0.999809 0.077737
0.012072 0.000187 0.882929
0.010342 0.000333 0.864613
0.133150 0.000304 0.800267
0.429866 0.000174 0.752501
0.795064 0.000197 0.772871
0.999944 0.000089 0.881293
0.999953 0.238499 0.765731
0.999932 0.406841 0.713650
0.999634 0.547095 0.657139
0.000776 0.245000 0.999798
0.000434 0.168018 0.999872
0.018692 0.125576 0.972447
0.275884 0.085403 0.909616
0.672870 0.056947 0.834414
0.990814 0.053788 0.845187
0.999618 0.300743 0.772914
0.999670 0.451999 0.709959
0.999657 0.563044 0.654443
0.000424 0.373134 0.999827
0.000744 0.276831 0.999724
0.000604 0.232244 0.989912
0.228139 0.182519 0.926570
0.636703 0.139232 0.837722
0.970433 0.125814 0.831747
0.999774 0.327436 0.773083
0.999473 0.470337 0.707970
0.999671 0.569735 0.653330
0.000634 0.554632 0.999959
0.000210 0.431645 0.999889
0.000524 0.392908 0.988242
0.148653 0.345415 0.931820
0.575996 0.291732 0.833421
0.925356 0.260270 0.803647
0.999958 0.380184 0.774948
0.999438 0.501667 0.705734
0.999820 0.581796 0.650871
0.000401 0.733559 0.999973
0.000234 0.641503 0.986089
0.000465 0.620266 0.973144
0.036154 0.587369 0.929739
0.464986 0.535168 0.827208
0.841996 0.485025 0.766605
0.999676 0.500077 0.765534
0.999692 0.562605 0.700345
0.999752 0.611892 0.645021
0.000492 0.859303 0.965378
0.000270 0.837435 0.937328
0.000288 0.828667 0.927840
0.000224 0.813949 0.907834
0.290955 0.781442 0.827297
0.734629 0.736603 0.736423
0.999429 0.689675 0.719093
0.999651 0.660289 0.685992
0.999464 0.675105 0.628759
0.000120 0.986615 0.795114
0.000109 0.981961 0.787226
0.000195 0.980238 0.784733
0.000307 0.977617 0.777903
0.082633 0.968775 0.746926
0.562908 0.939392 0.658308
0.911144 0.889048 0.612374
0.999786 0.806726 0.630872
0.999694 0.781559 0.587851
0.000010 0.999763 0.560903
0.000011 0.999753 0.559790
0.003298 0.999772 0.557842
0.011633 0.999822 0.553125
0.081458 0.999916 0.537337
0.379076 0.999565 0.491035
0.729323 0.999552 0.436562
0.990925 0.990221 0.465546
0.998271 0.922770 0.482097
0.304571 0.999820 0.423575
0.323096 0.999852 0.419164
0.331197 0.999865 0.417235
0.348056 0.999893 0.413221
0.386335 0.999777 0.402909
0.474079 0.999477 0.379218
0.628469 0.999624 0.344492
0.852386 0.999839 0.319940
0.988147 0.999568 0.286398
0.000465 0.424466 0.999567
0.000253 0.316400 0.999935
0.010821 0.289476 0.999929
0.236385 0.237041 0.999862
0.621342 0.189981 0.999701
0.938104 0.161114 0.999741
0.999947 0.288936 0.954287
0.999584 0.453883 0.826167
0.999688 0.577029 0.777650
0.000440 0.515113 0.999874
0.000307 0.438021 0.999982
0.000240 0.412990 0.999676
0.154774 0.376288 0.999984
0.562353 0.327038 0.999350
0.896919 0.287871 0.999935
0.999657 0.345929 0.960064
0.999726 0.487292 0.823820
0.999473 0.591061 0.777059
0.000387 0.547191 0.999997
0.000509 0.482407 0.999974
0.000226 0.459647 0.999626
0.126212 0.425183 0.999950
0.540966 0.375411 0.999348
0.882314 0.331360 0.999882
0.999770 0.368838 0.962421
0.999714 0.500780 0.821929
0.999428 0.596990 0.776801
0.000253 0.601706 0.999998
0.000303 0.555350 0.999700
0.000418 0.538050 0.999706
0.080324 0.509262 0.999907
0.498595 0.460595 0.999586
0.854780 0.411624 0.999861
0.999944 0.415007 0.963144
0.999819 0.525958 0.818660
0.999632 0.608825 0.776293
0.000516 0.693044 0.999996
0.000093 0.667843 0.999852
0.000433 0.658555 0.999894
0.014257 0.642256 0.999891
0.405398 0.609143 0.999559
0.796782 0.562179 0.998914
0.999792 0.518444 0.959717
0.999989 0.580589 0.813775
0.999905 0.637105 0.775723
0.000423 0.812834 0.999958
0.000257 0.801311 0.999998
0.000367 0.796697 0.999915
0.000538 0.788550 0.999868
0.208399 0.769516 0.999631
0.681225 0.734972 0.986611
0.990836 0.684750 0.917692
0.999260 0.672914 0.808966
0.999619 0.692073 0.773459
0.000489 0.933280 0.999838
0.000540 0.930539 0.999730
0.000487 0.929594 0.999687
0.000618 0.926995 0.999830
0.024834 0.920449 0.997663
0.474282 0.898567 0.933800
0.855922 0.858102 0.856005
0.999535 0.800854 0.806442
0.999980 0.777259 0.756118
0.000064 0.997319 0.878136
0.000053 0.997408 0.876539
0.000047 0.997436 0.875805
0.000036 0.997492 0.874312
0.000549 0.998999 0.867688
0.217374 0.999585 0.819481
0.665901 0.998664 0.742444
0.978538 0.964894 0.708459
0.999179 0.900302 0.699229
0.185549 0.999667 0.728846
0.208119 0.999687 0.723330
0.217990 0.999695 0.720918
0.237783 0.999708 0.716002
0.284736 0.999701 0.703732
0.398126 0.999723 0.675021
0.599961 0.999713 0.644014
0.820284 0.999871 0.615303
0.990243 0.999726 0.569675
0.000266 0.572071 0.999994
0.000309 0.564817 0.999980
0.031883 0.561415 0.999944
0.144243 0.554504 0.999871
0.428472 0.541763 0.999863
0.760582 0.504733 0.999152
0.999332 0.452645 0.999664
0.999894 0.532379 0.950761
0.999946 0.596623 0.900524
0.000432 0.600378 0.999943
0.002616 0.593885 0.999996
0.013661 0.590023 0.999982
0.122391 0.585055 0.999515
0.403064 0.572958 0.999705
0.737916 0.540700 0.999181
0.998420 0.487916 0.999901
0.999780 0.549587 0.949828
0.999914 0.606526 0.899218
0.000465 0.611841 0.999930
0.001323 0.605287 0.999999
0.004273 0.601533 0.999997
0.113900 0.597044 0.999562
0.391988 0.584780 0.999726
0.728863 0.554342 0.999287
0.997946 0.502419 0.999963
0.999703 0.556280 0.950563
0.999889 0.610706 0.898472
0.000398 0.633144 0.999808
0.001366 0.626516 0.999989
0.013668 0.624091 0.999932
0.096150 0.618987 0.999843
0.370973 0.607394 0.999917
0.711516 0.581353 0.999472
0.995438 0.529258 0.999770
0.999557 0.569785 0.952011
0.999837 0.619271 0.896939
0.000614 0.681093 0.999876
0.000510 0.675207 0.999854
0.000392 0.672964 0.999601
0.052266 0.668297 0.999308
0.317156 0.657817 0.999973
0.668722 0.635715 0.999808
0.979701 0.588623 0.999840
0.999691 0.601364 0.956132
0.999705 0.640975 0.893581
0.000513 0.763561 0.999912
0.000406 0.758567 0.999918
0.000800 0.757015 0.999955
0.014829 0.754097 0.999911
0.198484 0.744945 0.999953
0.579155 0.729316 1.000000
0.901871 0.690212 0.999826
0.999287 0.668567 0.965858
0.999635 0.688908 0.890041
0.000444 0.874026 0.999900
0.000690 0.870971 0.999909
0.000643 0.869696 0.999944
0.000505 0.867341 0.999978
0.041667 0.861826 0.999971
0.380277 0.848791 0.999705
0.772847 0.821608 0.999419
0.999360 0.777547 0.982009
0.999861 0.773596 0.882361
0.000650 0.970552 0.999954
0.000626 0.969944 0.999999
0.000558 0.969523 0.999999
0.000422 0.968666 0.999998
0.000213 0.966445 0.999994
0.091938 0.986992 0.999837
0.579870 0.967212 0.989433
0.925205 0.927102 0.925163
0.999835 0.883874 0.872451
0.019636 0.993760 0.993906
0.037975 0.994626 0.991036
0.045994 0.995007 0.989782
0.062679 0.995803 0.987175
0.106984 0.997946 0.980268
0.236435 0.999776 0.954094
0.495958 0.999711 0.888249
0.777835 0.999671 0.830543
0.993938 0.999508 0.792305
0.076865 0.671752 0.999618
0.142120 0.667287 0.999654
0.169485 0.665522 0.999683
0.227465 0.663500 0.999868
0.356274 0.660552 0.999860
0.572879 0.656517 0.999572
0.807868 0.651345 0.999302
0.999702 0.604431 0.999171
0.999526 0.639364 0.999443
0.071382 0.683149 0.999682
0.134942 0.676390 0.999786
0.162871 0.674494 0.999837
0.220533 0.671999 0.999944
0.349625 0.669295 0.999915
0.566848 0.664106 0.999533
0.801770 0.659516 0.999115
0.999693 0.612469 0.998985
0.999465 0.645023 0.999375
0.069017 0.687772 0.999718
0.131849 0.680051 0.999851
0.160169 0.678308 0.999894
0.217685 0.675613 0.999968
0.346581 0.673008 0.999927
0.564377 0.667385 0.999514
0.799396 0.662865 0.999160
0.999692 0.615934 0.998903
0.999428 0.647428 0.999341
0.064153 0.696701 0.999810
0.126186 0.687582 0.999985
0.154908 0.686033 0.999991
0.212110 0.682939 0.999999
0.340306 0.680541 0.999928
0.558624 0.674310 0.999528
0.794515 0.669780 0.999241
0.999693 0.623047 0.998730
0.999353 0.652421 0.999271
0.056141 0.719908 0.999909
0.109275 0.712338 0.999988
0.136208 0.709594 0.999987
0.190184 0.704738 0.999988
0.319939 0.698874 0.999904
0.542397 0.692598 0.999792
0.781915 0.687820 0.999377
0.999650 0.645399 0.999117
0.999163 0.665613 0.999093
0.033978 0.771479 0.999967
0.069450 0.763736 0.999998
0.095282 0.760825 0.999999
0.147109 0.754973 1.000000
0.279023 0.742702 0.999281
0.503176 0.733790 0.999994
0.753941 0.727596 0.999318
0.996482 0.697098 0.999928
0.999538 0.697542 0.999661
0.011383 0.859554 1.000000
0.021145 0.854277 1.000000
0.028657 0.852019 0.999996
0.068408 0.847316 0.999958
0.174741 0.835367 0.999850
0.413099 0.813219 0.999932
0.693849 0.798814 0.999895
0.952141 0.780817 0.999100
0.999871 0.760451 0.999988
0.000296 0.957716 0.999989
0.002714 0.958674 0.999991
0.004362 0.959767 0.999992
0.007739 0.962002 0.999995
0.026177 0.966285 0.999951
0.224011 0.953830 0.999659
0.568901 0.916798 0.999902
0.850698 0.890411 0.999848
0.999853 0.860033 0.999791
0.006390 0.982443 0.999948
0.013618 0.984199 0.999971
0.018602 0.985100 0.999973
0.028986 0.986982 0.999975
0.056665 0.992038 0.999982
0.147087 0.999885 0.999955
0.399982 0.999859 0.999445
0.702307 0.998641 0.999612
0.982352 0.989224 0.987367
