output/AppleLog_display/AppleLog_to_ASTIA_33grid.cube
TITLE "AppleLog_to_ASTIA"
# Input: Apple Log (BT.2020 primaries, D65)
# Output: BT.709 / Gamma 2.2 (display-referred)
# Use: Display LUT for iPhone 15/16 Pro Apple Log footage
# Source: FLog2C_to_ASTIA_65grid_V.1.00.cube
# Generated from Fujifilm GFX ETERNA 55 F-Log2C LUT
LUT_3D_SIZE 33
0.000334 0.000257 0.000073
0.000334 0.000257 0.000073
0.000334 0.000257 0.000073
0.000334 0.000257 0.000073
0.000334 0.000257 0.000073
0.000334 0.000257 0.000073
0.000334 0.000257 0.000073
0.000334 0.000257 0.000073
0.024300 0.000909 0.000112
0.072351 0.002551 0.003371
0.146620 0.003395 0.004606
0.262110 0.004536 0.004090
0.396931 0.003200 0.009193
0.547455 0.000839 0.022924
0.694844 0.000132 0.058740
0.837385 0.000008 0.124206
0.966802 0.000578 0.251282
0.999598 0.000000 0.398928
0.999246 0.000000 0.505957
0.999753 0.025772 0.527046
0.999497 0.097925 0.539790
0.999461 0.099723 0.540077
0.999461 0.099723 0.540077
0.999461 0.099723 0.540077
0.999461 0.099723 0.540077
0.999461 0.099723 0.540077
0.999859 0.130640 0.519166
0.999968 0.184053 0.485189
0.999554 0.242682 0.448445
0.999488 0.298453 0.407567
0.999435 0.351529 0.365701
0.999782 0.405109 0.321503
0.999783 0.457956 0.271152
0.000334 0.000257 0.000073
0.000334 0.000257 0.000073
0.000334 0.000257 0.000073
0.000334 0.000257 0.000073
0.000334 0.000257 0.000073
0.000334 0.000257 0.000073
0.000334 0.000257 0.000073
0.018519 0.000953 0.000043
0.054428 0.002341 0.002383
0.105656 0.002971 0.002794
0.190166 0.004157 0.006939
0.304367 0.004211 0.006402
0.434120 0.002830 0.010189
0.578293 0.000387 0.028481
0.716842 0.000281 0.066365
0.853079 0.000086 0.138244
0.978534 0.000618 0.264307
0.999524 0.000000 0.410356
0.999302 0.000000 0.507533
0.999776 0.030224 0.527872
0.999465 0.099524 0.540045
0.999461 0.099723 0.540077
0.999461 0.099723 0.540077
0.999461 0.099723 0.540077
0.999473 0.100029 0.539942
0.999928 0.134284 0.518505
0.999609 0.179426 0.489125
0.999626 0.226024 0.459177
0.999956 0.273475 0.427263
0.999328 0.322013 0.389836
0.999508 0.370238 0.350268
0.999659 0.419937 0.309006
0.999819 0.469401 0.259368
0.000334 0.000257 0.000073
0.000334 0.000257 0.000073
0.000334 0.000257 0.000073
0.000334 0.000257 0.000073
0.000334 0.000257 0.000073
0.000334 0.000257 0.000073
0.000338 0.000159 0.000049
0.028905 0.000920 0.000211
0.067073 0.002480 0.003272
0.121056 0.003050 0.002974
0.208853 0.004386 0.005208
0.321147 0.004020 0.006934
0.448970 0.002631 0.010985
0.590586 0.000206 0.030697
0.725691 0.000340 0.069432
0.859435 0.000117 0.143928
0.980013 0.000575 0.269778
0.999494 0.000000 0.415026
0.999325 0.000000 0.508179
0.999785 0.032053 0.528212
0.999551 0.096366 0.540138
0.999560 0.096061 0.540172
0.999461 0.099723 0.540077
0.999461 0.099723 0.540077
0.999976 0.117047 0.526471
0.999634 0.156581 0.504090
0.999759 0.196696 0.477467
0.999222 0.241305 0.449216
0.999965 0.285275 0.417967
0.999350 0.331524 0.382415
0.999588 0.377743 0.343777
0.999668 0.425903 0.303432
0.999833 0.473997 0.254635
0.000334 0.000257 0.000073
0.000334 0.000257 0.000073
0.000334 0.000257 0.000073
0.000334 0.000257 0.000073
0.000334 0.000257 0.000073
0.000334 0.000257 0.000073
0.010165 0.000666 0.000004
0.039053 0.001655 0.001131
0.077276 0.002628 0.003225
0.132554 0.003126 0.003210
0.222604 0.004555 0.003934
0.333615 0.003879 0.007329
0.460357 0.002410 0.012133
0.599841 0.000071 0.032364
0.732380 0.000386 0.071751
0.864257 0.000141 0.148241
0.981138 0.000543 0.273938
0.999471 0.000000 0.418585
0.999342 0.000000 0.508672
0.999604 0.008239 0.520386
0.999394 0.030818 0.532930
0.999518 0.084689 0.539167
0.999461 0.099723 0.540077
0.999134 0.107580 0.534753
0.999960 0.137120 0.513377
0.999624 0.171500 0.493730
0.999846 0.211207 0.468081
0.999134 0.253098 0.441163
0.999971 0.293931 0.411146
0.999367 0.338577 0.376908
0.999648 0.383352 0.338924
0.999702 0.430421 0.298955
0.999843 0.477469 0.251060
0.000334 0.000257 0.000073
0.000334 0.000257 0.000073
0.000334 0.000257 0.000073
0.000334 0.000257 0.000073
0.000334 0.000257 0.000073
0.000334 0.000257 0.000073
0.017849 0.000958 0.000035
0.047035 0.002233 0.001854
0.085794 0.002762 0.002973
0.144855 0.003361 0.004431
0.233828 0.004692 0.002895
0.343866 0.003762 0.007653
0.469771 0.002227 0.013083
0.607304 0.000002 0.033953
0.737955 0.000423 0.073683
0.868285 0.000161 0.151843
0.982080 0.000516 0.277421
0.999531 0.000416 0.389319
0.999500 0.000031 0.470995
0.999953 0.000024 0.511146
0.999947 0.005268 0.523015
0.999468 0.053240 0.533886
0.999655 0.093656 0.538845
0.999472 0.122433 0.524048
0.999945 0.152717 0.504534
0.999613 0.183316 0.485586
0.999914 0.223035 0.460464
0.999225 0.263185 0.434002
0.999905 0.301751 0.405078
0.999380 0.344369 0.372385
0.999697 0.387986 0.334914
0.999731 0.434170 0.295240
0.999850 0.480499 0.247963
0.000334 0.000257 0.000073
0.000334 0.000257 0.000073
0.000334 0.000257 0.000073
0.000334 0.000257 0.000073
0.000334 0.000257 0.000073
0.000334 0.000257 0.000073
0.023854 0.000913 0.000106
0.054664 0.002344 0.002400
0.092976 0.002875 0.002761
0.155326 0.003561 0.005470
0.244450 0.004667 0.003093
0.352709 0.003662 0.007933
0.477931 0.002069 0.013905
0.613478 0.000005 0.035626
0.735566 0.000401 0.072656
0.838692 0.000086 0.130756
0.932321 0.000103 0.210447
0.995489 0.000038 0.311029
0.999708 0.000035 0.415324
0.999895 0.000012 0.493679
0.999615 0.001301 0.516814
0.999856 0.034569 0.527883
0.999900 0.099757 0.526641
0.999768 0.136931 0.514368
0.999940 0.165487 0.498173
0.999649 0.195853 0.478178
0.999964 0.232949 0.454060
0.999302 0.271746 0.427923
0.999825 0.308698 0.399714
0.999390 0.349380 0.368460
0.999739 0.391998 0.331442
0.999755 0.437430 0.292011
0.999853 0.483307 0.245119
0.000334 0.000257 0.000073
0.000334 0.000257 0.000073
0.000334 0.000257 0.000073
0.000334 0.000257 0.000073
0.000334 0.000257 0.000073
0.000334 0.000257 0.000073
0.028487 0.001182 0.000266
0.058785 0.002259 0.002851
0.094559 0.003144 0.003042
0.152899 0.003775 0.006047
0.232845 0.003872 0.006255
0.330683 0.003763 0.006290
0.437352 0.002724 0.012103
0.552659 0.000530 0.023164
0.666682 0.000092 0.047437
0.778438 0.000032 0.093089
0.880679 0.000160 0.164781
0.977889 0.000000 0.259363
0.999639 0.000155 0.369358
0.999552 0.000023 0.467536
0.999795 0.000316 0.511224
0.999987 0.029422 0.516690
0.999985 0.106706 0.515314
0.999921 0.150813 0.506114
0.999943 0.177210 0.491065
0.999680 0.206611 0.471817
0.999906 0.241229 0.448547
0.999369 0.279240 0.422603
0.999754 0.314827 0.394982
0.999392 0.354134 0.364603
0.999776 0.395571 0.328351
0.999777 0.440342 0.289126
0.999856 0.485823 0.242571
0.000003 0.009910 0.000050
0.000320 0.015083 0.000026
0.000468 0.017055 0.000015
0.000578 0.018527 0.000007
0.000669 0.019741 0.000001
0.000519 0.020043 0.000002
0.017899 0.017799 0.000156
0.044130 0.012334 0.000348
0.076902 0.010612 0.000633
0.124704 0.008272 0.001109
0.192943 0.007169 0.002271
0.285802 0.004905 0.007566
0.386549 0.003732 0.009850
0.502162 0.001167 0.018319
0.620453 0.000190 0.033379
0.731726 0.000111 0.070383
0.844215 0.000008 0.132883
0.944209 0.000006 0.222366
0.996301 0.000221 0.330826
0.999605 0.000036 0.440191
0.999627 0.000076 0.498986
0.999889 0.032597 0.504180
0.999968 0.113648 0.505087
0.999986 0.162958 0.498789
0.999953 0.188385 0.483205
0.999707 0.216222 0.466114
0.999853 0.248706 0.443573
0.999435 0.285782 0.417859
0.999689 0.320438 0.390649
0.999393 0.358506 0.361058
0.999811 0.398869 0.325497
0.999797 0.443038 0.286456
0.999858 0.488158 0.240206
0.000027 0.034540 0.000032
0.000047 0.040362 0.000044
0.000055 0.042675 0.000049
0.000061 0.044414 0.000053
0.000066 0.045857 0.000056
0.000014 0.043040 0.000141
0.011437 0.036016 0.000127
0.033510 0.033266 0.000124
0.062577 0.031095 0.000126
0.107433 0.029360 0.000877
0.167633 0.025305 0.000252
0.250265 0.023345 0.000409
0.347652 0.017054 0.000623
0.458424 0.013666 0.004522
0.578655 0.007830 0.016806
0.695025 0.002804 0.046461
0.806283 0.001535 0.099733
0.912584 0.000251 0.178392
0.988584 0.000152 0.288707
0.999757 0.000029 0.401774
0.999575 0.000387 0.480684
0.999697 0.038187 0.487825
0.999819 0.119361 0.492397
0.999945 0.176576 0.490390
0.999964 0.201037 0.474274
0.999704 0.226807 0.458387
0.999791 0.257343 0.437832
0.999529 0.292547 0.412634
0.999613 0.327009 0.385575
0.999396 0.363649 0.356890
0.999851 0.402763 0.322126
0.999821 0.446232 0.283293
0.999861 0.490931 0.237399
0.000382 0.066221 0.000024
0.000234 0.071485 0.000018
0.000174 0.073599 0.000016
0.000129 0.075197 0.000014
0.000091 0.076528 0.000013
0.000289 0.069156 0.000000
0.002775 0.061686 0.000574
0.022859 0.058499 0.000008
0.049912 0.053575 0.000000
0.088461 0.050957 0.000505
0.145124 0.048724 0.000353
0.219734 0.046173 0.000169
0.315998 0.042063 0.000349
0.419830 0.037825 0.000135
0.539326 0.032328 0.000434
0.658492 0.026210 0.017390
0.771702 0.017415 0.058488
0.877130 0.009472 0.129308
0.980305 0.004027 0.232416
0.999747 0.005923 0.345984
0.999791 0.006257 0.451833
0.999414 0.048212 0.465750
0.999671 0.126141 0.476163
0.999871 0.191444 0.478358
0.999954 0.216781 0.463744
0.999702 0.239731 0.448957
0.999711 0.268291 0.430209
0.999645 0.300970 0.406129
0.999527 0.335192 0.379268
0.999399 0.370129 0.351641
0.999759 0.408068 0.317322
0.999851 0.450290 0.279274
0.999865 0.494465 0.233820
0.000012 0.112253 0.000009
0.000008 0.117977 0.000015
0.000007 0.120294 0.000018
0.000006 0.122050 0.000020
0.000005 0.123518 0.000021
0.000249 0.108200 0.000588
0.000531 0.095606 0.000358
0.014331 0.090228 0.000007
0.040657 0.086062 0.000313
0.075440 0.080610 0.000245
0.126972 0.077654 0.000036
0.194695 0.074293 0.000212
0.282066 0.071460 0.000300
0.386900 0.067078 0.000134
0.502112 0.061582 0.000199
0.621839 0.056864 0.000539
0.736526 0.050170 0.016651
0.843193 0.042946 0.076363
0.947556 0.037114 0.169485
0.999769 0.032861 0.282388
0.999510 0.031083 0.401039
0.999444 0.065655 0.440360
0.999791 0.136770 0.453971
0.999748 0.207012 0.461287
0.999948 0.235631 0.451259
0.999709 0.256207 0.437195
0.999608 0.282519 0.419288
0.999788 0.311371 0.398096
0.999639 0.344309 0.372429
0.999404 0.378247 0.345071
0.999624 0.414799 0.311199
0.999888 0.455428 0.274189
0.999869 0.498956 0.229273
0.000038 0.177352 0.000080
0.000030 0.184401 0.000106
0.000027 0.187271 0.000117
0.000024 0.189453 0.000125
0.000259 0.179562 0.000326
0.000076 0.154011 0.000132
0.000357 0.141141 0.000220
0.006788 0.132759 0.000004
0.026894 0.127475 0.000012
0.060309 0.120412 0.000185
0.107761 0.116491 0.000595
0.172227 0.111480 0.000112
0.257802 0.107575 0.000078
0.357078 0.104291 0.000473
0.466233 0.099124 0.000004
0.587815 0.095413 0.000187
0.703971 0.087739 0.001572
0.809321 0.085012 0.023054
0.911836 0.081242 0.102427
0.990755 0.078495 0.213427
0.999536 0.074246 0.335649
0.999981 0.094880 0.407600
0.999961 0.153977 0.426403
0.999659 0.225457 0.436517
0.999988 0.258952 0.436174
0.999734 0.277098 0.422602
0.999487 0.299674 0.406113
0.999878 0.325216 0.387143
0.999778 0.355550 0.363994
0.999417 0.388331 0.336798
0.999456 0.423232 0.303524
0.999886 0.461957 0.267681
0.999875 0.504642 0.223517
0.000297 0.265613 0.000050
0.000255 0.272724 0.000043
0.000238 0.275630 0.000040
0.000224 0.277845 0.000038
0.000037 0.245050 0.000341
0.000074 0.217410 0.000191
0.000218 0.200795 0.000294
0.002929 0.189167 0.000154
0.017949 0.180629 0.000183
0.047190 0.173777 0.000000
0.092481 0.166555 0.000013
0.151854 0.159475 0.000038
0.232076 0.155427 0.000205
0.331221 0.149990 0.000211
0.438223 0.145559 0.000003
0.557343 0.140743 0.000045
0.668530 0.138732 0.000036
0.774128 0.136168 0.002170
0.876788 0.136973 0.033318
0.972373 0.134894 0.132216
0.999835 0.129510 0.258412
0.999880 0.138172 0.359852
0.999339 0.182309 0.388829
0.999658 0.247930 0.408024
0.999488 0.285611 0.417401
0.999429 0.300956 0.405473
0.999516 0.320429 0.391374
0.999924 0.342737 0.373117
0.999952 0.369273 0.353693
0.999529 0.400537 0.325035
0.999247 0.433723 0.293971
0.999576 0.470492 0.258886
0.999882 0.511808 0.216262
0.000586 0.371533 0.000027
0.000595 0.377450 0.000047
0.000569 0.379910 0.000065
0.000428 0.362022 0.000470
0.000047 0.318846 0.000356
0.000268 0.292417 0.000030
0.000448 0.273573 0.000921
0.000070 0.264006 0.000033
0.005777 0.254215 0.000114
0.034077 0.242377 0.000087
0.075057 0.232657 0.000009
0.132891 0.223102 0.000241
0.209736 0.216947 0.000578
0.304335 0.209721 0.000306
0.409784 0.205191 0.000001
0.523831 0.200374 0.000181
0.635865 0.198382 0.000177
0.739080 0.196355 0.000202
0.843417 0.198434 0.000113
0.944753 0.199785 0.051841
0.999500 0.196705 0.166620
0.999925 0.194886 0.302559
0.999627 0.224893 0.342463
0.999873 0.275177 0.370582
0.999387 0.316435 0.392857
0.999244 0.328264 0.384939
0.999537 0.344683 0.372604
0.999712 0.363717 0.356103
0.999542 0.387422 0.336033
0.999668 0.415454 0.310661
0.999104 0.446649 0.281753
0.999194 0.481111 0.247943
0.999890 0.520790 0.207172
0.000015 0.484690 0.000513
0.000017 0.489541 0.000517
0.000018 0.491535 0.000519
0.000367 0.432345 0.000018
0.000180 0.397602 0.000608
0.000297 0.371209 0.000005
0.000618 0.358374 0.000096
0.000099 0.346517 0.000556
0.000603 0.336409 0.000700
0.021095 0.324671 0.000275
0.058653 0.313611 0.000011
0.114509 0.303561 0.000675
0.187310 0.292821 0.000023
0.280073 0.286976 0.000040
0.383721 0.280590 0.000019
0.492071 0.274464 0.000008
0.604256 0.272011 0.000223
0.707582 0.271422 0.000086
0.809426 0.272013 0.000057
0.907957 0.274173 0.000007
0.992018 0.273032 0.070234
0.999821 0.268075 0.212264
0.999766 0.278042 0.288605
0.999429 0.312750 0.323630
0.999602 0.349798 0.358252
0.999719 0.359795 0.359487
0.999512 0.372357 0.347545
0.999189 0.388479 0.335833
0.999116 0.409067 0.314995
0.999708 0.433858 0.293138
0.999325 0.462390 0.265388
0.998725 0.494216 0.234442
0.999861 0.531314 0.194525
0.000007 0.600859 0.000289
0.000008 0.604687 0.000318
0.000118 0.549742 0.000447
0.000000 0.506057 0.000153
0.000088 0.478097 0.000029
0.000005 0.458680 0.000236
0.000000 0.446583 0.000640
0.000000 0.436336 0.000156
0.001222 0.424402 0.000504
0.010927 0.412596 0.000541
0.040172 0.402198 0.000093
0.094127 0.391139 0.000212
0.165185 0.380703 0.000156
0.258007 0.370834 0.000323
0.358578 0.361939 0.000496
0.464358 0.355285 0.000011
0.575086 0.353642 0.000021
0.677971 0.352261 0.000020
0.776647 0.352244 0.000097
0.873739 0.352542 0.000169
0.968594 0.351250 0.005431
0.999804 0.346009 0.097156
0.999634 0.343375 0.213358
0.999572 0.359237 0.266158
0.999375 0.386701 0.308220
0.999536 0.397365 0.327964
0.999620 0.405557 0.320129
0.999559 0.418084 0.308698
0.999500 0.434576 0.291188
0.999565 0.456335 0.272025
0.999590 0.481408 0.245654
0.998796 0.510342 0.217113
0.999820 0.544205 0.178742
0.000056 0.706691 0.000448
0.000003 0.671422 0.000446
0.000384 0.613304 0.000901
0.000180 0.580931 0.000420
0.000123 0.559715 0.000127
0.000144 0.544165 0.000064
0.000128 0.532810 0.000096
0.000020 0.524176 0.000094
0.000155 0.514942 0.000455
0.004713 0.504598 0.000667
0.022665 0.493539 0.000412
0.073831 0.482061 0.000369
0.145269 0.470873 0.000214
0.235409 0.459482 0.000380
0.335097 0.449043 0.000026
0.440109 0.440145 0.000125
0.549183 0.436453 0.000113
0.651904 0.433146 0.000039
0.747974 0.432911 0.000009
0.841582 0.433077 0.000248
0.939521 0.430854 0.000103
0.999440 0.424891 0.013240
0.999942 0.416401 0.123130
0.999532 0.416975 0.191682
0.999425 0.433332 0.246936
0.999699 0.439793 0.284555
0.999103 0.443864 0.285715
0.999713 0.452733 0.276676
0.999293 0.465594 0.262515
0.999250 0.483000 0.245075
0.999756 0.504787 0.221393
0.999506 0.529934 0.195366
0.999774 0.559950 0.159470
0.000272 0.799698 0.000288
0.000002 0.711955 0.000380
0.000018 0.676548 0.000165
0.000084 0.654778 0.000311
0.000070 0.640325 0.000251
0.000002 0.628471 0.000487
0.000139 0.620081 0.000469
0.000225 0.612906 0.000456
0.000106 0.605475 0.000461
0.003093 0.596508 0.000479
0.011977 0.585736 0.000490
0.059981 0.574765 0.000121
0.127886 0.563216 0.000103
0.214748 0.551816 0.000017
0.316035 0.539984 0.000551
0.417599 0.531385 0.000182
0.524433 0.523401 0.000017
0.627917 0.517866 0.000076
0.722077 0.516432 0.000288
0.812834 0.513943 0.000024
0.905418 0.509994 0.000011
0.989822 0.504976 0.000009
0.999614 0.495688 0.037490
0.999430 0.484752 0.101887
0.998994 0.488966 0.168557
0.999719 0.488534 0.230634
0.999203 0.489408 0.241121
0.999893 0.493312 0.236011
0.999146 0.501500 0.226191
0.999025 0.514418 0.211925
0.999791 0.532402 0.191422
0.999825 0.553602 0.167286
0.999638 0.579694 0.133369
0.000200 0.846315 0.001136
0.000144 0.760449 0.000893
0.000037 0.738065 0.000204
0.000007 0.723927 0.000485
0.000001 0.714243 0.000367
0.000000 0.707133 0.000225
0.000000 0.701286 0.000092
0.000118 0.695475 0.000369
0.000282 0.688773 0.000790
0.000785 0.681650 0.000750
0.001227 0.673995 0.000269
0.045764 0.665888 0.000071
0.110727 0.655439 0.000003
0.198589 0.644870 0.000038
0.296614 0.634395 0.000322
0.396714 0.622689 0.000159
0.503392 0.613180 0.000045
0.604489 0.605200 0.000612
0.696978 0.600051 0.000128
0.787541 0.595378 0.000000
0.875015 0.589197 0.000282
0.964972 0.584849 0.000048
0.999760 0.577091 0.000439
0.999419 0.561720 0.014563
0.999249 0.553176 0.069906
0.999682 0.543901 0.153000
0.999408 0.537797 0.186162
0.999334 0.537870 0.185601
0.999194 0.542196 0.180169
0.999255 0.551120 0.171053
0.999423 0.564540 0.152923
0.999482 0.581840 0.131320
0.999460 0.603370 0.101856
0.000015 0.861295 0.000060
0.000040 0.812347 0.000345
0.000001 0.798416 0.000557
0.000003 0.788956 0.000887
0.000001 0.781973 0.000439
0.000000 0.776252 0.000068
0.000018 0.771495 0.000216
0.000035 0.767282 0.000377
0.000323 0.762560 0.000517
0.002683 0.757330 0.000391
0.008024 0.751118 0.000274
0.043685 0.743973 0.000390
0.101619 0.735022 0.000460
0.183771 0.724925 0.000358
0.280296 0.715235 0.000032
0.380740 0.705438 0.000248
0.483917 0.695676 0.000529
0.583673 0.687540 0.000145
0.675393 0.675033 0.000068
0.762700 0.663669 0.000249
0.847338 0.652401 0.000049
0.935720 0.645312 0.000105
0.999027 0.646618 0.000242
0.998955 0.638745 0.000032
0.999033 0.623729 0.004256
0.999099 0.607357 0.051591
0.999837 0.590997 0.114291
0.999534 0.586945 0.122270
0.998693 0.587364 0.123149
0.999144 0.591110 0.117575
0.999522 0.600729 0.104803
0.999567 0.612621 0.086015
0.999617 0.629401 0.058922
0.000001 0.893810 0.000480
0.000000 0.864661 0.000089
0.000070 0.855327 0.000283
0.000222 0.849379 0.000517
0.000237 0.844518 0.000649
0.000137 0.840261 0.000696
0.000051 0.836598 0.000733
0.000009 0.833486 0.000685
0.000041 0.830300 0.000453
0.000081 0.826411 0.000170
0.011924 0.821224 0.000150
0.039630 0.814448 0.000510
0.094373 0.806757 0.000560
0.172898 0.798375 0.000418
0.266217 0.790102 0.000464
0.364571 0.779808 0.000220
0.466227 0.768182 0.000000
0.563575 0.752447 0.000000
0.653550 0.737039 0.000000
0.739620 0.723076 0.000002
0.822448 0.710664 0.000097
0.906457 0.699971 0.000292
0.987007 0.693717 0.000001
0.998964 0.699112 0.000030
0.999435 0.689851 0.000154
0.998696 0.674157 0.000893
0.999379 0.647216 0.031002
0.999672 0.637942 0.047307
0.999580 0.634812 0.048882
0.999728 0.635132 0.051194
0.998920 0.639929 0.042694
0.999177 0.647730 0.029556
0.999260 0.659480 0.021066
0.000000 0.935451 0.000776
0.000044 0.917242 0.000491
0.000041 0.910450 0.000752
0.000023 0.904950 0.000408
0.000008 0.900565 0.000135
0.000002 0.897306 0.000023
0.000007 0.894993 0.000066
0.000012 0.892900 0.000105
0.000017 0.890478 0.000149
0.004561 0.887349 0.000175
0.018617 0.883262 0.000151
0.035417 0.878324 0.000123
0.091035 0.871647 0.000256
0.162642 0.864036 0.000401
0.255362 0.856488 0.000454
0.349670 0.842779 0.000169
0.447817 0.826095 0.000027
0.545058 0.810131 0.000097
0.633884 0.795294 0.000005
0.717873 0.780990 0.000098
0.798976 0.767802 0.000120
0.881304 0.754044 0.000005
0.966004 0.742275 0.000178
0.998703 0.740292 0.000168
0.999609 0.735722 0.000105
0.999396 0.727079 0.000025
0.999646 0.706520 0.000292
0.999479 0.690144 0.000977
0.999322 0.684738 0.001046
0.999547 0.681881 0.000818
0.999049 0.681201 0.001712
0.999180 0.686177 0.001153
0.999083 0.693659 0.000222
0.000107 0.980809 0.000539
0.000000 0.967294 0.000261
0.000000 0.961907 0.000027
0.000000 0.958358 0.000003
0.000000 0.955539 0.000003
0.000000 0.953142 0.000003
0.000000 0.951039 0.000003
0.000953 0.949232 0.000077
0.003014 0.947240 0.000242
0.005474 0.944763 0.000449
0.008337 0.941712 0.000707
0.037078 0.936939 0.000665
0.093520 0.930267 0.000305
0.162995 0.921116 0.000132
0.248449 0.908328 0.000377
0.340013 0.894519 0.000165
0.435198 0.879781 0.000277
0.528278 0.864219 0.000326
0.616653 0.848463 0.000001
0.699194 0.835013 0.000372
0.778166 0.821953 0.000167
0.857228 0.808259 0.000043
0.941056 0.794363 0.000030
0.998654 0.784528 0.000027
0.999242 0.779020 0.000209
0.999477 0.765460 0.000493
0.999580 0.751402 0.000048
0.998402 0.741446 0.000000
0.998990 0.732024 0.000000
0.999824 0.729709 0.000000
0.999388 0.725513 0.000284
0.999278 0.726971 0.000007
0.999853 0.728969 0.000484
0.000000 0.999500 0.000457
0.000000 0.997056 0.000585
0.000000 0.995553 0.000593
0.000117 0.994455 0.000597
0.002488 0.993432 0.000542
0.004504 0.992564 0.000495
0.006268 0.991804 0.000454
0.007872 0.991114 0.000417
0.009736 0.990313 0.000374
0.013227 0.989233 0.000321
0.037711 0.986417 0.000278
0.067840 0.982974 0.000224
0.104512 0.978820 0.000157
0.169644 0.969678 0.000137
0.251001 0.958078 0.000125
0.332603 0.945271 0.000253
0.422051 0.931067 0.000229
0.514568 0.916357 0.000029
0.600462 0.902298 0.000098
0.681436 0.887663 0.000021
0.758413 0.873584 0.000064
0.834227 0.859151 0.000010
0.915046 0.846281 0.000005
0.986045 0.834371 0.000153
0.999024 0.824402 0.000015
0.999105 0.804917 0.000000
0.999665 0.785273 0.000390
0.998992 0.770748 0.000007
0.999587 0.764152 0.000002
0.998950 0.760604 0.000053
0.999377 0.757506 0.000284
0.999466 0.756361 0.000002
0.999767 0.755842 0.000179
0.000000 1.000000 0.000285
0.000000 1.000000 0.000285
0.000000 1.000000 0.000285
0.000000 1.000000 0.000285
0.000000 1.000000 0.000285
0.002405 0.999994 0.000279
0.011326 0.999974 0.000256
0.019508 0.999955 0.000235
0.029107 0.999932 0.000211
0.041159 0.999904 0.000180
0.056187 0.999869 0.000142
0.074763 0.999826 0.000095
0.123700 0.998550 0.000068
0.185036 0.996941 0.000036
0.256380 0.993802 0.000024
0.332733 0.986424 0.000091
0.417216 0.978071 0.000169
0.506822 0.968438 0.000250
0.588935 0.953931 0.000302
0.666113 0.939546 0.000048
0.741619 0.925044 0.000048
0.814535 0.911914 0.000004
0.892938 0.897014 0.000018
0.972095 0.882027 0.000172
0.996778 0.869379 0.000091
0.998969 0.850090 0.000003
0.999278 0.826371 0.000086
0.998619 0.802619 0.000103
0.999319 0.790154 0.000034
0.999503 0.784546 0.000188
0.999009 0.780613 0.000075
0.999709 0.777970 0.000235
0.999293 0.775768 0.000179
0.000000 1.000000 0.000285
0.005361 0.999930 0.000334
0.012024 0.999843 0.000395
0.016995 0.999778 0.000441
0.021094 0.999724 0.000478
0.024639 0.999678 0.000511
0.027792 0.999636 0.000540
0.030698 0.999598 0.000566
0.034126 0.999553 0.000598
0.053892 0.999586 0.000560
0.082504 0.999648 0.000493
0.118319 0.999724 0.000410
0.162825 0.999818 0.000308
0.217156 0.999904 0.000189
0.275299 0.999536 0.000154
0.345899 0.999094 0.000110
0.420515 0.999240 0.000103
0.503101 0.999675 0.000127
0.578938 0.999801 0.000187
0.652709 0.990773 0.000649
0.725395 0.977706 0.000693
0.796651 0.964180 0.000308
0.868584 0.947219 0.000335
0.942052 0.928305 0.000021
0.988651 0.911319 0.000154
0.994045 0.893480 0.000019
0.996029 0.870855 0.000148
0.998273 0.845254 0.000054
0.998881 0.823827 0.000044
0.998810 0.816181 0.000000
0.999431 0.809224 0.000000
0.999315 0.804348 0.000217
0.999151 0.801229 0.000373
0.000767 0.999911 0.000260
0.001219 0.999859 0.000245
0.011726 0.999861 0.000245
0.022234 0.999869 0.000248
0.030939 0.999875 0.000249
0.038495 0.999880 0.000250
0.045236 0.999885 0.000251
0.051468 0.999889 0.000252
0.058841 0.999894 0.000253
0.068192 0.999900 0.000254
0.080000 0.999908 0.000254
0.094830 0.999917 0.000254
0.129957 0.999910 0.000271
0.174786 0.999900 0.000293
0.230250 0.999889 0.000321
0.294356 0.999881 0.000303
0.362402 0.999882 0.000144
0.440782 0.999881 0.000073
0.521117 0.999871 0.000443
0.596785 0.999573 0.000329
